presets/5219_portrait2.cube
TITLE "Generated by Resolve"
LUT_3D_SIZE 33
0 0.00880446 0.0416876
0 0.00927749 0.0382544
0 0.0099794 0.0377661
0 0.013901 0.0406195
0 0.0195773 0.0441444
0 0.0218357 0.0449683
0 0.0229648 0.0397498
0.0109255 0.0236362 0.0364233
0.0874495 0.0248569 0.040177
0.165774 0.0272374 0.0438849
0.215839 0.0311742 0.04654
0.257542 0.0356756 0.0489052
0.295109 0.0419165 0.0512856
0.323949 0.0492714 0.0529488
0.344335 0.0541085 0.0530251
0.359152 0.0607309 0.054612
0.367834 0.0733501 0.0563973
0.367941 0.0923781 0.0585946
0.364309 0.110689 0.0606241
0.362921 0.127016 0.0624552
0.363485 0.139406 0.0639506
0.372732 0.15111 0.0661479
0.390372 0.167407 0.0688029
0.403647 0.183169 0.070573
0.416922 0.196887 0.0726482
0.434363 0.208804 0.0747234
0.454459 0.218753 0.0766918
0.475624 0.228153 0.078584
0.496376 0.239719 0.0806744
0.512749 0.252796 0.082887
0.526879 0.264958 0.0848096
0.538857 0.273854 0.0862135
0.542489 0.276371 0.0866407
0 0.00970474 0.0472572
0 0.0146639 0.0409094
0 0.0195163 0.0441901
0 0.023682 0.0522469
0 0.028687 0.0576944
0 0.0336767 0.0528267
0.00482185 0.0342107 0.0441596
0.0461433 0.0333562 0.0391546
0.129335 0.0352026 0.0430762
0.192065 0.0389715 0.0464179
0.24152 0.0471656 0.0491493
0.283619 0.0534981 0.0507973
0.320577 0.0562295 0.0525368
0.347921 0.0615396 0.0542153
0.363714 0.0711223 0.0559548
0.375921 0.0787976 0.0573587
0.386313 0.0894942 0.0589914
0.39202 0.107271 0.0612497
0.391409 0.127581 0.0635843
0.391928 0.14583 0.0657206
0.396429 0.157321 0.0674144
0.406943 0.170199 0.0695201
0.420706 0.188693 0.0719615
0.435981 0.205356 0.074403
0.45388 0.21677 0.0764324
0.472358 0.22623 0.078233
0.49015 0.236393 0.0801556
0.50782 0.246754 0.0819715
0.52604 0.258717 0.084123
0.542184 0.270649 0.0860914
0.556939 0.282643 0.0881056
0.567926 0.291966 0.0896468
0.570809 0.294423 0.0900435
0 0.01738 0.0533455
0 0.0238193 0.0526589
0 0.0311894 0.0585641
0 0.0356603 0.0666209
0 0.0397345 0.0708629
0 0.0495003 0.0658732
0.011841 0.0502174 0.0563668
0.0821851 0.0498054 0.0479438
0.16733 0.05243 0.046891
0.226841 0.0547799 0.0509041
0.276814 0.0620127 0.0516976
0.315618 0.0680705 0.0536507
0.346532 0.0720531 0.0563211
0.369116 0.0776379 0.0588388
0.384543 0.0885634 0.0587625
0.398093 0.0991531 0.0604868
0.409995 0.110994 0.0623941
0.417899 0.127504 0.0646525
0.420661 0.146517 0.0669261
0.424384 0.161944 0.068864
0.432197 0.174319 0.0712902
0.442451 0.190509 0.073991
0.455528 0.209339 0.0760357
0.471519 0.225162 0.0781109
0.490043 0.236774 0.0801251
0.508568 0.247135 0.082002
0.525093 0.257557 0.0839399
0.541268 0.268299 0.0857862
0.558846 0.280079 0.0878004
0.575143 0.292378 0.0898451
0.589853 0.304387 0.0918135
0.59968 0.312505 0.0931411
0.601923 0.314366 0.0934462
0 0.0286564 0.0624094
0 0.0347295 0.0683604
0 0.0449073 0.0758221
0 0.0510262 0.0834211
0 0.0555886 0.0867475
0.00172427 0.068864 0.0828412
0.0278782 0.0698405 0.0719005
0.119066 0.0703899 0.0613565
0.205661 0.0731823 0.059205
0.266804 0.0735485 0.0650339
0.313664 0.0768902 0.06981
0.345953 0.082887 0.0692149
0.369574 0.090074 0.0669871
0.390524 0.0973373 0.0657359
0.40647 0.107958 0.0633402
0.422263 0.121965 0.0641489
0.434821 0.136141 0.0662852
0.442969 0.150317 0.0682689
0.44947 0.165072 0.0702068
0.457679 0.177066 0.0719463
0.467826 0.191745 0.0744335
0.479103 0.211215 0.0776837
0.492531 0.229252 0.0798352
0.507195 0.243793 0.0815442
0.524193 0.257893 0.0839399
0.541588 0.26981 0.0859693
0.557733 0.280034 0.0877394
0.574289 0.290776 0.0896773
0.591348 0.301549 0.0915694
0.607355 0.314916 0.0937057
0.622126 0.326879 0.0956741
0.631846 0.333608 0.0968338
0.633722 0.334844 0.0970474
0 0.0417182 0.079057
0 0.0500343 0.0860761
0 0.0610208 0.0931868
0 0.0715953 0.100771
0 0.081239 0.105669
0.0090486 0.0902113 0.100847
0.0640879 0.092195 0.0872816
0.16318 0.0915389 0.0797436
0.246616 0.0923934 0.0838483
0.304204 0.0931868 0.0846571
0.338552 0.0959182 0.0830396
0.3664 0.10251 0.0835584
0.393637 0.111208 0.0853895
0.415579 0.120928 0.0842145
0.428061 0.13283 0.0785229
0.440925 0.146471 0.073228
0.453727 0.161578 0.0709239
0.464607 0.175113 0.0720073
0.475944 0.185336 0.07364
0.491249 0.196429 0.0775311
0.507271 0.213886 0.0799878
0.5187 0.235462 0.081239
0.529915 0.254704 0.0838788
0.544457 0.269871 0.0860914
0.560159 0.282155 0.0881666
0.575448 0.291783 0.0898299
0.59057 0.301228 0.0914778
0.606271 0.311696 0.0933242
0.621805 0.322332 0.0951705
0.635767 0.333883 0.0970626
0.651835 0.34612 0.0991531
0.66392 0.354437 0.100572
0.666087 0.355901 0.100816
0 0.0656901 0.103136
0 0.0760967 0.107713
0 0.0874189 0.116106
0 0.0981155 0.125444
0.000503548 0.107469 0.130098
0.0204318 0.11429 0.121767
0.0974594 0.11783 0.107424
0.185946 0.12015 0.093019
0.262013 0.122011 0.0910811
0.318639 0.12137 0.0935225
0.354986 0.124422 0.0941024
0.382589 0.132708 0.0950027
0.408637 0.143587 0.0954299
0.430289 0.154391 0.0936446
0.444877 0.165423 0.0894636
0.457664 0.177386 0.0849622
0.471778 0.188525 0.0812543
0.485359 0.196551 0.0807813
0.500847 0.204974 0.0846876
0.519051 0.220401 0.0863508
0.534478 0.240742 0.0845045
0.545464 0.261814 0.0851911
0.556634 0.279332 0.0877241
0.570489 0.292439 0.0896925
0.585931 0.303777 0.0915847
0.602106 0.313939 0.0935225
0.617884 0.324041 0.0952316
0.63299 0.334249 0.0969863
0.64715 0.344015 0.0986648
0.662699 0.354574 0.100542
0.678477 0.367208 0.102602
0.688472 0.375753 0.103944
0.690059 0.377127 0.104158
0 0.0986801 0.133867
0 0.109804 0.141268
0 0.120607 0.150561
0 0.131579 0.158373
0.00199893 0.141711 0.159487
0.0318608 0.149035 0.148714
0.121172 0.150317 0.131212
0.208743 0.148852 0.115389
0.270695 0.152605 0.107591
0.323781 0.15787 0.105196
0.363668 0.1626 0.105226
0.393179 0.170535 0.105013
0.419348 0.180117 0.10518
0.442008 0.190021 0.105547
0.459022 0.199084 0.10341
0.473686 0.206088 0.0999313
0.492256 0.212192 0.0991531
0.510842 0.219059 0.0991379
0.527779 0.232242 0.0965896
0.54316 0.252384 0.09131
0.555764 0.272694 0.0881971
0.568017 0.29102 0.0893721
0.581369 0.30544 0.0916457
0.596201 0.316472 0.0935683
0.612573 0.32636 0.0952621
0.629404 0.336889 0.0971237
0.644938 0.347173 0.0990463
0.658915 0.357214 0.100649
0.672312 0.367895 0.102388
0.68777 0.379583 0.104463
0.702388 0.392157 0.106371
0.710735 0.399741 0.107378
0.711864 0.400778 0.1075
0 0.138674 0.174456
0 0.149371 0.183902
0 0.159792 0.193347
0 0.170825 0.198245
0.000122072 0.182803 0.196338
0.0197452 0.193439 0.182742
0.104311 0.195865 0.14403
0.213855 0.191089 0.108095
0.283909 0.188617 0.124208
0.340856 0.187182 0.124331
0.375616 0.190448 0.120623
0.404761 0.196719 0.116289
0.430838 0.204868 0.115663
0.454108 0.214557 0.118624
0.475868 0.22237 0.120531
0.497444 0.229526 0.118959
0.518532 0.240681 0.115816
0.535027 0.254231 0.108415
0.549401 0.270375 0.100221
0.563485 0.288914 0.0948959
0.575357 0.307347 0.0927596
0.589837 0.322255 0.0939193
0.606165 0.333577 0.0958724
0.622812 0.34255 0.097612
0.640604 0.350988 0.0991836
0.657252 0.361349 0.10103
0.671229 0.370687 0.102754
0.684413 0.381247 0.10454
0.697581 0.39382 0.106142
0.710506 0.407095 0.107362
0.724926 0.419974 0.108522
0.733303 0.427008 0.109163
0.734234 0.427787 0.109239
0 0.183185 0.21912
0 0.193668 0.227375
0 0.202045 0.236301
0 0.210864 0.243305
0 0.2215 0.239979
0.0231632 0.230289 0.220111
0.0967117 0.234058 0.169131
0.192126 0.238361 0.10724
0.285756 0.236988 0.106432
0.3449 0.236057 0.120073
0.387243 0.23183 0.118196
0.420691 0.229679 0.117174
0.449165 0.230777 0.121477
0.475074 0.237659 0.125826
0.498543 0.249622 0.125551
0.517876 0.263218 0.121935
0.534554 0.276509 0.117403
0.549355 0.289891 0.11043
0.564187 0.303761 0.102785
0.579553 0.31928 0.0972457
0.594537 0.336538 0.096025
0.610224 0.350179 0.0972152
0.628367 0.361089 0.0990921
0.646311 0.370077 0.100877
0.662196 0.377447 0.102571
0.67776 0.387457 0.104067
0.692836 0.397314 0.105547
0.706706 0.407523 0.106844
0.719219 0.418616 0.107805
0.732296 0.428809 0.108873
0.744945 0.446052 0.108476
0.751492 0.455955 0.107744
0.75198 0.456687 0.107668
0 0.22475 0.260853
0 0.2365 0.270115
0 0.245518 0.280598
0 0.256535 0.288487
0 0.266606 0.285008
0.0151064 0.273747 0.262455
0.0715648 0.280034 0.214878
0.156237 0.286503 0.135698
0.256794 0.286641 0.0799725
0.343206 0.283268 0.0866255
0.389502 0.281987 0.10071
0.422278 0.279179 0.110048
0.454459 0.278126 0.117037
0.484825 0.28278 0.119692
0.507591 0.292103 0.12108
0.524987 0.303166 0.122362
0.541924 0.314473 0.121691
0.559747 0.325383 0.118288
0.578271 0.338399 0.113237
0.596536 0.35256 0.106615
0.613947 0.366445 0.0992752
0.630365 0.378347 0.0977035
0.648203 0.38854 0.099382
0.666438 0.397681 0.101381
0.68368 0.406119 0.103243
0.699763 0.416327 0.104799
0.713649 0.426032 0.105943
0.726864 0.435355 0.10692
0.740215 0.445106 0.107713
0.752316 0.454261 0.10898
0.765408 0.470695 0.114061
0.771847 0.479072 0.116442
0.772152 0.479469 0.116533
0 0.272374 0.298405
0 0.283619 0.309377
0 0.293721 0.321492
0 0.307759 0.331655
0 0.31693 0.33077
0.0033875 0.32076 0.308446
0.0496376 0.324102 0.262364
0.129122 0.330755 0.18764
0.206378 0.339345 0.0942397
0.310658 0.336034 0.0523232
0.388342 0.329656 0.0661326
0.428092 0.326375 0.0882277
0.462318 0.324331 0.105486
0.492668 0.327031 0.113787
0.515618 0.33344 0.119615
0.5346 0.341711 0.126024
0.553872 0.351324 0.12958
0.573754 0.360494 0.130205
0.593713 0.371801 0.126207
0.613001 0.383978 0.117739
0.631388 0.395499 0.107652
0.648707 0.405692 0.100206
0.667201 0.415061 0.0981613
0.686366 0.424384 0.0999924
0.704509 0.433371 0.102068
0.719799 0.442527 0.103487
0.732174 0.452186 0.106645
0.745205 0.46125 0.108995
0.759274 0.47042 0.108644
0.77232 0.481956 0.113542
0.782834 0.494347 0.125063
0.787015 0.499504 0.130068
0.787091 0.499596 0.130159
0 0.325612 0.332418
0 0.33492 0.345541
0 0.346365 0.35874
0 0.362554 0.372152
0 0.371191 0.376684
0.000213626 0.368811 0.356405
0.0370031 0.365347 0.314443
0.120211 0.371374 0.239765
0.201663 0.38172 0.129793
0.287922 0.381048 0.0577249
0.373693 0.372885 0.0516823
0.430243 0.368277 0.0741588
0.467094 0.366354 0.0960708
0.498375 0.367056 0.111833
0.524758 0.371557 0.124666
0.548257 0.378256 0.135653
0.570306 0.386419 0.142779
0.589456 0.394781 0.145892
0.608408 0.403479 0.141665
0.627466 0.412909 0.132509
0.645945 0.422751 0.121004
0.664683 0.431785 0.111482
0.685603 0.440238 0.105058
0.705989 0.449119 0.103334
0.723156 0.45742 0.105241
0.735973 0.464546 0.109071
0.748775 0.475349 0.116518
0.761791 0.484535 0.118837
0.775723 0.493858 0.118654
0.792157 0.509926 0.126055
0.79588 0.518013 0.136049
0.796567 0.520424 0.139345
0.796582 0.520439 0.139361
0 0.367559 0.367514
0 0.378149 0.382269
0 0.393484 0.395636
0 0.40763 0.4065
0 0.415747 0.414694
0 0.418021 0.400717
0.0112306 0.415869 0.362356
0.0813764 0.413764 0.295918
0.20621 0.411383 0.186481
0.294011 0.412772 0.103792
0.360021 0.415091 0.0750896
0.424399 0.413031 0.0790875
0.470268 0.409476 0.0988632
0.506127 0.406332 0.120378
0.533974 0.409308 0.141848
0.556909 0.414969 0.155657
0.578332 0.420066 0.159747
0.59855 0.426169 0.164431
0.619486 0.434318 0.16582
0.641184 0.442588 0.160357
0.662913 0.44979 0.149981
0.684443 0.456733 0.142077
0.703716 0.464347 0.130282
0.723415 0.471687 0.123857
0.742382 0.479545 0.124575
0.756268 0.489708 0.128588
0.769924 0.499641 0.129839
0.783627 0.510735 0.130068
0.797208 0.522744 0.132799
0.8094 0.534493 0.139925
0.814801 0.543252 0.151019
0.816266 0.545968 0.154314
0.816266 0.545968 0.154314
0 0.408865 0.398306
0 0.421729 0.413855
0 0.434241 0.426825
0 0.445701 0.437858
0 0.454292 0.446906
0 0.459968 0.438849
0.000915541 0.461509 0.409369
0.0540169 0.457527 0.358679
0.167559 0.454765 0.254704
0.274586 0.452583 0.156954
0.348638 0.452201 0.108293
0.41178 0.450004 0.0944991
0.468009 0.4448 0.109758
0.510872 0.440375 0.135286
0.54107 0.442451 0.15964
0.564889 0.448264 0.177127
0.586221 0.453452 0.188083
0.607767 0.456992 0.198459
0.629084 0.463233 0.20029
0.651194 0.470603 0.193027
0.674403 0.477424 0.181079
0.698146 0.483543 0.169024
0.720851 0.49044 0.153994
0.741238 0.496803 0.146654
0.758602 0.504479 0.145525
0.772732 0.515389 0.141756
0.784894 0.524712 0.136706
0.799023 0.535836 0.139483
0.813291 0.5467 0.147143
0.82562 0.555383 0.156313
0.831067 0.565698 0.16611
0.832578 0.568734 0.168978
0.832578 0.568734 0.168978
0 0.444892 0.427573
0 0.457481 0.442741
0 0.467414 0.455604
0 0.479377 0.467811
0 0.489204 0.475837
0 0.498054 0.474708
0 0.503227 0.45539
0.029984 0.499245 0.417685
0.124743 0.495369 0.336156
0.269917 0.485527 0.219898
0.349172 0.483543 0.152483
0.397223 0.484993 0.124743
0.456718 0.481285 0.123308
0.512688 0.474235 0.152575
0.548135 0.474372 0.180148
0.572961 0.479561 0.200885
0.595026 0.485359 0.218555
0.616724 0.488502 0.231464
0.63711 0.492531 0.23534
0.659434 0.498024 0.228519
0.684413 0.504402 0.214893
0.710811 0.51046 0.197421
0.736461 0.516533 0.179812
0.756451 0.522728 0.170336
0.772625 0.5299 0.164263
0.788602 0.540108 0.15407
0.799512 0.549874 0.147143
0.812436 0.559976 0.152132
0.826947 0.569635 0.162356
0.83975 0.577157 0.171099
0.84448 0.58706 0.180148
0.845548 0.589517 0.182361
0.845502 0.589426 0.1823
0 0.471824 0.456199
0 0.482582 0.470542
0 0.494118 0.483452
0 0.509667 0.496452
0 0.520638 0.503151
0 0.53315 0.508186
0 0.541054 0.499626
0.00334173 0.537865 0.470787
0.0913252 0.529503 0.412039
0.222339 0.52311 0.312306
0.344091 0.514 0.220066
0.394842 0.518929 0.16878
0.440269 0.52163 0.150011
0.512566 0.511345 0.174075
0.55494 0.507332 0.205142
0.58088 0.509651 0.227283
0.604257 0.514733 0.2421
0.622461 0.521523 0.24654
0.642603 0.523644 0.26331
0.667872 0.525628 0.267842
0.696651 0.529656 0.256748
0.726131 0.535744 0.234958
0.748165 0.540993 0.212543
0.766949 0.546639 0.193332
0.785657 0.553597 0.180255
0.806928 0.562737 0.174655
0.818921 0.573709 0.170947
0.829587 0.585519 0.173465
0.840208 0.595575 0.177035
0.850309 0.602533 0.18088
0.856779 0.609094 0.193484
0.858076 0.610468 0.196185
0.85803 0.610391 0.196124
0 0.496849 0.483833
0 0.508644 0.493797
0 0.523674 0.506996
0 0.534508 0.521477
0 0.541054 0.531075
0 0.552148 0.536965
0 0.563714 0.534234
0 0.568658 0.515724
0.0680858 0.563958 0.477684
0.188037 0.559182 0.395743
0.307179 0.552834 0.285908
0.394156 0.546014 0.221225
0.440879 0.54786 0.186404
0.495552 0.546838 0.183276
0.547051 0.542626 0.208972
0.581384 0.541207 0.235874
0.60708 0.543435 0.254841
0.632898 0.548379 0.273671
0.655436 0.550454 0.291203
0.679072 0.552819 0.295369
0.704555 0.556558 0.285374
0.731121 0.56199 0.262943
0.755459 0.565789 0.242649
0.779095 0.570993 0.224079
0.801038 0.577935 0.211704
0.820157 0.587091 0.206348
0.827726 0.597025 0.200885
0.840497 0.604929 0.203876
0.854383 0.61445 0.207691
0.866865 0.626444 0.211765
0.872694 0.635584 0.217136
0.873991 0.637491 0.218402
0.873991 0.637491 0.218402
0 0.521294 0.511147
0 0.533364 0.520958
0 0.545769 0.533028
0 0.55668 0.54638
0 0.565103 0.556176
0 0.574762 0.561502
0 0.58735 0.563226
0 0.597192 0.554009
0.0445716 0.598337 0.529717
0.160571 0.591363 0.472435
0.269184 0.588602 0.369131
0.377615 0.578744 0.274388
0.434501 0.577752 0.233783
0.475181 0.580179 0.217868
0.529229 0.578042 0.219715
0.577371 0.573693 0.24152
0.61149 0.572305 0.268299
0.640436 0.57409 0.29279
0.665431 0.575998 0.309773
0.688655 0.578622 0.318425
0.712108 0.582269 0.315419
0.737514 0.587533 0.298817
0.76405 0.590723 0.276905
0.788449 0.595529 0.255375
0.809857 0.602182 0.240223
0.827054 0.610376 0.231327
0.839567 0.620523 0.222293
0.852811 0.627085 0.228061
0.865644 0.635325 0.234836
0.876936 0.646891 0.238331
0.883711 0.658381 0.239277
0.884779 0.660121 0.239277
0.884779 0.660121 0.239277
0 0.545708 0.537209
0 0.555184 0.547539
0 0.564538 0.558267
0 0.578378 0.570031
0 0.591134 0.579278
0 0.599695 0.584176
0 0.610132 0.588586
0 0.620844 0.586145
0.0335241 0.626535 0.570901
0.140444 0.620279 0.532265
0.246677 0.619104 0.448875
0.338018 0.617304 0.345983
0.434577 0.607004 0.28455
0.471504 0.609461 0.262135
0.514488 0.61091 0.245747
0.568215 0.606134 0.252522
0.612696 0.601923 0.27892
0.644938 0.600885 0.303105
0.672633 0.602441 0.322576
0.697414 0.6047 0.338476
0.720958 0.607904 0.343877
0.74551 0.611749 0.336339
0.772045 0.614939 0.31249
0.794965 0.619974 0.285451
0.815579 0.6262 0.265415
0.834211 0.633555 0.253742
0.852689 0.643839 0.242939
0.865278 0.651484 0.249378
0.874998 0.65832 0.256794
0.883528 0.666636 0.260838
0.891798 0.677852 0.262715
0.892775 0.67921 0.262455
0.892775 0.67921 0.262455
0 0.568292 0.558465
0 0.57583 0.568917
0 0.585657 0.57998
0 0.600809 0.592004
0 0.615167 0.601785
0 0.622156 0.60589
0 0.628229 0.611154
0 0.636988 0.610864
0.043946 0.645426 0.599481
0.133867 0.645808 0.573281
0.238193 0.644907 0.519158
0.317494 0.647547 0.434028
0.408133 0.643595 0.341878
0.487648 0.638453 0.293782
0.5093 0.641123 0.280644
0.553323 0.63772 0.275044
0.603952 0.632456 0.284398
0.644388 0.629923 0.306127
0.678203 0.630854 0.335546
0.706279 0.632609 0.351324
0.730007 0.633371 0.360052
0.750927 0.634104 0.36112
0.775509 0.637781 0.341161
0.800855 0.644633 0.314244
0.825895 0.651499 0.294636
0.847105 0.657649 0.283543
0.860426 0.665232 0.274846
0.874372 0.673671 0.274281
0.885054 0.6813 0.278141
0.893278 0.689021 0.285893
0.900862 0.697414 0.295048
0.901717 0.698344 0.295827
0.901686 0.698283 0.295674
0 0.585687 0.581277
0 0.595285 0.592187
0 0.605905 0.60322
0 0.617334 0.611933
0 0.628824 0.617914
0 0.639307 0.622751
0 0.6495 0.626215
0.0276341 0.656001 0.626596
0.0867628 0.66099 0.620981
0.151583 0.667781 0.606455
0.245838 0.666789 0.568704
0.317006 0.671 0.495079
0.385763 0.67422 0.400671
0.471275 0.666651 0.334264
0.521279 0.661875 0.317449
0.536797 0.66894 0.306264
0.579736 0.668406 0.299214
0.638804 0.661631 0.309712
0.678508 0.660441 0.332479
0.711727 0.662669 0.350027
0.738399 0.663249 0.364889
0.760494 0.660822 0.37583
0.784253 0.664164 0.3635
0.810498 0.669062 0.347082
0.835325 0.675746 0.325902
0.855894 0.682475 0.307347
0.869764 0.687877 0.303197
0.883864 0.696788 0.307149
0.894896 0.705699 0.312917
0.903807 0.714321 0.320226
0.911116 0.72134 0.328099
0.911818 0.722087 0.328817
0.911772 0.721996 0.328695
0 0.605554 0.601251
0 0.620081 0.613977
0 0.628489 0.622324
0 0.63595 0.628977
0 0.646677 0.635187
0 0.658335 0.639475
0.0259251 0.667918 0.642329
0.0747845 0.67454 0.644556
0.129015 0.680705 0.642695
0.181079 0.687755 0.633082
0.260166 0.688548 0.603845
0.322667 0.693538 0.5449
0.377951 0.699306 0.464134
0.450248 0.695521 0.387869
0.515221 0.689998 0.350988
0.550484 0.692378 0.339193
0.564187 0.701106 0.324132
0.625559 0.693751 0.315755
0.669978 0.691844 0.327596
0.713771 0.689586 0.352407
0.744106 0.688716 0.371878
0.768383 0.687388 0.383017
0.79324 0.690669 0.378103
0.820874 0.694652 0.366049
0.846372 0.699657 0.345708
0.867033 0.70428 0.327794
0.881437 0.709117 0.328664
0.892485 0.718059 0.33753
0.901976 0.72697 0.346166
0.911955 0.736294 0.353933
0.921065 0.743877 0.359426
0.921599 0.74432 0.359594
0.921599 0.74432 0.359594
0 0.628504 0.620508
0 0.646662 0.63418
0 0.650919 0.639353
0 0.656367 0.645808
0.0101167 0.66804 0.653758
0.0271305 0.678752 0.65568
0.0774243 0.68452 0.659342
0.124407 0.692927 0.663569
0.166613 0.701671 0.663447
0.215167 0.706416 0.655314
0.277378 0.710643 0.632761
0.332097 0.715648 0.587976
0.381567 0.72137 0.520333
0.441398 0.72253 0.44361
0.496162 0.722728 0.389425
0.553307 0.719921 0.363806
0.573404 0.725536 0.349126
0.612818 0.724483 0.329931
0.656168 0.723247 0.333547
0.714031 0.714733 0.35584
0.750301 0.711635 0.376806
0.775113 0.713191 0.38262
0.802213 0.716838 0.381857
0.83209 0.720653 0.370581
0.859602 0.723003 0.356619
0.88101 0.724788 0.347158
0.893858 0.729473 0.350774
0.901106 0.73814 0.363256
0.90837 0.746807 0.37258
0.919158 0.756634 0.380224
0.930098 0.764752 0.385733
0.93048 0.76495 0.385855
0.93048 0.76495 0.385855
0 0.651759 0.643122
0 0.663844 0.652186
0.00117494 0.669795 0.660441
0.0234684 0.676692 0.666499
0.0534676 0.687083 0.669718
0.0789197 0.699153 0.669764
0.120012 0.706157 0.674052
0.16347 0.711421 0.679026
0.204776 0.717586 0.680797
0.246662 0.725002 0.677211
0.298146 0.731884 0.66096
0.346609 0.736355 0.621073
0.391135 0.743206 0.555245
0.444968 0.747539 0.48072
0.501854 0.746212 0.423255
0.56257 0.742397 0.388739
0.595178 0.744762 0.375128
0.605585 0.754086 0.359777
0.639124 0.756634 0.344549
0.707897 0.747021 0.34548
0.761151 0.740215 0.365377
0.790768 0.741802 0.372396
0.81799 0.742977 0.375311
0.847074 0.744503 0.371954
0.872786 0.745403 0.367071
0.892775 0.747768 0.362417
0.905943 0.752956 0.36556
0.913664 0.760067 0.383749
0.918547 0.770794 0.384421
0.926482 0.781628 0.385367
0.935164 0.787366 0.393378
0.935195 0.787243 0.393347
0.935195 0.787243 0.393347
0 0.670207 0.664073
0.00314336 0.681743 0.670329
0.0241093 0.692592 0.678599
0.0562905 0.699199 0.684672
0.0914168 0.707347 0.687984
0.125139 0.72076 0.689326
0.161501 0.727916 0.693812
0.202625 0.731167 0.697932
0.24123 0.73579 0.700313
0.276326 0.744091 0.699794
0.317449 0.753719 0.69073
0.361242 0.757153 0.659129
0.401007 0.763043 0.599329
0.44802 0.768048 0.520363
0.506218 0.768109 0.446921
0.563745 0.767483 0.408133
0.607324 0.767788 0.39292
0.616876 0.776761 0.379797
0.636774 0.782849 0.354986
0.697368 0.778698 0.339117
0.764996 0.769039 0.343297
0.809155 0.763745 0.355566
0.838987 0.762295 0.362707
0.863096 0.763699 0.361898
0.884291 0.76527 0.362524
0.902434 0.76875 0.364874
0.916991 0.774716 0.374685
0.925597 0.781537 0.393164
0.930282 0.79086 0.398474
0.935058 0.80116 0.405615
0.939223 0.807614 0.415244
0.939239 0.807584 0.415229
0.939239 0.807584 0.415229
0.00753796 0.691722 0.685573
0.0198215 0.703044 0.690745
0.0497444 0.714153 0.697581
0.0857404 0.72076 0.702678
0.122881 0.728176 0.705333
0.158907 0.739788 0.705943
0.194064 0.747433 0.711406
0.2318 0.752041 0.716396
0.265919 0.75761 0.720256
0.296101 0.765759 0.722164
0.329976 0.774792 0.718334
0.370092 0.778271 0.695521
0.409201 0.782361 0.649439
0.450324 0.787579 0.577859
0.504433 0.791775 0.485206
0.558083 0.793286 0.43508
0.609232 0.792065 0.409781
0.634867 0.796551 0.391226
0.644755 0.806241 0.359182
0.700282 0.803067 0.333104
0.77435 0.790784 0.326329
0.82742 0.781781 0.338064
0.859236 0.780865 0.343282
0.880934 0.783871 0.341756
0.898466 0.785931 0.347692
0.914031 0.790295 0.359167
0.928069 0.797421 0.378042
0.936324 0.803143 0.401724
0.940749 0.810361 0.416464
0.94342 0.82002 0.428717
0.944656 0.82681 0.43624
0.944656 0.826825 0.436271
0.94464 0.826749 0.436194
0.0124819 0.716564 0.707317
0.0362554 0.726146 0.712337
0.0692149 0.734508 0.718486
0.111284 0.742214 0.721981
0.149416 0.749645 0.721706
0.181201 0.758068 0.720165
0.215 0.766629 0.726619
0.251087 0.774456 0.734325
0.281376 0.782162 0.740154
0.307408 0.78996 0.743526
0.338186 0.794934 0.743175
0.373007 0.800214 0.72929
0.414054 0.802365 0.701732
0.453742 0.806439 0.64622
0.501472 0.814588 0.546746
0.550988 0.816907 0.478218
0.611948 0.814221 0.431495
0.650706 0.81677 0.399573
0.658274 0.828 0.359121
0.717754 0.820523 0.32459
0.793332 0.806836 0.313619
0.844877 0.80029 0.317403
0.878279 0.80145 0.316411
0.901137 0.805814 0.316197
0.916243 0.807706 0.329183
0.928069 0.813107 0.348684
0.93843 0.820935 0.376638
0.945388 0.825132 0.411917
0.949508 0.831785 0.434867
0.951293 0.840345 0.447227
0.951629 0.845548 0.451026
0.951629 0.845548 0.450996
0.951598 0.845472 0.450935
0.0275273 0.736965 0.725048
0.0527657 0.748837 0.730709
0.0888228 0.758587 0.740475
0.127459 0.766461 0.742977
0.162799 0.774731 0.742382
0.193988 0.784085 0.742229
0.220981 0.79234 0.74641
0.269017 0.797284 0.754116
0.303777 0.804593 0.759136
