presets/5219_portrait1.cube
TITLE "Generated by Resolve"
LUT_3D_SIZE 5
0 0.00115969 0.00138857
0.147295 0.012253 0
0.373571 0.0428321 0
0.429816 0.163149 0.0091249
0.579767 0.247196 0.0176547
0.0180819 0.158831 0.16527
0.281697 0.214496 0.0729534
0.570916 0.247684 0.0505379
0.714366 0.364309 0.0272831
0.800076 0.457435 0.0332189
0.0244144 0.467201 0.396429
0.233829 0.543587 0.386816
0.597696 0.561944 0.263554
0.829862 0.60087 0.156649
0.892363 0.669444 0.170199
0.168154 0.667491 0.616419
0.366445 0.73669 0.664469
0.695491 0.765042 0.509712
0.875685 0.799146 0.394491
0.93138 0.837491 0.444327
0.375463 0.831754 0.789044
0.532265 0.887816 0.803738
0.791684 0.89836 0.740261
0.945129 0.932738 0.488014
0.960235 0.953323 0.697017
0 0.00357061 0.0376287
0.094377 0.0411383 0.0532082
0.381399 0.0750744 0.0125887
0.516533 0.173999 0.0120394
0.6448 0.264729 0.0501106
0.00823987 0.200366 0.299321
0.246143 0.259861 0.27628
0.585489 0.298039 0.120638
0.73019 0.401602 0.0816052
0.811078 0.486351 0.153811
0.0473335 0.488533 0.512093
0.259998 0.566415 0.526223
0.624811 0.589776 0.375692
0.836454 0.632975 0.308751
0.903502 0.692561 0.334096
0.198138 0.691646 0.685344
0.397986 0.769909 0.691463
0.692088 0.794217 0.61178
0.862211 0.825101 0.574121
0.9234 0.859052 0.601709
0.420035 0.851423 0.820706
0.559213 0.907439 0.835462
0.775479 0.923003 0.802792
0.917556 0.950439 0.686778
0.960571 0.968978 0.766049
0 0.0119478 0.224872
0.0601816 0.0633249 0.333425
0.356649 0.0763256 0.341451
0.490929 0.206577 0.255604
0.602777 0.355245 0.240803
0.031693 0.216663 0.497978
0.212558 0.298573 0.517113
0.509896 0.351949 0.48687
0.687251 0.482551 0.431388
0.76817 0.559472 0.452064
0.0938582 0.498009 0.63714
0.253819 0.589319 0.685191
0.614633 0.615442 0.612589
0.812741 0.66511 0.550347
0.875166 0.722164 0.590646
0.302205 0.694118 0.770947
0.439734 0.783993 0.786664
0.669566 0.818738 0.763149
0.862257 0.844495 0.698634
0.931121 0.872206 0.734752
0.498939 0.854032 0.874907
0.600046 0.91487 0.880369
0.785977 0.939864 0.854154
0.924254 0.960128 0.829572
0.962509 0.980529 0.852186
4.57771e-05 0.0250553 0.374823
0.114519 0.0682536 0.442939
0.359426 0.0851759 0.577737
0.523232 0.189548 0.554849
0.616907 0.330282 0.540368
0.0373541 0.266667 0.603494
0.248142 0.321141 0.651713
0.546853 0.33933 0.712291
0.69778 0.439689 0.691585
0.767407 0.547524 0.677821
0.11017 0.526955 0.738415
0.299397 0.611002 0.786542
0.612177 0.638071 0.779919
0.797147 0.685832 0.755688
0.867887 0.736385 0.768261
0.342779 0.715511 0.830655
0.480751 0.795987 0.866941
0.685084 0.831006 0.857252
0.866438 0.859648 0.820096
0.929107 0.893309 0.855055
0.588052 0.850736 0.909178
0.660334 0.915587 0.929519
0.820874 0.942931 0.917922
0.946654 0.962814 0.909209
0.973602 0.9832 0.928054
9.15541e-05 0.0460822 0.450401
0.149966 0.101259 0.488624
0.394171 0.128191 0.595972
0.551736 0.241215 0.614176
0.641611 0.361501 0.653513
0.0431983 0.304204 0.622629
0.312917 0.340017 0.7234
0.565621 0.383841 0.773663
0.730251 0.461387 0.794629
0.788449 0.574365 0.777554
0.165316 0.563195 0.753811
0.36492 0.634119 0.817624
0.642863 0.659022 0.841062
0.826642 0.694835 0.84715
0.886351 0.753735 0.852277
0.408881 0.738323 0.861555
0.534676 0.810712 0.901976
0.721706 0.841566 0.914153
0.87744 0.877409 0.889113
0.932311 0.904891 0.91371
0.650126 0.863279 0.910399
0.735607 0.918212 0.93872
0.85658 0.948714 0.949874
0.957565 0.974289 0.953017
0.98996 0.990631 0.959457
