presets/5219_warm.cube
TITLE "Generated by Resolve"
LUT_3D_SIZE 33
0.000350958 0.0304417 0
0.000350958 0.0313573 0
0.000366217 0.0320592 0
0.000396735 0.0348058 0
0.000442512 0.0391546 0
0.0011902 0.0428931 0
0.0153201 0.0378119 0
0.0562142 0.0346227 0
0.114504 0.0327001 0
0.184009 0.0329747 0
0.250233 0.0383307 0
0.300328 0.0446632 0
0.339208 0.0518502 0
0.373709 0.0584878 0
0.405325 0.0649729 0
0.431357 0.0729992 0
0.452506 0.0818494 0
0.471031 0.0911116 0
0.488121 0.102251 0
0.504402 0.118212 0
0.516548 0.138705 0
0.519539 0.158389 0
0.517769 0.173938 0
0.520455 0.185031 0
0.531579 0.195819 0
0.543389 0.206973 0
0.551263 0.217304 0
0.559335 0.227222 0
0.572106 0.237339 0
0.589456 0.247517 0
0.608515 0.257786 0
0.624079 0.266087 0
0.630137 0.269337 0
0.000350958 0.0305486 0
0.000411994 0.0358892 0
0.000457771 0.0399634 0
0.000503548 0.0438392 0
0.00062562 0.0474403 0
0.00376898 0.0501106 0
0.0296483 0.0502785 0
0.0892958 0.0449836 0
0.155886 0.0430152 0
0.231174 0.0466926 0
0.289708 0.0543374 0
0.336324 0.0625467 0
0.375601 0.070222 0
0.410193 0.0770733 0
0.43917 0.0834821 0
0.463401 0.0920119 0
0.484565 0.10341 0
0.503532 0.114946 0
0.521737 0.128237 0
0.538949 0.145006 0
0.550301 0.163699 0
0.553475 0.180911 0
0.555398 0.19411 0
0.563546 0.205325 0
0.573449 0.216907 0
0.57911 0.22742 0
0.583902 0.237263 0
0.591882 0.247013 0
0.604196 0.256687 0
0.619486 0.266346 0
0.635935 0.276081 0
0.64892 0.283589 0
0.653544 0.286244 0
0.000427253 0.0384222 0
0.000503548 0.0448005 0
0.000579843 0.0511025 0
0.000747692 0.055375 0
0.00415045 0.0586862 4.57771e-05
0.0276951 0.0622263 0.00047303
0.0621805 0.0644846 0
0.126574 0.0600137 0
0.196948 0.0600137 0
0.274113 0.0670481 0
0.330495 0.0746166 0
0.375982 0.0809796 0
0.413169 0.0876326 0
0.443992 0.0952926 0
0.472038 0.104356 0
0.497353 0.114534 0
0.51928 0.127184 0
0.53846 0.14139 0
0.5561 0.157412 0
0.570733 0.17377 0
0.580331 0.189319 0
0.586709 0.202701 0
0.595514 0.21442 0
0.606775 0.227085 0
0.612802 0.239338 0
0.613947 0.248829 0
0.61706 0.257893 0
0.623941 0.267201 0
0.633722 0.276402 0
0.646143 0.285542 0
0.661143 0.294743 0
0.673518 0.301656 0
0.677791 0.303975 0
0.000564584 0.0496834 0
0.000656138 0.0548409 0
0.00141909 0.0611887 0
0.00769055 0.0679179 0
0.0241245 0.0741588 0
0.0469673 0.0825055 0
0.100771 0.0812085 0
0.166491 0.0785687 0
0.239368 0.0812695 0
0.316426 0.0909438 0
0.372946 0.0968338 0
0.412528 0.100313 0
0.4448 0.106416 0
0.475746 0.116777 0
0.505058 0.128725 0
0.530388 0.140978 0
0.551614 0.155108 0
0.569604 0.170886 0
0.584466 0.187259 0
0.596063 0.202075 0
0.60621 0.214145 0
0.618936 0.225055 0
0.633799 0.236957 0
0.644007 0.249882 0
0.645365 0.260487 0
0.645136 0.268956 0
0.648005 0.277516 0
0.653803 0.286519 0
0.662928 0.295552 0
0.675715 0.304311 0
0.689204 0.312917 0
0.698833 0.319661 0
0.701762 0.321813 0
0.00218204 0.0610819 0
0.0113832 0.0671397 0
0.0203861 0.0777295 1.5259e-05
0.0305638 0.0893111 7.62951e-05
0.0426795 0.0995956 0
0.071809 0.10692 0
0.134722 0.10222 0
0.20824 0.0995651 0
0.28658 0.106233 0
0.360311 0.117815 0
0.412695 0.123842 0
0.447059 0.12845 0
0.478889 0.136156 0
0.51017 0.147631 0
0.538186 0.161364 0
0.560708 0.175631 0
0.579675 0.190478 0
0.596063 0.205356 0
0.608972 0.218982 0
0.620249 0.22974 0
0.634928 0.239719 0
0.651942 0.251011 0
0.66389 0.262287 0
0.666117 0.271534 0
0.662791 0.279026 0
0.662379 0.287114 0
0.667079 0.296071 0
0.675837 0.305409 0
0.687327 0.314534 0
0.699748 0.323171 0
0.71136 0.331945 0
0.719341 0.338735 0
0.721569 0.340719 0
0.0226291 0.0751354 0.00129702
0.0336919 0.0855116 0.00947585
0.0455634 0.0978561 0.0171817
0.0535439 0.111971 0.0161898
0.0569772 0.12903 0
0.0962844 0.134112 0
0.163684 0.128374 0
0.233921 0.127321 0
0.309743 0.134447 0
0.38233 0.148257 0
0.438895 0.15906 0
0.478813 0.1664 0
0.512688 0.176196 0
0.541924 0.188785 0
0.56585 0.202502 0
0.585031 0.215457 0
0.60206 0.228153 0
0.61767 0.239521 0
0.632547 0.24892 0
0.648737 0.257527 0
0.665263 0.267323 0
0.674998 0.276585 0
0.674922 0.283207 0
0.669978 0.288899 0
0.667933 0.296635 0
0.672099 0.306233 0
0.681285 0.316258 0
0.693111 0.325856 0
0.705699 0.334966 0
0.717449 0.343664 0
0.727932 0.352453 0
0.735103 0.359014 0
0.737087 0.360861 0
0.0314641 0.104265 0.0358434
0.0451972 0.115984 0.0464027
0.0597238 0.127901 0.0559548
0.0764935 0.139406 0.0606241
0.0906996 0.153506 0.0432288
0.10573 0.170092 0.00123598
0.190631 0.158999 0.00666819
0.260166 0.156664 0.000534066
0.326619 0.162402 0
0.38999 0.175967 0
0.445762 0.190784 0
0.49163 0.203357 0
0.528695 0.214954 0
0.558312 0.2271 0
0.582269 0.238865 0
0.602472 0.249271 0
0.621439 0.258701 0
0.640528 0.267918 0
0.658732 0.277058 0
0.672953 0.285557 0
0.678004 0.291218 0
0.673701 0.294591 0
0.666926 0.29926 0
0.664836 0.307607 0
0.670207 0.318242 0
0.681086 0.329335 0
0.693812 0.339773 0
0.706325 0.349279 0
0.718486 0.358251 0
0.729656 0.366705 0
0.739803 0.375326 0
0.746761 0.381796 0
0.748486 0.383368 0
0.0486763 0.135439 0.0865644
0.061265 0.147555 0.0975967
0.0740826 0.160296 0.107622
0.0884871 0.17261 0.109133
0.107622 0.18529 0.0838636
0.121462 0.202564 0.0315251
0.186297 0.202991 0.00691234
0.260807 0.197742 1.5259e-05
0.328573 0.196506 0
0.397436 0.203006 0
0.457664 0.216892 0
0.501579 0.229496 0
0.537118 0.24097 0
0.569604 0.253239 0
0.59823 0.265171 0
0.623392 0.275486 0
0.645289 0.285115 0
0.662058 0.294163 0
0.670268 0.300755 0
0.668772 0.303685 0
0.663249 0.306172 0
0.659678 0.312184 0
0.659571 0.321584 0
0.664866 0.333059 0
0.676005 0.344594 0
0.69041 0.355047 0
0.704463 0.36463 0
0.716487 0.373388 0
0.727672 0.381903 0
0.738643 0.391043 0
0.749554 0.401038 0
0.756954 0.40798 0
0.758694 0.409537 0
0.0599374 0.173968 0.120089
0.0733654 0.184939 0.131701
0.0896315 0.196262 0.144594
0.108598 0.206088 0.153826
0.125521 0.216846 0.138201
0.150759 0.231006 0.0764782
0.174762 0.250111 0.000244144
0.24506 0.246326 0
0.310201 0.244114 0
0.370855 0.242008 0
0.427787 0.240772 0
0.483619 0.24622 0
0.536095 0.259754 0
0.576928 0.274434 0
0.605127 0.285924 0
0.625376 0.294743 0
0.639963 0.302052 0
0.6477 0.307759 0
0.64863 0.312734 0
0.646784 0.319005 0
0.648356 0.327642 0
0.654246 0.338186 0
0.662318 0.349767 0
0.672877 0.36112 0
0.686091 0.371603 0
0.700404 0.380957 0
0.713695 0.389853 0
0.725719 0.398566 0
0.737728 0.407706 0
0.749554 0.417563 0
0.760494 0.428183 0
0.767147 0.435279 0
0.768505 0.436667 0
0.0614633 0.217182 0.150454
0.0739147 0.228305 0.161975
0.0914015 0.239231 0.175021
0.117418 0.245869 0.186084
0.146548 0.251209 0.17969
0.16289 0.269459 0.104616
0.168475 0.293904 0.0153201
0.231342 0.293294 0.00381476
0.28307 0.297047 0
0.342626 0.295491 0
0.400549 0.290578 0
0.453346 0.288258 0
0.499245 0.289357 0
0.536721 0.293614 0
0.565072 0.301137 0
0.58706 0.309789 0
0.605295 0.318364 0
0.61854 0.32694 0
0.627207 0.336049 0
0.634531 0.346197 0
0.644022 0.357031 0
0.656107 0.368093 0
0.669551 0.378973 0
0.683391 0.38909 0
0.697292 0.398398 0
0.710719 0.407187 0
0.72343 0.41619 0
0.735851 0.425742 0
0.748394 0.435492 0
0.760311 0.445609 0
0.770199 0.455955 0
0.775601 0.462425 0
0.776577 0.463569 0
0.0628824 0.260548 0.179126
0.0737469 0.273487 0.192142
0.0911421 0.283116 0.204318
0.120775 0.287922 0.214511
0.156634 0.291005 0.214893
0.177508 0.304051 0.167742
0.192325 0.32488 0.0731212
0.209689 0.344152 0.000167849
0.261524 0.34522 0
0.311666 0.347784 0
0.368643 0.345754 0
0.424231 0.342123 0
0.473487 0.338888 0
0.512963 0.338048 0
0.541985 0.341756 0
0.564797 0.348241 0
0.584619 0.354971 0
0.601663 0.362066 0
0.616922 0.369894 0
0.631388 0.379095 0
0.646006 0.389044 0
0.661479 0.39913 0
0.677592 0.408957 0
0.693233 0.417685 0
0.707942 0.42591 0
0.72163 0.434318 0
0.734096 0.443275 0
0.745586 0.45333 0
0.756756 0.463798 0
0.767544 0.473976 0
0.777417 0.483909 0
0.783017 0.489845 0
0.783993 0.490898 0
0.0643778 0.303792 0.20441
0.075288 0.315923 0.216709
0.0932174 0.324865 0.228351
0.122225 0.329885 0.239048
0.160662 0.331533 0.244022
0.191043 0.338949 0.21181
0.211627 0.357992 0.106874
0.20528 0.384817 0.00825513
0.251255 0.387884 0
0.286366 0.394064 0
0.334585 0.396353 0
0.393408 0.393027 0
0.446876 0.388449 0
0.491051 0.385214 0
0.52459 0.386877 0
0.550011 0.392294 0
0.571786 0.397665 0
0.59266 0.401511 0
0.612436 0.406378 0
0.630701 0.413642 0
0.648234 0.422278 0
0.665873 0.431205 0
0.683513 0.439506 0
0.700435 0.44715 0
0.716258 0.454765 0
0.730663 0.462486 0
0.74345 0.471077 0
0.754589 0.481025 0
0.764858 0.491127 0
0.775021 0.500999 0
0.784848 0.511025 0
0.790234 0.516625 0
0.791028 0.517403 0
0.0715496 0.344015 0.226871
0.0798352 0.355123 0.237339
0.0962387 0.364004 0.248844
0.121401 0.36968 0.260319
0.16202 0.370214 0.269352
0.203357 0.372488 0.256916
0.230518 0.385763 0.182376
0.232624 0.410391 0.0704814
0.250645 0.426413 0
0.29102 0.428824 0
0.331502 0.43238 0
0.387747 0.42916 0
0.439475 0.425834 0
0.482582 0.424277 0
0.517449 0.425483 0
0.545541 0.428351 0
0.57084 0.431296 0.00273136
0.59501 0.433967 0.00988785
0.616526 0.438056 0.0134585
0.635248 0.445182 0.00932326
0.653147 0.453727 0.00283818
0.671 0.461738 0
0.688045 0.469368 0
0.70428 0.477028 0
0.720577 0.484504 0
0.736538 0.491798 0
0.750759 0.499733 0
0.762707 0.508629 0
0.773449 0.517388 0
0.783475 0.526406 0
0.79237 0.536477 0
0.796811 0.542077 0
0.79736 0.542763 0
0.080766 0.379812 0.247395
0.0871901 0.39057 0.257435
0.100511 0.399664 0.268711
0.123156 0.405646 0.280262
0.164263 0.405982 0.291783
0.208392 0.407218 0.290669
0.238102 0.417746 0.235828
0.257755 0.436988 0.124514
0.25507 0.46128 0.0287785
0.301335 0.461601 0.0207523
0.339895 0.462745 0.0232853
0.389227 0.460914 0.0218204
0.442237 0.457374 0.024918
0.484062 0.456855 0.0288396
0.51664 0.458717 0.0331579
0.545403 0.461128 0.0395972
0.573861 0.463035 0.0500191
0.601297 0.464668 0.0615854
0.62472 0.467781 0.066331
0.644511 0.474098 0.0619974
0.662959 0.481422 0.0505989
0.680949 0.488502 0.0341344
0.697856 0.495842 0.013489
0.713939 0.503899 0.000839246
0.729809 0.512276 0
0.74464 0.520317 0
0.75761 0.528786 0
0.769207 0.537011 0
0.780087 0.543999 0
0.790463 0.551705 0
0.800122 0.561456 0
0.804807 0.566812 0
0.80531 0.567361 0
0.0891585 0.41236 0.268086
0.0961624 0.423041 0.278004
0.108766 0.432105 0.288808
0.130587 0.437797 0.300053
0.169329 0.439124 0.312947
0.213397 0.440085 0.320027
0.249653 0.446616 0.293736
0.282521 0.459571 0.212802
0.280552 0.485206 0.099382
0.302296 0.496361 0.0460059
0.34992 0.492592 0.0618906
0.395621 0.4907 0.0670481
0.446693 0.487739 0.0711833
0.487053 0.487785 0.0781109
0.518303 0.489937 0.0840772
0.548943 0.491753 0.0919814
0.57998 0.49305 0.104005
0.609262 0.494163 0.116442
0.633982 0.496818 0.122377
0.65481 0.501717 0.118532
0.673961 0.507469 0.106722
0.692256 0.513634 0.0869612
0.709895 0.520851 0.0603189
0.726818 0.528862 0.0326543
0.74226 0.537331 0.00975052
0.755276 0.546365 0
0.766476 0.555825 0
0.777768 0.563546 0
0.789578 0.569467 0
0.800549 0.576837 0
0.810147 0.586404 0
0.814527 0.591394 0
0.814954 0.591897 0
0.0991531 0.442008 0.288701
0.107393 0.451835 0.298131
0.119509 0.460182 0.308232
0.14023 0.466621 0.319615
0.175036 0.470207 0.332921
0.219089 0.472038 0.345678
0.25803 0.477119 0.33753
0.295018 0.486183 0.280613
0.31545 0.502724 0.181323
0.314885 0.523278 0.0972152
0.360952 0.521904 0.0958724
0.404685 0.52015 0.110246
0.443809 0.521187 0.113848
0.480003 0.522499 0.119539
0.516823 0.522377 0.127581
0.554147 0.521706 0.139422
0.587579 0.522072 0.152728
0.616281 0.523354 0.164813
0.640848 0.525856 0.172152
0.663447 0.529229 0.171969
0.684993 0.532982 0.163287
0.70547 0.538033 0.143542
0.724147 0.544823 0.114031
0.740078 0.552682 0.0814679
0.753079 0.561502 0.0501717
0.764294 0.57113 0.0234836
0.776059 0.580087 0.00567636
0.78912 0.587335 0.00140383
0.801236 0.593942 0.00706493
0.811399 0.601846 0.0142519
0.82031 0.611093 0.0207065
0.824079 0.61532 0.0234073
0.824323 0.615579 0.0235294
0.111406 0.467552 0.308888
0.120027 0.476753 0.31754
0.132006 0.485374 0.327367
0.151843 0.493462 0.339254
0.183749 0.499428 0.353216
0.226078 0.502281 0.368338
0.266453 0.505882 0.372549
0.305226 0.512322 0.34403
0.340368 0.522957 0.268864
0.341802 0.545296 0.165789
0.368811 0.553292 0.128649
0.415457 0.54931 0.148531
0.446143 0.550729 0.15491
0.479637 0.551995 0.15874
0.520211 0.551431 0.167773
0.559915 0.550515 0.18085
0.592447 0.550652 0.193622
0.61857 0.551812 0.204257
0.642985 0.553582 0.210956
0.668498 0.555611 0.211704
0.69369 0.558526 0.205219
0.716533 0.563134 0.189914
0.73608 0.569055 0.165133
0.752468 0.575647 0.13402
0.766873 0.583215 0.103059
0.78027 0.591653 0.0771496
0.792782 0.599802 0.0576791
0.803754 0.607599 0.051133
0.813916 0.615503 0.0539101
0.823301 0.624063 0.0588693
0.830442 0.633555 0.0645304
0.832959 0.637583 0.0668803
0.833051 0.63772 0.0669261
0.125307 0.491234 0.32874
0.13576 0.501228 0.338216
0.149752 0.511116 0.34876
0.170031 0.519585 0.361013
0.199252 0.525078 0.374624
0.237797 0.527626 0.389273
0.279301 0.530846 0.400931
0.316854 0.538109 0.390005
0.360525 0.545541 0.343694
0.382696 0.560647 0.258503
0.382239 0.580301 0.177279
0.421439 0.579004 0.175189
0.456336 0.576883 0.192462
0.487602 0.578195 0.199008
0.526848 0.578302 0.207416
0.565667 0.577859 0.219196
0.596841 0.578164 0.231052
0.622889 0.578912 0.24126
0.648295 0.580179 0.247715
0.674372 0.582101 0.248722
0.699825 0.585122 0.243992
0.723262 0.589105 0.232166
0.743938 0.593729 0.211063
0.762387 0.598871 0.183642
0.779629 0.604852 0.156558
0.794949 0.611765 0.132982
0.807157 0.619333 0.113802
0.816144 0.628489 0.1028
0.825132 0.637598 0.102266
0.833799 0.646433 0.107271
0.840024 0.656504 0.113725
0.841932 0.660426 0.116167
0.841947 0.660456 0.116167
0.145403 0.51371 0.350134
0.157519 0.523964 0.360174
0.171893 0.53434 0.371069
0.19115 0.543038 0.383398
0.217487 0.549065 0.396765
0.252399 0.552789 0.411078
0.293263 0.556008 0.425376
0.329732 0.563012 0.425071
0.370703 0.570474 0.396841
0.40351 0.581292 0.326757
0.399222 0.603922 0.226429
0.421363 0.611048 0.192615
0.464958 0.605844 0.217792
0.498054 0.605112 0.23537
0.533578 0.604868 0.244984
0.569436 0.604608 0.25391
0.600793 0.604898 0.264744
0.628885 0.605478 0.275212
0.654398 0.606958 0.281346
0.679057 0.609186 0.282582
0.703655 0.612055 0.279255
0.727596 0.614786 0.269581
0.749813 0.618463 0.251606
0.770428 0.622934 0.228412
0.789258 0.627466 0.204868
0.805142 0.633158 0.182925
0.817395 0.640986 0.164187
0.826322 0.650965 0.152346
0.834592 0.660868 0.1514
0.842222 0.670542 0.156481
0.848478 0.680598 0.16228
0.850492 0.684108 0.164233
0.850507 0.684123 0.164233
0.170138 0.535744 0.373144
0.182727 0.545769 0.383276
0.196353 0.555688 0.393866
0.214817 0.564736 0.406271
0.239307 0.572076 0.419913
0.271244 0.577081 0.43415
0.310292 0.580804 0.449149
0.346441 0.586938 0.455421
0.380575 0.595361 0.435416
0.423529 0.601129 0.389517
0.432914 0.618723 0.302129
0.428717 0.638819 0.222339
0.468177 0.636866 0.229465
0.506157 0.632975 0.258106
0.537118 0.632059 0.27303
0.57023 0.631266 0.283101
0.600107 0.632334 0.291249
0.625498 0.634913 0.297444
0.651728 0.636652 0.302602
0.680278 0.636988 0.306615
0.708827 0.637171 0.307103
0.735256 0.638315 0.30135
0.757992 0.642222 0.286305
0.778225 0.646937 0.267567
0.796384 0.651514 0.248585
0.811383 0.657893 0.227939
0.823072 0.666377 0.210498
0.832471 0.676448 0.202609
0.840925 0.686519 0.201251
0.848478 0.696437 0.202945
0.85507 0.706081 0.207767
0.85716 0.709209 0.209689
0.85716 0.709209 0.209689
0.195621 0.556817 0.396292
0.208423 0.56672 0.406516
0.223453 0.576486 0.417426
0.242908 0.585351 0.430091
0.266865 0.592737 0.4439
0.296864 0.598718 0.458183
0.332738 0.604013 0.473152
0.366613 0.610574 0.48246
0.393896 0.619898 0.467842
0.433661 0.624857 0.432822
0.454032 0.63801 0.356268
0.441917 0.662974 0.253269
0.467979 0.667872 0.231693
0.509087 0.66244 0.262837
0.536782 0.661723 0.284657
0.562676 0.662562 0.298848
0.588327 0.664942 0.308095
0.61593 0.666667 0.31281
0.648524 0.665782 0.318944
0.681208 0.664393 0.325841
0.711238 0.664057 0.328893
0.738842 0.664805 0.326253
0.764019 0.667277 0.317449
0.785855 0.671061 0.304662
0.80322 0.676204 0.287282
0.816083 0.683604 0.265736
0.825803 0.693294 0.248615
0.834531 0.703685 0.241932
0.843824 0.712871 0.242039
0.85301 0.721599 0.245792
0.860822 0.729793 0.252125
0.863096 0.732219 0.2542
0.863096 0.732204 0.254154
0.222004 0.577203 0.419516
0.236255 0.586633 0.430167
0.253666 0.596002 0.441794
0.275013 0.604959 0.454749
0.299657 0.612726 0.468437
0.328267 0.619013 0.482582
0.360433 0.624567 0.497154
0.391485 0.630655 0.508003
0.414862 0.639597 0.49807
0.448432 0.64596 0.466102
0.477592 0.656016 0.402319
0.464591 0.68217 0.297124
0.469841 0.696849 0.241016
0.508705 0.693111 0.259846
0.536583 0.692454 0.284169
0.555367 0.69601 0.296849
0.577325 0.698772 0.309361
0.608209 0.697704 0.322194
0.645136 0.694804 0.332113
0.680919 0.692866 0.340047
0.713008 0.691752 0.344808
0.742458 0.691234 0.345357
0.769299 0.692195 0.342214
0.791196 0.695796 0.33286
0.808286 0.701457 0.316899
0.821912 0.708934 0.298314
0.832059 0.71812 0.283772
0.840665 0.727687 0.277974
0.849958 0.736446 0.2804
0.859754 0.74435 0.287861
0.868025 0.751217 0.297368
0.870298 0.753155 0.300328
0.870298 0.753155 0.300313
0.250538 0.597467 0.443748
0.267597 0.60679 0.45481
0.28719 0.616053 0.466819
0.309621 0.624811 0.479866
0.33463 0.632456 0.493721
0.361654 0.638468 0.507729
0.390631 0.643732 0.521599
0.418601 0.649531 0.531975
0.439002 0.6589 0.523873
0.467292 0.667063 0.494148
0.504479 0.672892 0.450523
0.494697 0.69778 0.353338
0.477104 0.723262 0.261402
0.50663 0.724514 0.258061
0.540337 0.721599 0.285084
0.558267 0.725032 0.297047
0.574533 0.729168 0.304768
0.601907 0.728664 0.321721
0.640742 0.724926 0.339467
0.682246 0.720592 0.350881
0.718563 0.717327 0.357687
0.748333 0.71606 0.360983
0.772686 0.717357 0.359045
0.792523 0.72221 0.349279
0.810681 0.728099 0.335927
0.827848 0.733822 0.323827
0.840238 0.740749 0.313664
0.848737 0.74966 0.30988
0.85713 0.758694 0.314153
0.866346 0.766567 0.324605
0.873381 0.773175 0.336858
0.87509 0.774884 0.340215
0.87509 0.774853 0.340185
0.281041 0.618128 0.468727
0.301411 0.627939 0.480262
0.322332 0.637049 0.492363
0.344945 0.644968 0.505425
0.369574 0.651865 0.519341
0.395224 0.65774 0.533211
0.421958 0.662837 0.546227
0.446555 0.66894 0.555001
0.463508 0.679423 0.547066
0.487724 0.688823 0.519692
0.527459 0.692744 0.488655
0.523186 0.714839 0.401938
0.49369 0.74519 0.294545
0.506493 0.754009 0.262455
0.540642 0.75108 0.280491
0.56408 0.751415 0.297322
0.577813 0.756283 0.302083
0.601984 0.757168 0.319326
0.643427 0.751232 0.345663
0.687938 0.745129 0.360113
0.721859 0.743557 0.365133
0.747585 0.744549 0.367712
0.770764 0.746639 0.366033
0.792523 0.750256 0.358175
0.812665 0.75462 0.34725
0.82948 0.759701 0.336416
0.839918 0.766384 0.327718
0.847242 0.775036 0.326452
0.856199 0.783902 0.334401
0.866835 0.791104 0.348577
0.875578 0.79617 0.36347
0.877668 0.797391 0.367391
0.877668 0.797406 0.367407
0.31136 0.639567 0.4934
0.333211 0.649058 0.505226
0.355657 0.65771 0.517693
0.378378 0.664927 0.530419
0.402136 0.671336 0.543694
0.427054 0.677317 0.557305
0.452247 0.682826 0.570214
0.474754 0.689693 0.579355
0.489601 0.70071 0.573388
0.509896 0.710964 0.54789
0.546777 0.715145 0.518883
0.551095 0.732464 0.446342
0.518349 0.762661 0.336522
0.510781 0.779812 0.273747
0.53933 0.779843 0.2757
0.568704 0.777935 0.295613
0.58555 0.781491 0.304143
0.608728 0.782452 0.320378
0.648493 0.776165 0.34873
0.691264 0.77026 0.364172
0.723217 0.770138 0.367254
0.747845 0.77261 0.368093
0.772183 0.774746 0.366049
0.795483 0.777203 0.360113
0.814878 0.780819 0.351949
0.829847 0.785565 0.344396
0.841154 0.791562 0.341375
0.850233 0.798749 0.346227
0.858946 0.806836 0.356802
0.867491 0.814542 0.36994
0.874617 0.820111 0.382239
0.87628 0.821347 0.385199
0.87628 0.821347 0.385214
0.339406 0.661616 0.518364
0.362509 0.6701 0.530297
0.385779 0.678004 0.542443
0.408118 0.685161 0.554833
0.431479 0.691737 0.56791
0.455665 0.697856 0.581231
0.478523 0.703548 0.593622
0.499779 0.710063 0.603815
0.515206 0.719631 0.602564
0.5308 0.730449 0.579965
0.562097 0.736263 0.548486
0.579599 0.747021 0.495308
0.547494 0.776455 0.384909
0.523339 0.8009 0.296605
0.542351 0.805859 0.279408
0.574624 0.803616 0.296101
0.593393 0.806745 0.303334
0.612055 0.809537 0.310796
0.649729 0.803311 0.34023
0.69453 0.795621 0.362799
0.730816 0.793423 0.367575
0.755825 0.79646 0.36527
0.778439 0.799832 0.361257
0.799344 0.802762 0.356909
0.816709 0.806226 0.353384
0.831754 0.810162 0.35285
0.845304 0.814939 0.357473
0.85594 0.820783 0.367056
0.863615 0.828351 0.379461
0.87013 0.836255 0.39263
0.87541 0.842039 0.403204
0.87657 0.843198 0.405432
0.87657 0.843183 0.405417
0.366018 0.684138 0.543786
0.390356 0.691279 0.555291
0.413733 0.698344 0.566659
0.436133 0.705791 0.57908
0.459022 0.712474 0.591943
0.481361 0.718318 0.604501
0.502449 0.723995 0.616587
0.523156 0.730068 0.628061
0.540978 0.737743 0.632883
0.552605 0.748623 0.615778
0.575647 0.756146 0.58262
0.604471 0.761135 0.545266
0.58053 0.787488 0.44213
0.545312 0.817472 0.334646
0.55198 0.82855 0.292836
0.583902 0.827146 0.299901
0.599939 0.831495 0.298985
0.615671 0.835203 0.300526
0.655482 0.827771 0.333913
0.701885 0.818998 0.360418
0.739116 0.816571 0.363073
0.763714 0.821103 0.356359
0.7832 0.824933 0.351278
0.801968 0.82739 0.350423
0.819638 0.83003 0.35378
0.835615 0.833036 0.3608
0.849149 0.83711 0.371176
0.859693 0.842573 0.384878
0.868376 0.848508 0.40206
0.876097 0.854841 0.419455
0.88191 0.860151 0.431571
0.883055 0.861189 0.433799
0.883055 0.861173 0.433783
0.391379 0.706081 0.567987
0.416556 0.71194 0.579004
0.44036 0.718532 0.590143
0.462806 0.726299 0.602533
0.484657 0.733028 0.615076
0.505653 0.738933 0.627543
0.525475 0.744656 0.639765
0.545113 0.75108 0.651804
0.564401 0.757641 0.660197
