presets/5219_normal.cube
TITLE "Generated by Resolve"
LUT_3D_SIZE 33
0.0396582 0.0396582 0.0466163
0.0399023 0.0399176 0.0414435
0.0401617 0.0401465 0.0404212
0.0410468 0.0440223 0.0426795
0.042771 0.049012 0.0450294
0.0669566 0.0515297 0.0484779
0.102342 0.0527504 0.0447852
0.146471 0.0526131 0.042771
0.195941 0.051606 0.0436255
0.245121 0.052018 0.0445716
0.278355 0.0545357 0.0453498
0.307439 0.057847 0.0460975
0.334798 0.0630808 0.0469368
0.357046 0.0692912 0.0477455
0.374701 0.0732586 0.0483253
0.388937 0.0794232 0.0489815
0.396887 0.0914321 0.049897
0.396063 0.109865 0.0510872
0.39147 0.127687 0.0521553
0.389227 0.143496 0.0531319
0.389151 0.155459 0.0539101
0.397604 0.166629 0.055375
0.414069 0.182055 0.0568399
0.426215 0.197009 0.0573434
0.438514 0.209995 0.0584268
0.455039 0.22118 0.0594644
0.47425 0.230457 0.060441
0.494484 0.239155 0.0614023
0.51429 0.249897 0.0624857
0.529702 0.262119 0.0635843
0.543008 0.273533 0.0645762
0.55433 0.281895 0.0653391
0.557748 0.284245 0.065568
0.0401617 0.0408484 0.0546731
0.0437018 0.0447242 0.043061
0.0486458 0.0491188 0.0460212
0.0525826 0.0535744 0.0565652
0.0585031 0.0584421 0.0628061
0.0800031 0.0625162 0.0558785
0.118502 0.062501 0.0473793
0.170123 0.0610056 0.0437324
0.222232 0.0607004 0.0446784
0.262165 0.0626383 0.0455482
0.295949 0.0693523 0.0466011
0.32639 0.0741283 0.0474708
0.354788 0.0760052 0.0481117
0.37792 0.0804913 0.0488289
0.392844 0.0893568 0.0496834
0.40444 0.0965438 0.0503853
0.414145 0.106691 0.0512245
0.418875 0.123857 0.05243
0.417166 0.143511 0.0536812
0.416785 0.161089 0.0548257
0.42063 0.172198 0.0558633
0.430259 0.184466 0.0570993
0.442771 0.20209 0.0582284
0.456779 0.217868 0.0592966
0.473793 0.228565 0.0603189
0.491447 0.237369 0.0612345
0.508278 0.246784 0.0621653
0.525154 0.256458 0.0631266
0.542382 0.267552 0.0641794
0.557656 0.278706 0.0652018
0.571466 0.289876 0.0662089
0.581704 0.298573 0.0669718
0.58439 0.300877 0.0671702
0.0460517 0.0484321 0.0606699
0.0508583 0.0536965 0.0568856
0.0553445 0.0604868 0.0624094
0.0614786 0.0655985 0.0732433
0.0742504 0.0694896 0.0789654
0.0985733 0.0771801 0.0692149
0.139284 0.0770581 0.0593576
0.192615 0.0759594 0.0512551
0.246159 0.076173 0.0468452
0.285939 0.0769055 0.0492409
0.321294 0.0826734 0.048127
0.350408 0.087602 0.0487678
0.375998 0.0907149 0.0504616
0.397864 0.0955978 0.0523232
0.412467 0.105821 0.0511482
0.425223 0.115846 0.0520485
0.436225 0.127047 0.0529946
0.443137 0.142794 0.054139
0.444892 0.161196 0.055375
0.447791 0.176059 0.0563973
0.454765 0.187823 0.0579843
0.463905 0.20322 0.0596017
0.475746 0.221195 0.0602731
0.490654 0.23624 0.0611429
0.508202 0.247211 0.0621958
0.525917 0.25684 0.0631723
0.541543 0.266468 0.0640879
0.556893 0.276509 0.0650492
0.573495 0.287404 0.0660868
0.58883 0.298909 0.0671244
0.60264 0.310079 0.0681163
0.611856 0.317662 0.0688029
0.613977 0.319402 0.0689555
0.0589761 0.0589456 0.0699321
0.0609903 0.0650339 0.0761578
0.064332 0.0741588 0.0823682
0.0733196 0.0800793 0.0914778
0.0912947 0.0842298 0.0960861
0.119799 0.0949264 0.0866712
0.161898 0.0949874 0.0747997
0.215732 0.094667 0.0636759
0.271275 0.0951858 0.0581216
0.313863 0.093904 0.0628824
0.348562 0.0959029 0.066453
0.374945 0.101091 0.0644083
0.397574 0.10753 0.0606699
0.417853 0.114061 0.0581826
0.432944 0.124071 0.0542916
0.447776 0.137423 0.0538949
0.459373 0.150866 0.0549783
0.466545 0.164446 0.0560006
0.472145 0.178622 0.0570382
0.479576 0.18999 0.0579232
0.488685 0.203983 0.0594034
0.498756 0.222583 0.0614176
0.511131 0.23978 0.0623026
0.524758 0.253666 0.0629282
0.540597 0.266804 0.0641031
0.557092 0.277897 0.0651408
0.572427 0.287373 0.0660563
0.588037 0.297368 0.0670024
0.604166 0.307378 0.0679789
0.619211 0.319905 0.0690929
0.633082 0.330983 0.0700694
0.642283 0.337255 0.0706493
0.644068 0.338415 0.0707713
0.0738079 0.071809 0.0896468
0.0764172 0.0795148 0.0962081
0.0844892 0.0894636 0.102113
0.0966659 0.0990311 0.109346
0.113085 0.107652 0.113588
0.139528 0.114351 0.104509
0.186664 0.114733 0.0886854
0.243641 0.11397 0.0817884
0.29926 0.112535 0.0834821
0.340948 0.111879 0.082536
0.368399 0.11368 0.0794537
0.393851 0.119478 0.0787823
0.420142 0.127367 0.0795453
0.441077 0.136278 0.0768139
0.452735 0.147631 0.0691691
0.464759 0.160678 0.0619059
0.476478 0.175036 0.057847
0.486442 0.18793 0.0579232
0.497032 0.197543 0.0587472
0.511452 0.20798 0.0619364
0.526207 0.224598 0.063035
0.536339 0.245212 0.0626688
0.546288 0.263554 0.0640269
0.559808 0.277897 0.0652018
0.574517 0.289326 0.0662242
0.589075 0.298375 0.0670939
0.603479 0.307118 0.0679484
0.618296 0.316732 0.0688487
0.632959 0.32668 0.0697948
0.646082 0.337407 0.0707408
0.661143 0.348608 0.0717632
0.672541 0.356252 0.0724804
0.674601 0.357595 0.0726024
0.0726482 0.0942245 0.113024
0.0829328 0.103304 0.115587
0.0940261 0.113466 0.1234
0.107881 0.123476 0.133425
0.12781 0.131823 0.137728
0.16022 0.136355 0.125292
0.207187 0.138506 0.10869
0.257847 0.140932 0.0941329
0.309636 0.140764 0.0892653
0.351415 0.13872 0.0903639
0.381491 0.140826 0.0897078
0.408072 0.148257 0.0893263
0.433158 0.158328 0.0883345
0.453773 0.168429 0.0849622
0.467552 0.178805 0.0789807
0.479454 0.190158 0.0726024
0.492714 0.200763 0.0672923
0.505714 0.208331 0.0659648
0.520455 0.216098 0.0692607
0.53753 0.230579 0.0695964
0.551553 0.249989 0.0656443
0.561257 0.270207 0.0647135
0.571313 0.286778 0.0659953
0.584237 0.299062 0.0670481
0.598886 0.30959 0.0680095
0.614115 0.318944 0.0689097
0.629114 0.328359 0.0698253
0.643427 0.337789 0.0707103
0.656687 0.346761 0.0715648
0.67129 0.356497 0.0724804
0.686152 0.368109 0.073518
0.695506 0.375998 0.0742046
0.697002 0.377279 0.0743267
0.0740063 0.124437 0.141344
0.0861219 0.13431 0.14789
0.0985428 0.14432 0.157549
0.114183 0.154208 0.165072
0.136446 0.16257 0.163729
0.173434 0.167178 0.148013
0.224475 0.168063 0.130388
0.272389 0.167834 0.116869
0.315221 0.170016 0.105669
0.354498 0.173861 0.100893
0.387961 0.177554 0.0994125
0.416556 0.184665 0.0977493
0.441764 0.193423 0.0966354
0.463371 0.202472 0.0957504
0.479637 0.211002 0.0923171
0.49366 0.217533 0.0873579
0.511421 0.223041 0.0853437
0.529427 0.229404 0.0844587
0.54548 0.241917 0.0802472
0.559503 0.261112 0.072343
0.570886 0.28043 0.0670787
0.58201 0.297765 0.0669261
0.594247 0.311269 0.06804
0.608164 0.321462 0.0689708
0.623789 0.330632 0.0698711
0.639719 0.340322 0.0708019
0.654292 0.349767 0.0717021
0.667613 0.359091 0.0725719
0.680201 0.368902 0.0734417
0.694514 0.379568 0.0744182
0.708293 0.391058 0.0754406
0.716014 0.398047 0.076051
0.717052 0.399008 0.0761273
0.0719463 0.161059 0.179904
0.083299 0.170977 0.189761
0.0986954 0.180667 0.200137
0.115557 0.19028 0.203479
0.139513 0.199207 0.196307
0.176272 0.205493 0.174151
0.222736 0.207691 0.146181
0.274907 0.206806 0.129
0.324071 0.204547 0.122011
0.367498 0.20177 0.120104
0.398291 0.204181 0.114748
0.426566 0.209659 0.108537
0.451743 0.21706 0.106523
0.474067 0.225956 0.108598
0.494942 0.233051 0.109545
0.515709 0.239582 0.106691
0.535744 0.250019 0.101778
0.551278 0.262913 0.0919966
0.564614 0.278172 0.0810407
0.577462 0.29572 0.0732738
0.588251 0.313115 0.0692912
0.601724 0.327153 0.0692149
0.61709 0.337606 0.0701915
0.632868 0.345769 0.0710307
0.650034 0.353536 0.07187
0.665843 0.362982 0.0727855
0.678828 0.371542 0.0735943
0.691203 0.381155 0.074464
0.703288 0.392752 0.0754559
0.714565 0.404837 0.076463
0.727504 0.416663 0.0774853
0.735042 0.423148 0.0780499
0.735882 0.42388 0.0781109
0.0628519 0.20148 0.221118
0.0745556 0.210986 0.229206
0.0950027 0.219394 0.240864
0.115023 0.227756 0.249149
0.139849 0.235279 0.240681
0.178943 0.238895 0.209384
0.22768 0.239551 0.173251
0.272343 0.245563 0.145602
0.3205 0.250553 0.128405
0.368093 0.249332 0.116167
0.407462 0.244038 0.108644
0.440375 0.241245 0.106737
0.468254 0.241733 0.110796
0.493355 0.247868 0.114687
0.515724 0.258961 0.112871
0.533944 0.271641 0.107149
0.549783 0.284169 0.100679
0.563577 0.296803 0.0913863
0.577386 0.309941 0.0812543
0.591608 0.324483 0.0733806
0.605188 0.340642 0.0706951
0.619623 0.353429 0.0712749
0.636622 0.363424 0.0722515
0.653941 0.371618 0.0731212
0.669215 0.378149 0.0738384
0.683818 0.387289 0.0747234
0.697871 0.396155 0.0755627
0.710521 0.405356 0.0764172
0.721767 0.415625 0.0773022
0.733608 0.424857 0.0781262
0.74342 0.440818 0.0793622
0.748043 0.450095 0.0800488
0.748394 0.450782 0.0800946
0.0608835 0.239475 0.260243
0.0715801 0.249989 0.268666
0.0871901 0.258915 0.281544
0.103883 0.268696 0.289235
0.12958 0.275837 0.281209
0.173251 0.277745 0.247303
0.226123 0.27866 0.203342
0.267185 0.284001 0.169894
0.309453 0.290593 0.140841
0.358114 0.293614 0.119921
0.399558 0.292973 0.105852
0.436103 0.289464 0.101778
0.470451 0.28748 0.103471
0.500633 0.291173 0.104341
0.522408 0.29955 0.104524
0.538933 0.30985 0.104738
0.554971 0.320363 0.102678
0.571908 0.330541 0.0975814
0.589151 0.342626 0.0907301
0.605539 0.355917 0.0829786
0.620676 0.368963 0.0751507
0.635554 0.380026 0.0733806
0.652338 0.389181 0.0742351
0.669932 0.397299 0.0751049
0.686595 0.404852 0.0759136
0.701473 0.414038 0.0767987
0.714199 0.422766 0.0776226
0.726177 0.431174 0.0784009
0.738476 0.440131 0.0792248
0.749462 0.448463 0.0805066
0.760113 0.463569 0.0874647
0.764965 0.471168 0.0907301
0.765179 0.471534 0.0908827
0.0585336 0.280217 0.288319
0.0670024 0.290562 0.29955
0.0782483 0.300465 0.313558
0.0916609 0.312749 0.322347
0.11635 0.319615 0.318807
0.163149 0.31902 0.28809
0.222583 0.317403 0.23917
0.266712 0.320531 0.203098
0.299855 0.329473 0.166201
0.344015 0.335454 0.135119
0.390631 0.335943 0.119402
0.429038 0.334493 0.110384
0.467872 0.332311 0.106081
0.501106 0.334066 0.103792
0.524742 0.339483 0.105699
0.543694 0.346822 0.110109
0.562524 0.355535 0.112291
0.581689 0.363806 0.111498
0.600244 0.374243 0.106554
0.617365 0.385489 0.0976577
0.633417 0.396109 0.0874495
0.648936 0.405539 0.0798047
0.666316 0.413916 0.0767224
0.68484 0.42208 0.076997
0.702464 0.430167 0.0778668
0.716793 0.438376 0.0786908
0.727977 0.447089 0.0818952
0.740001 0.455207 0.0840009
0.75288 0.463462 0.0834974
0.764508 0.474067 0.0890669
0.773861 0.485191 0.10161
0.777569 0.489967 0.106996
0.77763 0.490059 0.107103
0.0566873 0.323262 0.30724
0.0604868 0.332662 0.322301
0.0692454 0.343633 0.336736
0.080705 0.357763 0.348837
0.102373 0.36524 0.35346
0.149722 0.360693 0.330404
0.21413 0.354498 0.282032
0.269856 0.356451 0.240238
0.309331 0.364004 0.198428
0.341604 0.370077 0.161746
0.384192 0.370794 0.143557
0.425406 0.371359 0.135531
0.462364 0.371313 0.128466
0.496422 0.372198 0.123583
0.525261 0.375937 0.124666
0.550317 0.381537 0.128847
0.573114 0.388586 0.132219
0.59202 0.395956 0.133272
0.609918 0.403723 0.127703
0.627115 0.412299 0.117723
0.643336 0.421302 0.106203
0.660487 0.429557 0.0961776
0.68043 0.43714 0.0880751
0.700053 0.444953 0.0844739
0.716701 0.452277 0.0848402
0.729046 0.45864 0.0876631
0.741054 0.468437 0.0954147
0.753063 0.476692 0.0976577
0.765606 0.485115 0.0974899
0.779919 0.499733 0.10631
0.782864 0.507134 0.117739
0.7832 0.509316 0.121569
0.7832 0.509331 0.121584
0.0583658 0.358831 0.335241
0.0592813 0.369284 0.351431
0.0622568 0.382315 0.362799
0.0701152 0.394141 0.371695
0.0881208 0.402045 0.381582
0.130175 0.401785 0.364889
0.193347 0.396582 0.317143
0.258991 0.39263 0.272572
0.317571 0.391104 0.236118
0.352316 0.396628 0.205676
0.383886 0.403922 0.184985
0.424323 0.407706 0.175174
0.461616 0.408316 0.167025
0.496818 0.407355 0.158877
0.526833 0.410559 0.161135
0.551659 0.415518 0.164523
0.574228 0.419852 0.1617
0.595254 0.42504 0.161364
0.616022 0.432105 0.159518
0.636881 0.439384 0.151705
0.657557 0.445853 0.139132
0.678325 0.451987 0.12871
0.696239 0.458991 0.115999
0.715053 0.465553 0.107607
0.733669 0.472419 0.106035
0.746487 0.481483 0.110048
0.75874 0.490471 0.111589
0.770779 0.500694 0.112779
0.78262 0.511513 0.116533
0.793576 0.522286 0.124758
0.798108 0.530251 0.136965
0.799298 0.532616 0.140597
0.799298 0.532616 0.140597
0.0602579 0.392493 0.357107
0.0618296 0.40441 0.372946
0.0648356 0.415579 0.38529
0.0699168 0.42562 0.395407
0.0820783 0.433707 0.405173
0.116335 0.436683 0.394644
0.175174 0.434562 0.357
0.243107 0.430396 0.313069
0.311421 0.425803 0.274296
0.35787 0.426871 0.245426
0.386954 0.432929 0.222354
0.422827 0.436484 0.208789
0.462425 0.437201 0.203449
0.498909 0.436805 0.197848
0.528832 0.44007 0.199283
0.553796 0.445579 0.203235
0.57641 0.450202 0.204135
0.600183 0.453101 0.204639
0.622034 0.458473 0.201099
0.643397 0.464973 0.190967
0.665614 0.471046 0.176089
0.688853 0.476509 0.160983
0.710216 0.482673 0.143938
0.729992 0.48838 0.134112
0.746822 0.495186 0.131151
0.758785 0.505089 0.128786
0.768902 0.513649 0.125185
0.781445 0.52369 0.128511
0.795071 0.533516 0.135912
0.807172 0.541207 0.143969
0.8112 0.550576 0.156085
0.812146 0.553307 0.159411
0.812146 0.553307 0.159411
0.0619516 0.422171 0.379416
0.0643473 0.433768 0.394614
0.0690318 0.443397 0.40827
0.0744793 0.454093 0.419776
0.0827192 0.462455 0.426703
0.107942 0.468757 0.423331
0.159396 0.470176 0.398657
0.226093 0.466621 0.358511
0.29781 0.461204 0.31667
0.364584 0.455451 0.285496
0.397192 0.458274 0.263172
0.423255 0.463661 0.244877
0.460914 0.465827 0.23769
0.502174 0.465064 0.23714
0.533211 0.467842 0.239307
0.557977 0.473289 0.243946
0.580987 0.478813 0.24889
0.604685 0.481636 0.249195
0.626184 0.485145 0.245243
0.648447 0.489937 0.233722
0.672633 0.495567 0.216327
0.697993 0.500954 0.1953
0.722774 0.506432 0.17464
0.741863 0.511833 0.16257
0.756924 0.518288 0.15555
0.770565 0.527794 0.147158
0.779004 0.536812 0.14287
0.790722 0.545876 0.148074
0.805005 0.554421 0.156619
0.817884 0.561028 0.163439
0.82121 0.570031 0.174975
0.822049 0.572396 0.177966
0.822019 0.57232 0.17789
0.066041 0.446097 0.406134
0.067689 0.456458 0.42089
0.0713664 0.467002 0.433371
0.0818952 0.480247 0.444541
0.0893873 0.48896 0.448768
0.103868 0.498573 0.450904
0.145998 0.50341 0.439658
0.210239 0.499763 0.407706
0.282521 0.492683 0.364874
0.353964 0.485267 0.332708
0.409613 0.483223 0.309285
0.433692 0.490974 0.287221
0.46067 0.497063 0.274556
0.507652 0.495293 0.276646
0.540017 0.495781 0.282551
0.563851 0.499519 0.285908
0.58677 0.504829 0.287007
0.604578 0.51133 0.28574
0.626764 0.513298 0.287984
0.654124 0.514931 0.280201
0.683421 0.518334 0.261524
0.711666 0.52372 0.235569
0.732067 0.528527 0.211658
0.74905 0.53373 0.191867
0.766247 0.540017 0.17792
0.786389 0.54818 0.170428
0.796063 0.558419 0.169482
0.804623 0.5691 0.174624
0.813794 0.578149 0.179751
0.823301 0.584421 0.183154
0.829908 0.59028 0.194827
0.831296 0.59147 0.19733
0.831266 0.591394 0.197253
0.0726177 0.468788 0.432441
0.0763867 0.478828 0.44062
0.0819409 0.491615 0.451774
0.0943923 0.502342 0.468055
0.104433 0.509102 0.479423
0.117113 0.517968 0.483268
0.14873 0.52578 0.476829
0.200595 0.52755 0.453727
0.266224 0.524102 0.415595
0.341283 0.517708 0.376806
0.405341 0.512383 0.348348
0.445533 0.512734 0.328298
0.469535 0.518578 0.309117
0.503349 0.522438 0.304845
0.538262 0.52372 0.312886
0.564965 0.525719 0.318639
0.587762 0.529458 0.320531
0.612696 0.534966 0.322896
0.636667 0.537346 0.323751
0.661768 0.539544 0.316075
0.68751 0.54287 0.29897
0.712795 0.547738 0.273335
0.736248 0.551186 0.248905
0.758785 0.55584 0.227512
0.779568 0.562051 0.212741
0.797421 0.570214 0.206302
0.802274 0.579461 0.205112
0.814389 0.586542 0.207248
0.827329 0.595041 0.210803
0.838087 0.606043 0.216648
0.842451 0.614313 0.224643
0.843351 0.616007 0.226383
0.843351 0.616007 0.226383
0.0840925 0.491203 0.459373
0.0903334 0.501411 0.467414
0.0964065 0.51223 0.478431
0.106355 0.522652 0.492836
0.116579 0.530694 0.503532
0.129442 0.538567 0.507362
0.153903 0.547784 0.505806
0.195361 0.553597 0.492271
0.253971 0.553811 0.46389
0.327062 0.548272 0.423957
0.394858 0.542 0.387945
0.45034 0.537957 0.364523
0.478004 0.541909 0.34995
0.50071 0.547784 0.341497
0.533776 0.550805 0.34078
0.566262 0.551675 0.34638
0.592737 0.553704 0.35201
0.618753 0.557321 0.35523
0.643778 0.560052 0.35407
0.668009 0.562783 0.349203
0.691875 0.566186 0.337392
0.716564 0.570886 0.316426
0.742382 0.5738 0.289616
0.765393 0.577966 0.264881
0.785382 0.583963 0.247852
0.801053 0.59147 0.238956
0.810956 0.600839 0.233371
0.824277 0.606683 0.236439
0.836759 0.614008 0.241764
0.846189 0.624475 0.247471
0.850446 0.634913 0.253285
0.85124 0.636606 0.254215
0.85124 0.636606 0.254215
0.0983749 0.513359 0.48481
0.10631 0.522133 0.495384
0.113222 0.530785 0.506371
0.120821 0.54255 0.516442
0.130114 0.553109 0.523552
0.144305 0.560204 0.527718
0.164797 0.568566 0.530739
0.198566 0.576089 0.52549
0.249165 0.579217 0.506508
0.315526 0.575128 0.469368
0.384512 0.570596 0.429038
0.445136 0.567041 0.401602
0.491051 0.565637 0.388434
0.509697 0.570962 0.380285
0.533852 0.576211 0.370626
0.566812 0.577127 0.372015
0.597543 0.57789 0.37969
0.62327 0.57995 0.38294
0.648676 0.583078 0.382849
0.673487 0.586069 0.381247
0.69778 0.589166 0.374319
0.722408 0.592584 0.358999
0.748028 0.595575 0.330541
0.768933 0.600183 0.302892
0.787701 0.60589 0.282399
0.80473 0.612573 0.269856
0.82092 0.621881 0.260319
0.833219 0.628702 0.264866
0.842725 0.634852 0.271122
0.850172 0.64239 0.276402
0.856321 0.652613 0.282231
0.857038 0.653925 0.282719
0.857038 0.653925 0.282719
0.112718 0.533165 0.504463
0.12137 0.540703 0.516274
0.132784 0.549935 0.528084
0.142184 0.562692 0.537972
0.150805 0.57438 0.544915
0.167575 0.580392 0.549111
0.187732 0.58613 0.555871
0.216114 0.592676 0.554253
0.257557 0.597604 0.538537
0.313161 0.597742 0.507576
0.37821 0.59649 0.472221
0.439994 0.594354 0.443671
0.493126 0.59292 0.423484
0.529992 0.595758 0.408957
0.541451 0.599893 0.403204
0.565759 0.601389 0.399054
0.597406 0.601572 0.401099
0.625925 0.603265 0.405844
0.653559 0.607019 0.412543
0.679469 0.610239 0.409552
0.703319 0.61178 0.402487
0.725139 0.612787 0.392233
0.748562 0.616129 0.367803
0.77174 0.622538 0.340734
0.795071 0.628794 0.318883
0.815381 0.634333 0.304616
0.826856 0.641199 0.297292
0.83975 0.648859 0.296513
0.849668 0.655756 0.300069
0.857359 0.662715 0.307622
0.864256 0.670222 0.317205
0.865034 0.671061 0.318074
0.865003 0.671 0.317922
0.13022 0.550256 0.529747
0.139391 0.559228 0.541207
0.151492 0.568994 0.552529
0.163561 0.578759 0.560159
0.176333 0.587823 0.563821
0.19353 0.59617 0.567132
0.212894 0.604089 0.568856
0.241184 0.609445 0.569543
0.27895 0.613092 0.56379
0.322499 0.617823 0.543496
0.38117 0.618097 0.510552
0.441123 0.617334 0.478202
0.493553 0.616861 0.453101
0.533806 0.616602 0.437613
0.556741 0.617884 0.433295
0.566949 0.624887 0.428672
0.591394 0.628519 0.424414
0.628016 0.628244 0.426154
0.656611 0.630945 0.431373
0.683833 0.635447 0.430716
0.7084 0.637644 0.427024
0.730983 0.636591 0.419745
0.75378 0.639735 0.400931
0.779004 0.644388 0.379126
0.802029 0.650492 0.356344
0.820722 0.656626 0.337484
0.833875 0.661585 0.331502
0.847181 0.669581 0.334188
0.857343 0.677607 0.33994
0.865553 0.68545 0.347723
0.872465 0.691798 0.355413
0.873091 0.692439 0.356161
0.87306 0.692363 0.356008
0.14789 0.568185 0.549447
0.159686 0.580819 0.560937
0.171054 0.58851 0.569665
0.184085 0.595178 0.576669
0.199908 0.604013 0.581659
0.2168 0.613062 0.583459
0.239948 0.620645 0.585153
0.269108 0.626535 0.588586
0.302159 0.631556 0.586954
0.338857 0.636561 0.572717
0.390097 0.638361 0.541787
0.445212 0.63946 0.510079
0.495811 0.639551 0.484962
0.536706 0.638132 0.469017
0.565362 0.639643 0.460029
0.583703 0.645136 0.457038
0.593194 0.653056 0.450065
0.626871 0.652903 0.442618
0.656306 0.655161 0.446494
0.687953 0.657542 0.450752
0.713085 0.659175 0.449668
0.735744 0.659602 0.443015
0.759365 0.663233 0.428809
0.785977 0.667277 0.408606
0.81004 0.671992 0.384588
0.829282 0.676295 0.364477
0.843534 0.680629 0.361318
0.854063 0.688807 0.369299
0.862806 0.696803 0.377737
0.872038 0.70518 0.385641
0.880415 0.711971 0.390921
0.880873 0.712352 0.391135
0.880873 0.712352 0.391135
0.165408 0.587854 0.5664
0.181018 0.603021 0.577478
0.191684 0.607401 0.583993
0.205402 0.612894 0.591989
0.22359 0.622827 0.599329
0.24152 0.630808 0.598428
0.26923 0.636408 0.604288
0.296666 0.643931 0.609293
0.32491 0.650706 0.607721
0.358953 0.654154 0.596857
0.402426 0.658442 0.569116
0.451911 0.660792 0.540444
0.500694 0.66096 0.516472
0.543526 0.660136 0.499336
0.569955 0.66363 0.485985
0.59588 0.667109 0.4795
0.607385 0.673487 0.473182
0.628168 0.676448 0.461555
0.654704 0.679347 0.462852
0.692424 0.677668 0.467872
0.719829 0.678447 0.467796
0.74107 0.681514 0.460883
0.76556 0.685939 0.44892
0.793454 0.690227 0.428046
0.819928 0.692805 0.405081
0.841047 0.694713 0.387976
0.853971 0.699016 0.387503
0.860838 0.706813 0.399573
0.867414 0.71458 0.409445
0.877256 0.723369 0.417014
0.887388 0.730632 0.421469
0.887724 0.7308 0.421515
0.887724 0.7308 0.421515
0.182605 0.60853 0.587915
0.201328 0.618997 0.596521
0.214145 0.625208 0.606683
0.231128 0.631601 0.613748
0.252934 0.63975 0.615488
0.273823 0.64828 0.611505
0.297292 0.65478 0.616953
0.321233 0.660273 0.624262
0.347417 0.665782 0.626551
0.378119 0.671519 0.620279
0.417884 0.677607 0.597528
0.463813 0.680293 0.566934
0.51104 0.681193 0.54023
0.554574 0.681666 0.522377
0.583612 0.683162 0.510536
0.610056 0.686015 0.501213
0.626978 0.691203 0.496239
0.634791 0.699443 0.489113
0.654078 0.704524 0.480491
0.694728 0.702724 0.475624
0.731304 0.702052 0.474891
0.755154 0.70576 0.468772
0.778546 0.708415 0.457969
0.805341 0.711116 0.441184
0.830243 0.712749 0.424277
0.849912 0.715221 0.411841
0.862776 0.719936 0.411002
0.870924 0.726345 0.425162
0.873915 0.735882 0.432029
0.880186 0.745556 0.437675
0.888747 0.750851 0.443061
0.888808 0.750729 0.442924
0.888808 0.750729 0.442924
0.205478 0.626017 0.61062
0.220127 0.635279 0.614878
0.236683 0.644724 0.622827
0.254383 0.650996 0.630167
0.275578 0.657862 0.633249
0.301122 0.667659 0.630976
0.322988 0.674281 0.636378
0.345739 0.678172 0.643381
0.36994 0.682765 0.647135
0.396643 0.689403 0.644175
0.433478 0.697414 0.628672
0.474388 0.700236 0.598749
0.518257 0.700801 0.5691
0.561654 0.700313 0.545037
0.594797 0.701289 0.527749
0.620706 0.705898 0.518288
0.641978 0.710643 0.514107
0.649256 0.718563 0.508583
0.661051 0.725078 0.49485
0.695552 0.727123 0.482689
0.738781 0.725017 0.474632
0.771405 0.724575 0.465156
0.796399 0.725429 0.454582
0.818372 0.727932 0.442267
0.838621 0.73022 0.432166
0.856352 0.733791 0.426551
0.870787 0.73933 0.429892
0.879896 0.745541 0.443183
0.883284 0.753826 0.452018
0.886915 0.763012 0.462867
0.890883 0.768765 0.472419
0.890883 0.768734 0.472389
0.890883 0.768734 0.472389
0.221469 0.645243 0.631251
0.234913 0.654139 0.634119
0.253834 0.663584 0.640146
0.273548 0.669657 0.646448
0.296101 0.675914 0.649088
0.322744 0.684581 0.647028
0.344259 0.691539 0.653208
0.366293 0.696635 0.660456
0.388159 0.701991 0.665354
0.411353 0.708919 0.665858
0.444038 0.71632 0.657481
0.481209 0.719814 0.631052
0.521859 0.720638 0.602884
0.564218 0.719951 0.576226
0.603403 0.720867 0.550072
0.628962 0.725734 0.537713
0.652232 0.729931 0.530434
0.666026 0.735988 0.521996
0.67306 0.744228 0.504128
0.703777 0.746624 0.48632
0.749401 0.74287 0.471397
0.78732 0.7402 0.458289
0.813642 0.741665 0.446281
0.832898 0.745434 0.436347
0.84947 0.748135 0.432486
0.864668 0.752621 0.435035
0.87866 0.75935 0.445579
0.887663 0.764706 0.461463
0.891981 0.771206 0.474861
0.894072 0.779706 0.489738
0.894926 0.785611 0.499825
0.894926 0.785626 0.499855
0.894911 0.785565 0.499763
0.230503 0.666423 0.649622
0.246708 0.67422 0.653483
0.265553 0.681788 0.660197
0.289998 0.688487 0.66421
0.315389 0.694224 0.66302
0.339345 0.700191 0.659098
0.360693 0.708095 0.666117
0.382803 0.715785 0.675227
0.403296 0.722942 0.681514
0.423743 0.729702 0.683894
0.45127 0.734462 0.68275
0.485023 0.739284 0.663844
0.522072 0.740948 0.642206
0.563256 0.740673 0.616068
0.609049 0.741604 0.582162
0.636454 0.744549 0.563592
0.66302 0.747845 0.549096
0.681743 0.753658 0.533654
0.687648 0.762692 0.510399
0.719219 0.761898 0.485603
0.765576 0.757061 0.466575
0.802396 0.755962 0.449897
0.829725 0.759335 0.435126
0.849729 0.764416 0.427024
