presets/5219_portrait3.cube
TITLE "Generated by Resolve"
LUT_3D_SIZE 9
0.0616617 0.0030518 0
0.0683146 0.0110475 0
0.172808 0.0113985 0
0.265476 0.0289616 0
0.325399 0.0536049 0.00289921
0.356649 0.104509 0.00994888
0.415442 0.156924 0
0.49395 0.193118 0.0125277
0.538674 0.227314 0.00538643
0.087068 0.0332952 0
0.123186 0.0679179 0
0.260899 0.0697795 0.0251164
0.353796 0.087068 0.0335699
0.432898 0.122759 0.037995
0.495537 0.166888 0.0449683
0.555138 0.231067 0.0136873
0.613031 0.267094 0.0141451
0.654521 0.29781 0.0080415
0.0861219 0.159289 0.121935
0.149218 0.193591 0.136721
0.323308 0.204273 0.00192264
0.444984 0.187304 0.0712596
0.530037 0.226383 0.0641031
0.588525 0.286473 0.000167849
0.652094 0.322194 0
0.706676 0.358968 0
0.741833 0.394415 0
0.0931716 0.312352 0.258915
0.120897 0.354894 0.312032
0.307851 0.354833 0.0632944
0.486778 0.362417 0
0.587732 0.368948 0.0087129
0.662806 0.392645 0.00222782
0.73785 0.416648 0
0.79144 0.455344 0
0.808789 0.477226 0
0.111803 0.418936 0.367575
0.140505 0.458366 0.415396
0.275273 0.476905 0.350668
0.477104 0.47953 0.133837
0.613672 0.480949 0.181765
0.695933 0.493294 0.197467
0.795026 0.510384 0.072221
0.849805 0.545373 0.0576333
0.870756 0.568933 0.069398
0.163989 0.500267 0.467262
0.204395 0.540505 0.504875
0.29337 0.570245 0.508202
0.48278 0.590372 0.335027
0.609567 0.597543 0.277317
0.736721 0.599512 0.318212
0.829511 0.612253 0.240253
0.890822 0.643458 0.209201
0.907637 0.66125 0.230198
0.231083 0.582681 0.557626
0.293385 0.620798 0.585473
0.382681 0.652476 0.604395
0.519051 0.683314 0.504585
0.651728 0.698344 0.377203
0.774533 0.708919 0.314519
0.884871 0.708705 0.286595
0.92958 0.736034 0.320317
0.939147 0.754345 0.338247
0.286595 0.67187 0.643748
0.359899 0.712093 0.667201
0.454551 0.745388 0.685267
0.549157 0.769528 0.690394
0.690517 0.785214 0.491356
0.841108 0.793301 0.259785
0.950607 0.796918 0.218616
0.964355 0.821714 0.394202
0.961517 0.834897 0.426291
0.391211 0.751812 0.729427
0.448508 0.78706 0.740475
0.526375 0.823621 0.752285
0.605844 0.847578 0.787305
0.726055 0.857893 0.644907
0.889982 0.866102 0.314321
0.976791 0.870085 0.312337
0.970626 0.894682 0.527337
0.966598 0.904677 0.566125
0.061799 0.00332647 0
0.0684062 0.0177157 0
0.189075 0.0204166 0
0.282963 0.0365301 0
0.343313 0.0617075 0.00553903
0.382162 0.115541 0.0163729
0.445197 0.165576 0.00802625
0.520607 0.202838 0.0214542
0.569146 0.232624 0.0227054
0.0874495 0.0446632 0.0061799
0.126543 0.0872816 0.0296178
0.273411 0.0818647 0.0307012
0.37499 0.099794 0.0445411
0.447471 0.137942 0.0500954
0.515251 0.182071 0.0517433
0.573297 0.24097 0.0154879
0.633509 0.278935 0.0154879
0.668025 0.303944 0.0112764
0.0928969 0.177188 0.177768
0.146426 0.216159 0.200061
0.333425 0.220081 0.00511177
0.464134 0.20853 0.0874189
0.540139 0.243305 0.0725109
0.601389 0.30135 0.000854505
0.664836 0.338659 0
0.720516 0.375463 0
0.747662 0.404562 0
0.0952773 0.330556 0.292851
0.126467 0.370031 0.344991
0.315892 0.369543 0.123369
0.497063 0.377478 0.00585946
0.592615 0.384863 0.0656138
0.668925 0.40676 0.0354772
0.746044 0.432746 0
0.796063 0.466484 0.00349432
0.817853 0.490211 0.0297398
0.118029 0.433524 0.390219
0.144991 0.474495 0.434836
0.285847 0.490974 0.387778
0.487068 0.492164 0.196826
0.624521 0.496803 0.213443
0.700481 0.50808 0.244831
0.798444 0.527062 0.124544
0.851347 0.559091 0.113695
0.871626 0.581247 0.140108
0.174441 0.514992 0.48542
0.215427 0.554406 0.519966
0.304799 0.587594 0.533181
0.484428 0.604608 0.371572
0.615381 0.613504 0.318074
0.740185 0.612238 0.347906
0.828305 0.62565 0.304448
0.890043 0.66215 0.268879
0.903166 0.675715 0.285451
0.243626 0.595773 0.576074
0.306172 0.638682 0.599329
0.397803 0.671138 0.611048
0.535363 0.695338 0.549081
0.657298 0.711269 0.411887
0.779965 0.717418 0.35581
0.881956 0.725826 0.342794
0.93019 0.754742 0.365957
0.938491 0.767422 0.389181
0.300481 0.689097 0.666072
0.374868 0.725093 0.684367
0.470863 0.757382 0.691356
0.562051 0.782147 0.707042
0.689387 0.799725 0.519692
0.833783 0.807691 0.319371
0.940352 0.812741 0.281285
0.961715 0.834577 0.43534
0.96437 0.841886 0.478767
0.405371 0.762448 0.742657
0.468513 0.799649 0.766522
0.540108 0.836637 0.767803
0.619104 0.852827 0.792126
0.73257 0.867399 0.672465
0.882078 0.879362 0.371237
0.974258 0.880385 0.361715
0.969589 0.903105 0.551446
0.968292 0.908949 0.590982
0.057084 0.00450141 0.000320439
0.0592966 0.0316472 0.0476081
0.137087 0.0409552 0.0138247
0.257664 0.0523079 0.00451667
0.34464 0.0809033 0.0234531
0.40351 0.125795 0.0244907
0.481025 0.163729 0.03888
0.547692 0.200793 0.0582742
0.584817 0.236652 0.0872969
0.074052 0.0649882 0.115282
0.0988174 0.112093 0.175998
0.211582 0.127504 0.108782
0.350362 0.134798 0.0872816
0.439033 0.177478 0.114305
0.510338 0.203464 0.0994736
0.589502 0.247745 0.0654917
0.628595 0.287846 0.125994
0.659327 0.322499 0.14226
0.0823987 0.198871 0.271275
0.119051 0.247242 0.32372
0.271641 0.247272 0.254108
0.442069 0.237888 0.18024
0.539666 0.268193 0.151675
0.601389 0.316335 0.0778363
0.665599 0.351537 0.0523384
0.710735 0.387259 0.129686
0.738598 0.41474 0.159411
0.100496 0.338338 0.379873
0.123323 0.384649 0.417945
0.294911 0.380789 0.371649
0.473014 0.391333 0.204807
0.573175 0.400381 0.224781
0.656962 0.422721 0.194751
0.734707 0.446479 0.120455
0.781521 0.480171 0.167147
0.803647 0.505486 0.198428
0.130877 0.434745 0.466285
0.15845 0.481056 0.499687
0.297871 0.495033 0.475441
0.481834 0.505684 0.345159
0.614176 0.508904 0.328939
0.693309 0.525017 0.355306
0.776013 0.544396 0.294759
0.828824 0.576394 0.290257
0.846555 0.600443 0.312398
0.191913 0.517968 0.549477
0.234531 0.561715 0.574105
0.327672 0.596811 0.563027
0.473671 0.61265 0.53431
0.619959 0.626245 0.412421
0.737789 0.625834 0.423423
0.803983 0.64625 0.436957
0.855299 0.682597 0.440787
0.876661 0.705013 0.434272
0.254246 0.604974 0.623255
0.315419 0.650889 0.642618
0.408362 0.687266 0.631098
0.512871 0.713771 0.639521
0.635828 0.733333 0.500694
0.755306 0.737499 0.446372
0.854429 0.747326 0.474403
0.900862 0.774823 0.49807
0.915084 0.787686 0.505272
0.318898 0.698695 0.693599
0.38436 0.737911 0.713314
0.485252 0.776745 0.705928
0.571206 0.800092 0.721904
0.677638 0.816297 0.590402
0.77499 0.832074 0.497856
0.885481 0.834928 0.494759
0.939025 0.847791 0.552499
0.942901 0.856245 0.574365
0.427909 0.775662 0.765988
0.487327 0.813901 0.787427
0.550179 0.848173 0.789395
0.624353 0.870634 0.795697
0.731411 0.878416 0.754208
0.830259 0.896803 0.551537
0.906157 0.907897 0.542626
0.953841 0.919463 0.631678
0.954025 0.927916 0.652415
0.0545815 0.012604 0.0317845
0.0604868 0.0382391 0.177279
0.104906 0.0744488 0.117891
0.22269 0.0783551 0.092958
0.301167 0.102617 0.117067
0.371725 0.157961 0.116045
0.465202 0.186114 0.0977646
0.524208 0.231678 0.140917
0.556176 0.268574 0.182757
0.06598 0.0799268 0.258076
0.0941329 0.128374 0.308843
0.184527 0.161425 0.24358
0.317769 0.167742 0.209781
0.397589 0.191058 0.225406
0.466545 0.268544 0.22591
0.553567 0.278859 0.198688
0.593576 0.322881 0.253254
0.618845 0.358129 0.298726
0.0816663 0.210056 0.383948
0.105608 0.259754 0.428702
0.24126 0.269749 0.409308
0.383917 0.289815 0.339666
0.478477 0.320943 0.312795
0.55671 0.343755 0.292653
0.645045 0.370535 0.273671
0.676738 0.41236 0.339651
0.696452 0.441596 0.379355
0.110124 0.336568 0.438254
0.139376 0.385855 0.483848
0.256229 0.400061 0.499733
0.432624 0.404578 0.433616
0.544152 0.415091 0.384558
0.637293 0.435721 0.37232
0.713283 0.464347 0.367391
0.754208 0.498421 0.404288
0.775006 0.521767 0.434669
0.156466 0.4336 0.525765
0.193271 0.478035 0.575097
0.286015 0.509682 0.559121
0.460563 0.515755 0.509407
0.595575 0.526726 0.448554
0.690974 0.537026 0.467872
0.760967 0.560998 0.468894
0.810269 0.59411 0.484382
0.828641 0.61944 0.487373
0.227909 0.514778 0.609049
0.275074 0.55555 0.639536
0.358129 0.599908 0.619074
0.481651 0.624262 0.599893
0.607813 0.642145 0.5093
0.73167 0.643412 0.482231
0.797162 0.664973 0.517891
0.842435 0.697414 0.554116
0.857176 0.713573 0.558068
0.288014 0.609171 0.673732
0.344442 0.655253 0.697932
0.426215 0.696284 0.673899
0.520912 0.726802 0.682048
0.627604 0.746899 0.630488
0.736278 0.758389 0.52961
0.845136 0.762249 0.553246
0.887846 0.786297 0.585733
0.906065 0.801312 0.594537
0.344381 0.708965 0.735134
0.406912 0.748241 0.751873
0.497673 0.783719 0.731426
0.58529 0.806455 0.745251
0.685405 0.82266 0.693843
0.787808 0.836423 0.596643
0.853727 0.853071 0.592721
0.922057 0.867369 0.629801
0.932769 0.874723 0.642313
0.459571 0.779706 0.798154
0.510948 0.820493 0.815946
0.567681 0.858061 0.813352
0.636179 0.883085 0.812222
0.737758 0.890501 0.785824
0.837247 0.904723 0.656504
0.873594 0.92343 0.65832
0.91957 0.937636 0.696483
0.935317 0.941588 0.707378
0.0573739 0.0152438 0.189563
0.0626688 0.0421302 0.307912
0.117281 0.0676432 0.301625
0.246845 0.0637675 0.312154
0.35288 0.0844739 0.312276
0.401709 0.142824 0.262135
0.427436 0.211734 0.228641
0.497566 0.293782 0.247852
0.536934 0.321736 0.275883
0.0686809 0.0900282 0.353246
0.105974 0.128069 0.404089
0.194842 0.15993 0.389654
0.334325 0.159792 0.395514
0.440787 0.179034 0.397543
0.487999 0.24007 0.359304
0.518975 0.314748 0.329046
0.575128 0.390692 0.350301
0.601465 0.407218 0.367422
0.082002 0.216846 0.501152
0.10602 0.268498 0.537423
0.242161 0.28011 0.495918
0.369192 0.305959 0.453773
0.484855 0.322377 0.438682
0.546441 0.357733 0.41593
0.597391 0.433646 0.411765
0.643503 0.469108 0.429221
0.671305 0.492821 0.451591
0.107286 0.343084 0.519997
0.139925 0.390341 0.579034
0.264561 0.40621 0.570703
0.408133 0.417807 0.552697
0.535454 0.437339 0.492866
0.608072 0.478019 0.470253
0.660792 0.507622 0.471305
0.708659 0.536019 0.496941
0.73225 0.554665 0.515389
0.168124 0.44062 0.582162
0.206241 0.485496 0.628992
0.293355 0.513787 0.62594
0.451255 0.525902 0.611841
0.578729 0.541039 0.559609
0.667353 0.557061 0.532784
0.736309 0.583185 0.549371
0.786038 0.618189 0.578698
0.804761 0.638529 0.59704
0.254231 0.524147 0.644053
0.30193 0.563638 0.686259
0.369055 0.605737 0.687877
0.488914 0.631342 0.663279
0.608621 0.649317 0.629938
0.724407 0.657893 0.576913
0.793576 0.678447 0.607492
0.839841 0.708843 0.647242
0.857176 0.7243 0.657282
0.331899 0.608072 0.712825
0.372778 0.654826 0.743252
0.443534 0.70341 0.731594
0.540581 0.731472 0.719524
0.637781 0.749844 0.714
0.745953 0.764813 0.618418
0.839139 0.775372 0.621912
0.88333 0.802335 0.662593
0.896376 0.811185 0.677394
0.38265 0.706111 0.775311
0.431495 0.751965 0.796948
0.517327 0.789639 0.778637
0.603662 0.817136 0.781842
0.691081 0.831693 0.774365
0.781384 0.849149 0.674189
0.838575 0.868559 0.671229
0.921279 0.876539 0.706462
0.936049 0.88629 0.720867
0.4963 0.782818 0.832425
0.541787 0.821622 0.850843
0.585321 0.859571 0.844236
0.649912 0.886275 0.840696
0.748775 0.896574 0.821149
0.82858 0.911818 0.729763
0.877195 0.928985 0.745129
0.918868 0.944518 0.766339
0.938094 0.945953 0.777493
0.0580911 0.0200504 0.31783
0.0699016 0.0450294 0.3841
0.143679 0.0651255 0.375998
0.255818 0.0676432 0.422583
0.342184 0.0855421 0.459876
0.421805 0.128374 0.437232
0.480995 0.194308 0.386618
0.517205 0.26247 0.356405
0.535546 0.308217 0.361486
0.0726329 0.0986496 0.428046
0.114443 0.138338 0.483268
0.226337 0.154147 0.455772
0.336095 0.162005 0.505486
0.436988 0.176745 0.540154
0.510552 0.229053 0.515709
0.559945 0.293736 0.463493
0.592538 0.352911 0.439811
0.610636 0.389944 0.446189
0.0834211 0.232746 0.577111
0.102541 0.287892 0.586664
0.261814 0.288014 0.558816
0.373846 0.306447 0.548363
0.493126 0.313344 0.575509
0.572824 0.353658 0.546365
0.618235 0.401038 0.512505
0.65597 0.449439 0.508339
0.671138 0.479286 0.515053
0.105074 0.355657 0.602823
0.140948 0.399298 0.653025
0.276051 0.415549 0.631205
0.411841 0.428092 0.622675
0.526406 0.45124 0.583917
0.62031 0.470268 0.565942
0.676768 0.499489 0.567071
0.718746 0.555032 0.579492
0.740185 0.600275 0.593866
0.172717 0.454154 0.634119
0.213458 0.493965 0.680201
0.306706 0.524666 0.688411
0.456397 0.536843 0.681407
0.57937 0.54934 0.651865
0.667109 0.571435 0.617166
0.727077 0.615457 0.626612
0.76376 0.659815 0.636332
0.782498 0.675776 0.650248
0.269856 0.533013 0.681331
0.311513 0.571878 0.725063
0.379538 0.616495 0.733394
0.497658 0.643076 0.727672
0.610834 0.656992 0.711452
0.706981 0.674128 0.669825
0.775357 0.695872 0.678676
0.820523 0.727291 0.707301
0.841932 0.746426 0.726619
0.352438 0.618875 0.744472
0.398901 0.666163 0.778485
0.46096 0.707912 0.787274
0.55111 0.737346 0.776837
0.64802 0.754177 0.772
0.743603 0.770047 0.717281
0.833005 0.786572 0.704128
0.873671 0.810544 0.750759
0.885908 0.816709 0.785855
0.423941 0.710628 0.815747
0.469047 0.753048 0.838087
0.539132 0.794186 0.838132
0.613001 0.820874 0.824094
0.702235 0.835645 0.823743
0.790112 0.85037 0.781552
0.848325 0.871412 0.757122
0.915175 0.883467 0.788128
0.925048 0.885405 0.793988
0.535805 0.779812 0.870802
0.575082 0.82089 0.88217
0.613886 0.859846 0.883406
0.669795 0.889235 0.873365
0.762875 0.895567 0.861799
0.840589 0.911009 0.832883
0.89337 0.927825 0.820066
0.933211 0.940215 0.831754
0.935195 0.950408 0.835203
0.0604562 0.0303044 0.340642
0.0692912 0.0605325 0.418463
0.163882 0.0738231 0.399802
0.274891 0.0763409 0.461738
0.355581 0.0936904 0.526131
0.427008 0.136156 0.53698
0.489693 0.186358 0.499443
0.54255 0.258778 0.472404
0.567697 0.302571 0.483864
0.071397 0.12195 0.466621
0.109621 0.160693 0.527016
0.246525 0.165606 0.491966
0.358236 0.170321 0.541283
0.446479 0.187228 0.599313
0.508339 0.232853 0.612284
0.575708 0.285161 0.57348
0.616556 0.3505 0.558785
0.640879 0.392813 0.552728
0.0864271 0.260075 0.607309
0.106188 0.306889 0.629175
0.274815 0.296925 0.603098
0.399176 0.311391 0.606455
0.512215 0.309957 0.650965
0.588235 0.337896 0.657603
0.637675 0.390188 0.629755
0.68011 0.448676 0.605982
0.702403 0.477333 0.616754
0.107439 0.368582 0.658732
0.146426 0.414618 0.686503
0.293065 0.425834 0.672206
0.436805 0.429816 0.687099
0.542519 0.443656 0.695689
0.633417 0.461494 0.687465
0.700511 0.49659 0.671214
0.739574 0.542428 0.663752
0.761837 0.56585 0.677348
0.181262 0.462318 0.682383
0.224659 0.505714 0.717113
0.327108 0.531731 0.731395
0.473136 0.541558 0.728817
0.580591 0.559976 0.729107
0.671092 0.579248 0.695903
0.740505 0.605585 0.703288
0.786633 0.637522 0.717128
0.804471 0.659998 0.71632
0.275578 0.545052 0.725353
0.321218 0.586709 0.761532
0.393637 0.626261 0.779751
0.506508 0.653941 0.775509
0.617227 0.664652 0.77467
0.714229 0.679622 0.743465
0.776944 0.711131 0.741695
0.823438 0.752697 0.762203
0.842008 0.766888 0.778119
0.362737 0.629358 0.779049
0.411978 0.675975 0.816693
0.478614 0.717403 0.82359
0.565133 0.745953 0.822293
0.651545 0.764279 0.820203
0.756191 0.778622 0.795956
0.820935 0.799115 0.784054
0.865446 0.825071 0.816663
0.87895 0.841199 0.832547
0.451881 0.719753 0.833143
0.500237 0.757244 0.86305
0.559442 0.796567 0.861753
0.628534 0.827848 0.868055
0.711009 0.839979 0.864637
0.800977 0.853666 0.845167
0.857832 0.872786 0.827466
0.913909 0.889158 0.844022
0.9234 0.896742 0.873045
0.571389 0.783383 0.877333
0.610056 0.82504 0.898421
0.635798 0.863371 0.905318
0.694118 0.889708 0.901915
0.782071 0.900999 0.897002
0.857038 0.912352 0.884978
0.904677 0.927245 0.874662
0.931624 0.947219 0.890455
0.939101 0.949645 0.899107
0.0614786 0.0451514 0.373678
0.07364 0.0824292 0.438422
0.180148 0.0882429 0.4206
0.286046 0.0963149 0.469078
0.377325 0.106249 0.542763
0.439155 0.149218 0.559091
0.507149 0.205051 0.54139
0.549905 0.268894 0.525261
0.582635 0.313512 0.542321
0.073228 0.14313 0.497948
0.122347 0.179507 0.543008
0.260121 0.182544 0.508904
0.37351 0.190936 0.557076
0.460502 0.203342 0.614664
0.526543 0.245045 0.633844
0.582238 0.299702 0.61471
0.621622 0.358999 0.607889
0.650034 0.390341 0.61619
0.0877852 0.272786 0.612055
0.126696 0.318624 0.641154
0.299794 0.303899 0.647334
0.41799 0.314397 0.646036
0.523751 0.327352 0.682277
0.599634 0.347112 0.699748
0.655573 0.394095 0.69485
0.696788 0.444404 0.692424
0.712993 0.484779 0.682551
0.126772 0.384527 0.65211
0.170596 0.42678 0.686183
0.318181 0.432135 0.706279
0.454856 0.438453 0.726131
0.556878 0.448737 0.742092
0.653056 0.45069 0.768231
0.713008 0.492241 0.754665
0.752819 0.545983 0.727291
0.769757 0.574304 0.736171
0.199191 0.476036 0.702525
0.249012 0.517021 0.74229
0.356573 0.540017 0.75375
0.490227 0.552026 0.768322
0.591318 0.568276 0.773358
0.681834 0.584405 0.75729
0.753491 0.60705 0.765682
0.797314 0.646922 0.768887
0.820081 0.663508 0.778714
0.285344 0.561654 0.74966
0.337621 0.60267 0.790768
0.416144 0.638315 0.79939
0.517815 0.661311 0.815335
0.628275 0.674846 0.82327
0.721614 0.692287 0.78909
0.783978 0.717205 0.791775
0.835828 0.749844 0.809262
0.85275 0.760494 0.824216
0.377691 0.646082 0.810239
0.426474 0.686213 0.836728
0.499352 0.724453 0.847303
0.577676 0.75465 0.854841
0.666224 0.772488 0.863157
0.764385 0.786389 0.832563
0.825559 0.813169 0.830976
0.870024 0.835752 0.85098
0.88246 0.847944 0.861738
0.4878 0.726162 0.852888
0.536171 0.763348 0.882765
0.584802 0.801755 0.884611
0.651713 0.830106 0.889509
0.731334 0.843565 0.892195
0.811017 0.859464 0.883024
0.86894 0.879332 0.879011
0.910582 0.897993 0.896864
0.919905 0.906661 0.901656
0.599222 0.79086 0.888441
0.63418 0.828534 0.907591
0.667491 0.865171 0.915648
0.723049 0.888243 0.917556
0.796109 0.903929 0.917647
0.863386 0.914763 0.919249
0.913985 0.92845 0.917723
0.942809 0.948699 0.919799
0.946426 0.955261 0.922545
0.0630198 0.052079 0.406226
0.0917525 0.0843366 0.451911
0.194018 0.106035 0.439902
0.286625 0.121202 0.483116
0.383795 0.133242 0.541894
0.45478 0.174548 0.570764
0.512779 0.229435 0.554452
0.563088 0.283726 0.574853
0.588266 0.327062 0.591638
0.0935836 0.149813 0.52311
0.156893 0.181872 0.557122
0.279286 0.196643 0.536782
0.372259 0.219455 0.574578
0.471183 0.232105 0.622629
0.533913 0.27068 0.633982
0.592386 0.322011 0.637293
0.632532 0.371725 0.65362
0.654932 0.408621 0.660578
0.104753 0.289799 0.596963
0.161227 0.327321 0.632944
0.325734 0.311543 0.663401
0.438697 0.325216 0.685664
0.528893 0.345708 0.716197
0.60351 0.371176 0.725902
0.664469 0.405859 0.736522
0.705776 0.457298 0.735195
0.723033 0.499275 0.720775
0.150607 0.401877 0.639002
0.207736 0.442145 0.672618
0.339773 0.446189 0.717296
0.467018 0.452811 0.74818
0.566857 0.466453 0.76405
0.657893 0.466331 0.8009
0.728969 0.501884 0.797665
0.761059 0.555947 0.76672
0.782742 0.586679 0.768154
0.225406 0.491188 0.696941
0.278065 0.529274 0.727489
0.37702 0.552911 0.767224
0.508797 0.561807 0.795972
0.605707 0.579293 0.797543
0.693385 0.595605 0.781033
0.768246 0.613672 0.804837
0.810269 0.656764 0.807126
0.830488 0.676692 0.813153
0.316701 0.570062 0.756283
0.36585 0.612497 0.792126
0.439902 0.64976 0.816709
0.535729 0.670878 0.844877
0.642741 0.678141 0.849867
0.736294 0.701656 0.818784
0.802243 0.724819 0.826841
0.844083 0.756542 0.846204
0.860807 0.770993 0.855238
0.415625 0.653941 0.815808
0.464347 0.69453 0.843687
0.5252 0.735592 0.866514
0.596048 0.760296 0.881453
0.683375 0.777218 0.88864
0.775296 0.79527 0.862287
0.831907 0.821653 0.861708
0.874144 0.843153 0.884092
0.887984 0.854887 0.891402
0.52668 0.729671 0.857847
0.56994 0.772335 0.881666
0.611948 0.807919 0.899611
0.67541 0.834028 0.90692
0.749081 0.847578 0.908614
0.825696 0.86479 0.901183
0.873426 0.88719 0.900099
0.919219 0.90753 0.916365
0.925353 0.914534 0.907591
0.623621 0.800427 0.881437
0.660197 0.835828 0.904799
0.701259 0.869215 0.919081
0.751888 0.892226 0.929229
0.816968 0.908354 0.935592
0.875364 0.922972 0.935882
0.919142 0.939193 0.940139
0.953063 0.952224 0.94754
0.953796 0.958312 0.946624
