presets/5219_warm.cube
TITLE "Generated by Resolve"
LUT_3D_SIZE 5
0.000350958 0.0304417 0
0.114504 0.0327001 0
0.452506 0.0818494 0
0.531579 0.195819 0
0.630137 0.269337 0
0.0599374 0.173968 0.120089
0.310201 0.244114 0
0.639963 0.302052 0
0.686091 0.371603 0
0.768505 0.436667 0
0.111406 0.467552 0.308888
0.340368 0.522957 0.268864
0.592447 0.550652 0.193622
0.766873 0.583215 0.103059
0.833051 0.63772 0.0669261
0.31136 0.639567 0.4934
0.489601 0.70071 0.573388
0.58555 0.781491 0.304143
0.814878 0.780819 0.351949
0.87628 0.821347 0.385214
0.503288 0.806012 0.683253
0.648753 0.852522 0.75845
0.682979 0.939284 0.405539
0.860227 0.940764 0.434699
0.903639 0.958526 0.616587
0.000274662 0.0237583 3.0518e-05
0.085359 0.061677 0
0.474006 0.113405 0
0.594949 0.225513 0
0.699947 0.299168 0
0.00109865 0.239612 0.207019
0.287816 0.277043 0.244831
0.665949 0.368811 0.117357
0.705699 0.406821 0.000915541
0.796445 0.480125 0.0678111
0.109926 0.49189 0.365637
0.3935 0.525856 0.458228
0.619928 0.565972 0.350912
0.789837 0.607034 0.316976
0.861524 0.657771 0.32253
0.325383 0.666773 0.557015
0.523934 0.721843 0.628611
0.60737 0.800855 0.430091
0.814282 0.801907 0.5187
0.882658 0.8374 0.564614
0.529412 0.827787 0.721462
0.671138 0.872969 0.777981
0.764904 0.922637 0.659861
0.812604 0.975174 0.599741
0.905165 0.970321 0.731365
0 0.0349889 0.101228
0.0068513 0.104601 0.253437
0.375326 0.10663 0.237232
0.509926 0.211353 0.199542
0.69868 0.396124 0.195636
0 0.283085 0.411215
0.222568 0.319036 0.484398
0.524514 0.352712 0.427085
0.70106 0.477455 0.395514
0.837201 0.58764 0.451102
0.0984817 0.524193 0.458289
0.325795 0.572229 0.554391
0.63357 0.583658 0.554513
0.85211 0.682246 0.538064
0.927611 0.74374 0.576913
0.329427 0.691783 0.656931
0.531701 0.748394 0.683909
0.702174 0.780575 0.719356
0.829892 0.817502 0.652094
0.908858 0.84828 0.727443
0.529549 0.85069 0.790387
0.684047 0.8934 0.817609
0.8224 0.914748 0.853284
0.868727 0.965225 0.794446
0.914839 0.978729 0.840543
0 0.0408026 0.373587
0.0861677 0.0927443 0.431632
0.376745 0.107042 0.521309
0.534936 0.193118 0.498497
0.617472 0.306096 0.435828
0 0.313695 0.588724
0.272877 0.332113 0.619867
0.532387 0.358755 0.646952
0.677287 0.42977 0.608255
0.748211 0.504509 0.587915
0.0621347 0.560098 0.577874
0.32343 0.597787 0.709422
0.623606 0.603861 0.740154
0.77261 0.644953 0.705364
0.843427 0.698558 0.734081
0.33521 0.723629 0.743175
0.501686 0.778225 0.781628
0.687892 0.799863 0.836667
0.855406 0.826902 0.81912
0.91397 0.866041 0.869963
0.551431 0.865507 0.877546
0.672206 0.913298 0.879622
0.831083 0.928603 0.918685
0.932158 0.950713 0.955276
0.955978 0.972457 0.983734
0 0.0693828 0.431739
0.137682 0.113588 0.48249
0.412177 0.12813 0.594141
0.551659 0.211383 0.644358
0.638071 0.314519 0.591669
0 0.363424 0.614343
0.327031 0.347677 0.718868
0.564843 0.372656 0.766491
0.705531 0.428428 0.799451
0.769528 0.510857 0.768597
0.0906539 0.587808 0.659541
0.385687 0.607828 0.808209
0.63975 0.619638 0.855207
0.791043 0.65565 0.842451
0.854063 0.709285 0.855985
0.356023 0.746609 0.808499
0.515206 0.798825 0.867308
0.718715 0.811536 0.941741
0.857786 0.849424 0.91342
0.913024 0.883131 0.952178
0.599557 0.872389 0.908949
0.705882 0.918196 0.928664
0.845457 0.937179 0.977523
0.947616 0.960266 0.99881
0.973877 0.979965 0.999466
