presets/5219_portrait1.cube
TITLE "Generated by Resolve"
LUT_3D_SIZE 33
0 0.00115969 0.00138857
0 0.00135805 0
0 0.00157168 0
0 0.00502022 0
0.00141909 0.00979629 0.000274662
0.0207675 0.0123598 0.00302129
0.0551156 0.013611 0.00015259
0.0979171 0.01355 0
0.147295 0.012253 0
0.198611 0.0116274 0
0.234958 0.0130312 0
0.267781 0.0149691 0
0.299306 0.0185855 0
0.325643 0.0234531 0
0.346563 0.0263066 0
0.363607 0.0315557 0
0.373571 0.0428321 0
0.373419 0.0610056 0.000396735
0.368826 0.0789654 0.00166323
0.367025 0.0948653 0.00320439
0.367559 0.107042 0.00434882
0.378378 0.118242 0.00564584
0.399054 0.133791 0.00698863
0.414328 0.14931 0.00784314
0.429816 0.163149 0.0091249
0.450462 0.175128 0.0102235
0.474357 0.185138 0.0112154
0.499535 0.194659 0.012192
0.524529 0.206821 0.0135805
0.544076 0.220981 0.0149538
0.561151 0.234409 0.0162814
0.575509 0.244373 0.0173648
0.579767 0.247196 0.0176547
0 0.00196841 0.00863661
0.000122072 0.00556954 0
0.00267033 0.0101472 0.000717174
0.00682078 0.0143587 0.0103914
0.0127413 0.0191348 0.0162814
0.0336461 0.0231327 0.010132
0.070985 0.0231174 0.00251774
0.121416 0.0213931 0
0.174472 0.0205997 0
0.217197 0.0214389 0
0.254902 0.0265354 0
0.289906 0.0296178 0
0.323171 0.0300298 0
0.350637 0.0331579 0
0.368811 0.0409857 0
0.382818 0.0474556 0
0.394736 0.0569772 0
0.401221 0.0737774 0.000640879
0.400305 0.0936904 0.00248722
0.400885 0.111727 0.0043183
0.406226 0.12314 0.00549325
0.418479 0.135851 0.00669871
0.434577 0.154467 0.00834669
0.452384 0.17142 0.0099031
0.473671 0.183017 0.0110475
0.495796 0.192752 0.0120851
0.516884 0.203296 0.013138
0.538338 0.214359 0.0143893
0.560052 0.227283 0.0157626
0.579339 0.240558 0.0171359
0.596674 0.253971 0.0184024
0.609445 0.2645 0.0193484
0.612818 0.267308 0.0196078
0.000366217 0.00947585 0.0141146
0.00538643 0.0143893 0.0104524
0.00962844 0.0209964 0.0158541
0.0161593 0.0260471 0.0255741
0.0281987 0.0298161 0.0315404
0.0517739 0.037232 0.0226291
0.0912947 0.0370031 0.0136263
0.144427 0.0355993 0.00602731
0.20029 0.0348516 0.00123598
0.243809 0.0341497 0.00202945
0.284398 0.0382086 0
0.318334 0.0414435 0
0.348684 0.0431678 0.000366217
0.374838 0.0468605 0.000747692
0.392798 0.0562295 0
0.408362 0.0655985 4.57771e-05
0.421927 0.0763104 0.000595102
0.431296 0.0920424 0.00213626
0.434577 0.110887 0.00404364
0.439017 0.126375 0.00564584
0.448142 0.138689 0.00732433
0.460166 0.155123 0.00909438
0.475639 0.174701 0.0104524
0.494621 0.191424 0.0118563
0.516808 0.203754 0.013138
0.539239 0.214832 0.0144656
0.558907 0.226001 0.0156558
0.578225 0.237903 0.0168765
0.599115 0.250919 0.0182498
0.618326 0.264973 0.0196536
0.635401 0.278645 0.0209354
0.646693 0.287953 0.0218051
0.649287 0.29012 0.0220035
0.0130465 0.0195773 0.0229038
0.0153658 0.0256046 0.0281834
0.0187839 0.0343633 0.0345159
0.0277714 0.0400397 0.0426032
0.0448615 0.0440528 0.0474708
0.072755 0.0542763 0.0390021
0.113985 0.0542763 0.0280003
0.168643 0.0533761 0.0173495
0.228199 0.0524147 0.011017
0.276249 0.0495155 0.013901
0.31667 0.0497902 0.0156863
0.347921 0.0534524 0.0126955
0.375158 0.0586862 0.00839246
0.399588 0.0642252 0.00544747
0.418051 0.0735027 0.00172427
0.436393 0.086305 0.00148013
0.451102 0.0996719 0.00274662
0.460655 0.113588 0.00416571
0.468421 0.128389 0.00575265
0.47834 0.140429 0.00709544
0.49044 0.155474 0.00883497
0.503883 0.175875 0.0112459
0.520088 0.195117 0.0128634
0.537636 0.211078 0.0140536
0.557717 0.226459 0.0155795
0.578546 0.239628 0.0169985
0.597787 0.250889 0.018204
0.617273 0.26305 0.019501
0.637079 0.275303 0.020737
0.65565 0.290944 0.0222477
0.67245 0.304677 0.0235599
0.683436 0.312718 0.0243992
0.685573 0.314244 0.024567
0.0276951 0.032166 0.0413214
0.0304875 0.0395666 0.0471656
0.0387884 0.0489815 0.0517128
0.0504005 0.05832 0.0594339
0.0663615 0.0666361 0.063859
0.0921645 0.0729686 0.0554818
0.139254 0.0730755 0.0408789
0.198825 0.0714122 0.0337987
0.260166 0.0682383 0.0337835
0.308293 0.0658427 0.0312657
0.340749 0.0662699 0.0272831
0.371328 0.0707561 0.0256809
0.403098 0.0774243 0.0255589
0.42858 0.0856641 0.0226749
0.443122 0.096788 0.0157168
0.458427 0.109758 0.009308
0.473579 0.124529 0.00613413
0.486503 0.138018 0.00682078
0.499916 0.148135 0.00782788
0.518334 0.159335 0.010956
0.537591 0.177707 0.0127108
0.551308 0.201114 0.0134585
0.564645 0.222507 0.0154574
0.581964 0.239445 0.0170138
0.600473 0.253239 0.0184024
0.618647 0.264317 0.0196384
0.636271 0.274968 0.020676
0.65449 0.2869 0.0220035
0.672312 0.299443 0.0233616
0.687846 0.312871 0.0244907
0.705684 0.327108 0.0259556
0.718944 0.336904 0.0270085
0.721309 0.338628 0.0271916
0.0269322 0.053666 0.0628672
0.0370947 0.0624399 0.0654459
0.0480964 0.0722667 0.0727703
0.0615396 0.0818952 0.0821851
0.081178 0.0900893 0.0863966
0.113146 0.0943618 0.074876
0.160815 0.0961471 0.0594797
0.215106 0.0975814 0.0453498
0.273198 0.0956893 0.0394293
0.32192 0.0919814 0.038819
0.357916 0.0927596 0.0371405
0.390127 0.0992294 0.0360571
0.420584 0.108629 0.0346532
0.445914 0.118441 0.0314183
0.463233 0.128985 0.0260471
0.478386 0.140703 0.0204013
0.495155 0.151843 0.0157626
0.511513 0.159854 0.0147402
0.530205 0.168307 0.0180972
0.552148 0.184421 0.0189364
0.570382 0.206561 0.0162509
0.583352 0.230365 0.0163577
0.596368 0.250172 0.0181125
0.612619 0.265156 0.0195315
0.630716 0.278019 0.0207675
0.649378 0.289647 0.0219883
0.667613 0.301549 0.02327
0.684672 0.313298 0.0244297
0.700359 0.324681 0.0256199
0.717418 0.337194 0.0269322
0.734447 0.351919 0.0282444
0.745007 0.361898 0.0290684
0.746685 0.363516 0.0292058
0.0288396 0.0827955 0.0892958
0.0406348 0.0923781 0.0955367
0.0528725 0.102159 0.104601
0.0682841 0.111925 0.111986
0.090074 0.120211 0.110918
0.127031 0.124819 0.0963149
0.179629 0.125338 0.0796063
0.231846 0.124224 0.0664225
0.280766 0.125124 0.0550088
0.327245 0.127657 0.0494545
0.367697 0.130358 0.0472572
0.402594 0.136904 0.045182
0.433433 0.145541 0.0438849
0.46006 0.154818 0.0430915
0.480262 0.163714 0.0400244
0.497749 0.170581 0.0354467
0.519829 0.176394 0.0335546
0.542382 0.183337 0.0329747
0.562829 0.197528 0.0295872
0.581033 0.219806 0.0230106
0.595773 0.242695 0.0189059
0.609979 0.263645 0.0193637
0.625101 0.28011 0.020676
0.642161 0.29276 0.0218662
0.66128 0.30428 0.0231785
0.680354 0.316426 0.0243992
0.697597 0.32845 0.0255894
0.713146 0.340352 0.0267643
0.727504 0.352758 0.0278325
0.743725 0.366445 0.0290684
0.758968 0.380987 0.0301976
0.767422 0.389776 0.0308385
0.768551 0.390997 0.03093
0.0272221 0.118486 0.125551
0.0382239 0.128405 0.135134
0.053193 0.138109 0.145251
0.0698253 0.147936 0.148867
0.0934462 0.157214 0.142061
0.128817 0.164446 0.120867
0.174563 0.167437 0.0933547
0.234134 0.165286 0.0769513
0.292699 0.161135 0.0706188
0.344625 0.156802 0.0679484
0.381872 0.15848 0.0622416
0.416342 0.163668 0.0560464
0.44715 0.171252 0.0540322
0.474922 0.180743 0.0561074
0.500832 0.188342 0.057084
0.526528 0.195499 0.0544747
0.551766 0.207294 0.0502632
0.571496 0.222187 0.0416266
0.588327 0.240208 0.0317998
0.604562 0.261219 0.0249638
0.617853 0.282445 0.0216678
0.634287 0.299718 0.0218662
0.65304 0.31281 0.0230869
0.672129 0.323186 0.0242924
0.692576 0.333165 0.0256199
0.710887 0.345129 0.0267491
0.725795 0.356054 0.0278019
0.739925 0.368368 0.0288853
0.753185 0.382986 0.0298161
0.765499 0.398459 0.0308537
0.779461 0.41355 0.0318456
0.787579 0.42182 0.0324865
0.788479 0.422751 0.0325628
0.0180819 0.158831 0.16527
0.0295109 0.168627 0.17351
0.0494087 0.177539 0.18558
0.0690776 0.186648 0.194598
0.0936599 0.195026 0.186343
0.133455 0.199466 0.155428
0.180087 0.201907 0.11899
0.222416 0.210681 0.0893263
0.281697 0.214496 0.0729534
0.344564 0.210101 0.0635233
0.394293 0.202502 0.0572366
0.43447 0.198535 0.0551461
0.468544 0.198672 0.0586709
0.499931 0.205493 0.0625162
0.528115 0.218189 0.0611582
0.550988 0.232883 0.0561074
0.570916 0.247684 0.0505379
0.588083 0.26276 0.0420539
0.604974 0.27866 0.032639
0.622156 0.29659 0.0252689
0.638407 0.316701 0.0229496
0.655589 0.332677 0.0235904
0.675837 0.345388 0.0248112
0.696437 0.355917 0.0261234
0.714366 0.364309 0.0272831
0.730938 0.375814 0.028275
0.746792 0.387137 0.0294041
0.760891 0.399008 0.0305028
0.772869 0.412116 0.0313115
0.785763 0.424033 0.0323186
0.795605 0.444541 0.033051
0.799771 0.45655 0.0332189
0.800076 0.457435 0.0332189
0.0154574 0.198016 0.204303
0.0256962 0.209369 0.213092
0.0409857 0.219394 0.227283
0.0574197 0.230579 0.23592
0.0829633 0.239124 0.227893
0.127703 0.242298 0.1935
0.18291 0.244358 0.149645
0.221332 0.252705 0.115602
0.259373 0.263508 0.0832837
0.316335 0.267094 0.0604715
0.374395 0.263294 0.0491646
0.426505 0.25626 0.0487678
0.471916 0.252659 0.0521706
0.510079 0.256535 0.0536202
0.537362 0.266514 0.0541085
0.557931 0.278965 0.0544289
0.577935 0.291798 0.0526284
0.598856 0.304417 0.0479591
0.619562 0.319402 0.0414588
0.638666 0.335988 0.033875
0.655756 0.352621 0.0260014
0.672923 0.366552 0.0243534
0.692683 0.37818 0.0255436
0.713436 0.388556 0.0269169
0.732509 0.398047 0.0281224
0.749187 0.409873 0.0292668
0.763424 0.421149 0.0303197
0.776577 0.43212 0.0314031
0.790036 0.443793 0.0326696
0.801785 0.454475 0.0337682
0.81268 0.47422 0.0401923
0.817639 0.484154 0.0432288
0.817853 0.484627 0.0433661
0.0117189 0.242084 0.232837
0.0199435 0.253681 0.244999
0.030808 0.265232 0.2607
0.0438849 0.279759 0.270695
0.0686351 0.288762 0.26772
0.116915 0.289647 0.236011
0.180224 0.289219 0.185687
0.228168 0.293645 0.149569
0.25835 0.306584 0.112001
0.296727 0.318196 0.0771344
0.347402 0.320684 0.0575418
0.401022 0.316716 0.0494087
0.459037 0.310475 0.0492103
0.506004 0.310552 0.0500496
0.537438 0.31664 0.0531319
0.562188 0.325505 0.0580453
0.586084 0.336095 0.0605631
0.609857 0.346349 0.0601053
0.631907 0.359411 0.0551919
0.651377 0.373739 0.0464027
0.669078 0.387411 0.0360723
0.686076 0.399313 0.028336
0.706065 0.409934 0.0259251
0.727916 0.420356 0.0270237
0.748196 0.430671 0.0285954
0.764218 0.44123 0.0298314
0.776822 0.452506 0.0330816
0.790051 0.463188 0.0354467
0.803861 0.474113 0.035462
0.816175 0.487861 0.0408026
0.82678 0.502373 0.0532845
0.830625 0.508522 0.0583047
0.830686 0.508614 0.0584115
0.00842298 0.290562 0.251514
0.0119936 0.301595 0.268376
0.0205539 0.314855 0.284871
0.0318608 0.332097 0.29897
0.0537423 0.342092 0.305455
0.102602 0.338766 0.281788
0.171191 0.333593 0.230686
0.233753 0.336934 0.187533
0.277455 0.346807 0.145266
0.303166 0.357961 0.106569
0.340566 0.363561 0.0835279
0.387732 0.365743 0.0719158
0.438544 0.36408 0.0651408
0.488884 0.362371 0.0629587
0.531029 0.364813 0.066743
0.566171 0.370535 0.0728008
0.596628 0.378683 0.0773785
0.620478 0.387503 0.0789197
0.64184 0.397116 0.073579
0.661219 0.408087 0.0637064
0.678813 0.419715 0.0521859
0.69778 0.430381 0.0424048
0.720455 0.439902 0.035172
0.74313 0.449958 0.0325017
0.762325 0.459449 0.0338293
0.776654 0.467613 0.0373541
0.790249 0.480323 0.0453346
0.803281 0.491142 0.0479438
0.816526 0.502205 0.0480201
0.831434 0.52137 0.0564279
0.834836 0.530983 0.0674754
0.835142 0.533715 0.0709697
0.835142 0.533715 0.070985
0.00909438 0.332372 0.281926
0.00978103 0.344884 0.300389
0.012604 0.360815 0.313558
0.0205692 0.375509 0.324254
0.0390326 0.386038 0.336812
0.0823682 0.38793 0.319982
0.149081 0.384298 0.268437
0.222217 0.381201 0.2215
0.289998 0.380209 0.183841
0.326345 0.38854 0.152255
0.351156 0.401785 0.128252
0.389471 0.410498 0.113573
0.432776 0.412421 0.101976
0.480751 0.409751 0.0936141
0.525704 0.411215 0.0979629
0.562234 0.415335 0.103532
0.593179 0.419471 0.102281
0.621225 0.425116 0.103319
0.647608 0.433539 0.102556
0.672618 0.442649 0.0954604
0.696483 0.450874 0.083711
0.720287 0.458778 0.0743572
0.739574 0.468009 0.0623026
0.760464 0.476417 0.0547799
0.781704 0.485344 0.0544137
0.795804 0.497292 0.0588388
0.808972 0.509148 0.0606394
0.821118 0.522484 0.0617227
0.833143 0.536873 0.0652628
0.844938 0.550912 0.0735485
0.849882 0.561013 0.0852216
0.851179 0.564034 0.0887312
0.851179 0.564034 0.0887312
0.0106813 0.372915 0.3066
0.0121614 0.387564 0.325078
0.0151369 0.401343 0.339696
0.0205692 0.41384 0.352026
0.033402 0.42446 0.364553
0.0687877 0.430091 0.354467
0.130495 0.430396 0.313832
0.205173 0.427512 0.266224
0.284886 0.422858 0.224628
0.339925 0.424628 0.194232
0.368154 0.434272 0.169314
0.396948 0.44361 0.151171
0.436118 0.447822 0.140444
0.480934 0.447669 0.131777
0.522789 0.450126 0.13312
0.559472 0.45507 0.138766
0.592279 0.459205 0.141711
0.626505 0.461097 0.144976
0.654765 0.467262 0.142794
0.680293 0.47541 0.133257
0.705913 0.483238 0.118975
0.732509 0.490288 0.104952
0.755611 0.498573 0.088838
0.777493 0.506096 0.0801862
0.795972 0.514839 0.0781567
0.807889 0.528008 0.0756695
0.817502 0.539437 0.0718395
0.830518 0.552712 0.075349
0.845197 0.565347 0.0830396
0.858808 0.57528 0.0918593
0.863066 0.587198 0.103334
0.863783 0.59086 0.106355
0.863783 0.59086 0.106355
0.012604 0.40914 0.332723
0.0151522 0.42356 0.350866
0.0200809 0.43563 0.367391
0.0260777 0.449088 0.381369
0.0348363 0.459892 0.390249
0.0607614 0.469093 0.387915
0.114412 0.473564 0.362051
0.186999 0.471839 0.318379
0.269978 0.46659 0.272267
0.350759 0.4598 0.237964
0.388846 0.463676 0.21355
0.409979 0.473564 0.192142
0.441382 0.480995 0.179385
0.486076 0.48246 0.173342
0.526024 0.48574 0.173663
0.56141 0.491218 0.179126
0.595407 0.496468 0.186282
0.630335 0.498054 0.189593
0.659342 0.501442 0.187381
0.686656 0.507225 0.176333
0.714351 0.514626 0.15874
0.742809 0.521767 0.138231
0.769772 0.529137 0.118502
0.790219 0.536477 0.107195
0.805997 0.545052 0.100786
0.818769 0.557595 0.0921492
0.825788 0.56968 0.0871748
0.838361 0.581476 0.092546
0.854551 0.592386 0.102068
0.869169 0.600778 0.109957
0.87219 0.612238 0.12079
0.872923 0.615045 0.123598
0.872892 0.614954 0.123522
0.0172885 0.438788 0.364721
0.019028 0.451637 0.382376
0.0229801 0.464805 0.397299
0.0342565 0.481849 0.411185
0.0421149 0.493095 0.416724
0.0570687 0.505714 0.420279
0.100908 0.513939 0.409888
0.16997 0.5122 0.375631
0.252445 0.505165 0.327626
0.338537 0.496513 0.291249
0.40589 0.494194 0.264805
0.432746 0.504448 0.239872
0.454124 0.51574 0.223468
0.498283 0.518593 0.218891
0.53579 0.520516 0.221576
0.567681 0.524651 0.224445
0.59971 0.530236 0.226322
0.623163 0.537636 0.225315
0.65655 0.538216 0.231266
0.693767 0.538888 0.225895
0.728939 0.543084 0.207218
0.760052 0.550484 0.180285
0.780911 0.557244 0.155444
0.797543 0.564508 0.135119
0.814664 0.573129 0.121492
0.835874 0.583932 0.115053
0.844511 0.597284 0.11342
0.852369 0.611124 0.117784
0.86154 0.622736 0.122927
0.871412 0.630701 0.126619
0.879499 0.63772 0.139086
0.881224 0.63917 0.141665
0.881193 0.639063 0.141604
0.0244144 0.467201 0.396429
0.0284581 0.479744 0.406226
0.0345006 0.495872 0.419776
0.0474708 0.509865 0.439826
0.0578164 0.518746 0.453758
0.0710002 0.530388 0.459129
0.103899 0.541604 0.453529
0.159503 0.546029 0.429221
0.233829 0.543587 0.386816
0.323644 0.536324 0.342504
0.402319 0.529931 0.30988
0.450385 0.530907 0.286915
0.473289 0.540063 0.263966
0.500633 0.549706 0.25481
0.53611 0.55433 0.259022
0.568246 0.557488 0.262547
0.597696 0.561944 0.263554
0.632273 0.567712 0.266972
0.667491 0.568734 0.270848
0.701503 0.570214 0.264775
0.732555 0.574166 0.24715
0.759899 0.581003 0.219059
0.785107 0.58587 0.193179
0.808499 0.592386 0.171283
0.829862 0.60087 0.156649
0.84831 0.611627 0.150698
0.851255 0.623652 0.148363
0.864118 0.632593 0.151049
0.877653 0.643336 0.155169
0.887709 0.657053 0.160754
0.891554 0.667292 0.168444
0.892363 0.669444 0.170199
0.892363 0.669444 0.170199
0.0366979 0.495613 0.42887
0.0432441 0.508522 0.438727
0.0496681 0.522179 0.452094
0.0600748 0.535622 0.469856
0.0706188 0.546075 0.483085
0.0839094 0.556359 0.488273
0.10959 0.569009 0.488121
0.154116 0.578012 0.474495
0.220066 0.580102 0.443534
0.307057 0.57409 0.398123
0.390204 0.566476 0.356344
0.458503 0.56173 0.329442
0.4907 0.567147 0.312352
0.511818 0.576516 0.301244
0.538582 0.585031 0.296132
0.57171 0.588815 0.297719
0.603647 0.591867 0.301457
0.638041 0.595804 0.304433
0.673075 0.597726 0.304631
0.70663 0.599619 0.301823
0.736431 0.603326 0.289906
0.764065 0.609613 0.26659
0.791943 0.61387 0.237049
0.815946 0.620035 0.210605
0.835859 0.62829 0.192462
0.85124 0.638086 0.183078
0.859174 0.650233 0.17612
0.87393 0.657359 0.180484
0.887602 0.666178 0.186923
0.896376 0.679118 0.192615
0.898787 0.692134 0.197421
0.899168 0.694148 0.198062
0.899168 0.694148 0.198062
0.0517281 0.52372 0.4598
0.0599832 0.534997 0.47277
0.0670939 0.545907 0.486091
0.0751049 0.560754 0.498619
0.0849012 0.574334 0.507729
0.0998703 0.583841 0.513695
0.121599 0.595102 0.518517
0.158145 0.605768 0.514305
0.215228 0.611261 0.494148
0.293843 0.607172 0.451926
0.378408 0.601831 0.405371
0.453086 0.597345 0.373388
0.509239 0.595804 0.358144
0.53048 0.60296 0.348547
0.551125 0.612253 0.335454
0.577951 0.618006 0.331945
0.610773 0.62089 0.336522
0.64213 0.623697 0.337896
0.675563 0.62681 0.337575
0.709758 0.629023 0.337713
0.741588 0.631754 0.332128
0.771054 0.635904 0.316152
0.798489 0.640421 0.283436
0.818891 0.647227 0.251423
0.836698 0.655222 0.228122
0.853513 0.663996 0.214466
0.868498 0.676066 0.203677
0.881804 0.68423 0.209445
0.892332 0.691325 0.216968
0.899565 0.700298 0.222599
0.90428 0.712627 0.228031
0.904601 0.714183 0.228153
0.904601 0.714183 0.228153
0.0666209 0.548836 0.483818
0.0755779 0.558633 0.498405
0.0876478 0.570596 0.513268
0.0976272 0.58674 0.525551
0.106981 0.601633 0.534524
0.124865 0.609903 0.540688
0.1467 0.617929 0.550011
0.178058 0.626947 0.549661
0.225528 0.63418 0.532769
0.291722 0.634928 0.497337
0.371725 0.633509 0.456489
0.447898 0.630854 0.423606
0.513146 0.628992 0.4
0.557137 0.632883 0.383001
0.569299 0.638621 0.376181
0.588022 0.643931 0.368734
0.614603 0.648234 0.366018
0.645624 0.651743 0.367529
0.679652 0.656275 0.373571
0.712657 0.659449 0.369833
0.744259 0.660212 0.363729
0.772107 0.660548 0.354025
0.797604 0.665232 0.325673
0.820233 0.674128 0.293233
0.843519 0.682597 0.268177
0.864454 0.689708 0.252705
0.874769 0.698528 0.243961
0.887663 0.707713 0.243107
0.89778 0.715755 0.247456
0.905837 0.723629 0.256321
0.913054 0.732113 0.267567
0.913802 0.733089 0.268376
0.913771 0.733013 0.268223
0.0848402 0.570794 0.514992
0.0946822 0.582406 0.529274
0.107515 0.595041 0.543481
0.120455 0.607675 0.553338
0.134401 0.619501 0.558694
0.153368 0.630365 0.563775
0.175051 0.640833 0.567147
0.207172 0.648356 0.569345
0.251255 0.653422 0.563714
0.304036 0.659571 0.54078
0.376318 0.659709 0.502358
0.450217 0.658686 0.46482
0.514977 0.657923 0.435523
0.564157 0.657572 0.417334
0.590295 0.659571 0.412345
0.600824 0.668528 0.406729
0.620645 0.675959 0.399359
0.650858 0.680339 0.3953
0.6822 0.684688 0.397925
0.714 0.690349 0.395178
0.744427 0.692424 0.390692
0.774502 0.689723 0.384237
0.800336 0.693721 0.363104
0.827588 0.699657 0.338216
0.850263 0.707897 0.311192
0.86804 0.716014 0.288624
0.881483 0.72192 0.282155
0.895293 0.731121 0.285908
0.905501 0.740215 0.292836
0.913695 0.748791 0.301885
0.920958 0.755673 0.311254
0.921599 0.75642 0.312139
0.921584 0.756329 0.311955
0.103822 0.593912 0.539696
0.116625 0.610056 0.554238
0.128786 0.620096 0.565301
0.143008 0.628946 0.574456
0.160647 0.640314 0.581476
0.179873 0.651957 0.584802
0.206394 0.661891 0.58793
0.240421 0.669718 0.593072
0.280049 0.676173 0.59205
0.325063 0.682139 0.57615
0.388495 0.684108 0.54023
0.45626 0.685084 0.503014
0.51873 0.684871 0.47364
0.568826 0.682933 0.454704
0.603494 0.684611 0.444221
0.623728 0.691615 0.440772
0.633463 0.701579 0.432532
0.657359 0.70663 0.419608
0.683894 0.711925 0.419654
0.717769 0.715846 0.420478
0.747143 0.717861 0.417487
0.77499 0.717784 0.409995
0.802228 0.721828 0.393957
0.83183 0.726543 0.371252
0.856291 0.732769 0.342885
0.875196 0.73846 0.319234
0.890852 0.743267 0.316716
0.901946 0.752102 0.326497
0.911025 0.760784 0.336934
0.920302 0.769863 0.346471
0.928695 0.777264 0.352926
0.929152 0.777707 0.35317
0.929152 0.777707 0.35317
0.122881 0.618921 0.561074
0.140322 0.638331 0.575631
0.151949 0.644114 0.583856
0.167132 0.651392 0.594125
0.187991 0.664164 0.603906
0.208667 0.67425 0.603906
0.241245 0.68162 0.611902
0.274174 0.690944 0.61854
0.308904 0.699184 0.617578
0.350958 0.703197 0.60531
0.404913 0.707774 0.573297
0.465858 0.710216 0.539849
0.525826 0.710048 0.511604
0.578271 0.70869 0.491279
0.610681 0.712428 0.475563
0.641032 0.716518 0.467933
0.653391 0.724208 0.460624
0.669612 0.730083 0.445563
0.68957 0.736873 0.443534
0.723766 0.73817 0.442969
0.753582 0.739696 0.439734
0.777081 0.743404 0.430426
0.80415 0.748562 0.41593
0.834592 0.753613 0.391714
0.863279 0.756741 0.365438
0.886442 0.758953 0.346685
0.900755 0.763378 0.347189
0.90811 0.771557 0.361944
0.914702 0.779812 0.373861
0.924514 0.789227 0.383032
0.934798 0.796963 0.388647
0.935195 0.797131 0.388739
0.935195 0.797131 0.388739
0.142214 0.645121 0.588022
0.16321 0.658686 0.599496
0.177615 0.666835 0.612268
0.196948 0.675013 0.621241
0.2224 0.685466 0.62443
0.24744 0.69604 0.620981
0.275685 0.70396 0.627955
0.305104 0.710567 0.636973
0.337621 0.717067 0.640253
0.375601 0.723461 0.633219
0.425132 0.730175 0.607462
0.481453 0.732769 0.57174
0.539437 0.733166 0.540154
0.592676 0.73312 0.519005
0.627726 0.734462 0.504845
0.659037 0.737499 0.493965
0.676677 0.743908 0.488075
0.684703 0.753491 0.479759
0.700236 0.761242 0.468086
0.729183 0.764965 0.455787
0.764401 0.766308 0.449195
0.789258 0.771069 0.439734
0.814313 0.774517 0.426093
0.843503 0.777615 0.405951
0.871153 0.779202 0.386877
0.892805 0.78175 0.373358
0.906935 0.786664 0.37348
0.916869 0.792676 0.391714
0.91754 0.803357 0.398398
0.92195 0.813931 0.404013
0.931228 0.819104 0.411002
0.931365 0.818967 0.410895
0.931365 0.818967 0.410895
0.168154 0.667491 0.616419
0.184909 0.679133 0.622354
0.204211 0.691112 0.632731
0.224903 0.699092 0.642115
0.250004 0.707485 0.646525
0.2813 0.719341 0.644907
0.308202 0.727047 0.651606
0.336202 0.731533 0.659922
0.366445 0.73669 0.664469
0.399786 0.744091 0.661585
0.445426 0.752728 0.644251
0.495613 0.755337 0.609659
0.549447 0.755169 0.574899
0.602106 0.753979 0.546304
0.641794 0.754589 0.525658
0.672526 0.759457 0.514717
0.695491 0.765042 0.509712
0.703426 0.773877 0.503365
0.713451 0.782086 0.486656
0.737301 0.789105 0.468132
0.771801 0.791424 0.45098
0.803998 0.792416 0.435355
0.830259 0.794003 0.421317
0.853513 0.796887 0.406104
0.875685 0.799146 0.394491
0.895338 0.802548 0.38883
0.911681 0.807843 0.394049
0.922606 0.813474 0.411048
0.924773 0.822278 0.420752
0.927169 0.831907 0.432853
0.931365 0.837537 0.444358
0.93138 0.837491 0.444327
0.93138 0.837491 0.444327
0.187045 0.691249 0.641794
0.20296 0.702312 0.646189
0.225284 0.713954 0.654215
0.248707 0.721492 0.662257
0.27599 0.729076 0.665995
0.308766 0.739147 0.664286
0.335622 0.747143 0.671855
0.363088 0.752819 0.6804
0.390417 0.758694 0.686137
0.41915 0.766094 0.686809
0.459541 0.773953 0.677653
0.505119 0.777081 0.647791
0.554925 0.777066 0.615
0.606119 0.77554 0.583658
0.652857 0.775952 0.552666
0.682918 0.780987 0.538094
0.708934 0.785519 0.529595
0.722896 0.792538 0.519677
0.728969 0.802075 0.498543
0.750057 0.808789 0.47425
0.782605 0.810651 0.448157
0.818311 0.809979 0.426871
0.844892 0.812482 0.410605
0.864469 0.8168 0.398047
0.882261 0.819471 0.393332
0.899245 0.82359 0.396872
0.915526 0.829694 0.410636
0.927153 0.833967 0.430945
0.932113 0.840055 0.447105
0.933577 0.848539 0.464424
0.933867 0.854475 0.476158
0.933867 0.85449 0.476188
0.933852 0.854429 0.476066
0.198993 0.716991 0.664363
0.217899 0.726513 0.669734
0.24033 0.735775 0.678309
0.269886 0.743862 0.683803
0.300725 0.750393 0.682948
0.330388 0.757092 0.679042
0.357244 0.765988 0.687434
0.384878 0.774304 0.697856
0.410636 0.782025 0.705028
0.435935 0.789212 0.707851
0.46952 0.793866 0.706462
0.510918 0.79823 0.685359
0.556115 0.799054 0.660609
0.605768 0.797757 0.63032
0.660212 0.797925 0.590661
0.692042 0.800763 0.568811
0.721782 0.804166 0.551751
0.740734 0.810925 0.533822
0.745556 0.821317 0.506371
0.765621 0.825269 0.473304
0.797803 0.826322 0.442084
0.831601 0.827604 0.416938
0.857694 0.832303 0.396704
0.877379 0.83798 0.385901
