presets/5219_portrait2.cube
TITLE "Generated by Resolve"
LUT_3D_SIZE 5
0 0.00880446 0.0416876
0.0874495 0.0248569 0.040177
0.367834 0.0733501 0.0563973
0.416922 0.196887 0.0726482
0.542489 0.276371 0.0866407
0 0.183185 0.21912
0.285756 0.236988 0.106432
0.534554 0.276509 0.117403
0.662196 0.377447 0.102571
0.75198 0.456687 0.107668
0 0.496849 0.483833
0.0680858 0.563958 0.477684
0.60708 0.543435 0.254841
0.801038 0.577935 0.211704
0.873991 0.637491 0.218402
0 0.670207 0.664073
0.24123 0.73579 0.700313
0.607324 0.767788 0.39292
0.884291 0.76527 0.362524
0.939239 0.807584 0.415229
0.248737 0.827359 0.813657
0.375875 0.898787 0.843717
0.643885 0.922179 0.695933
0.977935 0.916472 0.370947
0.968048 0.950027 0.589868
0 0.0099031 0.0700389
0.013489 0.0534981 0.0897383
0.374975 0.1075 0.0716869
0.489479 0.209857 0.0786755
0.596689 0.292302 0.118563
0 0.220111 0.319066
0.219974 0.279454 0.306828
0.546609 0.319585 0.183764
0.676448 0.409918 0.155398
0.752621 0.48307 0.223468
0 0.497108 0.54844
0.157336 0.569741 0.562219
0.616907 0.571649 0.359716
0.793759 0.610803 0.346334
0.866087 0.665019 0.366552
0.0565957 0.682322 0.707073
0.268238 0.770047 0.727932
0.553567 0.806332 0.554116
0.855436 0.801144 0.516579
0.918761 0.838285 0.555093
0.311803 0.845945 0.839689
0.406332 0.920058 0.872831
0.627939 0.944198 0.816617
0.899931 0.955947 0.545785
0.953368 0.973709 0.656199
0 0.0198367 0.236667
0.000106813 0.0798505 0.331014
0.356512 0.111055 0.355322
0.466941 0.238239 0.292683
0.561502 0.368704 0.287861
0 0.239612 0.516808
0.165682 0.314 0.523888
0.48539 0.365972 0.482429
0.638102 0.482322 0.446159
0.713252 0.549905 0.466789
0 0.49163 0.618296
0.221424 0.572534 0.661387
0.577173 0.601373 0.600992
0.760922 0.646174 0.553155
0.826246 0.700923 0.589715
0.269688 0.669261 0.748684
0.382879 0.767025 0.785595
0.562387 0.815381 0.777584
0.840558 0.828656 0.632822
0.90985 0.85948 0.692058
0.443244 0.837598 0.871489
0.478828 0.92166 0.904326
0.653361 0.958236 0.885191
0.845716 0.982361 0.740124
0.929717 0.993149 0.768963
0 0.0368658 0.35967
0.0421607 0.090486 0.424292
0.362295 0.124544 0.548867
0.495872 0.226535 0.533654
0.573663 0.349325 0.526329
0 0.28751 0.611658
0.224491 0.335042 0.619532
0.516487 0.357 0.668971
0.647028 0.446204 0.657908
0.712978 0.540917 0.651377
0.025864 0.514397 0.697749
0.290486 0.589899 0.744976
0.580911 0.621118 0.747189
0.748211 0.66772 0.729778
0.821073 0.717281 0.745022
0.331044 0.686717 0.79736
0.461738 0.769558 0.84303
0.636896 0.81442 0.842588
0.814878 0.852766 0.78381
0.896513 0.887068 0.824094
0.552773 0.830686 0.892119
0.588357 0.912062 0.934768
0.724575 0.954528 0.935225
0.87747 0.97821 0.883757
0.920119 0.995956 0.896757
0 0.0612955 0.423362
0.0969863 0.127382 0.464897
0.390417 0.167651 0.564797
0.51899 0.272694 0.582956
0.596094 0.377295 0.62121
0 0.319921 0.605509
0.306477 0.353155 0.674449
0.533684 0.395834 0.727169
0.676051 0.465248 0.751492
0.733898 0.564904 0.741802
0.107118 0.546319 0.713237
0.364828 0.612314 0.77789
0.607553 0.640803 0.80737
0.777508 0.676692 0.817899
0.841245 0.735393 0.827985
0.407584 0.709148 0.826825
0.515557 0.784741 0.87509
0.68365 0.82443 0.894209
0.836713 0.86836 0.875853
0.897292 0.899916 0.902464
0.607324 0.847196 0.896666
0.673655 0.915099 0.939712
0.791684 0.954696 0.956664
0.899718 0.985687 0.960067
0.937301 1 0.949416
