presets/5219_warm.cube
TITLE "Generated by Resolve"
LUT_3D_SIZE 9
0.000350958 0.0304417 0
0.000442512 0.0391546 0
0.114504 0.0327001 0
0.339208 0.0518502 0
0.452506 0.0818494 0
0.516548 0.138705 0
0.531579 0.195819 0
0.572106 0.237339 0
0.630137 0.269337 0
0.00218204 0.0610819 0
0.0426795 0.0995956 0
0.28658 0.106233 0
0.478889 0.136156 0
0.579675 0.190478 0
0.634928 0.239719 0
0.662791 0.279026 0
0.687327 0.314534 0
0.721569 0.340719 0
0.0599374 0.173968 0.120089
0.125521 0.216846 0.138201
0.310201 0.244114 0
0.536095 0.259754 0
0.639963 0.302052 0
0.648356 0.327642 0
0.686091 0.371603 0
0.737728 0.407706 0
0.768505 0.436667 0
0.0715496 0.344015 0.226871
0.16202 0.370214 0.269352
0.250645 0.426413 0
0.439475 0.425834 0
0.57084 0.431296 0.00273136
0.653147 0.453727 0.00283818
0.720577 0.484504 0
0.773449 0.517388 0
0.79736 0.542763 0
0.111406 0.467552 0.308888
0.183749 0.499428 0.353216
0.340368 0.522957 0.268864
0.446143 0.550729 0.15491
0.592447 0.550652 0.193622
0.69369 0.558526 0.205219
0.766873 0.583215 0.103059
0.813916 0.615503 0.0539101
0.833051 0.63772 0.0669261
0.195621 0.556817 0.396292
0.266865 0.592737 0.4439
0.393896 0.619898 0.467842
0.467979 0.667872 0.231693
0.588327 0.664942 0.308095
0.711238 0.664057 0.328893
0.80322 0.676204 0.287282
0.843824 0.712871 0.242039
0.863096 0.732204 0.254154
0.31136 0.639567 0.4934
0.402136 0.671336 0.543694
0.489601 0.70071 0.573388
0.518349 0.762661 0.336522
0.58555 0.781491 0.304143
0.723217 0.770138 0.367254
0.814878 0.780819 0.351949
0.858946 0.806836 0.356802
0.87628 0.821347 0.385214
0.414267 0.727413 0.590982
0.506462 0.753307 0.636591
0.583993 0.776852 0.682231
0.651453 0.805478 0.59057
0.619516 0.8766 0.307988
0.75288 0.864698 0.345495
0.831144 0.873945 0.351781
0.880842 0.88629 0.448875
0.89276 0.897612 0.486
0.503288 0.806012 0.683253
0.580957 0.830869 0.715145
0.648753 0.852522 0.75845
0.711711 0.870314 0.764477
0.682979 0.939284 0.405539
0.791882 0.936736 0.357534
0.860227 0.940764 0.434699
0.897368 0.952102 0.585107
0.903639 0.958526 0.616587
0.000350958 0.0309606 0
0.00047303 0.040177 0
0.13489 0.0395361 0
0.362829 0.0565805 0
0.474632 0.0971542 0
0.53782 0.154116 0
0.560525 0.20911 0
0.601923 0.25008 0
0.656123 0.281407 0
0.0191653 0.0653086 0.0062562
0.0625467 0.11078 0.028809
0.304555 0.123095 0
0.505089 0.156085 0
0.5991 0.214618 0
0.653605 0.258808 0
0.672816 0.291783 0
0.704692 0.324987 0
0.735851 0.352163 0
0.0534981 0.200427 0.146563
0.141772 0.237598 0.186206
0.314641 0.261128 0.015671
0.546197 0.280598 0.0027924
0.634775 0.319524 0.000640879
0.654719 0.345541 0
0.692683 0.386664 0
0.743923 0.422629 0
0.770245 0.45034 0
0.0715648 0.364446 0.245136
0.164569 0.388312 0.291203
0.27512 0.431098 0.0925307
0.452979 0.43949 0.0469368
0.589654 0.440986 0.069337
0.66421 0.465812 0.0670787
0.729992 0.497017 0.00225834
0.779507 0.531121 0
0.808225 0.552743 0.00604257
0.118532 0.481605 0.325322
0.197024 0.511574 0.370748
0.365164 0.527977 0.356558
0.461769 0.560525 0.229969
0.610361 0.557794 0.259281
0.706203 0.568414 0.269551
0.780438 0.589456 0.199313
0.830259 0.622339 0.155718
0.851423 0.643351 0.180667
0.201999 0.572274 0.416281
0.285512 0.605875 0.462058
0.415686 0.622797 0.513222
0.485695 0.672343 0.324605
0.587671 0.680461 0.350622
0.725536 0.672465 0.377356
0.802563 0.689555 0.371939
0.847669 0.722362 0.365423
0.861479 0.742184 0.373892
0.315373 0.655161 0.518318
0.416922 0.684443 0.561471
0.505348 0.710094 0.608209
0.588296 0.739605 0.533623
0.597467 0.789349 0.356039
0.720043 0.781277 0.426871
0.809735 0.79234 0.443931
0.85478 0.817975 0.462623
0.868879 0.832654 0.476158
0.418601 0.740475 0.608713
0.520073 0.764462 0.650187
0.592508 0.792309 0.694697
0.654963 0.816617 0.653651
0.63679 0.87744 0.389807
0.71664 0.886046 0.419898
0.824613 0.880629 0.497292
0.880507 0.891875 0.549325
0.895933 0.89897 0.578058
0.517113 0.817121 0.696422
0.594064 0.842405 0.729656
0.658869 0.864988 0.766979
0.722652 0.879698 0.793942
0.71635 0.933242 0.537575
0.757427 0.958404 0.446311
0.838468 0.953735 0.564599
0.895293 0.961135 0.661067
0.898726 0.966613 0.676631
0.000274662 0.0237583 3.0518e-05
0.00343328 0.0417029 0.0135348
0.085359 0.061677 0
0.341878 0.0725872 0
0.474006 0.113405 0
0.534401 0.180407 0
0.594949 0.225513 0
0.657374 0.266621 0
0.699947 0.299168 0
0.00508125 0.087953 0.0795911
0.0334936 0.135302 0.132326
0.233005 0.148501 0.0850385
0.464454 0.165942 0.051545
0.592844 0.245472 0.0475929
0.65095 0.298756 0.0338598
0.687709 0.321126 0
0.72285 0.352621 0
0.758923 0.394049 0.0124819
0.00109865 0.239612 0.207019
0.0604105 0.284276 0.25594
0.287816 0.277043 0.244831
0.54377 0.322545 0.151583
0.665949 0.368811 0.117357
0.676799 0.382956 0.0397345
0.705699 0.406821 0.000915541
0.753765 0.445212 0.0144656
0.796445 0.480125 0.0678111
0.0513619 0.384192 0.281102
0.111528 0.422934 0.322759
0.339498 0.410056 0.367651
0.476524 0.43711 0.250553
0.61445 0.454292 0.216846
0.699199 0.488014 0.205951
0.75436 0.507866 0.126741
0.806729 0.542107 0.128374
0.837156 0.56701 0.167605
0.109926 0.49189 0.365637
0.19617 0.526986 0.403876
0.3935 0.525856 0.458228
0.477714 0.56643 0.350271
0.619928 0.565972 0.350912
0.714992 0.581735 0.346502
0.789837 0.607034 0.316976
0.847623 0.635538 0.300404
0.861524 0.657771 0.32253
0.213031 0.581476 0.458183
0.311055 0.61326 0.494469
0.448371 0.630411 0.54464
0.538323 0.657969 0.506752
0.598795 0.690837 0.415015
0.728054 0.685389 0.424994
0.808896 0.700267 0.440528
0.848554 0.731121 0.451011
0.868574 0.749004 0.470161
0.325383 0.666773 0.557015
0.433326 0.697459 0.585443
0.523934 0.721843 0.628611
0.591272 0.748302 0.642084
0.60737 0.800855 0.430091
0.71429 0.797574 0.475639
0.814282 0.801907 0.5187
0.863218 0.823209 0.547906
0.882658 0.8374 0.564614
0.421424 0.755352 0.639475
0.528008 0.779278 0.667018
0.607828 0.799908 0.708247
0.660075 0.827512 0.717144
0.674891 0.872587 0.525704
0.717037 0.898207 0.474907
0.82742 0.887053 0.593179
0.882216 0.902907 0.634897
0.896513 0.910002 0.649332
0.529412 0.827787 0.721462
0.605676 0.854994 0.746426
0.671138 0.872969 0.777981
0.733989 0.891157 0.809644
0.764904 0.922637 0.659861
0.751141 0.969757 0.522728
0.812604 0.975174 0.599741
0.889006 0.970459 0.713634
0.905165 0.970321 0.731365
0.00273136 0.0283665 0.00921645
0 0.05832 0.131029
0.0429999 0.0866865 0.0663005
0.23003 0.094377 0.0413367
0.377386 0.100023 0.0552071
0.487327 0.174411 0.06009
0.583566 0.265232 0.0238956
0.672877 0.298878 0.00454719
0.711208 0.344045 0.0357061
0 0.11136 0.231098
0.00263981 0.161578 0.26862
0.15906 0.184833 0.218906
0.35082 0.18761 0.186877
0.479057 0.203632 0.196918
0.581598 0.292805 0.197253
0.705928 0.384283 0.15201
0.762646 0.418997 0.123079
0.809094 0.469093 0.205478
0 0.269383 0.297078
0.00755322 0.312596 0.338003
0.236179 0.300999 0.400717
0.425681 0.315648 0.335821
0.575753 0.365759 0.299794
0.710918 0.450752 0.283604
0.785016 0.488289 0.228367
0.844953 0.533822 0.257389
0.881956 0.575952 0.319326
0.033753 0.399451 0.322835
0.0847334 0.445823 0.368551
0.265614 0.442237 0.445808
0.480552 0.441611 0.43035
0.650584 0.490745 0.394049
0.759503 0.547784 0.374304
0.828275 0.582742 0.343267
0.8813 0.621515 0.365026
0.919005 0.655573 0.406592
0.110735 0.505272 0.409812
0.17789 0.545388 0.454734
0.366476 0.54963 0.489723
0.510201 0.560342 0.496468
0.628428 0.576059 0.440482
0.740627 0.60206 0.422385
0.81416 0.638422 0.422522
0.872969 0.675258 0.438575
0.897658 0.697383 0.461677
0.211933 0.595026 0.515129
0.307073 0.629526 0.548562
0.457084 0.642374 0.571908
0.565713 0.659815 0.599252
0.608209 0.698528 0.483482
0.733455 0.69482 0.484871
0.811597 0.713283 0.499367
0.857114 0.74049 0.522774
0.874998 0.756237 0.531655
0.327688 0.679988 0.607553
0.433112 0.70959 0.619455
0.536995 0.732525 0.65124
0.622919 0.754116 0.6907
0.669795 0.780224 0.609979
0.714321 0.808988 0.527718
0.817746 0.812161 0.568933
0.869276 0.835248 0.610056
0.885542 0.847349 0.627008
0.418692 0.769574 0.675868
0.532555 0.793133 0.692348
0.617243 0.811292 0.726024
0.687678 0.830777 0.762356
0.743252 0.851972 0.704234
0.741772 0.900633 0.562997
0.81178 0.90573 0.63476
0.897139 0.907469 0.713191
0.911437 0.919417 0.726207
0.533318 0.841367 0.750423
0.612131 0.864515 0.7682
0.682811 0.882536 0.795911
0.751019 0.894057 0.825269
0.809232 0.913802 0.777462
0.794812 0.958297 0.644053
0.828565 0.977798 0.683268
0.902693 0.973678 0.77467
0.92076 0.972824 0.799893
0 0.0349889 0.101228
0 0.0648051 0.256733
0.0068513 0.104601 0.253437
0.205325 0.105867 0.197864
0.375326 0.10663 0.237232
0.444053 0.151659 0.233951
0.509926 0.211353 0.199542
0.63682 0.347127 0.183032
0.69868 0.396124 0.195636
0 0.118456 0.335409
0.00289921 0.170779 0.379751
0.137041 0.196658 0.371176
0.343053 0.20235 0.339101
0.47451 0.211398 0.358816
0.541497 0.258656 0.352712
0.600443 0.326024 0.317159
0.716976 0.454307 0.324636
0.766964 0.499138 0.348837
0 0.283085 0.411215
0.00444038 0.327916 0.436164
0.222568 0.319036 0.484398
0.39852 0.335134 0.442176
0.524514 0.352712 0.427085
0.607843 0.387884 0.41001
0.70106 0.477455 0.395514
0.80174 0.558328 0.427802
0.837201 0.58764 0.451102
0 0.420722 0.398398
0.0411994 0.464912 0.445762
0.253285 0.456001 0.521721
0.449546 0.456153 0.543145
0.583734 0.473045 0.486397
0.693309 0.528801 0.465339
0.803983 0.600931 0.484367
0.87631 0.651392 0.509972
0.907195 0.677638 0.529839
0.0984817 0.524193 0.458289
0.152987 0.563836 0.514336
0.325795 0.572229 0.554391
0.49482 0.573648 0.596231
0.63357 0.583658 0.554513
0.768658 0.632914 0.53782
0.85211 0.682246 0.538064
0.910475 0.724544 0.55935
0.927611 0.74374 0.576913
0.2121 0.610025 0.570184
0.282399 0.646784 0.611078
0.429068 0.662577 0.615732
0.564797 0.672358 0.639445
0.645945 0.692424 0.614603
0.746532 0.702388 0.56051
0.820539 0.724453 0.567407
0.879423 0.761868 0.608194
0.903548 0.781094 0.628153
0.329427 0.691783 0.656931
0.41268 0.728084 0.672038
0.531701 0.748394 0.683909
0.628199 0.762692 0.712489
0.702174 0.780575 0.719356
0.741497 0.811292 0.620951
0.829892 0.817502 0.652094
0.885756 0.835416 0.694163
0.908858 0.84828 0.727443
0.415778 0.782467 0.721492
0.521096 0.805768 0.731273
0.620172 0.826627 0.751781
0.69395 0.840375 0.78471
0.763104 0.853895 0.800488
0.777646 0.891752 0.675303
0.82121 0.912566 0.697551
0.916045 0.906493 0.788159
0.935027 0.910399 0.805875
0.529549 0.85069 0.790387
0.611688 0.875639 0.79855
0.684047 0.8934 0.817609
0.761624 0.90219 0.845701
0.8224 0.914748 0.853284
0.855055 0.939071 0.796796
0.868727 0.965225 0.794446
0.915084 0.974289 0.836484
0.914839 0.978729 0.840543
0 0.0357519 0.257679
0 0.0666056 0.367987
0.0466468 0.0933852 0.375891
0.216587 0.0982223 0.381277
0.379858 0.100603 0.416907
0.46595 0.141894 0.399939
0.520607 0.202548 0.363912
0.570047 0.262715 0.32755
0.608148 0.317433 0.309392
0 0.128023 0.41294
0.0335393 0.168032 0.460472
0.180621 0.189975 0.460319
0.345388 0.200595 0.469581
0.481529 0.206256 0.504372
0.557366 0.251698 0.483589
0.606821 0.313207 0.447608
0.650828 0.366674 0.423606
0.680674 0.413169 0.414542
0 0.294438 0.51104
0.00903334 0.33901 0.530343
0.246174 0.325353 0.562188
0.392615 0.34931 0.533242
0.518349 0.364385 0.529671
0.60499 0.395804 0.514
0.664546 0.432624 0.492073
0.716976 0.483619 0.481834
0.751522 0.529625 0.482658
0 0.442329 0.489311
0.0171206 0.482231 0.541695
0.270497 0.465537 0.606424
0.452079 0.468788 0.626093
0.569528 0.489952 0.574746
0.657786 0.510674 0.551781
0.723674 0.542031 0.54403
0.791119 0.607965 0.554345
0.844205 0.665385 0.580652
0.0712444 0.544945 0.525231
0.133715 0.584207 0.585199
0.314076 0.587854 0.632136
0.497734 0.580179 0.685267
0.62359 0.591409 0.652979
0.710704 0.612146 0.613321
0.781994 0.652277 0.610513
0.862776 0.714534 0.632227
0.879789 0.730922 0.649363
0.209689 0.625193 0.612345
0.279271 0.664332 0.65977
0.409186 0.683619 0.676768
0.535073 0.695308 0.704311
0.655207 0.695247 0.717922
0.757259 0.710201 0.67509
0.839429 0.744091 0.679622
0.889372 0.77969 0.706386
0.90164 0.790463 0.728603
0.337957 0.708095 0.695399
0.404791 0.744915 0.721447
0.505165 0.764263 0.734478
0.606455 0.779934 0.754925
0.707851 0.786618 0.768643
0.773892 0.805249 0.731853
0.850996 0.820661 0.73753
0.905867 0.845991 0.77644
0.921538 0.854475 0.80795
0.421195 0.795056 0.768811
0.505867 0.822858 0.782376
0.596582 0.839979 0.791745
0.685039 0.854566 0.812085
0.773983 0.860166 0.831495
0.835889 0.875105 0.817121
0.853742 0.907698 0.790509
0.923949 0.912245 0.859663
0.938506 0.916121 0.871672
0.527871 0.860868 0.844434
0.603906 0.887144 0.840345
0.677806 0.905653 0.847303
0.758282 0.91107 0.867414
0.838224 0.917388 0.88922
0.892699 0.928191 0.899153
0.923751 0.947219 0.91191
0.949996 0.965866 0.92401
0.955795 0.967468 0.93109
0 0.0408026 0.373587
3.0518e-05 0.0698711 0.43563
0.0861677 0.0927443 0.431632
0.243763 0.0981155 0.464256
0.376745 0.107042 0.521309
0.465965 0.142306 0.526726
0.534936 0.193118 0.498497
0.586221 0.260334 0.450813
0.617472 0.306096 0.435828
0 0.140291 0.480125
0.0492866 0.178012 0.532403
0.222263 0.190341 0.514122
0.363622 0.202701 0.551995
0.482856 0.212085 0.608713
0.562173 0.249332 0.618921
0.619867 0.304768 0.570535
0.659144 0.365621 0.527474
0.685771 0.403555 0.520043
0 0.313695 0.588724
0.00715648 0.362799 0.565194
0.272877 0.332113 0.619867
0.413947 0.348638 0.611399
0.532387 0.358755 0.646952
0.618082 0.38471 0.650278
0.677287 0.42977 0.608255
0.718761 0.47895 0.582223
0.748211 0.504509 0.587915
0 0.460838 0.566232
0.0168765 0.496025 0.614084
0.294362 0.472297 0.676585
0.467475 0.474678 0.699489
0.569406 0.498161 0.669871
0.659266 0.518288 0.655146
0.725399 0.543359 0.648524
0.774456 0.576669 0.652155
0.801984 0.599832 0.660578
0.0621347 0.560098 0.577874
0.13753 0.596277 0.641428
0.32343 0.597787 0.709422
0.51516 0.588098 0.761212
0.623606 0.603861 0.740154
0.706004 0.624506 0.700023
0.77261 0.644953 0.705364
0.823041 0.677272 0.718776
0.843427 0.698558 0.734081
0.209659 0.641291 0.670436
0.280552 0.675898 0.708644
0.403021 0.697688 0.737819
0.533791 0.701503 0.782986
0.661387 0.704372 0.799359
0.751202 0.718166 0.761898
0.814008 0.745159 0.759075
0.86273 0.777569 0.782971
0.879194 0.794446 0.799924
0.33521 0.723629 0.743175
0.402228 0.757839 0.769345
0.501686 0.778225 0.781628
0.592538 0.794797 0.806058
0.687892 0.799863 0.836667
0.793332 0.80972 0.820874
0.855406 0.826902 0.81912
0.900649 0.849515 0.849149
0.91397 0.866041 0.869963
0.429358 0.803159 0.809522
0.507973 0.831128 0.819547
0.588449 0.854414 0.836515
0.661616 0.867887 0.857374
0.752132 0.874525 0.878965
0.846784 0.8804 0.874617
0.890745 0.896757 0.890715
0.936233 0.914061 0.91014
0.94699 0.920409 0.930617
0.551431 0.865507 0.877546
0.608316 0.896956 0.868025
0.672206 0.913298 0.879622
0.750637 0.923537 0.898177
0.831083 0.928603 0.918685
0.899153 0.935134 0.927016
0.932158 0.950713 0.955276
0.954528 0.969207 0.979416
0.955978 0.972457 0.983734
0 0.049836 0.414755
6.10361e-05 0.0854963 0.469795
0.114366 0.100755 0.463783
0.271443 0.105989 0.498527
0.395315 0.113649 0.575616
0.467887 0.151324 0.606424
0.538231 0.200336 0.598886
0.599695 0.256626 0.558404
0.629587 0.30721 0.531624
0 0.163455 0.52015
0.0408942 0.19942 0.57612
0.251453 0.201099 0.544808
0.390692 0.210468 0.591012
0.498085 0.223011 0.664042
0.567224 0.259129 0.698482
0.628305 0.306218 0.682109
0.671885 0.364477 0.633997
0.696818 0.406043 0.617838
0 0.345357 0.605753
0.00965896 0.381491 0.612909
0.292226 0.340597 0.669123
0.438972 0.355444 0.672526
0.553002 0.360967 0.72433
0.637766 0.378408 0.749966
0.693828 0.422843 0.729305
0.732067 0.476188 0.693401
0.754925 0.51107 0.678248
0 0.477012 0.61529
0.0474708 0.506218 0.650217
0.320546 0.480446 0.731365
0.489738 0.476951 0.767361
0.59028 0.493217 0.783764
0.678508 0.50808 0.785321
0.743557 0.536126 0.770489
0.784314 0.58233 0.743191
0.805554 0.6065 0.747051
0.0662852 0.577752 0.632059
0.166339 0.60473 0.683238
0.350759 0.603418 0.768765
0.533181 0.593011 0.817075
0.628611 0.611124 0.814984
0.713436 0.629541 0.780224
0.779355 0.652232 0.782025
0.825284 0.68275 0.792309
0.847913 0.698833 0.809171
0.215732 0.65626 0.70013
0.297642 0.687999 0.737591
0.413169 0.705318 0.787457
0.547463 0.708141 0.854337
0.671382 0.710369 0.862547
0.758877 0.727001 0.822766
0.814404 0.751812 0.823163
0.863066 0.777035 0.845182
0.879179 0.792782 0.860502
0.337743 0.736477 0.7776
0.41149 0.7691 0.803326
0.502586 0.791852 0.829633
0.595544 0.804395 0.85478
0.698482 0.80647 0.894514
0.80264 0.816342 0.869398
0.855802 0.84007 0.874266
0.900236 0.859373 0.896208
0.912459 0.871122 0.911086
0.449546 0.810666 0.847898
0.51931 0.840436 0.855665
0.593713 0.86363 0.868345
0.669764 0.875929 0.888838
0.762432 0.87892 0.926528
0.843549 0.888869 0.921935
0.89604 0.90515 0.935332
0.9364 0.92192 0.956024
0.944747 0.929198 0.962386
0.57261 0.869551 0.897322
0.620798 0.89836 0.89691
0.681758 0.919326 0.908888
0.75555 0.928862 0.926024
0.831662 0.933562 0.960098
0.897002 0.942458 0.974273
0.94078 0.954574 0.991287
0.966751 0.97055 0.996796
0.967666 0.973831 0.997604
0 0.0693828 0.431739
0.000808728 0.107347 0.495506
0.137682 0.113588 0.48249
0.296193 0.119997 0.517769
0.412177 0.12813 0.594141
0.487221 0.164202 0.640253
0.551659 0.211383 0.644358
0.612512 0.26772 0.609888
0.638071 0.314519 0.591669
0 0.194858 0.538399
0.0437171 0.225925 0.595422
0.272084 0.21738 0.568612
0.407782 0.228717 0.608667
0.513085 0.239963 0.68188
0.58294 0.270787 0.728283
0.636118 0.321477 0.724834
0.684855 0.373159 0.68954
0.707668 0.412802 0.682933
0 0.363424 0.614343
0.021912 0.389395 0.656992
0.327031 0.347677 0.718868
0.459876 0.359533 0.724178
0.564843 0.372656 0.766491
0.650187 0.389059 0.795102
0.705531 0.428428 0.799451
0.750744 0.474693 0.785916
0.769528 0.510857 0.768597
0 0.493477 0.603738
0.0933089 0.510613 0.680903
0.352499 0.486 0.779263
0.506935 0.487511 0.810132
0.603555 0.500923 0.826108
0.693156 0.506828 0.854246
0.757733 0.535454 0.854704
0.794507 0.585748 0.815305
0.814984 0.613733 0.802777
0.0906539 0.587808 0.659541
0.206516 0.608881 0.715175
0.385687 0.607828 0.808209
0.550408 0.60206 0.857572
0.63975 0.619638 0.855207
0.723201 0.637797 0.833707
0.791043 0.65565 0.842451
0.835615 0.688701 0.844511
0.854063 0.709285 0.855985
0.23209 0.669383 0.733333
0.323445 0.697505 0.774975
0.436362 0.712474 0.832181
0.568963 0.714305 0.895445
0.686992 0.717693 0.905653
0.766537 0.736538 0.863493
0.824582 0.759625 0.869535
0.867414 0.786252 0.888502
0.882994 0.800855 0.900221
0.356023 0.746609 0.808499
0.433097 0.776638 0.827939
0.515206 0.798825 0.867308
0.604242 0.811292 0.902815
0.718715 0.811536 0.941741
0.807996 0.825742 0.905425
0.857786 0.849424 0.91342
0.897353 0.871351 0.938872
0.913024 0.883131 0.952178
0.484962 0.816495 0.877653
0.539467 0.846403 0.888243
0.609873 0.86717 0.899351
0.684153 0.878904 0.93167
0.777066 0.883635 0.958923
0.860075 0.893217 0.953155
0.902541 0.912276 0.967575
0.938613 0.93402 0.980255
0.948577 0.937163 0.976333
0.599557 0.872389 0.908949
0.647578 0.901213 0.914107
0.705882 0.918196 0.928664
0.773861 0.931762 0.94902
0.845457 0.937179 0.977523
0.904204 0.946532 0.992676
0.947616 0.960266 0.99881
0.973358 0.977066 0.999695
0.973877 0.979965 0.999466
