presets/5219_portrait3.cube
TITLE "Generated by Resolve"
LUT_3D_SIZE 33
0.0616617 0.0030518 0
0.0634012 0.00291447 0
0.0643626 0.0033875 0
0.065919 0.00631724 0
0.0683146 0.0110475 0
0.0831922 0.0134279 0
0.107576 0.013962 0
0.141573 0.0112154 0
0.172808 0.0113985 0
0.203067 0.0141146 0
0.224811 0.0184024 0
0.2448 0.0231174 0
0.265476 0.0289616 0
0.283711 0.0350652 0
0.297917 0.039353 0
0.311482 0.0447089 0
0.325399 0.0536049 0.00289921
0.337057 0.0670024 0.0110323
0.343847 0.0808118 0.0153964
0.350759 0.0940719 0.013962
0.356649 0.104509 0.00994888
0.368093 0.114809 0.00877394
0.387121 0.129305 0.00704967
0.401724 0.143984 0.00172427
0.415442 0.156924 0
0.43299 0.167575 0
0.453056 0.175814 0.00256352
0.473838 0.183352 0.00875868
0.49395 0.193118 0.0125277
0.509896 0.205295 0.010071
0.523491 0.216754 0.0065156
0.535119 0.224979 0.00543221
0.538674 0.227314 0.00538643
0.0595407 0.00373846 0
0.0678416 0.00708019 0
0.0720989 0.0111543 0
0.0739757 0.0154574 0
0.0784161 0.0203861 0
0.0947433 0.0237278 0
0.121523 0.0231632 0
0.161044 0.0191501 0
0.194003 0.0198062 0
0.220111 0.0231785 0
0.245747 0.0301061 0
0.267979 0.0358434 0
0.287297 0.0393072 0
0.30518 0.0443122 0
0.321324 0.0515908 0.000396735
0.334264 0.057557 0.00289921
0.34786 0.0657206 0.00982681
0.36173 0.078996 0.0185855
0.371389 0.0946975 0.0218967
0.380514 0.109636 0.0197147
0.388937 0.11957 0.0175784
0.40174 0.131075 0.0154269
0.41828 0.148211 0.00830091
0.434562 0.16379 0.00192264
0.452598 0.173785 0.0039826
0.470756 0.181659 0.00866712
0.487861 0.190387 0.0112764
0.504891 0.199298 0.0133669
0.522591 0.209934 0.0142519
0.538247 0.22092 0.0130159
0.5523 0.232105 0.010071
0.562554 0.240909 0.00703441
0.565209 0.243244 0.00614939
0.0658274 0.0108797 0
0.0729381 0.01561 0
0.0780194 0.0223392 0
0.081178 0.0269627 0
0.0891432 0.0309148 0
0.110414 0.0379034 0
0.139757 0.0368353 0
0.181231 0.0330358 0
0.217807 0.0336156 0
0.243015 0.0358892 0
0.269917 0.0417182 0
0.292149 0.0472114 0.000122072
0.310765 0.0516213 0.000671397
0.328298 0.0570687 0.00323491
0.346136 0.0647898 0.00950637
0.361593 0.0730449 0.0157778
0.376272 0.0822766 0.0219577
0.390372 0.0950484 0.0271916
0.401938 0.110262 0.0286107
0.412085 0.123079 0.0275578
0.423255 0.133654 0.0271305
0.43711 0.148089 0.0233463
0.453101 0.16556 0.0145876
0.469825 0.180499 0.0089723
0.487831 0.190814 0.0104829
0.505623 0.199619 0.013611
0.521569 0.208774 0.0149996
0.537285 0.218402 0.0153658
0.554009 0.228885 0.0155184
0.569207 0.24033 0.0130617
0.583093 0.251667 0.00999466
0.592126 0.259373 0.00724804
0.594141 0.261158 0.00646983
0.0768292 0.0210574 0
0.0796674 0.0265049 0
0.0853285 0.0352178 0
0.0913863 0.041001 0
0.102495 0.0452277 0
0.127977 0.0551308 0
0.159228 0.0539406 0
0.201755 0.0510109 0
0.240513 0.0513313 0.00180056
0.266331 0.0526284 0.00807202
0.289067 0.0569162 0.0113375
0.310994 0.0618906 0.012604
0.332616 0.0670787 0.0147707
0.352361 0.0724956 0.0172122
0.37145 0.0800336 0.0212558
0.390799 0.0910048 0.0268406
0.406973 0.102159 0.031632
0.419989 0.113603 0.0347448
0.432029 0.125673 0.0357214
0.443565 0.13547 0.0359503
0.45742 0.14815 0.0350347
0.473381 0.165637 0.0302586
0.489342 0.182391 0.0228275
0.504173 0.196078 0.0167544
0.520745 0.209293 0.0135805
0.537667 0.220081 0.0135805
0.553109 0.228977 0.0145113
0.568429 0.238544 0.0144961
0.584344 0.248219 0.0149844
0.599298 0.260838 0.0108797
0.613092 0.272099 0.00769055
0.622293 0.27834 0.00727855
0.624079 0.279484 0.00730907
0.087068 0.0332952 0
0.0911116 0.04065 0
0.100008 0.0502174 0
0.110216 0.0594339 0
0.123186 0.0679179 0
0.145296 0.0740978 0
0.181064 0.0729534 0.000244144
0.224842 0.0697948 0.00726329
0.260899 0.0697795 0.0251164
0.288258 0.071046 0.0274968
0.308675 0.0735943 0.026978
0.330236 0.0793164 0.0291752
0.353796 0.087068 0.0335699
0.375921 0.0943008 0.037583
0.394934 0.101778 0.0402533
0.41442 0.111299 0.039353
0.432898 0.122759 0.037995
0.447608 0.133761 0.0387427
0.4607 0.142245 0.0406958
0.476188 0.151751 0.0460365
0.495537 0.166888 0.0449683
0.512367 0.186557 0.0337835
0.525811 0.205127 0.0226902
0.540261 0.219608 0.0162356
0.555138 0.231067 0.0136873
0.569421 0.239689 0.014023
0.583627 0.24799 0.014725
0.598352 0.25745 0.0146029
0.613031 0.267094 0.0141451
0.626078 0.277867 0.0107271
0.640986 0.289082 0.00846876
0.65243 0.296529 0.00807202
0.654521 0.29781 0.0080415
0.092668 0.0548867 0
0.102678 0.0637064 0
0.112657 0.0735943 0.000198367
0.123751 0.0831769 0.00451667
0.138643 0.0911421 0.0147402
0.16379 0.0951858 0.00726329
0.19971 0.096025 0.00564584
0.241596 0.0959182 0.00955215
0.281254 0.094377 0.0284276
0.308843 0.0935225 0.0419165
0.331487 0.0963912 0.0459449
0.355276 0.103258 0.0502022
0.380392 0.112276 0.0551156
0.402808 0.120577 0.0578164
0.421134 0.128527 0.0565194
0.438804 0.137407 0.052491
0.456596 0.146105 0.0484169
0.470893 0.15259 0.0488746
0.484962 0.159686 0.0551461
0.505287 0.172641 0.0553902
0.52607 0.190539 0.0431373
0.540322 0.211017 0.0264744
0.551934 0.228473 0.0143587
0.564935 0.241108 0.00860609
0.579446 0.251545 0.00715648
0.594446 0.260563 0.00779736
0.609201 0.269535 0.00784314
0.623346 0.278721 0.00738537
0.636484 0.287587 0.00665293
0.651209 0.297047 0.00633249
0.666163 0.308751 0.00357061
0.675578 0.31693 0.00114443
0.677089 0.318257 0.000747692
0.0929122 0.0859846 0.00494392
0.104128 0.0955367 0.0121767
0.115434 0.105043 0.0240787
0.129702 0.114031 0.0326238
0.150607 0.121508 0.0313725
0.181643 0.125048 0.0182803
0.218585 0.125002 0.0184482
0.256626 0.122438 0.0283818
0.293736 0.122179 0.035462
0.326497 0.124712 0.0456703
0.353796 0.127962 0.0559243
0.379736 0.134386 0.0612955
0.404196 0.142229 0.0659037
0.42623 0.150271 0.0697337
0.444709 0.157488 0.0693828
0.460288 0.162722 0.0670329
0.476982 0.167391 0.0691386
0.494133 0.17293 0.0720226
0.514031 0.183734 0.0670634
0.534997 0.201602 0.0476997
0.550607 0.221378 0.024506
0.562646 0.239979 0.00817884
0.574945 0.254261 0.00164797
0.588479 0.26421 0.00062562
0.603876 0.272877 0.000518807
0.619821 0.282109 0.000640879
0.63447 0.291264 0.000610361
0.647745 0.300603 0.000549325
0.66041 0.310445 0.000518807
0.674846 0.321035 0.000518807
0.689067 0.332662 0.000259403
0.697246 0.339925 4.57771e-05
0.698344 0.340932 1.5259e-05
0.0825513 0.123934 0.0578775
0.0929427 0.133227 0.0709697
0.107439 0.142306 0.0839704
0.123125 0.151461 0.0843214
0.147677 0.159472 0.0679637
0.186297 0.164065 0.0305486
0.230289 0.164385 0.00114443
0.27042 0.162188 0.00387579
0.306722 0.157992 0.0263371
0.343481 0.151766 0.0608988
0.370657 0.152895 0.0683146
0.397528 0.15729 0.0695964
0.421851 0.163943 0.0742504
0.443412 0.172213 0.0822309
0.462882 0.178653 0.0885786
0.482856 0.184192 0.0900282
0.505043 0.192996 0.0867475
0.525597 0.204288 0.0722667
0.543435 0.219059 0.0476997
0.558083 0.237736 0.0193332
0.569207 0.256855 0.00370794
0.582971 0.271672 0.000518807
0.598398 0.281865 4.57771e-05
0.613718 0.289433 0
0.630533 0.296422 0
0.646143 0.305287 0
0.65919 0.313527 0
0.671916 0.323278 0
0.684871 0.335164 0
0.697581 0.347646 0
0.711543 0.359609 0
0.719768 0.366155 0
0.720699 0.366888 0
0.0861219 0.159289 0.121935
0.0962387 0.168246 0.131411
0.113573 0.176516 0.14548
0.130541 0.18468 0.155322
0.149218 0.193591 0.136721
0.182452 0.199084 0.0752575
0.235828 0.196963 0.0212253
0.280339 0.200946 0.00015259
0.323308 0.204273 0.00192264
0.358572 0.20206 0.00437934
0.387839 0.195285 0.0151675
0.419089 0.189212 0.0424353
0.444984 0.187304 0.0712596
0.467811 0.192432 0.0876936
0.491112 0.202487 0.0882582
0.512093 0.214298 0.078233
0.530037 0.226383 0.0641031
0.545083 0.239551 0.0412451
0.559136 0.253819 0.0137179
0.573434 0.269429 0.00169375
0.588525 0.286473 0.000167849
0.604105 0.29929 0
0.620951 0.308736 0
0.637644 0.316289 0
0.652094 0.322194 0
0.667002 0.331029 0
0.681163 0.339559 0
0.694331 0.348684 0
0.706676 0.358968 0
0.719066 0.368063 0
0.73341 0.384451 0
0.741238 0.393744 0
0.741833 0.394415 0
0.0876631 0.195895 0.169512
0.0971084 0.206058 0.179736
0.110491 0.214771 0.195514
0.124819 0.224475 0.20499
0.146197 0.231739 0.194903
0.180072 0.235874 0.136263
0.226444 0.239216 0.0495613
0.27245 0.242786 0.00921645
0.318791 0.24715 0
0.369268 0.247288 0
0.406851 0.244907 0.0009308
0.433036 0.240726 0.0033875
0.457038 0.237842 0.0080415
0.483513 0.239918 0.0171054
0.505196 0.247227 0.0247044
0.522011 0.256992 0.0243229
0.53846 0.267216 0.0182803
0.555856 0.277226 0.00875868
0.573877 0.289311 0.00177005
0.592325 0.302739 3.0518e-05
0.610712 0.315648 0
0.626963 0.32636 0
0.643275 0.334905 0
0.65977 0.34255 0
0.675563 0.349615 0
0.690578 0.358434 0
0.703807 0.36701 0
0.716503 0.375311 0
0.729641 0.384176 0
0.74139 0.392157 0
0.755077 0.407095 0
0.761654 0.414633 0
0.761959 0.414984 0
0.0882887 0.235767 0.203723
0.0962387 0.245823 0.217166
0.106172 0.255528 0.233875
0.117845 0.267552 0.244205
0.138705 0.274449 0.240406
0.169192 0.277821 0.189166
0.213535 0.280735 0.0984207
0.263462 0.282094 0.0340276
0.301823 0.290166 0.00257877
0.35378 0.293523 0
0.407645 0.290379 0
0.446616 0.286488 0
0.478584 0.282826 0.000228885
0.50367 0.284108 0.000991836
0.521828 0.289372 0.00177005
0.537377 0.296376 0.00181582
0.554726 0.304677 0.00129702
0.57258 0.312306 0.000549325
0.591974 0.322133 9.15541e-05
0.611597 0.332815 0
0.631159 0.342809 0
0.649317 0.351659 0
0.666514 0.359442 0
0.683452 0.367239 0
0.699611 0.374929 0
0.713649 0.382696 0
0.725277 0.391135 0
0.737423 0.399008 0
0.751019 0.406989 0
0.763516 0.417441 0
0.773205 0.428809 0
0.77673 0.433539 0
0.776791 0.433616 0
0.0895094 0.277607 0.226184
0.0935683 0.286778 0.243992
0.101625 0.29752 0.260731
0.111864 0.311406 0.274678
0.130114 0.318944 0.280354
0.167956 0.31516 0.252934
0.212146 0.31429 0.171786
0.258503 0.320226 0.0836347
0.304784 0.32668 0.0233921
0.344198 0.331441 0
0.397314 0.328588 0
0.446632 0.325551 0
0.485771 0.323018 0
0.516716 0.322393 0
0.53933 0.325444 0
0.557641 0.330724 0
0.575418 0.337575 0
0.591577 0.344701 0.000671397
0.609339 0.351873 0.000259403
0.62858 0.359686 0
0.648219 0.367895 0
0.667323 0.375448 0
0.687221 0.382345 0
0.705531 0.389487 0
0.720531 0.396445 0
0.73138 0.402609 0
0.743099 0.412436 0
0.755306 0.420447 0
0.768719 0.428565 0
0.78468 0.443198 0
0.788205 0.450813 0
0.788769 0.453162 0
0.788769 0.453178 0
0.0931716 0.312352 0.258915
0.0945602 0.322591 0.277455
0.0978408 0.335286 0.290318
0.105272 0.346868 0.300557
0.120897 0.354894 0.312032
0.155596 0.355001 0.293645
0.198154 0.354284 0.227146
0.245762 0.356451 0.138521
0.307851 0.354833 0.0632944
0.35021 0.358846 0.0167239
0.389899 0.364523 0
0.441581 0.365057 0
0.486778 0.362417 0
0.523461 0.358724 0
0.549752 0.360616 0
0.569497 0.365072 0.00555428
0.587732 0.368948 0.0087129
0.603906 0.37377 0.0162814
0.62179 0.380468 0.0196689
0.641886 0.387045 0.0128939
0.662806 0.392645 0.00222782
0.683055 0.397986 0
0.702937 0.404196 0
0.721508 0.410224 0
0.73785 0.416648 0
0.750561 0.425528 0
0.763867 0.434394 0
0.777874 0.444327 0
0.79144 0.455344 0
0.802853 0.466026 0
0.807431 0.474495 0
0.808789 0.477226 0
0.808789 0.477226 0
0.096849 0.345083 0.283787
0.0987869 0.356817 0.30161
0.102098 0.367819 0.315648
0.107149 0.377584 0.327092
0.117784 0.385397 0.337972
0.146288 0.388556 0.326802
0.193774 0.387549 0.284245
0.233738 0.392218 0.202747
0.292424 0.392279 0.117861
0.349569 0.390906 0.0637827
0.386526 0.395377 0.02327
0.433982 0.396139 0.00334173
0.485115 0.393164 3.0518e-05
0.526604 0.389563 0.00448615
0.555444 0.390921 0.0194705
0.577081 0.395392 0.0372473
0.595331 0.399405 0.0504005
0.611658 0.401999 0.0659495
0.629541 0.406989 0.0685893
0.650324 0.412772 0.0567941
0.672663 0.418051 0.0374151
0.69572 0.422812 0.0204166
0.718532 0.428122 0.00239567
0.737713 0.433265 0
0.753536 0.439628 0
0.76849 0.449287 0
0.781994 0.457435 0
0.795575 0.467613 0
0.808515 0.477775 0
0.818769 0.486168 7.62951e-05
0.824262 0.496513 0.00482185
0.825574 0.499382 0.00758373
0.825574 0.499382 0.00758373
0.100191 0.37406 0.30898
0.10277 0.385153 0.325948
0.107317 0.394507 0.341085
0.112657 0.404822 0.35378
0.120043 0.412894 0.361501
0.141283 0.419318 0.358404
0.184115 0.421439 0.332326
0.234852 0.420569 0.282551
0.282856 0.423987 0.193622
0.350927 0.42005 0.122148
0.393011 0.420996 0.0801862
0.427848 0.424918 0.0457618
0.478584 0.423743 0.0338598
0.528481 0.418936 0.0457465
0.560754 0.419272 0.0630961
0.583322 0.423545 0.082887
0.602152 0.428412 0.102998
0.619211 0.4309 0.118257
0.635798 0.434104 0.122393
0.656306 0.4383 0.110521
0.680568 0.443153 0.0877241
0.706981 0.447776 0.0593423
0.73254 0.452232 0.0315251
0.751781 0.457206 0.0170596
0.767834 0.463279 0.00671397
0.78555 0.472267 0.000244144
0.798962 0.481132 0
0.811017 0.490867 0
0.823346 0.500374 0.000244144
0.833646 0.507652 0.00914015
0.838727 0.51754 0.0199283
0.840024 0.520027 0.0233768
0.839979 0.519951 0.0233005
0.104997 0.39704 0.338704
0.106905 0.406973 0.354849
0.110719 0.417197 0.368505
0.120226 0.430045 0.380133
0.126925 0.438605 0.384497
0.139696 0.448142 0.387045
0.174899 0.453407 0.376516
0.227726 0.450935 0.343145
0.273396 0.451896 0.273625
0.33463 0.44979 0.201205
0.403265 0.445884 0.150713
0.43476 0.45275 0.107912
0.470802 0.457298 0.0821698
0.530816 0.450507 0.094377
0.567086 0.44802 0.117739
0.589715 0.450477 0.135073
0.609888 0.455009 0.147448
0.62623 0.46099 0.149691
0.641291 0.462867 0.16907
0.661631 0.464271 0.172717
0.688396 0.46717 0.154162
0.718059 0.471611 0.117922
0.741604 0.475517 0.080354
0.762173 0.480003 0.0475776
0.782086 0.486046 0.0251926
0.802731 0.494255 0.0170596
0.81651 0.504616 0.0101625
0.828061 0.516289 0.0104067
0.839063 0.526207 0.0120699
0.848432 0.533043 0.0166171
0.853071 0.539864 0.0356603
0.8542 0.541268 0.0403449
0.854154 0.541176 0.0402838
0.111803 0.418936 0.367575
0.115633 0.428672 0.376349
0.120958 0.441016 0.387503
0.131853 0.451575 0.403845
0.140505 0.458366 0.415396
0.151461 0.467323 0.419501
0.178256 0.475761 0.413947
0.221775 0.478492 0.39234
0.275273 0.476905 0.350668
0.322789 0.480903 0.270222
0.390036 0.477119 0.20853
0.444694 0.474693 0.170748
0.477104 0.47953 0.133837
0.521508 0.48069 0.12491
0.563973 0.478492 0.146456
0.592371 0.478294 0.168063
0.613672 0.480949 0.181765
0.63505 0.485863 0.197345
0.652369 0.488182 0.214649
0.671687 0.490349 0.21593
0.695933 0.493294 0.197467
0.723491 0.497414 0.158999
0.748425 0.499977 0.124376
0.772854 0.504311 0.0932937
0.795026 0.510384 0.072221
0.814343 0.518898 0.0620737
0.82475 0.528481 0.0500496
0.836728 0.536278 0.053315
0.849805 0.545373 0.0576333
0.863157 0.557839 0.0615396
0.869642 0.567269 0.06804
0.870756 0.568933 0.069398
0.870756 0.568933 0.069398
0.122683 0.440711 0.394934
0.12842 0.450538 0.403021
0.133974 0.46125 0.414069
0.142855 0.471839 0.428824
0.151781 0.480171 0.439918
0.16286 0.488457 0.444053
0.183658 0.498283 0.443244
0.218616 0.505058 0.430854
0.268269 0.506477 0.403861
0.32636 0.504662 0.354849
0.377478 0.506966 0.272862
0.444465 0.502098 0.222553
0.481971 0.504585 0.19443
0.511635 0.509407 0.176562
0.554345 0.509728 0.174853
0.593225 0.507424 0.192386
0.620035 0.507485 0.213718
0.643061 0.510124 0.23331
0.662745 0.512566 0.246723
0.681666 0.515496 0.253101
0.702846 0.518776 0.243946
0.728359 0.523049 0.215061
0.755566 0.525231 0.177172
0.781079 0.528862 0.140093
0.803449 0.534691 0.113802
0.821851 0.542504 0.0973678
0.836973 0.552438 0.0805371
0.848737 0.559075 0.0882124
0.860258 0.567483 0.0974899
0.872435 0.57937 0.100114
0.881178 0.591196 0.0987869
0.882612 0.59324 0.0984054
0.882612 0.59324 0.0984054
0.135805 0.462516 0.420539
0.142748 0.471305 0.431296
0.148913 0.480201 0.442618
0.155749 0.492164 0.453117
0.163958 0.503136 0.460594
0.176181 0.510796 0.465339
0.193729 0.519905 0.469062
0.222446 0.528603 0.464683
0.265568 0.532952 0.44683
0.323537 0.530007 0.410468
0.366949 0.535775 0.337346
0.43093 0.534661 0.275975
0.492729 0.53019 0.248432
0.517006 0.535012 0.231907
0.548272 0.539254 0.212589
0.590494 0.537011 0.216526
0.625132 0.534798 0.239109
0.650324 0.53547 0.257557
0.672419 0.538033 0.271641
0.692073 0.540917 0.284398
0.711666 0.544213 0.28603
0.734203 0.54757 0.271061
0.76173 0.549996 0.2318
0.787488 0.554147 0.186053
0.810483 0.559533 0.15079
0.830198 0.566537 0.129396
0.850309 0.576486 0.108995
0.861891 0.584436 0.117464
0.870573 0.591714 0.128008
0.879561 0.600671 0.132601
0.889372 0.612634 0.13254
0.890532 0.614099 0.132082
0.890532 0.614099 0.132082
0.148592 0.482521 0.440543
0.156191 0.49041 0.452873
0.166217 0.500008 0.465507
0.174655 0.513268 0.47599
0.182361 0.525658 0.483589
0.19678 0.532418 0.488746
0.213809 0.538949 0.496635
0.238071 0.546563 0.49572
0.273838 0.552895 0.480308
0.32343 0.554101 0.449821
0.379278 0.555856 0.409995
0.42208 0.56437 0.337865
0.487785 0.562005 0.295247
0.537224 0.562615 0.268391
0.551476 0.566598 0.256428
0.583612 0.566491 0.248203
0.62298 0.56347 0.254551
0.654749 0.56286 0.271519
0.681285 0.565286 0.295735
0.703929 0.568139 0.305425
0.723171 0.56939 0.309041
0.740902 0.570657 0.306172
0.765743 0.573556 0.273869
0.793957 0.579889 0.229648
0.820508 0.586252 0.19501
0.842313 0.592126 0.173541
0.857221 0.599741 0.157168
0.871412 0.608576 0.153811
0.881926 0.616709 0.157992
0.889769 0.625132 0.168276
0.896941 0.634363 0.181064
0.897719 0.635416 0.182223
0.897688 0.635325 0.18201
0.163989 0.500267 0.467262
0.17203 0.509636 0.479606
0.182666 0.520104 0.492027
0.193149 0.530648 0.50045
0.204395 0.540505 0.504875
0.219348 0.549722 0.50898
0.236194 0.55877 0.511498
0.260609 0.565408 0.513359
0.29337 0.570245 0.508202
0.333257 0.576501 0.487785
0.388449 0.57789 0.455131
0.425116 0.588479 0.388907
0.48278 0.590372 0.335027
0.536278 0.587625 0.306371
0.566476 0.587091 0.297002
0.578607 0.595117 0.28687
0.609567 0.597543 0.277317
0.655314 0.5935 0.283284
0.687129 0.594186 0.30071
0.714595 0.597848 0.31046
0.736721 0.599512 0.318212
0.754421 0.597986 0.325216
0.77705 0.601007 0.303563
0.803296 0.605768 0.275349
0.829511 0.612253 0.240253
0.851957 0.61883 0.208377
0.866285 0.62443 0.199512
0.879988 0.633844 0.202564
0.890822 0.643458 0.209201
0.899657 0.652934 0.218494
0.90695 0.660533 0.229419
0.907683 0.661357 0.230381
0.907637 0.66125 0.230198
0.179553 0.519142 0.488624
0.190097 0.532662 0.501289
0.200092 0.5411 0.511162
0.211215 0.54847 0.519158
0.22504 0.558328 0.525048
0.239902 0.568704 0.527703
0.260075 0.577493 0.530282
0.285573 0.584985 0.535256
0.31545 0.59147 0.534508
0.349706 0.59791 0.52018
0.398978 0.601129 0.488533
0.442771 0.608423 0.443091
0.481178 0.617731 0.374517
0.53373 0.614008 0.345342
0.571847 0.613428 0.329763
0.594507 0.618982 0.321935
0.604959 0.62855 0.308263
0.648524 0.625269 0.294652
0.684764 0.625238 0.303014
0.720989 0.625238 0.319493
0.745998 0.625574 0.330678
0.766415 0.625269 0.334997
0.789441 0.628916 0.322042
0.815976 0.633036 0.299977
0.842435 0.638071 0.266804
0.864042 0.642664 0.237049
0.877577 0.647593 0.235279
0.888319 0.657481 0.245945
0.89749 0.667155 0.256321
0.907454 0.677073 0.265507
0.916747 0.684932 0.272053
0.917372 0.685389 0.272267
0.917372 0.685389 0.272267
0.195254 0.540215 0.507332
0.20914 0.556863 0.519966
0.218326 0.561837 0.527474
0.230198 0.568139 0.536828
0.246189 0.579538 0.545602
0.262058 0.588891 0.545083
0.28632 0.596124 0.552804
0.311223 0.605417 0.559487
0.337774 0.614069 0.558816
0.369848 0.618814 0.547906
0.412695 0.624674 0.518654
0.460868 0.629602 0.486778
0.484657 0.642786 0.416541
0.536339 0.641138 0.381064
0.570871 0.643671 0.358282
0.603845 0.645991 0.345785
0.617197 0.653361 0.333761
0.643977 0.655848 0.314733
0.677668 0.657069 0.314855
0.724773 0.651026 0.328038
0.754955 0.649546 0.339483
0.776806 0.652079 0.338186
0.801892 0.656519 0.328054
0.830671 0.660777 0.305409
0.857542 0.663127 0.27985
0.878111 0.66479 0.26157
0.890181 0.669963 0.264515
0.897017 0.679362 0.28014
0.904265 0.688762 0.291371
0.915206 0.699275 0.299428
0.92636 0.707759 0.304555
0.926726 0.707942 0.304631
0.926726 0.707942 0.304631
0.210712 0.562799 0.531426
0.227161 0.574685 0.541634
0.238346 0.581979 0.553307
0.253178 0.589548 0.561929
0.272374 0.599527 0.564843
0.291157 0.609674 0.560937
0.312535 0.61796 0.568048
0.335088 0.624994 0.577325
0.359976 0.632136 0.580804
0.389593 0.63949 0.575006
0.430106 0.647471 0.55108
0.477348 0.65156 0.518486
0.497459 0.66569 0.450675
0.544884 0.667872 0.406455
0.583032 0.667597 0.38587
0.616953 0.669154 0.369635
0.637583 0.674571 0.359289
0.646067 0.684886 0.345785
0.670008 0.689967 0.330312
0.723171 0.68368 0.323598
0.768063 0.67921 0.330724
0.794553 0.682155 0.328603
0.819501 0.684016 0.321279
0.847456 0.686137 0.306889
0.872068 0.687297 0.292119
0.891218 0.689616 0.28072
0.903761 0.695216 0.282139
0.910307 0.703014 0.304433
0.916625 0.714382 0.304662
0.925414 0.72604 0.304707
0.934234 0.73228 0.313161
0.934218 0.732128 0.313161
0.934218 0.732128 0.313161
0.231083 0.582681 0.557626
0.243946 0.593408 0.562829
0.258946 0.604807 0.572259
0.27451 0.612467 0.581216
0.293385 0.620798 0.585473
0.317052 0.632776 0.583871
0.337545 0.641138 0.590829
0.359197 0.646357 0.599481
0.382681 0.652476 0.604395
0.409522 0.660883 0.602594
0.448066 0.67129 0.586999
0.490654 0.675273 0.554879
0.519051 0.683314 0.504585
0.549233 0.691218 0.433616
0.592538 0.690044 0.404257
0.625193 0.693843 0.386709
0.651728 0.698344 0.377203
0.659449 0.708324 0.366064
0.673472 0.71606 0.343114
0.718395 0.715724 0.323293
0.774533 0.708919 0.314519
0.813489 0.705455 0.310918
0.840955 0.704646 0.304768
0.864347 0.706676 0.294209
0.884871 0.708705 0.286595
0.902327 0.712352 0.283726
0.916243 0.718746 0.292439
0.924392 0.726024 0.314549
0.92958 0.736034 0.320317
0.93492 0.747295 0.327794
0.939162 0.754391 0.338262
0.939147 0.754345 0.338247
0.939147 0.754345 0.338247
0.245792 0.604807 0.581033
0.257908 0.615457 0.584878
0.274723 0.62681 0.592218
0.292256 0.634455 0.599847
0.313115 0.642435 0.603891
0.338231 0.653117 0.602762
0.359014 0.661982 0.610544
0.380194 0.668513 0.619547
0.401785 0.675349 0.625467
0.426017 0.684245 0.627298
0.460395 0.693584 0.619333
0.499458 0.698528 0.591821
0.536675 0.70161 0.556817
0.552422 0.713115 0.483146
0.597833 0.714504 0.430533
0.630396 0.718883 0.408255
0.659785 0.722499 0.393957
0.676555 0.729412 0.37821
0.684108 0.740078 0.349111
0.724147 0.740749 0.320912
0.784436 0.731685 0.300557
0.831403 0.724758 0.291035
0.86128 0.724544 0.280858
0.882521 0.728222 0.270085
0.899931 0.730892 0.270069
0.915206 0.735576 0.27808
0.928908 0.743297 0.297047
0.936553 0.749493 0.323613
0.940703 0.757336 0.339651
0.943572 0.767819 0.352804
0.944976 0.775189 0.361425
0.944976 0.775204 0.36144
0.944945 0.775113 0.361364
0.254963 0.629328 0.601633
0.269413 0.638758 0.6065
0.286198 0.648173 0.614816
0.308415 0.656611 0.62031
0.332158 0.664134 0.620157
0.354818 0.67187 0.616876
0.375769 0.681834 0.625666
0.397726 0.691508 0.636728
0.418921 0.700389 0.644663
0.440375 0.708934 0.647959
0.469505 0.715251 0.647974
0.50515 0.721782 0.62858
0.542077 0.724605 0.604974
0.572061 0.729183 0.560983
0.599176 0.740475 0.473213
0.634699 0.742336 0.440665
0.668727 0.744656 0.414923
0.692088 0.751034 0.388006
0.698177 0.762936 0.350835
0.740475 0.759594 0.313634
0.802182 0.749142 0.287282
0.848295 0.744366 0.268452
0.880201 0.746654 0.250782
0.902724 0.751812 0.241016
0.917449 0.754147 0.248722
0.929442 0.760113 0.267857
0.939757 0.768322 0.297887
0.946014 0.773129 0.334951
0.949798 0.780362 0.359121
0.951553 0.789578 0.373114
0.951919 0.795209 0.378073
0.951919 0.795193 0.378027
0.951888 0.795117 0.377966
0.266148 0.649821 0.618982
0.282307 0.661509 0.62417
0.299794 0.672923 0.6374
0.322042 0.681422 0.641291
0.345388 0.689235 0.639582
0.368277 0.698268 0.637858
0.386755 0.707271 0.642634
0.414649 0.714977 0.656657
0.440803 0.724178 0.66424
