presets/5219_portrait1.cube
TITLE "Generated by Resolve"
LUT_3D_SIZE 9
0 0.00115969 0.00138857
0.00141909 0.00979629 0.000274662
0.147295 0.012253 0
0.299306 0.0185855 0
0.373571 0.0428321 0
0.367559 0.107042 0.00434882
0.429816 0.163149 0.0091249
0.524529 0.206821 0.0135805
0.579767 0.247196 0.0176547
0.0276951 0.032166 0.0413214
0.0663615 0.0666361 0.063859
0.260166 0.0682383 0.0337835
0.403098 0.0774243 0.0255589
0.473579 0.124529 0.00613413
0.537591 0.177707 0.0127108
0.600473 0.253239 0.0184024
0.672312 0.299443 0.0233616
0.721309 0.338628 0.0271916
0.0180819 0.158831 0.16527
0.0936599 0.195026 0.186343
0.281697 0.214496 0.0729534
0.468544 0.198672 0.0586709
0.570916 0.247684 0.0505379
0.638407 0.316701 0.0229496
0.714366 0.364309 0.0272831
0.772869 0.412116 0.0313115
0.800076 0.457435 0.0332189
0.00909438 0.332372 0.281926
0.0390326 0.386038 0.336812
0.289998 0.380209 0.183841
0.432776 0.412421 0.101976
0.593179 0.419471 0.102281
0.696483 0.450874 0.083711
0.781704 0.485344 0.0544137
0.833143 0.536873 0.0652628
0.851179 0.564034 0.0887312
0.0244144 0.467201 0.396429
0.0578164 0.518746 0.453758
0.233829 0.543587 0.386816
0.473289 0.540063 0.263966
0.597696 0.561944 0.263554
0.732555 0.574166 0.24715
0.829862 0.60087 0.156649
0.877653 0.643336 0.155169
0.892363 0.669444 0.170199
0.0848402 0.570794 0.514992
0.134401 0.619501 0.558694
0.251255 0.653422 0.563714
0.514977 0.657923 0.435523
0.620645 0.675959 0.399359
0.744427 0.692424 0.390692
0.850263 0.707897 0.311192
0.905501 0.740215 0.292836
0.921584 0.756329 0.311955
0.168154 0.667491 0.616419
0.250004 0.707485 0.646525
0.366445 0.73669 0.664469
0.549447 0.755169 0.574899
0.695491 0.765042 0.509712
0.771801 0.791424 0.45098
0.875685 0.799146 0.394491
0.924773 0.822278 0.420752
0.93138 0.837491 0.444327
0.240879 0.759823 0.70869
0.336202 0.795987 0.730327
0.451545 0.822248 0.743984
0.561776 0.839429 0.74464
0.749554 0.838315 0.619593
0.832349 0.864317 0.433036
0.914855 0.877379 0.382971
0.946105 0.892348 0.528176
0.945602 0.901762 0.561654
0.375463 0.831754 0.789044
0.443488 0.86038 0.796872
0.532265 0.887816 0.803738
0.625284 0.903746 0.830121
0.791684 0.89836 0.740261
0.883894 0.921721 0.499306
0.945129 0.932738 0.488014
0.959747 0.946548 0.664179
0.960235 0.953323 0.697017
0 0.00167849 0.00300603
0.00433356 0.0161898 0.0237736
0.165331 0.0216983 0.000366217
0.320348 0.0263981 0
0.393286 0.0514992 0
0.398505 0.118822 0.00509651
0.465309 0.174136 0.0102388
0.558206 0.219745 0.0151064
0.61854 0.256931 0.0192264
0.0290074 0.043473 0.0636301
0.068864 0.0858473 0.0945296
0.271962 0.081239 0.0381323
0.423346 0.0926375 0.0281529
0.489174 0.141573 0.0164034
0.560845 0.195987 0.0192721
0.623423 0.266117 0.0198978
0.697047 0.315312 0.0251469
0.736934 0.347143 0.0281682
0.0236057 0.177798 0.212467
0.0847639 0.221515 0.232975
0.292851 0.232776 0.0892348
0.4907 0.223514 0.0741283
0.582483 0.267613 0.0627298
0.653254 0.335393 0.0352331
0.724178 0.384375 0.0277867
0.785504 0.432837 0.0387121
0.808072 0.470512 0.0493477
0.00988785 0.354589 0.315984
0.0451057 0.405371 0.37232
0.303929 0.398962 0.226139
0.448905 0.430884 0.132845
0.610071 0.437964 0.139696
0.709072 0.468071 0.111009
0.790631 0.505745 0.0764935
0.843275 0.549981 0.0890974
0.866896 0.578637 0.11281
0.0313725 0.486183 0.423041
0.0624857 0.538872 0.476829
0.244694 0.561395 0.425147
0.490272 0.554925 0.311223
0.613367 0.580224 0.290272
0.742916 0.590219 0.282612
0.838926 0.618662 0.194156
0.887419 0.656062 0.191974
0.907485 0.679118 0.214374
0.0974289 0.588754 0.535744
0.148318 0.635676 0.57557
0.265858 0.67219 0.590631
0.518639 0.672999 0.468269
0.635248 0.690318 0.435554
0.749676 0.70399 0.419486
0.859068 0.7178 0.361151
0.908263 0.75555 0.343618
0.921569 0.767468 0.359228
0.184329 0.681651 0.636133
0.266926 0.725658 0.66154
0.385077 0.754559 0.670985
0.554925 0.770764 0.607935
0.704646 0.776196 0.541131
0.780911 0.798138 0.488899
0.8766 0.812207 0.448631
0.926635 0.836622 0.469184
0.935897 0.846479 0.493538
0.259281 0.776577 0.73106
0.355352 0.807691 0.746822
0.470115 0.83238 0.749294
0.576547 0.849897 0.759686
0.751919 0.84979 0.642863
0.835233 0.873152 0.488029
0.911635 0.887358 0.440696
0.946746 0.90132 0.568078
0.954147 0.906004 0.603204
0.393027 0.840604 0.800671
0.466285 0.870207 0.819348
0.547784 0.898131 0.816831
0.640925 0.907561 0.833814
0.793942 0.907881 0.756039
0.886091 0.929305 0.550805
0.947799 0.93904 0.533394
0.961334 0.952529 0.685206
0.964172 0.95639 0.71574
0 0.00357061 0.0376287
0.00114443 0.0293584 0.0988785
0.094377 0.0411383 0.0532082
0.291142 0.0393225 0.0345769
0.381399 0.0750744 0.0125887
0.424582 0.129702 0.00798047
0.516533 0.173999 0.0120394
0.599252 0.219959 0.0234226
0.6448 0.264729 0.0501106
0.0183566 0.062211 0.141741
0.0468757 0.108721 0.191669
0.193164 0.123919 0.139025
0.4038 0.123247 0.0965744
0.483345 0.182818 0.0838636
0.558785 0.219577 0.0621958
0.645197 0.27744 0.0441901
0.694011 0.329061 0.0891585
0.726955 0.372351 0.109422
0.00823987 0.200366 0.299321
0.0469978 0.255573 0.352743
0.246143 0.259861 0.27628
0.473838 0.254582 0.154604
0.585489 0.298039 0.120638
0.655268 0.356161 0.0927443
0.73019 0.401602 0.0816052
0.781415 0.450446 0.129076
0.811078 0.486351 0.153811
0.0152743 0.364492 0.410468
0.0404822 0.423636 0.456001
0.263706 0.423377 0.407538
0.456886 0.443015 0.26804
0.610498 0.454475 0.241108
0.714458 0.487053 0.208087
0.798596 0.520653 0.15671
0.85034 0.564477 0.18793
0.872053 0.593927 0.21442
0.0473335 0.488533 0.512093
0.0789197 0.547463 0.549935
0.259998 0.566415 0.526223
0.495781 0.570993 0.424659
0.624811 0.589776 0.375692
0.745815 0.607065 0.366766
0.836454 0.632975 0.308751
0.888609 0.668635 0.30898
0.903502 0.692561 0.334096
0.119448 0.593011 0.604761
0.173144 0.644327 0.632746
0.295964 0.681468 0.621515
0.477943 0.693812 0.587854
0.651377 0.70106 0.518868
0.759716 0.713893 0.486381
0.850004 0.731716 0.477745
0.897658 0.766232 0.488884
0.908217 0.787549 0.496498
0.198138 0.691646 0.685344
0.278981 0.737697 0.705516
0.397986 0.769909 0.691463
0.520546 0.790722 0.69601
0.692088 0.794217 0.61178
0.775998 0.809308 0.573465
0.862211 0.825101 0.574121
0.91165 0.848112 0.592813
0.9234 0.859052 0.601709
0.283055 0.785199 0.756985
0.366995 0.819104 0.773861
0.486229 0.849119 0.762585
0.586755 0.865232 0.77319
0.743923 0.863615 0.693095
0.823041 0.879927 0.639124
0.887877 0.895567 0.629862
0.937789 0.908095 0.665476
0.943114 0.914321 0.684077
0.420035 0.851423 0.820706
0.487419 0.881514 0.836805
0.559213 0.907439 0.835462
0.646189 0.922271 0.8365
0.775479 0.923003 0.802792
0.876539 0.931991 0.693278
0.917556 0.950439 0.686778
0.957565 0.962783 0.749264
0.960571 0.968978 0.766049
0 0.00947585 0.0931563
4.57771e-05 0.0351263 0.211322
0.0502327 0.0716716 0.158892
0.221958 0.0681315 0.138338
0.337469 0.0873884 0.15436
0.422477 0.150469 0.11931
0.50341 0.196948 0.0659342
0.578408 0.252277 0.0982528
0.619348 0.297948 0.134783
0.00857557 0.0762493 0.257496
0.0436103 0.124727 0.297505
0.138003 0.161837 0.269932
0.326909 0.163684 0.243381
0.44506 0.184466 0.255726
0.527245 0.282979 0.21268
0.61619 0.309636 0.1523
0.668956 0.363668 0.200717
0.702449 0.405646 0.246372
0.00825513 0.211322 0.416434
0.0296025 0.269322 0.470329
0.212161 0.285222 0.424842
0.391699 0.309865 0.373983
0.540185 0.34229 0.329915
0.621042 0.383841 0.255787
0.715679 0.426978 0.221393
0.759091 0.477241 0.283543
0.783734 0.511788 0.326284
0.0271916 0.362692 0.479179
0.0605325 0.426276 0.531441
0.210864 0.447959 0.552804
0.44242 0.452613 0.47306
0.602564 0.464469 0.384878
0.702022 0.502495 0.33518
0.785275 0.543603 0.320714
0.828397 0.584787 0.353689
0.850675 0.610758 0.3841
0.0791791 0.488258 0.577447
0.123125 0.545342 0.630838
0.243503 0.583963 0.615793
0.46656 0.588342 0.561349
0.621332 0.605539 0.483955
0.74757 0.620768 0.457984
0.823987 0.650172 0.444266
0.873182 0.685725 0.459831
0.888701 0.709651 0.475044
0.166323 0.590341 0.667643
0.227741 0.637858 0.699794
0.336126 0.684031 0.67863
0.486351 0.705226 0.655543
0.64741 0.715389 0.596597
0.757122 0.728588 0.547463
0.848127 0.746731 0.555322
0.894697 0.776471 0.585916
0.907454 0.790784 0.595483
0.243854 0.695964 0.734997
0.317464 0.741451 0.758267
0.419196 0.777844 0.733135
0.529412 0.802213 0.737301
0.666285 0.813733 0.692332
0.778622 0.821103 0.643366
0.860487 0.835477 0.641871
0.909667 0.854612 0.663722
0.927123 0.866941 0.673335
0.316533 0.794079 0.794903
0.395346 0.827665 0.808408
0.500343 0.854597 0.785885
0.603372 0.869871 0.793973
0.729229 0.877531 0.751247
0.83772 0.883909 0.710994
0.877195 0.90457 0.710246
0.929534 0.921202 0.732769
0.939925 0.92726 0.742092
0.456611 0.853208 0.847181
0.51429 0.886046 0.86041
0.579309 0.914626 0.854887
0.659556 0.932052 0.850278
0.775509 0.934752 0.824537
0.888792 0.938308 0.766979
0.914458 0.955886 0.772641
0.94374 0.972351 0.799542
0.954772 0.976959 0.806577
0 0.0119478 0.224872
0.00112917 0.0373236 0.339513
0.0601816 0.0633249 0.333425
0.22092 0.0580606 0.343679
0.356649 0.0763256 0.341451
0.425467 0.136339 0.293599
0.490929 0.206577 0.255604
0.564858 0.315206 0.229725
0.602777 0.355245 0.240803
0.0069276 0.0855268 0.364324
0.0466468 0.124392 0.426978
0.148257 0.159091 0.431174
0.330739 0.158114 0.436622
0.462013 0.179904 0.439139
0.526696 0.249897 0.398733
0.599313 0.33286 0.357458
0.660212 0.432792 0.340047
0.685267 0.457435 0.34493
0.031693 0.216663 0.497978
0.0436408 0.27834 0.563912
0.212558 0.298573 0.517113
0.368277 0.330922 0.503563
0.509896 0.351949 0.48687
0.603784 0.391257 0.460945
0.687251 0.482551 0.431388
0.73698 0.530739 0.428534
0.76817 0.559472 0.452064
0.0238499 0.371267 0.568582
0.061738 0.432837 0.632578
0.223774 0.45594 0.62536
0.415671 0.469505 0.592172
0.566964 0.493294 0.544976
0.685985 0.538155 0.508064
0.751492 0.57583 0.484184
0.803616 0.609918 0.503761
0.82707 0.631296 0.520592
0.0938582 0.498009 0.63714
0.139773 0.555245 0.686885
0.253819 0.589319 0.685191
0.455207 0.600381 0.668132
0.614633 0.615442 0.612589
0.743801 0.631388 0.561944
0.812741 0.66511 0.550347
0.859693 0.702296 0.572305
0.875166 0.722164 0.590646
0.200946 0.601953 0.70341
0.263645 0.646922 0.745129
0.350759 0.69012 0.746181
0.494697 0.71223 0.719173
0.640391 0.726909 0.683635
0.764675 0.73901 0.623545
0.846708 0.75874 0.628641
0.893614 0.78674 0.657832
0.909758 0.800244 0.668498
0.302205 0.694118 0.770947
0.35436 0.740154 0.798886
0.439734 0.783993 0.786664
0.552789 0.805737 0.771832
0.669566 0.818738 0.763149
0.792203 0.826841 0.709285
0.862257 0.844495 0.698634
0.914855 0.865492 0.725093
0.931121 0.872206 0.734752
0.366018 0.789792 0.82919
0.424628 0.829816 0.846922
0.522896 0.858701 0.826963
0.624704 0.878202 0.825635
0.726528 0.887343 0.815656
0.837644 0.893721 0.765042
0.879728 0.912856 0.769238
0.937087 0.927199 0.786923
0.951614 0.935286 0.797345
0.498939 0.854032 0.874907
0.550591 0.885298 0.88867
0.600046 0.91487 0.880369
0.675563 0.934081 0.873976
0.785977 0.939864 0.854154
0.885893 0.943832 0.814466
0.924254 0.960128 0.829572
0.950515 0.97702 0.845853
0.962509 0.980529 0.852186
0 0.0149844 0.350668
0.00453193 0.0393225 0.425254
0.090837 0.0598001 0.415579
0.231525 0.0607462 0.467811
0.342443 0.0768597 0.507347
0.439597 0.122469 0.483055
0.511742 0.197803 0.42707
0.572702 0.275181 0.397024
0.607614 0.32781 0.400351
0.00766003 0.0934768 0.457313
0.053315 0.134615 0.521874
0.188983 0.152651 0.506432
0.333425 0.160632 0.55938
0.458305 0.177874 0.596719
0.548684 0.240375 0.573571
0.608133 0.319036 0.518196
0.661143 0.387549 0.491951
0.692226 0.430381 0.497429
0.0386969 0.234928 0.561379
0.0379492 0.30193 0.615885
0.232654 0.309438 0.599817
0.374884 0.33225 0.605783
0.521279 0.342 0.634852
0.618753 0.392584 0.604685
0.676753 0.45037 0.570474
0.73608 0.506462 0.566293
0.76022 0.541161 0.57052
0.0210727 0.38761 0.655116
0.0634928 0.445319 0.708125
0.246876 0.46717 0.676005
0.419287 0.483146 0.665751
0.552193 0.511513 0.640162
0.669306 0.536248 0.622736
0.744335 0.569039 0.625879
0.805447 0.627497 0.63415
0.829969 0.673762 0.639643
0.0993515 0.515831 0.69073
0.149325 0.566262 0.737636
0.271977 0.602701 0.746487
0.464881 0.612757 0.731945
0.610986 0.625696 0.706279
0.719127 0.649256 0.672953
0.801938 0.690455 0.677653
0.84448 0.732586 0.675608
0.863096 0.747723 0.687663
0.222049 0.612634 0.740032
0.276722 0.656336 0.781735
0.364401 0.70132 0.788663
0.504997 0.723751 0.779782
0.642466 0.734447 0.761868
0.762005 0.748608 0.717891
0.842084 0.768185 0.711192
0.887205 0.796765 0.731868
0.905867 0.813977 0.746761
0.329366 0.704921 0.799863
0.387533 0.7505 0.82974
0.460227 0.787549 0.835889
0.565469 0.810666 0.823117
0.681498 0.822232 0.815351
0.793286 0.832395 0.775464
0.868284 0.851331 0.758328
0.918883 0.870161 0.785
0.932799 0.875425 0.804639
0.417044 0.79234 0.862409
0.468711 0.829068 0.880644
0.548211 0.861616 0.877379
0.635447 0.880964 0.86183
0.738689 0.890288 0.858335
0.838743 0.899199 0.828199
0.891814 0.915984 0.825132
0.941543 0.931258 0.841581
0.952361 0.932677 0.843351
0.545708 0.8495 0.905409
0.590356 0.882765 0.913191
0.633921 0.913695 0.912093
0.698512 0.935729 0.90074
0.800916 0.938674 0.888426
0.888273 0.948348 0.871565
0.937499 0.961547 0.87602
0.962356 0.975769 0.884825
0.966003 0.983429 0.88922
4.57771e-05 0.0250553 0.374823
0.00317388 0.054612 0.464454
0.114519 0.0682536 0.442939
0.255619 0.068986 0.510842
0.359426 0.0851759 0.577737
0.446387 0.131441 0.591012
0.523232 0.189548 0.554849
0.587655 0.276509 0.527855
0.616907 0.330282 0.540368
0.0125582 0.117311 0.473198
0.0535286 0.158755 0.542763
0.215091 0.165423 0.545846
0.36202 0.17026 0.597314
0.470573 0.190692 0.659037
0.546822 0.245899 0.67451
0.629068 0.310445 0.635523
0.674571 0.3906 0.619043
0.701656 0.442191 0.612741
0.0373541 0.266667 0.603494
0.0421149 0.325704 0.658625
0.248142 0.321141 0.651713
0.406973 0.339086 0.66659
0.546853 0.33933 0.712291
0.641245 0.375296 0.719661
0.69778 0.439689 0.691585
0.743603 0.512474 0.667231
0.767407 0.547524 0.677821
0.0240482 0.404791 0.711238
0.0699626 0.46566 0.741054
0.27892 0.4795 0.701961
0.445197 0.485969 0.742641
0.574136 0.503304 0.751949
0.686625 0.526787 0.745205
0.762646 0.570077 0.730022
0.802686 0.621286 0.721889
0.825711 0.646433 0.734585
0.11017 0.526955 0.738415
0.163943 0.580972 0.772931
0.299397 0.611002 0.786542
0.497948 0.616632 0.755352
0.612177 0.638071 0.779919
0.72076 0.658396 0.748928
0.797147 0.685832 0.755688
0.845808 0.716472 0.768658
0.867887 0.736385 0.768261
0.23006 0.627054 0.781872
0.289494 0.672648 0.815213
0.382635 0.711101 0.830137
0.515404 0.734462 0.822843
0.654383 0.7411 0.813001
0.762264 0.754986 0.789776
0.830549 0.782666 0.787594
0.884337 0.817288 0.803464
0.902403 0.829358 0.81706
0.342779 0.715511 0.830655
0.403891 0.759915 0.863127
0.480751 0.795987 0.866941
0.582147 0.817868 0.862104
0.685084 0.831006 0.857252
0.801297 0.841535 0.834043
0.866438 0.859648 0.820096
0.919356 0.879118 0.844068
0.929107 0.893309 0.855055
0.449577 0.799466 0.876341
0.504646 0.831357 0.900359
0.572808 0.862623 0.896529
0.653956 0.886183 0.898482
0.748348 0.893751 0.892836
0.843748 0.90399 0.874876
0.902037 0.918456 0.869184
0.948852 0.934539 0.876738
0.963073 0.940139 0.893721
0.588052 0.850736 0.909178
0.631815 0.884688 0.925216
0.660334 0.915587 0.929519
0.726268 0.935302 0.924193
0.820874 0.942931 0.917922
0.897337 0.95201 0.907027
0.946654 0.962814 0.909209
0.967819 0.980621 0.922606
0.973602 0.9832 0.928054
0 0.0393835 0.412802
0.00648508 0.0766613 0.482765
0.133669 0.0829786 0.466804
0.269642 0.0896925 0.519234
0.386358 0.098497 0.59559
0.461234 0.14641 0.614984
0.545296 0.212161 0.59997
0.596658 0.289311 0.584756
0.635142 0.344579 0.602426
0.0200351 0.139162 0.487602
0.0697032 0.179706 0.554162
0.232227 0.184436 0.56405
0.380865 0.194034 0.614542
0.487388 0.209979 0.675441
0.569604 0.261295 0.696681
0.63682 0.328695 0.678279
0.680461 0.401511 0.670069
0.712886 0.440482 0.678721
0.0333867 0.282277 0.620081
0.0696269 0.340978 0.66566
0.279026 0.330205 0.704784
0.430274 0.34345 0.706508
0.560449 0.361089 0.742428
0.655467 0.387427 0.759945
0.720211 0.446128 0.755947
0.763912 0.508797 0.753079
0.778195 0.557183 0.742046
0.0467689 0.425727 0.706157
0.0994583 0.48188 0.741726
0.320195 0.487129 0.717662
0.466712 0.497307 0.780438
0.592432 0.510506 0.795331
0.712901 0.515648 0.821042
0.777951 0.566155 0.808377
0.816327 0.626123 0.781674
0.8318 0.65597 0.78851
0.132403 0.54464 0.758267
0.195697 0.594919 0.79675
0.338598 0.619959 0.806134
0.520562 0.62855 0.783581
0.624933 0.647059 0.819776
0.732937 0.664195 0.805066
0.811185 0.6878 0.812818
0.854322 0.726101 0.814527
0.876631 0.74168 0.822858
0.242771 0.64596 0.804532
0.31107 0.689372 0.84123
0.41001 0.722637 0.847044
0.52929 0.741558 0.857542
0.674678 0.749828 0.841489
0.769451 0.76643 0.829969
0.834806 0.78883 0.831739
0.886137 0.817365 0.846296
0.902586 0.826413 0.858793
0.361898 0.732067 0.858045
0.42121 0.769284 0.879942
0.504585 0.801694 0.886442
0.596933 0.825238 0.889662
0.701823 0.837903 0.893431
0.809873 0.84799 0.864897
0.871366 0.870359 0.863203
0.916762 0.888731 0.879789
0.928969 0.898604 0.88867
0.491508 0.803723 0.891981
0.546685 0.834928 0.915373
0.603143 0.866117 0.914794
0.681468 0.887297 0.915801
0.770413 0.896284 0.915557
0.853697 0.908614 0.906676
0.911223 0.924971 0.902602
0.952804 0.940276 0.91516
0.960723 0.947707 0.91812
0.620783 0.855909 0.91722
0.660777 0.886473 0.931762
0.697643 0.915877 0.937026
0.75845 0.933425 0.936538
0.835355 0.945174 0.935119
0.903609 0.953948 0.935866
0.952483 0.965621 0.934447
0.977905 0.982727 0.940612
0.981323 0.988174 0.943618
9.15541e-05 0.0460822 0.450401
0.0271 0.0783398 0.501213
0.149966 0.101259 0.488624
0.269535 0.116411 0.535027
0.394171 0.128191 0.595972
0.480018 0.175525 0.628504
0.551736 0.241215 0.614176
0.612894 0.308293 0.636561
0.641611 0.361501 0.653513
0.0364538 0.146914 0.532937
0.101427 0.183047 0.604654
0.256703 0.200626 0.593484
0.378515 0.227726 0.633707
0.499977 0.24419 0.684276
0.577493 0.292149 0.696941
0.64773 0.356069 0.700282
0.693782 0.417731 0.715908
0.71754 0.463478 0.722515
0.0431983 0.304204 0.622629
0.116442 0.352895 0.649836
0.312917 0.340017 0.7234
0.455268 0.357534 0.745083
0.565621 0.383841 0.773663
0.658656 0.416999 0.783917
0.730251 0.461387 0.794629
0.773358 0.525261 0.792599
0.788449 0.574365 0.777554
0.0751659 0.448936 0.694713
0.14522 0.501884 0.729915
0.347509 0.504707 0.728069
0.480827 0.515312 0.800595
0.603815 0.532326 0.814679
0.717525 0.534844 0.849256
0.795712 0.578241 0.846784
0.824247 0.636912 0.8168
0.844526 0.669062 0.816907
0.165316 0.563195 0.753811
0.233982 0.608835 0.78349
0.36492 0.634119 0.817624
0.541238 0.639735 0.806622
0.642863 0.659022 0.841062
0.745449 0.675822 0.825956
0.826642 0.694835 0.84715
0.866926 0.735409 0.847669
0.886351 0.753735 0.852277
0.284337 0.654841 0.810254
0.347829 0.698558 0.841978
0.437842 0.73315 0.861189
0.551141 0.750164 0.881392
0.6907 0.753384 0.861662
0.785046 0.775067 0.855482
0.853361 0.795804 0.86186
0.89395 0.823102 0.877546
0.909987 0.835294 0.884871
0.408881 0.738323 0.861555
0.465324 0.775616 0.884703
0.534676 0.810712 0.901976
0.618845 0.829679 0.911482
0.721706 0.841566 0.914153
0.824414 0.855329 0.884092
0.87744 0.877409 0.889113
0.91902 0.895201 0.907683
0.932311 0.904891 0.91371
0.536873 0.805066 0.894286
0.586847 0.841215 0.912718
0.635157 0.869993 0.926131
0.708553 0.889662 0.929534
0.789334 0.89929 0.92903
0.868421 0.913024 0.921798
0.915526 0.931319 0.920272
0.959823 0.948135 0.933562
0.964691 0.954376 0.924697
0.650126 0.863279 0.910399
0.691005 0.891783 0.928298
0.735607 0.918212 0.93872
0.789502 0.936034 0.945647
0.85658 0.948714 0.949874
0.915175 0.960678 0.94963
0.957565 0.974289 0.953017
0.990204 0.985519 0.959457
0.98996 0.990631 0.959457
