presets/5219_portrait2.cube
TITLE "Generated by Resolve"
LUT_3D_SIZE 9
0 0.00880446 0.0416876
0 0.0195773 0.0441444
0.0874495 0.0248569 0.040177
0.295109 0.0419165 0.0512856
0.367834 0.0733501 0.0563973
0.363485 0.139406 0.0639506
0.416922 0.196887 0.0726482
0.496376 0.239719 0.0806744
0.542489 0.276371 0.0866407
0 0.0417182 0.079057
0 0.081239 0.105669
0.246616 0.0923934 0.0838483
0.393637 0.111208 0.0853895
0.453727 0.161578 0.0709239
0.507271 0.213886 0.0799878
0.560159 0.282155 0.0881666
0.621805 0.322332 0.0951705
0.666087 0.355901 0.100816
0 0.183185 0.21912
0 0.2215 0.239979
0.285756 0.236988 0.106432
0.449165 0.230777 0.121477
0.534554 0.276509 0.117403
0.594537 0.336538 0.096025
0.662196 0.377447 0.102571
0.719219 0.418616 0.107805
0.75198 0.456687 0.107668
0 0.367559 0.367514
0 0.415747 0.414694
0.20621 0.411383 0.186481
0.470268 0.409476 0.0988632
0.578332 0.420066 0.159747
0.662913 0.44979 0.149981
0.742382 0.479545 0.124575
0.797208 0.522744 0.132799
0.816266 0.545968 0.154314
0 0.496849 0.483833
0 0.541054 0.531075
0.0680858 0.563958 0.477684
0.440879 0.54786 0.186404
0.60708 0.543435 0.254841
0.704555 0.556558 0.285374
0.801038 0.577935 0.211704
0.854383 0.61445 0.207691
0.873991 0.637491 0.218402
0 0.585687 0.581277
0 0.628824 0.617914
0.0867628 0.66099 0.620981
0.385763 0.67422 0.400671
0.579736 0.668406 0.299214
0.738399 0.663249 0.364889
0.835325 0.675746 0.325902
0.894896 0.705699 0.312917
0.911772 0.721996 0.328695
0 0.670207 0.664073
0.0914168 0.707347 0.687984
0.24123 0.73579 0.700313
0.401007 0.763043 0.599329
0.607324 0.767788 0.39292
0.764996 0.769039 0.343297
0.884291 0.76527 0.362524
0.930282 0.79086 0.398474
0.939239 0.807584 0.415229
0.0670329 0.756909 0.745708
0.186648 0.795163 0.765957
0.315938 0.824643 0.778851
0.419623 0.843992 0.782025
0.620783 0.854414 0.517372
0.834638 0.847959 0.286275
0.949447 0.847791 0.300587
0.964187 0.870314 0.464408
0.962127 0.882734 0.488899
0.248737 0.827359 0.813657
0.307424 0.863462 0.828779
0.375875 0.898787 0.843717
0.476768 0.916472 0.865827
0.643885 0.922179 0.695933
0.885496 0.916091 0.334188
0.977935 0.916472 0.370947
0.972335 0.940032 0.560204
0.968048 0.950027 0.589868
0 0.0096437 0.0431067
0 0.0245365 0.0637217
0.115053 0.0360571 0.0430304
0.318364 0.0519875 0.0530556
0.384863 0.0835737 0.0581521
0.389944 0.152682 0.0664683
0.446738 0.208347 0.0751202
0.524437 0.251987 0.0832685
0.575097 0.285649 0.0890974
0 0.053727 0.10161
0 0.101869 0.135546
0.260533 0.10692 0.0892805
0.411063 0.127733 0.0891585
0.466804 0.178592 0.0814374
0.526467 0.231022 0.0870832
0.579446 0.293492 0.0901656
0.643793 0.336065 0.0976883
0.680262 0.363134 0.102144
0 0.200076 0.255177
0.000350958 0.245533 0.279179
0.299657 0.254124 0.122499
0.467597 0.253437 0.136904
0.544427 0.293889 0.129702
0.607797 0.352438 0.108522
0.673899 0.394446 0.103136
0.733059 0.436149 0.114885
0.759426 0.467872 0.123705
0 0.38616 0.394369
0 0.430152 0.440314
0.223209 0.426215 0.238437
0.481392 0.426459 0.129595
0.58909 0.437278 0.196338
0.672663 0.465095 0.176425
0.751736 0.496956 0.144625
0.805097 0.534401 0.156268
0.829221 0.55903 0.178454
0 0.512367 0.504799
0 0.55874 0.55111
0.080827 0.57847 0.507591
0.446601 0.562646 0.237552
0.619516 0.560342 0.275685
0.712245 0.571481 0.315404
0.80795 0.594339 0.245396
0.860426 0.626856 0.242832
0.881727 0.648112 0.261982
0 0.600961 0.598077
0 0.643168 0.631846
0.11043 0.676814 0.64152
0.385336 0.686687 0.45449
0.582788 0.684474 0.336934
0.741817 0.675181 0.388251
0.838407 0.687282 0.370764
0.896284 0.722423 0.353841
0.909758 0.734752 0.367422
0.0102846 0.681727 0.678614
0.109316 0.725185 0.702251
0.252934 0.755367 0.710735
0.410651 0.775998 0.64033
0.606973 0.781125 0.430549
0.770672 0.776745 0.385168
0.8822 0.781186 0.407843
0.93109 0.807935 0.43856
0.93962 0.819669 0.461006
0.0961471 0.771847 0.763668
0.213336 0.806149 0.779217
0.329 0.836255 0.785946
0.433921 0.85536 0.795621
0.611154 0.869017 0.555444
0.824689 0.862196 0.340002
0.939925 0.862562 0.346075
0.962341 0.88246 0.497383
0.96582 0.889433 0.535302
0.271702 0.836271 0.823865
0.339712 0.87187 0.846311
0.390936 0.91046 0.856718
0.492775 0.921019 0.869642
0.643824 0.932692 0.722835
0.874876 0.929274 0.385458
0.975357 0.926162 0.414054
0.971252 0.948333 0.578225
0.969985 0.954269 0.611643
0 0.0099031 0.0700389
0 0.0365454 0.132708
0.013489 0.0534981 0.0897383
0.28481 0.0638437 0.0862745
0.374975 0.1075 0.0716869
0.412161 0.164645 0.0706951
0.489479 0.209857 0.0786755
0.558434 0.25304 0.092195
0.596689 0.292302 0.118563
0 0.0732433 0.185275
0 0.125444 0.234455
0.153185 0.146639 0.179706
0.394156 0.157305 0.152834
0.461097 0.216587 0.144717
0.524117 0.251621 0.12723
0.597589 0.30338 0.11368
0.639872 0.347448 0.157534
0.670466 0.384405 0.178439
0 0.220111 0.319066
0 0.273991 0.367559
0.219974 0.279454 0.306828
0.45304 0.280125 0.209766
0.546609 0.319585 0.183764
0.608194 0.370077 0.162722
0.676448 0.409918 0.155398
0.723552 0.452277 0.200687
0.752621 0.48307 0.223468
0 0.381399 0.446738
0 0.436576 0.492424
0.205997 0.432273 0.437079
0.462135 0.442206 0.269932
0.578317 0.454322 0.289189
0.667567 0.483665 0.266712
0.749142 0.511681 0.223255
0.799374 0.549447 0.251804
0.822385 0.575128 0.274159
0 0.497108 0.54844
0 0.553201 0.58938
0.157336 0.569741 0.562219
0.42237 0.579522 0.396475
0.616907 0.571649 0.359716
0.707942 0.588922 0.387274
0.793759 0.610803 0.346334
0.848356 0.642557 0.347463
0.866087 0.665019 0.366552
0.00015259 0.591089 0.631678
0.0245365 0.640192 0.661601
0.169039 0.680842 0.658793
0.37406 0.691752 0.628107
0.579263 0.697887 0.437888
0.742763 0.687037 0.455772
0.819547 0.70515 0.47509
0.870497 0.739361 0.486244
0.887739 0.760479 0.486976
0.0565957 0.682322 0.707073
0.151644 0.729793 0.729992
0.268238 0.770047 0.727932
0.391333 0.790845 0.732662
0.553567 0.806332 0.554116
0.737972 0.79733 0.466224
0.855436 0.801144 0.516579
0.905241 0.826108 0.547768
0.918761 0.838285 0.555093
0.146365 0.776226 0.780041
0.2392 0.81471 0.799435
0.338552 0.855116 0.801236
0.439124 0.872984 0.811322
0.589685 0.883467 0.653132
0.741115 0.891127 0.502342
0.882612 0.885206 0.517479
0.9411 0.895567 0.587503
0.945174 0.903471 0.605737
0.311803 0.845945 0.839689
0.363729 0.883421 0.862074
0.406332 0.920058 0.872831
0.488609 0.939666 0.87892
0.627939 0.944198 0.816617
0.800122 0.95137 0.548363
0.899931 0.955947 0.545785
0.953796 0.965255 0.639521
0.953368 0.973709 0.656199
0 0.0157626 0.120928
0 0.0439002 0.228275
1.5259e-05 0.0847791 0.18967
0.197345 0.0906081 0.178592
0.335637 0.118334 0.201083
0.409979 0.184344 0.174853
0.477974 0.229984 0.128878
0.540108 0.280476 0.161624
0.574609 0.319982 0.19678
0 0.0893568 0.292165
0 0.143435 0.338186
0.068574 0.18349 0.293278
0.322225 0.193805 0.276951
0.42884 0.217258 0.291386
0.497398 0.305623 0.260639
0.572091 0.329854 0.212375
0.617884 0.376669 0.256565
0.648661 0.413581 0.296468
0 0.230533 0.410071
0 0.28542 0.456901
0.164309 0.302083 0.444923
0.385229 0.327199 0.387304
0.509514 0.35697 0.356725
0.577966 0.393866 0.301671
0.661219 0.432303 0.277424
0.701625 0.476356 0.32929
0.725536 0.506645 0.363973
0 0.372808 0.484825
0 0.430076 0.533349
0.171359 0.445319 0.538048
0.432135 0.453285 0.476631
0.56556 0.46537 0.407019
0.651698 0.498924 0.37084
0.728588 0.534493 0.361639
0.771267 0.57052 0.389197
0.794232 0.593774 0.414252
0 0.486946 0.579736
0.0164645 0.537209 0.626291
0.180606 0.573816 0.61799
0.420676 0.582483 0.572869
0.597879 0.59057 0.458305
0.701656 0.603861 0.470115
0.773526 0.630228 0.462699
0.824155 0.663081 0.477394
0.842969 0.685878 0.489403
0.0765087 0.577249 0.659449
0.161624 0.620157 0.689525
0.269841 0.671183 0.686442
0.401038 0.69839 0.673411
0.546426 0.714687 0.566171
0.735088 0.704112 0.504448
0.813092 0.722591 0.544518
0.858991 0.753674 0.576532
0.874327 0.768536 0.583642
0.16257 0.676722 0.73167
0.24744 0.722499 0.757778
0.318898 0.771511 0.753338
0.410391 0.800458 0.761852
0.534051 0.817655 0.703456
0.703166 0.820752 0.542306
0.846357 0.815763 0.577188
0.895308 0.836835 0.615442
0.914137 0.85066 0.625834
0.219074 0.778088 0.803235
0.298466 0.817426 0.821958
0.363287 0.858518 0.817029
0.462104 0.877073 0.826169
0.583352 0.891417 0.760601
0.751095 0.895521 0.601236
0.841917 0.904982 0.59791
0.92224 0.915404 0.64361
0.934035 0.922057 0.656657
0.377218 0.842069 0.85507
0.408453 0.884215 0.878294
0.43473 0.926528 0.888441
0.502449 0.951064 0.892714
0.630137 0.955993 0.849958
0.798718 0.960891 0.65449
0.850721 0.975067 0.65153
0.909133 0.98558 0.690013
0.928115 0.98851 0.701625
0 0.0198367 0.236667
0 0.0492714 0.331365
0.000106813 0.0798505 0.331014
0.199832 0.0835126 0.348348
0.356512 0.111055 0.355322
0.413336 0.172305 0.320302
0.466941 0.238239 0.292683
0.529046 0.333822 0.276463
0.561502 0.368704 0.287861
0 0.101381 0.374609
0 0.145144 0.426932
0.0899062 0.184009 0.419699
0.328771 0.191211 0.43241
0.444556 0.215396 0.438499
0.497139 0.278096 0.407767
0.558282 0.350027 0.378363
0.612924 0.437827 0.370611
0.635233 0.459632 0.375692
0 0.239612 0.516808
0 0.296101 0.552071
0.165682 0.314 0.523888
0.365057 0.345754 0.492668
0.48539 0.365972 0.482429
0.564355 0.401602 0.465064
0.638102 0.482322 0.446159
0.683619 0.524529 0.446113
0.713252 0.549905 0.466789
0 0.377691 0.547234
0 0.431815 0.602502
0.191806 0.452094 0.596414
0.406714 0.468574 0.585672
0.537499 0.491325 0.537621
0.639261 0.531579 0.511208
0.698894 0.564752 0.494072
0.748898 0.595026 0.511635
0.772793 0.614557 0.526528
0 0.49163 0.618296
0.05626 0.542199 0.663447
0.221424 0.572534 0.661387
0.448585 0.584451 0.643687
0.577173 0.601373 0.600992
0.694789 0.615305 0.560479
0.760922 0.646174 0.553155
0.809277 0.681422 0.57322
0.826246 0.700923 0.589715
0.140459 0.584405 0.682216
0.229801 0.624399 0.718959
0.32636 0.667323 0.727321
0.453269 0.69398 0.710643
0.56231 0.715297 0.687831
0.732158 0.717571 0.580087
0.806867 0.737011 0.612726
0.853361 0.766644 0.644923
0.871107 0.781109 0.654978
0.269688 0.669261 0.748684
0.323644 0.714641 0.780163
0.382879 0.767025 0.785595
0.456611 0.798581 0.782513
0.562387 0.815381 0.777584
0.706828 0.827771 0.63534
0.840558 0.828656 0.632822
0.894163 0.851652 0.676768
0.90985 0.85948 0.692058
0.317556 0.766171 0.819043
0.367437 0.811749 0.844923
0.41677 0.855482 0.843183
0.496605 0.883665 0.849393
0.601678 0.895018 0.840772
0.726299 0.910292 0.697414
0.813581 0.923033 0.671092
0.92163 0.924544 0.710246
0.938567 0.933349 0.724956
0.443244 0.837598 0.871489
0.473243 0.877028 0.894652
0.478828 0.92166 0.904326
0.531884 0.950927 0.908843
0.653361 0.958236 0.885191
0.772717 0.970108 0.747082
0.845716 0.982361 0.740124
0.903212 0.993515 0.756909
0.929717 0.993149 0.768963
0 0.0254826 0.339055
0 0.0538033 0.402335
0.012726 0.0795148 0.399832
0.216876 0.0897078 0.451011
0.345602 0.114 0.490303
0.427512 0.162142 0.474113
0.485512 0.232532 0.429969
0.535225 0.300633 0.40763
0.565194 0.34609 0.412573
0 0.111971 0.446021
0 0.1579 0.499733
0.152667 0.180621 0.482811
0.333043 0.195361 0.53254
0.442817 0.215167 0.566552
0.516274 0.271626 0.549691
0.565911 0.339467 0.507729
0.612985 0.3991 0.490684
0.641062 0.436957 0.497459
0 0.258 0.583947
0 0.317464 0.595972
0.201724 0.324331 0.579675
0.372366 0.347646 0.57586
0.495415 0.358541 0.602716
0.577798 0.403891 0.58204
0.628687 0.454917 0.557458
0.682612 0.504128 0.556848
0.705791 0.5346 0.562036
0 0.391379 0.615473
0 0.441825 0.663447
0.212482 0.463676 0.649805
0.411719 0.480735 0.64715
0.526467 0.507546 0.616175
0.625101 0.530632 0.604471
0.69279 0.559838 0.609216
0.752407 0.612299 0.619348
0.778805 0.655177 0.627085
0.00576791 0.505745 0.659556
0.0792401 0.549813 0.702083
0.254124 0.582681 0.7093
0.455131 0.595972 0.703456
0.579263 0.609796 0.680186
0.673762 0.632547 0.653513
0.752651 0.671595 0.660655
0.796582 0.712505 0.661753
0.816251 0.727764 0.673228
0.178912 0.592081 0.709056
0.253407 0.631281 0.747677
0.352926 0.675334 0.759945
0.486229 0.699351 0.753826
0.605295 0.713024 0.739208
0.710094 0.731868 0.685466
0.797055 0.748653 0.694194
0.84419 0.778881 0.715953
0.864851 0.797635 0.730816
0.310307 0.677714 0.770932
0.372076 0.722683 0.80383
0.433783 0.762997 0.817639
0.510201 0.793423 0.815122
0.608621 0.811154 0.811337
0.706127 0.829129 0.758206
0.836606 0.839124 0.700755
0.890135 0.859236 0.746319
0.902007 0.865431 0.776455
0.397726 0.765072 0.840482
0.437858 0.805554 0.865339
0.486686 0.84773 0.875273
0.537392 0.879561 0.873243
0.633539 0.894408 0.871977
0.737102 0.9084 0.82034
0.81828 0.926665 0.760891
0.915221 0.931594 0.782238
0.929091 0.932525 0.786252
0.511315 0.828397 0.889616
0.535607 0.869673 0.908629
0.547051 0.912779 0.92311
0.576776 0.948348 0.926314
0.686152 0.953124 0.91426
0.785275 0.967147 0.863767
0.863127 0.980545 0.819974
0.921691 0.988388 0.822828
0.921004 0.998306 0.825269
0 0.0368658 0.35967
0 0.0709087 0.435645
0.0421607 0.090486 0.424292
0.248249 0.100816 0.488136
0.362295 0.124544 0.548867
0.434226 0.172366 0.56228
0.495872 0.226535 0.533654
0.548196 0.302998 0.513802
0.573663 0.349325 0.526329
0 0.137636 0.481712
0 0.182269 0.538109
0.189578 0.194461 0.51632
0.36141 0.205798 0.564782
0.452903 0.227375 0.618769
0.515145 0.276982 0.633402
0.583947 0.33312 0.603525
0.625208 0.402731 0.5944
0.650294 0.448234 0.591791
0 0.28751 0.611658
0 0.338781 0.634485
0.224491 0.335042 0.619532
0.401175 0.354452 0.627344
0.516487 0.357 0.668971
0.596506 0.389548 0.678813
0.647028 0.446204 0.657908
0.689967 0.510109 0.64062
0.712978 0.540917 0.651377
0 0.406287 0.664027
0 0.459525 0.693309
0.242573 0.476112 0.686656
0.437613 0.483696 0.703136
0.544549 0.501076 0.713268
0.640146 0.522744 0.70959
0.709743 0.561166 0.698573
0.749798 0.607202 0.694469
0.77348 0.63035 0.707546
0.025864 0.514397 0.697749
0.103639 0.562005 0.731991
0.290486 0.589899 0.744976
0.471992 0.601282 0.744747
0.580911 0.621118 0.747189
0.675914 0.64155 0.721218
0.748211 0.66772 0.729778
0.797635 0.697566 0.744015
0.821073 0.717281 0.745022
0.194568 0.603662 0.744152
0.271748 0.645411 0.777752
0.379629 0.683146 0.795041
0.501015 0.708522 0.791058
0.616831 0.719585 0.790524
0.718456 0.735241 0.765896
0.786023 0.764401 0.766522
0.842741 0.801678 0.784848
0.862226 0.815 0.799237
0.331044 0.686717 0.79736
0.39675 0.730434 0.832227
0.461738 0.769558 0.84303
0.545129 0.796597 0.844266
0.636896 0.81442 0.842588
0.737743 0.831891 0.825879
0.814878 0.852766 0.78381
0.885801 0.870253 0.818235
0.896513 0.887068 0.824094
0.43386 0.772122 0.852354
0.479728 0.806806 0.880049
0.523888 0.846204 0.888014
0.585763 0.878325 0.898802
0.673289 0.891173 0.895476
0.762325 0.907134 0.881376
0.829709 0.926101 0.844251
0.915465 0.936828 0.831327
0.931563 0.942916 0.853956
0.552773 0.830686 0.892119
0.582971 0.871458 0.917189
0.588357 0.912062 0.934768
0.630793 0.942321 0.940093
0.724575 0.954528 0.935225
0.813458 0.96466 0.917769
0.87747 0.97821 0.883757
0.909819 0.99585 0.889662
0.920119 0.995956 0.896757
0 0.0531624 0.391775
0 0.0950027 0.454887
0.0721294 0.107271 0.445487
0.264317 0.122805 0.496132
0.384802 0.138933 0.564431
0.446311 0.186816 0.582162
0.513878 0.247135 0.570825
0.556161 0.314412 0.560555
0.589715 0.362295 0.577798
0 0.160891 0.510018
0.000854505 0.203357 0.553643
0.212253 0.213321 0.532357
0.37821 0.228 0.57966
0.466712 0.244724 0.633066
0.534005 0.290623 0.653117
0.590936 0.349096 0.640299
0.630945 0.412665 0.637736
0.660197 0.446906 0.646876
0 0.301335 0.616815
0 0.352407 0.646494
0.266224 0.343923 0.65922
0.420661 0.358648 0.662318
0.528634 0.376059 0.697261
0.608881 0.400351 0.715892
0.666773 0.451972 0.715099
0.708263 0.506889 0.715541
0.723522 0.549615 0.708247
0 0.424628 0.660517
0.0164187 0.473655 0.694667
0.284596 0.484215 0.71722
0.455879 0.49395 0.737667
0.559838 0.507454 0.753994
0.662364 0.512886 0.77966
0.723735 0.557671 0.770474
0.763287 0.611765 0.749111
0.780118 0.63949 0.757855
0.0595407 0.529641 0.715709
0.151522 0.5738 0.753002
0.335943 0.598978 0.765194
0.48896 0.612161 0.779477
0.592111 0.62945 0.785519
0.687297 0.647166 0.774258
0.761898 0.669886 0.783627
0.806897 0.707332 0.788327
0.830472 0.722988 0.797665
0.211963 0.620432 0.765759
0.299199 0.660639 0.802472
0.409934 0.69427 0.811292
0.514473 0.715328 0.824506
0.628412 0.729351 0.832868
0.725978 0.747082 0.805661
0.790875 0.771237 0.809842
0.84477 0.802106 0.827024
0.86247 0.812253 0.840513
0.354391 0.702052 0.823209
0.41677 0.739559 0.84828
0.487373 0.774945 0.859892
0.565713 0.803128 0.867857
0.663127 0.820081 0.873564
0.764187 0.834882 0.849729
0.818601 0.863081 0.85388
0.879133 0.8822 0.859571
0.894041 0.893095 0.869001
0.476036 0.776516 0.865293
0.522408 0.81091 0.892699
0.561379 0.84892 0.902098
0.626261 0.877195 0.910277
0.714855 0.889937 0.910643
0.792096 0.90808 0.905959
0.850324 0.928634 0.901305
0.906722 0.945739 0.891234
0.916686 0.954391 0.89044
0.584772 0.837064 0.899809
0.614328 0.873701 0.922087
0.633539 0.911681 0.938827
0.681437 0.936751 0.94548
0.755123 0.953689 0.94667
0.832715 0.963684 0.946639
0.891218 0.977371 0.931655
0.92491 0.996277 0.919799
0.927398 0.998642 0.922469
0 0.0612955 0.423362
0 0.0982986 0.468406
0.0969863 0.127382 0.464897
0.26273 0.149676 0.509377
0.390417 0.167651 0.564797
0.461265 0.213886 0.593591
0.51899 0.272694 0.582956
0.570321 0.331121 0.60412
0.596094 0.377295 0.62121
0 0.169787 0.533318
0.0186923 0.208087 0.568307
0.243336 0.229389 0.557961
0.37557 0.25774 0.595682
0.476524 0.274769 0.640955
0.540734 0.317143 0.654246
0.601236 0.372869 0.660883
0.642786 0.427039 0.678035
0.664958 0.467216 0.685817
0 0.319921 0.605509
0.0144198 0.363027 0.641505
0.306477 0.353155 0.674449
0.441688 0.371176 0.697459
0.533684 0.395834 0.727169
0.612406 0.4262 0.739376
0.676051 0.465248 0.751492
0.717494 0.521263 0.752789
0.733898 0.564904 0.741802
0 0.444999 0.652125
0.0817731 0.491569 0.685405
0.31696 0.500114 0.728069
0.468009 0.509896 0.757763
0.569818 0.526665 0.773678
0.667018 0.529717 0.808179
0.740597 0.5682 0.808286
0.771771 0.621851 0.783413
0.793545 0.651804 0.78587
0.107118 0.546319 0.713237
0.204028 0.586801 0.742107
0.364828 0.612314 0.77789
0.507576 0.62208 0.803754
0.607553 0.640803 0.80737
0.699321 0.658061 0.795148
0.777508 0.676692 0.817899
0.820417 0.716884 0.821775
0.841245 0.735393 0.827985
0.268254 0.628855 0.770718
0.342748 0.670008 0.803891
0.437018 0.704692 0.825803
0.532235 0.724468 0.850309
0.643854 0.732769 0.856229
0.741329 0.756268 0.831846
0.810025 0.778881 0.840604
0.853315 0.808606 0.859144
0.870726 0.822126 0.867597
0.407584 0.709148 0.826825
0.457938 0.746807 0.853056
0.515557 0.784741 0.87509
0.58941 0.807752 0.887922
0.68365 0.82443 0.894209
0.77969 0.842847 0.873594
0.836713 0.86836 0.875853
0.882902 0.888731 0.895598
0.897292 0.899916 0.902464
0.517388 0.779126 0.867094
0.557 0.819379 0.89192
0.595499 0.853422 0.911849
0.660578 0.87895 0.920516
0.741833 0.892058 0.920974
0.819394 0.910475 0.917189
0.858961 0.934707 0.922255
0.912993 0.954192 0.923247
0.918074 0.962707 0.899702
0.607324 0.847196 0.896666
0.640208 0.881453 0.921111
0.673655 0.915099 0.939712
0.722606 0.938308 0.951263
0.791684 0.954696 0.956664
0.850431 0.970367 0.958602
0.899718 0.985687 0.960067
0.939605 0.998184 0.94931
0.937301 1 0.949416
