presets/5219_normal.cube
TITLE "Generated by Resolve"
LUT_3D_SIZE 9
0.0396582 0.0396582 0.0466163
0.042771 0.049012 0.0450294
0.195941 0.051606 0.0436255
0.334798 0.0630808 0.0469368
0.396887 0.0914321 0.049897
0.389151 0.155459 0.0539101
0.438514 0.209995 0.0584268
0.51429 0.249897 0.0624857
0.557748 0.284245 0.065568
0.0738079 0.071809 0.0896468
0.113085 0.107652 0.113588
0.29926 0.112535 0.0834821
0.420142 0.127367 0.0795453
0.476478 0.175036 0.057847
0.526207 0.224598 0.063035
0.574517 0.289326 0.0662242
0.632959 0.32668 0.0697948
0.674601 0.357595 0.0726024
0.0628519 0.20148 0.221118
0.139849 0.235279 0.240681
0.3205 0.250553 0.128405
0.468254 0.241733 0.110796
0.549783 0.284169 0.100679
0.605188 0.340642 0.0706951
0.669215 0.378149 0.0738384
0.721767 0.415625 0.0773022
0.748394 0.450782 0.0800946
0.0583658 0.358831 0.335241
0.0881208 0.402045 0.381582
0.317571 0.391104 0.236118
0.461616 0.408316 0.167025
0.574228 0.419852 0.1617
0.657557 0.445853 0.139132
0.733669 0.472419 0.106035
0.78262 0.511513 0.116533
0.799298 0.532616 0.140597
0.0726177 0.468788 0.432441
0.104433 0.509102 0.479423
0.266224 0.524102 0.415595
0.469535 0.518578 0.309117
0.587762 0.529458 0.320531
0.68751 0.54287 0.29897
0.779568 0.562051 0.212741
0.827329 0.595041 0.210803
0.843351 0.616007 0.226383
0.13022 0.550256 0.529747
0.176333 0.587823 0.563821
0.27895 0.613092 0.56379
0.493553 0.616861 0.453101
0.591394 0.628519 0.424414
0.7084 0.637644 0.427024
0.802029 0.650492 0.356344
0.857343 0.677607 0.33994
0.87306 0.692363 0.356008
0.205478 0.626017 0.61062
0.275578 0.657862 0.633249
0.36994 0.682765 0.647135
0.518257 0.700801 0.5691
0.641978 0.710643 0.514107
0.738781 0.725017 0.474632
0.838621 0.73022 0.432166
0.883284 0.753826 0.452018
0.890883 0.768734 0.472389
0.264164 0.702281 0.686366
0.34165 0.734401 0.703914
0.43473 0.76025 0.716213
0.525002 0.779034 0.717815
0.687541 0.781415 0.606836
0.802121 0.792767 0.459113
0.891676 0.801633 0.42562
0.911238 0.823499 0.544793
0.910246 0.834073 0.572427
0.371359 0.767239 0.758099
0.425772 0.795712 0.765332
0.498054 0.825086 0.772824
0.575845 0.844465 0.801984
0.726055 0.843122 0.715679
0.85243 0.852277 0.51397
0.921233 0.860731 0.512047
0.923934 0.882536 0.658839
0.922713 0.890776 0.687114
0.0410163 0.0406043 0.0486
0.049134 0.0554513 0.0725109
0.213306 0.0617838 0.0450446
0.352529 0.0720836 0.047837
0.413077 0.101061 0.0508431
0.414359 0.167803 0.0552071
0.467262 0.220523 0.0596628
0.541131 0.261173 0.0637369
0.589166 0.292363 0.0667124
0.0740215 0.0836652 0.116213
0.114916 0.127581 0.147097
0.309056 0.126162 0.088304
0.436347 0.142962 0.0822461
0.48838 0.19118 0.0684062
0.544167 0.240742 0.0694438
0.592981 0.299886 0.067277
0.653834 0.339208 0.0710155
0.688273 0.364279 0.0733043
0.068986 0.22002 0.26717
0.131289 0.259907 0.285466
0.330068 0.266468 0.145876
0.485084 0.263142 0.126314
0.558465 0.300481 0.11313
0.617227 0.355474 0.0838026
0.678599 0.394049 0.0750591
0.733318 0.431724 0.08542
0.755016 0.460807 0.0968948
0.0595407 0.377371 0.364996
0.0938735 0.417502 0.411322
0.327855 0.406134 0.27541
0.472541 0.423529 0.197833
0.585031 0.435065 0.198093
0.666819 0.459571 0.166552
0.741238 0.488136 0.129
0.790478 0.52192 0.140246
0.812375 0.544137 0.163867
0.079057 0.483848 0.454719
0.108843 0.525246 0.498772
0.275425 0.538399 0.447883
0.479805 0.531395 0.349386
0.599435 0.544503 0.343145
0.695048 0.556268 0.329152
0.786084 0.576669 0.247654
0.834257 0.606104 0.244785
0.853651 0.625284 0.265217
0.142016 0.564279 0.546654
0.188678 0.600595 0.57731
0.290547 0.628367 0.586023
0.496162 0.62945 0.480705
0.599329 0.641993 0.454002
0.712077 0.648127 0.45066
0.806821 0.660822 0.396323
0.85861 0.692561 0.382452
0.871427 0.70367 0.395117
0.219516 0.637278 0.626795
0.288716 0.67303 0.64535
0.384146 0.698436 0.652125
0.522225 0.714977 0.596994
0.648859 0.72137 0.540566
0.744945 0.732387 0.506127
0.837552 0.744015 0.476738
0.884199 0.768902 0.492515
0.892546 0.779431 0.512489
0.278767 0.716655 0.705715
0.356527 0.745037 0.718654
0.449577 0.770062 0.720943
0.536873 0.789609 0.732189
0.689326 0.793027 0.627039
0.799512 0.804288 0.503288
0.885512 0.813825 0.47245
0.910643 0.83389 0.57763
0.915221 0.84036 0.606516
0.385199 0.775814 0.769329
0.444175 0.805722 0.787762
0.510552 0.835904 0.786114
0.589136 0.848936 0.806195
0.728099 0.853025 0.730785
0.849271 0.862852 0.555245
0.921233 0.869078 0.549126
0.92459 0.889448 0.676951
0.925216 0.894621 0.703838
0.0420386 0.0423743 0.0860304
0.0442664 0.0687572 0.158373
0.142245 0.081239 0.101823
0.326986 0.0841077 0.0857557
0.40209 0.124254 0.0647898
0.435538 0.178912 0.0585336
0.509102 0.221103 0.0624247
0.574365 0.261402 0.0727703
0.609781 0.298161 0.0991531
0.0567025 0.103334 0.215671
0.0826581 0.152193 0.265965
0.236744 0.166629 0.192447
0.417838 0.171374 0.15285
0.480598 0.227527 0.137942
0.540642 0.260349 0.113848
0.610117 0.308736 0.0927901
0.649088 0.349493 0.13843
0.677119 0.383825 0.158953
0.0548409 0.242115 0.346181
0.0949569 0.291585 0.392279
0.279515 0.29163 0.32369
0.469169 0.288334 0.207843
0.558968 0.324575 0.172808
0.616831 0.371633 0.143664
0.681437 0.40763 0.131197
0.725246 0.445533 0.17792
0.751705 0.473487 0.201602
0.0652476 0.385153 0.445045
0.08925 0.432486 0.482612
0.293584 0.425666 0.432807
0.46363 0.437201 0.318441
0.578439 0.449866 0.290211
0.665309 0.475517 0.257908
0.742412 0.50071 0.207355
0.789609 0.534401 0.235096
0.810315 0.557733 0.259388
0.0948196 0.484718 0.529351
0.124941 0.531319 0.559808
0.288746 0.541955 0.533288
0.480446 0.545327 0.445045
0.600687 0.554955 0.412055
0.693202 0.571618 0.397833
0.776852 0.590936 0.346044
0.827863 0.619455 0.345006
0.843153 0.639826 0.366629
0.163043 0.566629 0.604288
0.211154 0.60679 0.62533
0.315053 0.635828 0.611902
0.462654 0.646754 0.581796
0.606485 0.653468 0.523156
0.715343 0.659022 0.504616
0.792187 0.676478 0.491478
0.839582 0.707256 0.500298
0.852888 0.72639 0.508431
0.231357 0.644999 0.669474
0.2981 0.68307 0.684276
0.393744 0.712016 0.669718
0.493309 0.732464 0.673961
0.637095 0.738643 0.600809
0.729778 0.747616 0.572366
0.817014 0.7608 0.579477
0.863142 0.784527 0.593896
0.875517 0.795438 0.601785
0.298299 0.724178 0.729564
0.365362 0.755581 0.744091
0.461891 0.78616 0.733089
0.544717 0.804761 0.744869
0.681865 0.80705 0.67187
0.760601 0.82237 0.623713
0.847898 0.830655 0.625727
0.895552 0.844724 0.658824
0.900084 0.851698 0.674983
0.40676 0.78645 0.789288
0.461173 0.817258 0.8056
0.519661 0.845533 0.805127
0.593057 0.863996 0.808774
0.710292 0.868544 0.776944
0.814817 0.87631 0.672145
0.875563 0.889021 0.672297
0.91603 0.902525 0.733333
0.918044 0.90959 0.748791
0.0410315 0.0483253 0.146105
0.0432136 0.0749523 0.267338
0.0957961 0.112688 0.217411
0.265431 0.110994 0.193072
0.36434 0.13434 0.21146
0.431724 0.197024 0.175296
0.496529 0.240391 0.118639
0.554726 0.287388 0.150637
0.586221 0.324224 0.18677
0.0460975 0.118166 0.335378
0.0756695 0.168856 0.37995
0.183062 0.203357 0.321782
0.352239 0.206943 0.293217
0.448264 0.227436 0.304097
0.51107 0.311376 0.26273
0.583276 0.333639 0.204089
0.625666 0.376699 0.250019
0.65359 0.410254 0.291508
0.0536355 0.253468 0.450828
0.0784314 0.304479 0.494469
0.242054 0.313573 0.47274
0.400443 0.332937 0.403433
0.519661 0.359228 0.365011
0.585275 0.393118 0.300557
0.665034 0.427497 0.268574
0.702007 0.467094 0.322377
0.72369 0.494453 0.358251
0.0771649 0.383108 0.503029
0.108949 0.433433 0.545357
0.248295 0.445991 0.557
0.43798 0.449119 0.489403
0.568658 0.45861 0.411246
0.65153 0.488533 0.368185
0.7252 0.520256 0.353841
0.764935 0.552605 0.380468
0.786068 0.57348 0.405539
0.12604 0.482948 0.583185
0.16759 0.527504 0.627024
0.274571 0.556069 0.609766
0.456474 0.559228 0.561044
0.589899 0.570504 0.499199
0.690913 0.58436 0.472068
0.761257 0.607523 0.458442
0.808957 0.636881 0.470619
0.82475 0.657679 0.483665
0.20676 0.562585 0.657298
0.259632 0.599878 0.683528
0.347967 0.637766 0.66186
0.469337 0.656458 0.640345
0.601251 0.66656 0.589075
0.710735 0.673335 0.554482
0.787564 0.69189 0.555261
0.832593 0.719661 0.579492
0.84593 0.733059 0.588006
0.270863 0.647578 0.713878
0.329686 0.685985 0.733181
0.410758 0.719173 0.707912
0.500191 0.743252 0.711879
0.614343 0.757015 0.671641
0.719585 0.763836 0.628824
0.811841 0.773053 0.635767
0.856382 0.793851 0.652979
0.87393 0.806485 0.661265
0.325444 0.732006 0.765942
0.387945 0.763668 0.777905
0.47332 0.79173 0.755673
0.55848 0.809888 0.765667
0.668116 0.820966 0.726055
0.77319 0.828031 0.688426
0.827222 0.84445 0.692027
0.884291 0.860212 0.717845
0.894392 0.866728 0.726802
0.437201 0.788907 0.817182
0.483345 0.822446 0.830716
0.536431 0.85359 0.826001
0.60444 0.874525 0.823331
0.710063 0.880674 0.798962
0.823697 0.884749 0.741253
0.85536 0.901366 0.7476
0.893523 0.915908 0.777188
0.906477 0.920104 0.785504
0.0420081 0.0510719 0.27805
0.0459602 0.0788128 0.38024
0.109926 0.105608 0.374182
0.267292 0.102052 0.382971
0.382956 0.124971 0.383139
0.435492 0.183719 0.339681
0.484382 0.247074 0.302922
0.540566 0.337575 0.27779
0.570489 0.36994 0.287419
0.0490883 0.128756 0.422202
0.0910048 0.168811 0.472145
0.196521 0.201785 0.456031
0.357198 0.202396 0.460548
0.4636 0.223468 0.461952
0.511757 0.283467 0.424369
0.567803 0.351461 0.387717
0.616922 0.432609 0.373022
0.637552 0.452354 0.376562
0.0547341 0.261036 0.562692
0.0792248 0.313893 0.594873
0.242756 0.324102 0.55491
0.381369 0.349783 0.513542
0.495399 0.366735 0.497948
0.570794 0.398962 0.475242
0.638773 0.472587 0.449424
0.681254 0.510948 0.44596
0.708797 0.533745 0.465217
0.0741436 0.390082 0.579049
0.110216 0.438346 0.631922
0.258076 0.452216 0.620966
0.412543 0.462638 0.602136
0.5393 0.481926 0.546654
0.63682 0.517739 0.514076
0.693629 0.547433 0.492927
0.741146 0.574502 0.508278
0.763333 0.591913 0.521996
0.140124 0.489998 0.633951
0.183093 0.534691 0.675914
0.283268 0.55996 0.670527
0.447105 0.568627 0.653666
0.576257 0.581415 0.603998
0.686595 0.593835 0.559182
0.749859 0.621241 0.548058
0.7953 0.652827 0.56582
0.810742 0.670451 0.581369
0.2374 0.570901 0.688228
0.289799 0.606531 0.724849
0.359609 0.64242 0.723888
0.475914 0.662242 0.697749
0.595392 0.676814 0.665476
0.711559 0.685161 0.616342
0.783841 0.704524 0.616281
0.83003 0.730785 0.64065
0.846555 0.743709 0.650034
0.319646 0.645396 0.747539
0.35996 0.684703 0.772946
0.427344 0.724636 0.759167
0.519463 0.746883 0.745342
0.61735 0.761898 0.738293
0.72987 0.770809 0.687724
0.809888 0.783963 0.68455
0.857618 0.806958 0.706386
0.872679 0.814466 0.714534
0.366369 0.728328 0.80087
0.41207 0.766018 0.817578
0.491981 0.796292 0.797543
0.576394 0.818784 0.798077
0.665721 0.831006 0.789929
0.771649 0.83888 0.739803
0.819379 0.856947 0.744488
0.887007 0.86862 0.768353
0.900923 0.877287 0.778714
0.472328 0.7906 0.847105
0.513619 0.822828 0.861708
0.554055 0.854627 0.853727
0.61857 0.87715 0.848905
0.720012 0.886122 0.829999
0.819516 0.891112 0.788739
0.860868 0.907469 0.804349
0.895491 0.922499 0.823133
0.910903 0.925048 0.831601
0.0429694 0.0557717 0.389883
0.0548257 0.0819867 0.453925
0.142977 0.102998 0.444617
0.278614 0.106432 0.489937
0.373114 0.126375 0.5252
0.449714 0.171725 0.502907
0.50277 0.239445 0.450706
0.547814 0.304417 0.421851
0.574563 0.347295 0.423499
0.0534829 0.138109 0.496315
0.101198 0.179843 0.547005
0.235798 0.195987 0.52015
0.360204 0.205081 0.565118
0.46154 0.221607 0.596353
0.530541 0.275074 0.573037
0.575692 0.339727 0.523598
0.618402 0.395483 0.50074
0.643824 0.430076 0.504707
0.0560464 0.277852 0.631891
0.0740368 0.334096 0.639933
0.265675 0.332372 0.611505
0.386999 0.350423 0.600305
0.505333 0.358175 0.624231
0.583673 0.399512 0.59736
0.630533 0.446265 0.566857
0.680583 0.491051 0.561715
0.701518 0.518837 0.564538
0.071458 0.403265 0.654414
0.111559 0.447974 0.699443
0.270893 0.461891 0.675975
0.416114 0.473243 0.66569
0.527276 0.496315 0.628458
0.622858 0.515999 0.611749
0.687495 0.541985 0.61294
0.742748 0.589502 0.618647
0.766629 0.628626 0.624247
0.145205 0.50399 0.681422
0.191638 0.542901 0.722271
0.297978 0.570108 0.726711
0.451637 0.578836 0.716304
0.573114 0.589578 0.687556
0.664561 0.609247 0.655406
0.739925 0.643992 0.658808
0.780713 0.681041 0.656397
0.799054 0.694667 0.667018
0.255421 0.578912 0.721447
0.300145 0.613794 0.759548
0.370077 0.65153 0.764477
0.483757 0.671977 0.755322
0.597055 0.683223 0.738582
0.702632 0.696574 0.696849
0.778347 0.714366 0.689311
0.823468 0.741253 0.708156
0.84242 0.758038 0.722103
0.341238 0.654215 0.775357
0.386267 0.693706 0.8038
0.444038 0.72781 0.808927
0.529641 0.751476 0.796536
0.62768 0.765393 0.790326
0.729946 0.776776 0.750835
0.810407 0.79324 0.737835
0.856657 0.813977 0.760723
0.869841 0.819913 0.77937
0.407965 0.731044 0.835721
0.448676 0.765942 0.853758
0.512947 0.799481 0.85066
0.585519 0.821729 0.836042
0.676905 0.834165 0.83447
0.772824 0.844633 0.803418
0.829282 0.861295 0.800443
0.885603 0.875013 0.821408
0.895354 0.877043 0.822828
0.511269 0.787366 0.881041
0.547265 0.821668 0.88954
0.583078 0.854551 0.888899
0.638987 0.87953 0.878233
0.734707 0.885115 0.866728
0.82211 0.895766 0.848569
0.874769 0.908873 0.853178
0.907393 0.921172 0.865248
0.910613 0.929366 0.869429
0.0444648 0.0665141 0.410666
0.0530404 0.0983749 0.487877
0.167224 0.112139 0.468101
0.299977 0.115908 0.52697
0.387335 0.135439 0.585351
0.455467 0.180316 0.594522
0.513146 0.232136 0.559625
0.560342 0.305013 0.532677
0.582727 0.348898 0.542336
0.0505226 0.1626 0.532158
0.0937819 0.203464 0.586358
0.259251 0.208087 0.553246
0.383337 0.214115 0.59736
0.47071 0.232624 0.649989
0.529046 0.279225 0.660578
0.593576 0.332235 0.623957
0.630152 0.397421 0.608896
0.652232 0.439261 0.602625
0.0576791 0.305852 0.659083
0.0773022 0.353735 0.678706
0.280415 0.341543 0.651804
0.412833 0.355703 0.653117
0.525902 0.355489 0.693217
0.602564 0.384649 0.699168
0.648981 0.436728 0.672236
0.68748 0.49543 0.648875
0.708263 0.523522 0.657633
0.0738384 0.41677 0.705333
0.11725 0.463905 0.729671
0.290227 0.472374 0.712856
0.440848 0.474784 0.723445
0.545037 0.488777 0.730037
0.637781 0.507301 0.722011
0.703868 0.541817 0.705989
0.740536 0.583902 0.697643
0.762371 0.604807 0.709178
0.155383 0.512306 0.725063
0.204486 0.55407 0.755337
0.320211 0.576288 0.76495
0.467842 0.582895 0.75874
0.573754 0.599161 0.756954
0.666026 0.616693 0.725795
0.735454 0.639704 0.731014
0.782208 0.666377 0.742702
0.803937 0.684215 0.741787
0.261769 0.590097 0.761257
0.30985 0.626841 0.792233
0.384115 0.65951 0.805798
0.491829 0.681117 0.798138
0.603082 0.689525 0.795193
0.702327 0.702434 0.765637
0.76704 0.728359 0.762661
0.820478 0.761593 0.778134
0.83888 0.773495 0.791897
0.351583 0.662989 0.806104
0.398947 0.701701 0.837919
0.46038 0.735485 0.841138
0.543191 0.75845 0.83714
0.630625 0.773678 0.833661
0.737469 0.785916 0.810178
0.803693 0.803479 0.796216
0.85565 0.823911 0.81976
0.865492 0.838499 0.831235
0.434455 0.738018 0.850477
0.478172 0.768765 0.87541
0.533318 0.80119 0.871748
0.601343 0.827451 0.875639
0.685786 0.837736 0.871336
0.777752 0.849546 0.85243
0.838514 0.864149 0.846357
0.888395 0.880125 0.856214
0.90074 0.886687 0.872801
0.546639 0.789914 0.886213
0.5823 0.824979 0.903731
0.605875 0.85742 0.908614
0.66424 0.87985 0.904234
0.754253 0.889647 0.89865
0.831418 0.899535 0.886625
0.884306 0.910048 0.88896
0.908507 0.927596 0.904326
0.914763 0.930144 0.910658
0.0446784 0.0819104 0.443366
0.0563363 0.12137 0.506462
0.185946 0.127398 0.488243
0.310979 0.136812 0.533578
0.408713 0.148852 0.600259
0.466575 0.193927 0.614252
0.52961 0.251331 0.596841
0.567452 0.315328 0.580758
0.597757 0.36025 0.595087
0.0510262 0.184863 0.560494
0.107698 0.223026 0.600549
0.273671 0.225559 0.568124
0.397314 0.235172 0.611154
0.483238 0.249058 0.663661
0.546822 0.291798 0.680003
0.599451 0.346853 0.661311
0.635096 0.406043 0.653513
0.661921 0.437263 0.660243
0.0583963 0.318959 0.663478
0.101228 0.36553 0.689113
0.308385 0.348501 0.691508
0.431617 0.358892 0.688853
0.536568 0.372946 0.721263
0.614023 0.394034 0.73698
0.667964 0.441032 0.73135
0.705455 0.491279 0.727138
0.718029 0.530755 0.716487
0.0956741 0.432776 0.698863
0.145541 0.475837 0.728695
0.318105 0.478492 0.742947
0.458198 0.483619 0.758511
0.559564 0.493996 0.771862
0.659922 0.49688 0.795422
0.717617 0.537499 0.781216
0.753338 0.587243 0.754269
0.768322 0.612528 0.761257
0.176043 0.525658 0.742885
0.232532 0.564248 0.777432
0.351568 0.583398 0.784298
0.483726 0.592279 0.793973
0.584176 0.606439 0.796445
0.676768 0.621134 0.780758
0.74873 0.640879 0.787045
0.790661 0.674708 0.788296
0.812848 0.688731 0.796414
0.27187 0.605158 0.782925
0.326711 0.640497 0.81799
0.405829 0.669337 0.822675
0.502586 0.687099 0.833783
0.61387 0.697963 0.838712
0.708873 0.712947 0.806394
0.771221 0.734035 0.807385
0.822339 0.761624 0.822003
0.839048 0.770535 0.834867
0.366155 0.676982 0.833661
0.412497 0.710048 0.85536
0.479759 0.741009 0.861921
0.55523 0.765637 0.866331
0.645258 0.780529 0.872297
0.745388 0.792355 0.843046
0.806531 0.815137 0.840238
0.85275 0.833844 0.857466
0.865202 0.844053 0.866865
0.468711 0.742596 0.867384
0.512871 0.773297 0.892332
0.558694 0.805493 0.89218
0.625406 0.829267 0.894942
0.706538 0.840681 0.896086
0.7879 0.854337 0.886717
0.846601 0.871321 0.881941
0.889326 0.887144 0.895415
0.89752 0.894789 0.898604
0.574105 0.795987 0.895537
0.607263 0.827726 0.911574
0.63888 0.858885 0.9178
0.694255 0.87863 0.918227
0.768673 0.892088 0.917327
0.837858 0.901457 0.917861
0.889296 0.913222 0.916091
0.918105 0.929931 0.924056
0.921874 0.935378 0.927367
0.0463569 0.0894484 0.475929
0.0784314 0.123339 0.519066
0.201404 0.146044 0.506477
0.309346 0.162753 0.545907
0.412741 0.176623 0.598825
0.479622 0.219745 0.62417
0.53312 0.275639 0.607828
0.580194 0.33051 0.62504
0.603113 0.373877 0.639475
0.075288 0.192126 0.583093
0.150088 0.225513 0.613108
0.294392 0.240101 0.59292
0.39353 0.263935 0.626368
0.491279 0.27779 0.669856
0.551873 0.317021 0.679332
0.608179 0.369055 0.681132
0.645884 0.418723 0.694682
0.665339 0.455497 0.699733
0.0767376 0.336156 0.649561
0.142306 0.37377 0.680949
0.336629 0.356161 0.705653
0.451514 0.369955 0.724361
0.540368 0.39118 0.751324
0.616053 0.417807 0.760037
0.676188 0.45275 0.768429
0.713726 0.50399 0.765133
0.727184 0.544335 0.750286
0.12282 0.450416 0.686381
0.188769 0.49073 0.715373
0.34052 0.492439 0.752239
0.4692 0.497963 0.778225
0.568261 0.511467 0.791058
0.663478 0.512123 0.824231
0.733471 0.546471 0.819684
0.760967 0.596017 0.789334
0.780743 0.623468 0.789517
0.206317 0.539757 0.737026
0.265522 0.575067 0.762936
0.372305 0.594949 0.795834
0.501335 0.6009 0.81828
0.598627 0.616297 0.818051
0.687846 0.630808 0.80177
0.763561 0.646464 0.82208
0.80325 0.682887 0.822354
0.822629 0.699718 0.827054
0.306294 0.612085 0.787747
0.356374 0.648341 0.81825
0.428092 0.678584 0.837293
0.519463 0.695003 0.859907
0.628855 0.700618 0.862638
0.723323 0.720821 0.832807
0.789609 0.740475 0.838743
0.830335 0.767132 0.854963
0.846601 0.779248 0.862577
0.404074 0.68278 0.837278
0.448631 0.71635 0.860426
0.504067 0.750027 0.878538
0.573449 0.77026 0.89015
0.662654 0.784451 0.895201
0.756176 0.800015 0.869749
0.812634 0.822232 0.867781
0.854994 0.840452 0.887266
0.868528 0.850477 0.893645
0.506188 0.744945 0.87071
0.54612 0.780652 0.89041
0.585763 0.810407 0.905303
0.649592 0.832486 0.91043
0.72462 0.844022 0.910948
0.802777 0.858869 0.903029
0.850675 0.877989 0.900908
0.896178 0.895369 0.914992
0.901671 0.901671 0.905928
0.598795 0.804196 0.888747
0.633722 0.834089 0.908614
0.67335 0.862394 0.920409
0.723842 0.881971 0.928618
0.789975 0.895842 0.933318
0.84976 0.908431 0.932647
0.893278 0.922499 0.935866
0.927489 0.9337 0.943206
0.928603 0.938613 0.944228
