presets/5219_normal.cube
TITLE "Generated by Resolve"
LUT_3D_SIZE 5
0.0396582 0.0396582 0.0466163
0.195941 0.051606 0.0436255
0.396887 0.0914321 0.049897
0.438514 0.209995 0.0584268
0.557748 0.284245 0.065568
0.0628519 0.20148 0.221118
0.3205 0.250553 0.128405
0.549783 0.284169 0.100679
0.669215 0.378149 0.0738384
0.748394 0.450782 0.0800946
0.0726177 0.468788 0.432441
0.266224 0.524102 0.415595
0.587762 0.529458 0.320531
0.779568 0.562051 0.212741
0.843351 0.616007 0.226383
0.205478 0.626017 0.61062
0.36994 0.682765 0.647135
0.641978 0.710643 0.514107
0.838621 0.73022 0.432166
0.890883 0.768734 0.472389
0.371359 0.767239 0.758099
0.498054 0.825086 0.772824
0.726055 0.843122 0.715679
0.921233 0.860731 0.512047
0.922713 0.890776 0.687114
0.0420386 0.0423743 0.0860304
0.142245 0.081239 0.101823
0.40209 0.124254 0.0647898
0.509102 0.221103 0.0624247
0.609781 0.298161 0.0991531
0.0548409 0.242115 0.346181
0.279515 0.29163 0.32369
0.558968 0.324575 0.172808
0.681437 0.40763 0.131197
0.751705 0.473487 0.201602
0.0948196 0.484718 0.529351
0.288746 0.541955 0.533288
0.600687 0.554955 0.412055
0.776852 0.590936 0.346044
0.843153 0.639826 0.366629
0.231357 0.644999 0.669474
0.393744 0.712016 0.669718
0.637095 0.738643 0.600809
0.817014 0.7608 0.579477
0.875517 0.795438 0.601785
0.40676 0.78645 0.789288
0.519661 0.845533 0.805127
0.710292 0.868544 0.776944
0.875563 0.889021 0.672297
0.918044 0.90959 0.748791
0.0420081 0.0510719 0.27805
0.109926 0.105608 0.374182
0.382956 0.124971 0.383139
0.484382 0.247074 0.302922
0.570489 0.36994 0.287419
0.0547341 0.261036 0.562692
0.242756 0.324102 0.55491
0.495399 0.366735 0.497948
0.638773 0.472587 0.449424
0.708797 0.533745 0.465217
0.140124 0.489998 0.633951
0.283268 0.55996 0.670527
0.576257 0.581415 0.603998
0.749859 0.621241 0.548058
0.810742 0.670451 0.581369
0.319646 0.645396 0.747539
0.427344 0.724636 0.759167
0.61735 0.761898 0.738293
0.809888 0.783963 0.68455
0.872679 0.814466 0.714534
0.472328 0.7906 0.847105
0.554055 0.854627 0.853727
0.720012 0.886122 0.829999
0.860868 0.907469 0.804349
0.910903 0.925048 0.831601
0.0444648 0.0665141 0.410666
0.167224 0.112139 0.468101
0.387335 0.135439 0.585351
0.513146 0.232136 0.559625
0.582727 0.348898 0.542336
0.0576791 0.305852 0.659083
0.280415 0.341543 0.651804
0.525902 0.355489 0.693217
0.648981 0.436728 0.672236
0.708263 0.523522 0.657633
0.155383 0.512306 0.725063
0.320211 0.576288 0.76495
0.573754 0.599161 0.756954
0.735454 0.639704 0.731014
0.803937 0.684215 0.741787
0.351583 0.662989 0.806104
0.46038 0.735485 0.841138
0.630625 0.773678 0.833661
0.803693 0.803479 0.796216
0.865492 0.838499 0.831235
0.546639 0.789914 0.886213
0.605875 0.85742 0.908614
0.754253 0.889647 0.89865
0.884306 0.910048 0.88896
0.914763 0.930144 0.910658
0.0463569 0.0894484 0.475929
0.201404 0.146044 0.506477
0.412741 0.176623 0.598825
0.53312 0.275639 0.607828
0.603113 0.373877 0.639475
0.0767376 0.336156 0.649561
0.336629 0.356161 0.705653
0.540368 0.39118 0.751324
0.676188 0.45275 0.768429
0.727184 0.544335 0.750286
0.206317 0.539757 0.737026
0.372305 0.594949 0.795834
0.598627 0.616297 0.818051
0.763561 0.646464 0.82208
0.822629 0.699718 0.827054
0.404074 0.68278 0.837278
0.504067 0.750027 0.878538
0.662654 0.784451 0.895201
0.812634 0.822232 0.867781
0.868528 0.850477 0.893645
0.598795 0.804196 0.888747
0.67335 0.862394 0.920409
0.789975 0.895842 0.933318
0.893278 0.922499 0.935866
0.928603 0.938613 0.944228
