presets/5219_portrait3.cube
TITLE "Generated by Resolve"
LUT_3D_SIZE 5
0.0616617 0.0030518 0
0.172808 0.0113985 0
0.325399 0.0536049 0.00289921
0.415442 0.156924 0
0.538674 0.227314 0.00538643
0.0861219 0.159289 0.121935
0.323308 0.204273 0.00192264
0.530037 0.226383 0.0641031
0.652094 0.322194 0
0.741833 0.394415 0
0.111803 0.418936 0.367575
0.275273 0.476905 0.350668
0.613672 0.480949 0.181765
0.795026 0.510384 0.072221
0.870756 0.568933 0.069398
0.231083 0.582681 0.557626
0.382681 0.652476 0.604395
0.651728 0.698344 0.377203
0.884871 0.708705 0.286595
0.939147 0.754345 0.338247
0.391211 0.751812 0.729427
0.526375 0.823621 0.752285
0.726055 0.857893 0.644907
0.976791 0.870085 0.312337
0.966598 0.904677 0.566125
0.057084 0.00450141 0.000320439
0.137087 0.0409552 0.0138247
0.34464 0.0809033 0.0234531
0.481025 0.163729 0.03888
0.584817 0.236652 0.0872969
0.0823987 0.198871 0.271275
0.271641 0.247272 0.254108
0.539666 0.268193 0.151675
0.665599 0.351537 0.0523384
0.738598 0.41474 0.159411
0.130877 0.434745 0.466285
0.297871 0.495033 0.475441
0.614176 0.508904 0.328939
0.776013 0.544396 0.294759
0.846555 0.600443 0.312398
0.254246 0.604974 0.623255
0.408362 0.687266 0.631098
0.635828 0.733333 0.500694
0.854429 0.747326 0.474403
0.915084 0.787686 0.505272
0.427909 0.775662 0.765988
0.550179 0.848173 0.789395
0.731411 0.878416 0.754208
0.906157 0.907897 0.542626
0.954025 0.927916 0.652415
0.0573739 0.0152438 0.189563
0.117281 0.0676432 0.301625
0.35288 0.0844739 0.312276
0.427436 0.211734 0.228641
0.536934 0.321736 0.275883
0.082002 0.216846 0.501152
0.242161 0.28011 0.495918
0.484855 0.322377 0.438682
0.597391 0.433646 0.411765
0.671305 0.492821 0.451591
0.168124 0.44062 0.582162
0.293355 0.513787 0.62594
0.578729 0.541039 0.559609
0.736309 0.583185 0.549371
0.804761 0.638529 0.59704
0.331899 0.608072 0.712825
0.443534 0.70341 0.731594
0.637781 0.749844 0.714
0.839139 0.775372 0.621912
0.896376 0.811185 0.677394
0.4963 0.782818 0.832425
0.585321 0.859571 0.844236
0.748775 0.896574 0.821149
0.877195 0.928985 0.745129
0.938094 0.945953 0.777493
0.0604562 0.0303044 0.340642
0.163882 0.0738231 0.399802
0.355581 0.0936904 0.526131
0.489693 0.186358 0.499443
0.567697 0.302571 0.483864
0.0864271 0.260075 0.607309
0.274815 0.296925 0.603098
0.512215 0.309957 0.650965
0.637675 0.390188 0.629755
0.702403 0.477333 0.616754
0.181262 0.462318 0.682383
0.327108 0.531731 0.731395
0.580591 0.559976 0.729107
0.740505 0.605585 0.703288
0.804471 0.659998 0.71632
0.362737 0.629358 0.779049
0.478614 0.717403 0.82359
0.651545 0.764279 0.820203
0.820935 0.799115 0.784054
0.87895 0.841199 0.832547
0.571389 0.783383 0.877333
0.635798 0.863371 0.905318
0.782071 0.900999 0.897002
0.904677 0.927245 0.874662
0.939101 0.949645 0.899107
0.0630198 0.052079 0.406226
0.194018 0.106035 0.439902
0.383795 0.133242 0.541894
0.512779 0.229435 0.554452
0.588266 0.327062 0.591638
0.104753 0.289799 0.596963
0.325734 0.311543 0.663401
0.528893 0.345708 0.716197
0.664469 0.405859 0.736522
0.723033 0.499275 0.720775
0.225406 0.491188 0.696941
0.37702 0.552911 0.767224
0.605707 0.579293 0.797543
0.768246 0.613672 0.804837
0.830488 0.676692 0.813153
0.415625 0.653941 0.815808
0.5252 0.735592 0.866514
0.683375 0.777218 0.88864
0.831907 0.821653 0.861708
0.887984 0.854887 0.891402
0.623621 0.800427 0.881437
0.701259 0.869215 0.919081
0.816968 0.908354 0.935592
0.919142 0.939193 0.940139
0.953796 0.958312 0.946624
