presets/G200-1.cube
TITLE "XH Copyright"
# XH Copyright
# G200-1
# 20250101
LUT_3D_SIZE 5
0.0413519 0.0578775 0.0625925
0.407019 0.124331 0.0458076
0.666697 0.175128 0.026978
0.799893 0.230121 0.0461738
0.891585 0.266163 0.127459
0 0.286473 0.104128
0.258473 0.259541 0.142641
0.589731 0.361273 0.052079
0.771084 0.42153 0.0655375
0.878904 0.419272 0.0755627
0 0.525338 0.205127
0.257191 0.45417 0.164981
0.582696 0.548028 0.259037
0.819623 0.631388 0.127031
0.926619 0.661173 0.0874189
0.0305028 0.651286 0.247501
0.204517 0.592096 0.162493
0.615045 0.669703 0.325246
0.850065 0.793927 0.390097
0.990616 0.822843 0.249302
0.067628 0.760632 0.351019
0.130663 0.721462 0.213611
0.410376 0.679088 0.222782
0.796887 0.817456 0.413199
0.965331 0.900343 0.525124
0.115038 0.110735 0.350179
0.394949 0.148562 0.303502
0.686244 0.20293 0.242649
0.82681 0.240742 0.281315
0.905638 0.299046 0.465843
0.00653086 0.279255 0.328939
0.24448 0.307988 0.335897
0.616434 0.359243 0.302708
0.785168 0.368093 0.307042
0.903746 0.369146 0.389548
0 0.523751 0.429709
0.144152 0.504967 0.349355
0.539361 0.539818 0.379751
0.743526 0.593668 0.251484
0.896712 0.621546 0.247639
0.00276188 0.676265 0.502007
0.104601 0.686244 0.387762
0.551598 0.659846 0.414359
0.766934 0.7364 0.479652
0.947768 0.781811 0.307637
0.0289311 0.765209 0.574914
0.0562295 0.786633 0.503075
0.241443 0.764019 0.34612
0.708415 0.781445 0.45156
0.939223 0.897124 0.611734
0.262715 0.195239 0.637507
0.505028 0.200565 0.615396
0.721126 0.213443 0.599985
0.836011 0.265766 0.62681
0.921889 0.345663 0.69601
0.0260471 0.307759 0.580102
0.305211 0.35053 0.644999
0.651072 0.385504 0.646937
0.814328 0.400793 0.643793
0.937377 0.463844 0.705409
0.00701915 0.571633 0.648661
0.169574 0.5346 0.615152
0.547021 0.599435 0.649561
0.79115 0.614969 0.63473
0.938796 0.619928 0.65774
0.0155642 0.701076 0.671748
0.0964981 0.695872 0.652598
0.445319 0.720913 0.661173
0.766201 0.765194 0.699901
0.925505 0.784329 0.60061
0.0312963 0.761486 0.692256
0.0417182 0.781109 0.693019
0.140276 0.787106 0.672358
0.540139 0.852049 0.681422
0.916335 0.906981 0.766217
0.313375 0.233814 0.746044
0.557885 0.236255 0.738231
0.746624 0.240024 0.732403
0.856535 0.29427 0.744305
0.93875 0.386145 0.780789
0.0161593 0.381094 0.707103
0.366705 0.391699 0.785046
0.666957 0.412268 0.769131
0.835355 0.434211 0.769345
0.963104 0.515221 0.816114
0.0367132 0.604746 0.803281
0.214099 0.561303 0.761563
0.536736 0.627039 0.767132
0.818433 0.657984 0.799908
0.964797 0.683268 0.822828
0.0196994 0.747219 0.801373
0.0994278 0.73315 0.788922
0.443397 0.733974 0.789563
0.763729 0.78793 0.810452
0.953109 0.794049 0.802029
0.0250706 0.781567 0.774136
0.0357671 0.800198 0.788174
0.144656 0.816205 0.791669
0.54258 0.887037 0.836606
0.931243 0.933181 0.857404
0.325444 0.269001 0.825055
0.572854 0.280705 0.816266
0.75314 0.281025 0.810529
0.870192 0.330556 0.819028
0.96434 0.442496 0.850752
0 0.420111 0.803006
0.389517 0.414893 0.883741
0.696757 0.440864 0.86186
0.885634 0.488197 0.867658
0.991501 0.588495 0.896925
0.0730144 0.629908 0.909407
0.278477 0.611749 0.883391
0.547173 0.681727 0.852262
0.85713 0.699336 0.892973
0.986908 0.742397 0.909285
0.00814832 0.783139 0.924132
0.109926 0.769451 0.901946
0.43949 0.763256 0.888197
0.778088 0.808682 0.900053
0.964706 0.845838 0.915908
0.0226444 0.808362 0.851972
0.0352026 0.822889 0.863798
0.162753 0.853391 0.884657
0.577279 0.902464 0.901671
0.931655 0.955917 0.913802
