presets/G200-1.cube
TITLE "XH Copyright"
# XH Copyright
# G200-1
# 20250101
LUT_3D_SIZE 33
0.0413519 0.0578775 0.0625925
0.0841382 0.0643931 0.0612955
0.12961 0.0746471 0.0611124
0.17583 0.0845197 0.0630961
0.221561 0.0937209 0.0632486
0.267933 0.102602 0.0621042
0.314397 0.110948 0.0593576
0.36202 0.118029 0.0525978
0.407019 0.124331 0.0458076
0.448112 0.130114 0.039292
0.48658 0.136339 0.0344244
0.52253 0.142824 0.0307622
0.556588 0.149371 0.0285496
0.587655 0.155657 0.0271611
0.616846 0.162341 0.0267491
0.643076 0.16875 0.026688
0.666697 0.175128 0.026978
0.68925 0.181949 0.0279698
0.708843 0.189105 0.0295415
0.726436 0.196353 0.0314336
0.742748 0.203738 0.0334936
0.758083 0.211109 0.0361791
0.772915 0.218189 0.039353
0.786862 0.224628 0.0425879
0.799893 0.230121 0.0461738
0.812207 0.235035 0.0500649
0.82388 0.239536 0.0544289
0.835492 0.244068 0.0602274
0.846433 0.248539 0.0669261
0.857755 0.253468 0.0755779
0.869276 0.25835 0.0874037
0.88069 0.262623 0.103914
0.891585 0.266163 0.127459
0.025864 0.0666667 0.0609598
0.0511788 0.0743114 0.061387
0.0990158 0.0815747 0.0570535
0.145266 0.0906233 0.0614023
0.191577 0.0999008 0.063859
0.238575 0.109545 0.0654612
0.286702 0.119463 0.0658885
0.336889 0.128634 0.0621042
0.384207 0.136477 0.0574502
0.428214 0.144091 0.0520027
0.469154 0.151476 0.0469062
0.507103 0.158587 0.0428168
0.54258 0.166049 0.0403143
0.574807 0.173037 0.0387274
0.604822 0.179934 0.0378729
0.632441 0.186664 0.0372473
0.65742 0.19295 0.0367895
0.680842 0.199817 0.0364233
0.701411 0.20679 0.0367285
0.720012 0.213779 0.0373083
0.736996 0.220523 0.0382391
0.753201 0.227481 0.0397345
0.768658 0.233783 0.0416114
0.783017 0.239139 0.0438544
0.796628 0.243748 0.0465553
0.809476 0.247883 0.049485
0.821637 0.251499 0.0534066
0.833356 0.255177 0.0577707
0.844602 0.25893 0.0632334
0.855955 0.262974 0.0704204
0.867948 0.267445 0.0806744
0.879469 0.27126 0.0950637
0.890043 0.273503 0.115953
0.0165713 0.0777905 0.0644999
0.0369726 0.0834058 0.0654154
0.0782635 0.0887007 0.065156
0.117815 0.0986648 0.0580301
0.162203 0.108461 0.0601205
0.208804 0.119265 0.0627756
0.257038 0.130556 0.0655833
0.308202 0.142351 0.0654307
0.357534 0.152865 0.0641337
0.404181 0.162264 0.0612497
0.447944 0.170962 0.0572976
0.488411 0.17908 0.0535439
0.524941 0.186709 0.0510567
0.559075 0.194415 0.0493019
0.590433 0.201358 0.0477302
0.619287 0.208133 0.0463874
0.64564 0.214649 0.045182
0.670146 0.221256 0.0440223
0.691997 0.227985 0.0433204
0.712001 0.235111 0.0431373
0.730312 0.241749 0.0433356
0.747356 0.248157 0.0438239
0.763928 0.254078 0.0450904
0.779126 0.258595 0.0464332
0.793103 0.262257 0.0482643
0.806775 0.26566 0.0509194
0.819089 0.268132 0.0535439
0.830854 0.270588 0.0569924
0.842695 0.273625 0.0616159
0.854353 0.276677 0.0675364
0.866285 0.28011 0.0758984
0.877897 0.282872 0.0879683
0.888273 0.284276 0.105806
0.00770581 0.0970016 0.0685893
0.026276 0.0973983 0.0675669
0.0613107 0.103395 0.0636301
0.103731 0.108934 0.0756542
0.142657 0.120958 0.0619974
0.183154 0.134539 0.0599222
0.229892 0.147585 0.06215
0.280888 0.160937 0.0632486
0.331792 0.173541 0.0637827
0.380728 0.184436 0.0628367
0.425772 0.193759 0.0607614
0.468605 0.202426 0.0585184
0.507057 0.210391 0.0562753
0.542611 0.218051 0.0545357
0.575402 0.22536 0.0526436
0.605722 0.232166 0.051133
0.63328 0.238621 0.0496681
0.659159 0.245426 0.0482032
0.682597 0.252598 0.0473945
0.703853 0.259678 0.0470436
0.723842 0.266728 0.0471809
0.742107 0.273136 0.047425
0.759548 0.278767 0.0483711
0.775708 0.283009 0.0497749
0.790341 0.285954 0.051133
0.803998 0.288487 0.052842
0.816693 0.290333 0.0551156
0.829068 0.291844 0.0581979
0.840696 0.2934 0.0613107
0.85275 0.29546 0.0663005
0.864668 0.297459 0.072694
0.876326 0.299077 0.0825971
0.88687 0.299397 0.0974594
0 0.126879 0.0722667
0.0171054 0.12134 0.0681773
0.049134 0.1243 0.065507
0.093019 0.127474 0.0734569
0.130419 0.135424 0.0876631
0.170871 0.148287 0.0734112
0.210971 0.164599 0.0621347
0.257725 0.180072 0.0611429
0.308324 0.193515 0.0614328
0.358862 0.205707 0.0620279
0.405447 0.215854 0.0610361
0.449882 0.225284 0.0595102
0.49041 0.233921 0.0577249
0.527565 0.241779 0.0560006
0.561868 0.249271 0.0542611
0.593988 0.256611 0.0525826
0.623224 0.263508 0.0512093
0.650019 0.270466 0.0500343
0.674998 0.278325 0.0497444
0.697536 0.285969 0.0499275
0.718135 0.293141 0.05037
0.737514 0.299718 0.0508888
0.755673 0.30547 0.0514229
0.772534 0.309712 0.052842
0.78764 0.312673 0.0540627
0.801419 0.314488 0.0554971
0.814527 0.315847 0.0575418
0.826856 0.316747 0.0595712
0.838911 0.317464 0.0624552
0.85095 0.318379 0.0663157
0.863096 0.319097 0.0712444
0.874739 0.319661 0.0787823
0.885466 0.318624 0.0908064
0 0.163714 0.0775311
0.00976577 0.152941 0.0697642
0.0403143 0.151217 0.0676585
0.0814679 0.152102 0.0725414
0.124269 0.156222 0.0871443
0.160021 0.165057 0.10103
0.201083 0.178546 0.0880903
0.245594 0.195514 0.066453
0.289281 0.211276 0.0614176
0.337438 0.224628 0.0601663
0.384924 0.236072 0.0589151
0.431495 0.246052 0.0581674
0.473854 0.255268 0.0567483
0.513558 0.264225 0.0551003
0.550134 0.272572 0.0537423
0.58352 0.280308 0.0522011
0.614939 0.288136 0.0512703
0.642817 0.295964 0.0509651
0.668742 0.304189 0.0513619
0.692088 0.312352 0.0518807
0.713481 0.319875 0.0528572
0.733181 0.326909 0.0539864
0.752087 0.332921 0.0552224
0.768948 0.337011 0.0561532
0.784512 0.340002 0.0573281
0.798871 0.34197 0.0585336
0.812253 0.343069 0.06009
0.824369 0.34345 0.061738
0.83682 0.343877 0.0641794
0.848783 0.343786 0.0666972
0.861112 0.343572 0.070634
0.873182 0.342962 0.0765393
0.884108 0.340612 0.0860914
0 0.203922 0.0839094
0.00489815 0.18912 0.0732128
0.0332952 0.182315 0.069337
0.0727398 0.179934 0.0729534
0.116655 0.180972 0.08542
0.156008 0.186481 0.101595
0.19176 0.19588 0.115099
0.233814 0.209323 0.100557
0.280613 0.225406 0.0723278
0.322423 0.240879 0.061677
0.367453 0.253834 0.0581369
0.413443 0.265614 0.0561379
0.457115 0.275944 0.0545052
0.499168 0.285557 0.053254
0.538293 0.294789 0.0520638
0.573983 0.30367 0.0510567
0.606455 0.312383 0.0509194
0.63624 0.321324 0.0512856
0.663264 0.330312 0.0526284
0.686854 0.338598 0.0539559
0.708659 0.346777 0.0556802
0.72874 0.35404 0.0570535
0.747631 0.360082 0.0584115
0.764843 0.364721 0.0593729
0.780606 0.367697 0.0604257
0.795193 0.369833 0.0615702
0.808804 0.370962 0.0625925
0.821485 0.371405 0.0641184
0.833646 0.371405 0.0654154
0.846189 0.37116 0.0677653
0.858839 0.370413 0.0706188
0.87097 0.368734 0.0747997
0.882383 0.365301 0.0821698
0 0.245441 0.0925154
0.00267033 0.227955 0.0779889
0.0271305 0.216297 0.0716869
0.0640726 0.210651 0.0735485
0.108415 0.208789 0.0842603
0.150774 0.211017 0.100481
0.18912 0.217884 0.117128
0.225025 0.227558 0.12929
0.267506 0.240452 0.112306
0.315343 0.254948 0.0783246
0.356527 0.269886 0.062089
0.398962 0.283299 0.0568856
0.442878 0.295354 0.0540475
0.485588 0.306462 0.0518654
0.525948 0.316869 0.0504158
0.564492 0.32726 0.0502937
0.598291 0.336858 0.0506447
0.628733 0.346349 0.0521096
0.657008 0.356222 0.0543069
0.681361 0.36495 0.0561837
0.703288 0.373053 0.0581979
0.723705 0.380758 0.0601358
0.742428 0.386801 0.0615091
0.760067 0.391623 0.0627604
0.776028 0.395148 0.0634012
0.790921 0.397299 0.0637675
0.805005 0.398718 0.0649729
0.817853 0.399496 0.0659037
0.830671 0.399588 0.067216
0.84329 0.399435 0.0688334
0.856168 0.398123 0.0705577
0.868513 0.395895 0.0731365
0.880262 0.391485 0.0787366
0 0.286473 0.104128
0.00204471 0.266835 0.0848249
0.0226139 0.251789 0.0749371
0.0559243 0.242481 0.0744793
0.0993973 0.238132 0.0833295
0.144198 0.238117 0.0990463
0.184695 0.242222 0.116396
0.222492 0.25005 0.132418
0.258473 0.259541 0.142641
0.30106 0.271641 0.123293
0.350088 0.285069 0.0854505
0.391653 0.299672 0.0645609
0.432563 0.313756 0.0564279
0.4748 0.326879 0.0532845
0.51548 0.338872 0.0515297
0.55462 0.350378 0.0509499
0.589731 0.361273 0.052079
0.621118 0.371588 0.0539406
0.649775 0.381491 0.0559243
0.674968 0.391028 0.0585489
0.697337 0.399283 0.0608988
0.717388 0.406424 0.062562
0.736797 0.41297 0.0639353
0.75462 0.417731 0.0649119
0.771084 0.42153 0.0655375
0.786542 0.424186 0.0660716
0.800702 0.425895 0.066453
0.814221 0.426917 0.0671244
0.827466 0.427695 0.0680095
0.840345 0.427451 0.0687724
0.853788 0.426398 0.0698405
0.866957 0.424002 0.0717021
0.878904 0.419272 0.0755627
0 0.326818 0.120394
0.00173953 0.304616 0.0948348
0.0198367 0.287144 0.080415
0.0496834 0.275105 0.0771038
0.0914931 0.26836 0.0837262
0.137606 0.266651 0.098497
0.180652 0.268986 0.115816
0.219913 0.274464 0.132952
0.256413 0.282368 0.147173
0.292836 0.291905 0.155322
0.336736 0.304036 0.13431
0.387335 0.317617 0.0944686
0.430121 0.332525 0.0704051
0.469886 0.34728 0.0594644
0.509483 0.361242 0.0558633
0.547753 0.373968 0.0549172
0.582452 0.385672 0.0558022
0.614267 0.396582 0.0572213
0.643153 0.40679 0.0593423
0.668788 0.416007 0.0618601
0.691432 0.424552 0.0637064
0.711971 0.431708 0.0651408
0.731365 0.438102 0.0664225
0.749767 0.443244 0.0669718
0.766705 0.447196 0.0670176
0.782635 0.449989 0.0671092
0.797452 0.452323 0.0670024
0.811612 0.45388 0.0672007
0.824903 0.454734 0.0672313
0.838666 0.455375 0.0676585
0.852461 0.454398 0.0680552
0.865858 0.451987 0.0688945
0.878431 0.447456 0.07187
0 0.363729 0.13637
0.00225834 0.340887 0.107027
0.0187991 0.321782 0.0880903
0.0453651 0.307988 0.0813916
0.0842756 0.298924 0.0852216
0.1308 0.295476 0.0982376
0.176181 0.296605 0.115633
0.216831 0.300099 0.132921
0.255222 0.30663 0.149233
0.291569 0.315068 0.162478
0.330159 0.325765 0.169009
0.375738 0.338949 0.146471
0.426978 0.353124 0.106706
0.47071 0.368124 0.0805066
0.509316 0.383474 0.067216
0.546151 0.397696 0.0623026
0.578866 0.41004 0.0619821
0.609583 0.421225 0.0625467
0.638819 0.431891 0.064271
0.664591 0.441184 0.0658579
0.687373 0.449088 0.067277
0.708522 0.45655 0.0686198
0.728527 0.462882 0.0692912
0.747417 0.468009 0.0693065
0.765087 0.472282 0.068574
0.781399 0.475608 0.0678874
0.79678 0.478264 0.0670787
0.811215 0.480385 0.0663767
0.825345 0.481865 0.0659648
0.839017 0.482597 0.0654307
0.853178 0.482673 0.0654459
0.867033 0.480797 0.0660563
0.87924 0.476829 0.0679789
0 0.397818 0.151232
0.00265507 0.375402 0.120027
0.0182498 0.355428 0.097734
0.0427253 0.340368 0.0874952
0.0787823 0.330068 0.0886702
0.125048 0.32517 0.0998703
0.171603 0.324712 0.116106
0.214176 0.32694 0.133532
0.25391 0.331868 0.150652
0.292485 0.339925 0.166293
0.330938 0.350027 0.18024
0.371145 0.362097 0.183764
0.417395 0.376333 0.160388
0.467826 0.390921 0.122316
0.511696 0.405631 0.0949264
0.548959 0.42063 0.0798352
0.580911 0.433783 0.0728618
0.610529 0.445655 0.0706035
0.638346 0.456428 0.0707866
0.663783 0.465843 0.0713207
0.686702 0.474083 0.0724193
0.708446 0.481483 0.0730907
0.728832 0.487999 0.0730907
0.748348 0.49337 0.0724193
0.766705 0.497734 0.0710002
0.783719 0.501671 0.069276
0.799542 0.504723 0.0678569
0.81442 0.507469 0.066392
0.828382 0.509544 0.0649729
0.842542 0.510994 0.0639658
0.856229 0.511391 0.0632029
0.869657 0.510353 0.0632334
0.881849 0.506981 0.0649424
0 0.428977 0.165118
0.00288396 0.408057 0.133806
0.0183261 0.387854 0.108644
0.0412146 0.371542 0.0948959
0.074815 0.360403 0.0933242
0.120165 0.354482 0.102541
0.167193 0.352483 0.117372
0.212024 0.354025 0.135058
0.253559 0.357809 0.15288
0.293339 0.364691 0.169757
0.333867 0.374929 0.185687
0.373831 0.386954 0.199588
0.414694 0.400412 0.199329
0.460288 0.41503 0.175708
0.508705 0.429282 0.139818
0.551125 0.443137 0.112367
0.585428 0.456504 0.0961318
0.615259 0.468849 0.0865949
0.643076 0.480339 0.0814374
0.66772 0.490242 0.0793927
0.690684 0.498772 0.0791333
0.712322 0.506477 0.078996
0.73254 0.512932 0.0783703
0.752728 0.518959 0.0769665
0.771511 0.523842 0.0748455
0.789456 0.528435 0.0726177
0.8056 0.532204 0.0701762
0.820569 0.53518 0.0677501
0.835065 0.537926 0.0660105
0.848936 0.539971 0.0642557
0.862531 0.541131 0.0632181
0.875227 0.540551 0.0626841
0.886641 0.538109 0.0639658
0 0.457282 0.177295
0.00303655 0.438132 0.146838
0.0184787 0.418357 0.12015
0.0407263 0.401633 0.103639
0.0724651 0.3897 0.0994278
0.116976 0.383322 0.106783
0.164446 0.380148 0.120317
0.210361 0.380301 0.137087
0.254337 0.383871 0.155673
0.296056 0.390249 0.173861
0.338064 0.399954 0.191348
0.379263 0.412207 0.207263
0.418601 0.425071 0.218921
0.459037 0.439124 0.214832
0.50341 0.45388 0.191638
0.548272 0.467353 0.159136
0.587686 0.479744 0.132433
0.620966 0.491768 0.114137
0.650004 0.503212 0.1019
0.675547 0.513619 0.0946212
0.69865 0.522927 0.0901808
0.720165 0.531121 0.0876478
0.740917 0.538445 0.0858015
0.761212 0.545129 0.0838941
0.780301 0.550881 0.0813306
0.797955 0.555642 0.0780652
0.814801 0.560128 0.0748913
0.829969 0.563851 0.0717327
0.844221 0.567163 0.069337
0.858 0.569711 0.0671855
0.87129 0.571603 0.0657816
0.883345 0.571542 0.0648966
0.893782 0.569879 0.0659037
0 0.482658 0.187915
0.00367742 0.465339 0.158648
0.0187839 0.446983 0.131777
0.0404364 0.430472 0.113024
0.0713512 0.417914 0.106203
0.11487 0.410651 0.111696
0.16199 0.406928 0.123583
0.209323 0.406043 0.139849
0.254994 0.408743 0.158633
0.299138 0.414801 0.178073
0.342779 0.42443 0.196872
0.383978 0.436042 0.213367
0.424475 0.449454 0.228534
0.46305 0.463233 0.237018
0.502205 0.477211 0.230243
0.543542 0.491005 0.208438
0.584146 0.50341 0.179599
0.622049 0.514763 0.152605
0.655833 0.526421 0.132692
0.683619 0.536782 0.118761
0.708278 0.546639 0.10959
0.7308 0.555703 0.103258
0.75201 0.563882 0.0981765
0.772625 0.571313 0.0939345
0.792035 0.578103 0.0901198
0.809934 0.583535 0.0863966
0.826368 0.588495 0.0826276
0.841672 0.592844 0.078996
0.856123 0.596887 0.0758373
0.86952 0.599695 0.0730449
0.882322 0.602213 0.0713817
0.893675 0.602899 0.0701152
0.903151 0.601602 0.0705577
0 0.505257 0.197162
0.00466926 0.490028 0.16936
0.0188144 0.472892 0.142473
0.0396277 0.456718 0.122301
0.0705577 0.444617 0.11397
0.112261 0.4365 0.116762
0.159564 0.431754 0.127092
0.208942 0.430579 0.143313
0.255848 0.432364 0.161715
0.302358 0.438071 0.182086
0.347433 0.447333 0.201831
0.3897 0.458991 0.219532
0.429984 0.47219 0.235355
0.468696 0.486061 0.249165
0.506157 0.50016 0.253788
0.543435 0.513664 0.245365
0.581643 0.52668 0.225315
0.619593 0.538354 0.198535
0.656718 0.549432 0.172091
0.689647 0.560479 0.151873
0.717128 0.570413 0.137377
0.741726 0.580026 0.126589
0.764813 0.589334 0.118257
0.786053 0.597559 0.111208
0.805478 0.604883 0.10518
0.823911 0.611582 0.0997482
0.840482 0.617014 0.094316
0.855665 0.621714 0.0896773
0.870024 0.626245 0.0859846
0.883085 0.629526 0.0825208
0.895384 0.632166 0.0798962
0.905837 0.633417 0.0783398
0.914443 0.632776 0.0783093
0 0.525338 0.205127
0.00576791 0.511757 0.178653
0.0192416 0.4963 0.152438
0.0391852 0.480858 0.131136
0.0695659 0.468666 0.121416
0.110552 0.460182 0.122118
0.157778 0.454795 0.130922
0.207736 0.452674 0.146059
0.257191 0.45417 0.164981
0.305104 0.459297 0.185611
0.351415 0.467887 0.205966
0.395102 0.479835 0.224826
0.435889 0.493034 0.241382
0.474495 0.506706 0.255894
0.511696 0.521202 0.26743
0.547204 0.534768 0.268498
0.582696 0.548028 0.259037
0.618875 0.560739 0.240711
0.656413 0.572808 0.215778
0.691539 0.583841 0.191836
0.723308 0.594705 0.172824
0.750774 0.604471 0.157656
0.776135 0.614221 0.145388
0.799207 0.623468 0.135485
0.819623 0.631388 0.127031
0.838087 0.638285 0.119448
0.855222 0.644602 0.112459
0.870512 0.649638 0.105882
0.884367 0.653971 0.100145
0.897231 0.657526 0.0948653
0.908934 0.660197 0.0909438
0.918822 0.661326 0.0881819
0.926619 0.661173 0.0874189
0 0.543404 0.211643
0.00746166 0.531243 0.186313
0.0201419 0.517037 0.160876
0.0390631 0.5028 0.13933
0.0687572 0.490822 0.128176
0.108644 0.481895 0.12723
0.155673 0.476112 0.134707
0.206149 0.473243 0.148775
0.257252 0.473884 0.167575
0.307668 0.478889 0.188907
0.355154 0.487282 0.209796
0.399207 0.498405 0.229023
0.441276 0.511879 0.24654
0.480125 0.525811 0.261418
0.517037 0.539956 0.27509
0.552361 0.554406 0.283268
0.58677 0.568154 0.282185
0.620722 0.581415 0.272694
0.656825 0.594858 0.255863
0.692164 0.607065 0.234409
0.725017 0.618021 0.213489
0.756207 0.628916 0.19501
0.784375 0.638682 0.178622
0.81001 0.648341 0.16556
0.832242 0.656748 0.154238
0.851637 0.664057 0.144289
0.869032 0.670207 0.135042
0.884764 0.675837 0.127062
0.898436 0.679896 0.118822
0.910842 0.683162 0.111315
0.922332 0.685817 0.105165
0.93167 0.687114 0.100664
0.938582 0.686534 0.0975662
0.00238041 0.560143 0.217395
0.00958267 0.549538 0.193332
0.0213779 0.536568 0.168597
0.0390784 0.523064 0.147021
0.0680095 0.511788 0.135027
0.106279 0.502525 0.132143
0.152483 0.496101 0.137819
0.203265 0.492836 0.151034
0.25539 0.492378 0.169024
0.307897 0.496529 0.190494
0.357717 0.504875 0.212512
0.403052 0.515831 0.232486
0.445075 0.528649 0.250187
0.485557 0.543374 0.266346
0.522713 0.557809 0.28043
0.557885 0.572305 0.292515
0.591989 0.586999 0.297932
0.625284 0.601099 0.295888
0.65951 0.615045 0.286564
0.69398 0.628824 0.27219
0.726818 0.640772 0.254002
0.758434 0.651759 0.234867
0.78912 0.662501 0.216526
0.817227 0.672099 0.199939
0.84155 0.680781 0.185977
0.862989 0.688502 0.173648
0.881407 0.69482 0.162142
0.897185 0.699855 0.151293
0.911299 0.70399 0.14078
0.923903 0.707164 0.131258
0.934524 0.708995 0.122377
0.943771 0.710124 0.115434
0.950301 0.70959 0.110399
0.00601205 0.576288 0.22266
0.0124361 0.56701 0.199893
0.0230869 0.555261 0.175891
0.039765 0.542397 0.154299
0.0668345 0.531273 0.141131
0.103883 0.522011 0.136919
0.148592 0.5149 0.140764
0.199176 0.510658 0.152239
0.252796 0.510048 0.170108
0.306462 0.513588 0.191379
0.35761 0.520729 0.213535
0.40531 0.531624 0.234562
0.448631 0.544533 0.253269
0.489403 0.55874 0.269627
0.52784 0.574243 0.284855
0.563607 0.589227 0.298711
0.597543 0.604334 0.308507
0.630838 0.619486 0.312383
0.66453 0.634379 0.309682
0.696941 0.648447 0.302022
0.729366 0.66186 0.289555
0.760388 0.67364 0.273594
0.791135 0.684474 0.255512
0.820996 0.694896 0.237736
0.847272 0.703456 0.221256
0.870329 0.711101 0.206149
0.890288 0.717723 0.192889
0.907347 0.722744 0.179446
0.922148 0.726574 0.166323
0.934997 0.729488 0.154086
0.945968 0.731106 0.142657
0.954696 0.731502 0.133272
0.961028 0.730541 0.125765
0.00981155 0.591714 0.227405
0.0157473 0.58323 0.205127
0.0253147 0.572808 0.182483
0.0410315 0.561166 0.161669
0.0661326 0.550057 0.147478
0.10074 0.540459 0.1411
0.144152 0.533379 0.143542
0.194156 0.528313 0.15349
0.247837 0.526635 0.169986
0.30341 0.529473 0.191211
0.356359 0.53611 0.213779
0.405371 0.546166 0.235325
0.451087 0.558877 0.255039
0.493202 0.573495 0.272541
0.531899 0.588876 0.288029
0.569177 0.605051 0.30309
0.603693 0.620661 0.315969
0.636591 0.636316 0.323995
0.67039 0.652506 0.326879
0.702037 0.667216 0.324681
0.732525 0.680751 0.317937
0.76321 0.693797 0.307073
0.793149 0.705226 0.292241
0.822522 0.715663 0.275395
0.849897 0.725078 0.259083
0.874128 0.732906 0.243061
0.895567 0.739376 0.227451
0.91429 0.744595 0.211612
0.929763 0.748104 0.196109
0.943664 0.750698 0.180697
0.955276 0.752132 0.16669
0.964233 0.751858 0.154025
0.970459 0.750011 0.143648
0.0140841 0.606912 0.231846
0.0196841 0.599405 0.210575
0.0279088 0.58999 0.188663
0.0421454 0.579065 0.168261
0.0651408 0.568612 0.153506
0.0974289 0.55906 0.145785
0.138155 0.551019 0.145724
0.186603 0.545434 0.153765
0.24097 0.543099 0.169314
0.29723 0.544686 0.189548
0.35256 0.5505 0.212512
0.403845 0.559884 0.234852
0.45095 0.57203 0.25536
0.49485 0.586709 0.273777
0.535439 0.602564 0.290532
0.573022 0.61883 0.305943
0.609094 0.635782 0.32105
0.642573 0.652049 0.332341
0.676097 0.668833 0.339376
0.707866 0.684672 0.341924
0.737713 0.699001 0.339956
0.766644 0.712093 0.334249
0.795621 0.72433 0.324376
0.823713 0.735332 0.311818
0.850431 0.744762 0.296803
0.874815 0.753063 0.282139
0.896849 0.759869 0.266148
0.916579 0.765026 0.248646
0.933944 0.768811 0.230396
0.949172 0.771298 0.211826
0.961486 0.771908 0.194186
0.971542 0.771389 0.178363
0.978256 0.768734 0.164446
0.0190738 0.621851 0.236606
0.0243381 0.615686 0.216205
0.0316625 0.607355 0.195026
0.0442054 0.596811 0.174823
0.0644694 0.586847 0.159472
0.0936599 0.577173 0.15021
0.131319 0.568994 0.148211
0.177508 0.56257 0.153765
0.231159 0.559426 0.167422
0.287999 0.559701 0.186481
0.345083 0.564019 0.20911
0.398856 0.572564 0.232303
0.448386 0.584039 0.253956
0.494285 0.59855 0.273579
0.536721 0.614801 0.291524
0.57615 0.631617 0.308095
0.612863 0.64863 0.323766
0.647791 0.666102 0.338033
0.681193 0.683375 0.348058
0.712917 0.699901 0.354253
0.742626 0.714992 0.356405
0.770687 0.728664 0.354971
0.798032 0.741222 0.350561
0.824765 0.75288 0.343374
0.849729 0.762783 0.3337
0.872984 0.771267 0.32166
0.895018 0.778408 0.306813
0.9149 0.783917 0.289647
0.933272 0.787823 0.269337
0.950332 0.790646 0.248188
0.964736 0.791379 0.226719
0.976425 0.790372 0.206348
0.984466 0.787335 0.188998
0.0247501 0.636835 0.241657
0.029633 0.631235 0.221622
0.0362097 0.623987 0.20119
0.0472114 0.614649 0.181643
0.0643168 0.604746 0.16553
0.0897383 0.595361 0.154955
0.123537 0.586633 0.150469
0.166232 0.579782 0.15346
0.218616 0.575586 0.16495
0.2757 0.574639 0.182422
0.333318 0.577371 0.20383
0.389715 0.584329 0.227512
0.441947 0.594842 0.250095
0.490288 0.608972 0.271275
0.5346 0.624918 0.290364
0.57644 0.642344 0.308339
0.615122 0.660105 0.325277
0.651133 0.677974 0.341222
0.685206 0.695949 0.35407
0.717327 0.713222 0.362982
0.746731 0.728786 0.368261
0.774517 0.743404 0.370977
0.800839 0.756451 0.370809
0.826169 0.768673 0.36936
0.84918 0.778988 0.365408
0.870878 0.787594 0.357778
0.891524 0.794812 0.346075
0.911467 0.800595 0.329976
0.9299 0.804807 0.310613
0.948302 0.808011 0.287663
0.964996 0.809461 0.262837
0.978683 0.808606 0.238987
0.988632 0.805173 0.216739
0.0305028 0.651286 0.247501
0.035584 0.646922 0.227695
0.0416114 0.639948 0.207263
0.0511177 0.631601 0.188525
0.0654459 0.622461 0.172244
0.0868849 0.613092 0.160052
0.116686 0.604547 0.153887
0.15555 0.597086 0.154131
0.204517 0.592096 0.162493
0.260334 0.589578 0.177508
0.31899 0.590646 0.197742
0.37641 0.595773 0.220645
0.432166 0.605142 0.244648
0.483085 0.61828 0.267063
0.530144 0.63386 0.2878
0.574121 0.651286 0.307042
0.615045 0.669703 0.325246
0.652522 0.688136 0.342306
0.687968 0.706874 0.357717
0.720546 0.724575 0.36878
0.750515 0.741222 0.376944
0.778149 0.756573 0.382879
0.804105 0.770642 0.386923
0.828138 0.783062 0.38912
0.850065 0.793927 0.390097
0.86978 0.802518 0.387594
0.888991 0.809766 0.380484
0.907469 0.815625 0.368261
0.926421 0.820356 0.35053
0.945052 0.823804 0.328099
0.963256 0.826139 0.302525
0.978866 0.826093 0.275532
0.990616 0.822843 0.249302
0.0366369 0.66569 0.254032
0.0418555 0.661921 0.234211
0.0477302 0.656016 0.214145
0.0556039 0.647898 0.195178
0.0677043 0.639582 0.178866
0.0851606 0.630549 0.165652
0.110033 0.621897 0.157458
0.144259 0.614191 0.155123
0.189166 0.608469 0.160464
0.241962 0.604608 0.172229
0.300267 0.604135 0.190265
0.359594 0.607233 0.21239
0.416358 0.614435 0.236118
0.470817 0.62649 0.260243
0.521126 0.641367 0.28275
0.567483 0.658427 0.303548
0.6112 0.67715 0.323125
0.650721 0.695964 0.341238
0.687663 0.715129 0.358511
0.721706 0.733974 0.372412
0.752422 0.751537 0.382818
0.78056 0.767788 0.391318
0.806485 0.782849 0.398566
0.830167 0.796139 0.404364
0.851026 0.807172 0.408591
0.869871 0.81622 0.410315
0.888045 0.823667 0.40827
0.905394 0.829374 0.400412
0.923217 0.834028 0.386481
0.941863 0.838087 0.367468
0.960571 0.840848 0.342184
0.977584 0.84181 0.314702
0.990997 0.839094 0.285313
0.0428779 0.679789 0.261433
0.0483253 0.676692 0.241596
0.054078 0.67126 0.221576
0.061326 0.664012 0.202899
0.0707561 0.655726 0.185779
0.0851759 0.647501 0.172045
0.105257 0.638849 0.162005
0.134035 0.631067 0.157382
0.173632 0.624598 0.159152
0.221729 0.619745 0.167239
0.277577 0.617029 0.18201
0.336996 0.61828 0.202289
0.396735 0.623545 0.225956
0.453956 0.633631 0.250935
0.506981 0.647303 0.27483
0.556512 0.663645 0.297353
0.602502 0.68188 0.318349
0.644907 0.701259 0.337926
0.68397 0.721096 0.35671
0.719936 0.740749 0.373129
0.752224 0.759396 0.385931
0.781155 0.776745 0.396582
