presets/G200-1.cube
TITLE "XH Copyright"
# XH Copyright
# G200-1
# 20250101
LUT_3D_SIZE 9
0.0413519 0.0578775 0.0625925
0.221561 0.0937209 0.0632486
0.407019 0.124331 0.0458076
0.556588 0.149371 0.0285496
0.666697 0.175128 0.026978
0.742748 0.203738 0.0334936
0.799893 0.230121 0.0461738
0.846433 0.248539 0.0669261
0.891585 0.266163 0.127459
0 0.126879 0.0722667
0.130419 0.135424 0.0876631
0.308324 0.193515 0.0614328
0.49041 0.233921 0.0577249
0.623224 0.263508 0.0512093
0.718135 0.293141 0.05037
0.78764 0.312673 0.0540627
0.838911 0.317464 0.0624552
0.885466 0.318624 0.0908064
0 0.286473 0.104128
0.0993973 0.238132 0.0833295
0.258473 0.259541 0.142641
0.432563 0.313756 0.0564279
0.589731 0.361273 0.052079
0.697337 0.399283 0.0608988
0.771084 0.42153 0.0655375
0.827466 0.427695 0.0680095
0.878904 0.419272 0.0755627
0 0.428977 0.165118
0.074815 0.360403 0.0933242
0.253559 0.357809 0.15288
0.414694 0.400412 0.199329
0.585428 0.456504 0.0961318
0.690684 0.498772 0.0791333
0.771511 0.523842 0.0748455
0.835065 0.537926 0.0660105
0.886641 0.538109 0.0639658
0 0.525338 0.205127
0.0695659 0.468666 0.121416
0.257191 0.45417 0.164981
0.435889 0.493034 0.241382
0.582696 0.548028 0.259037
0.723308 0.594705 0.172824
0.819623 0.631388 0.127031
0.884367 0.653971 0.100145
0.926619 0.661173 0.0874189
0.00981155 0.591714 0.227405
0.0661326 0.550057 0.147478
0.247837 0.526635 0.169986
0.451087 0.558877 0.255039
0.603693 0.620661 0.315969
0.732525 0.680751 0.317937
0.849897 0.725078 0.259083
0.929763 0.748104 0.196109
0.970459 0.750011 0.143648
0.0305028 0.651286 0.247501
0.0654459 0.622461 0.172244
0.204517 0.592096 0.162493
0.432166 0.605142 0.244648
0.615045 0.669703 0.325246
0.750515 0.741222 0.376944
0.850065 0.793927 0.390097
0.926421 0.820356 0.35053
0.990616 0.822843 0.249302
0.055314 0.707485 0.280629
0.0801099 0.687297 0.203723
0.146029 0.655863 0.161578
0.340154 0.641169 0.200122
0.569162 0.685084 0.299947
0.741039 0.766278 0.383078
0.851835 0.835401 0.43389
0.922286 0.866224 0.459449
0.984176 0.879088 0.416251
0.067628 0.760632 0.351019
0.0973678 0.747829 0.274327
0.130663 0.721462 0.213611
0.217029 0.689235 0.178515
0.410376 0.679088 0.222782
0.632166 0.732982 0.325856
0.796887 0.817456 0.413199
0.891279 0.871489 0.479393
0.965331 0.900343 0.525124
0.0603037 0.0684062 0.151965
0.216251 0.103746 0.161395
0.410163 0.138659 0.133669
0.574243 0.166903 0.111788
0.682902 0.189807 0.0984665
0.759365 0.209735 0.0989853
0.818021 0.229343 0.119142
0.863752 0.247105 0.166522
0.901549 0.272663 0.290639
0.0109407 0.131456 0.150149
0.112001 0.146212 0.149416
0.33048 0.206332 0.178439
0.511971 0.241627 0.170489
0.638804 0.259739 0.14168
0.726848 0.273304 0.128161
0.795316 0.284962 0.130755
0.852369 0.289754 0.150393
0.901625 0.292165 0.228046
0 0.298939 0.213886
0.0670481 0.262974 0.154131
0.260319 0.280751 0.195087
0.435706 0.325429 0.125338
0.595163 0.352651 0.108156
0.69836 0.372732 0.111498
0.769223 0.385611 0.118868
0.828183 0.388418 0.130907
0.890593 0.369528 0.170199
0 0.440101 0.273899
0.0286564 0.393301 0.185428
0.228473 0.379522 0.187167
0.411933 0.408026 0.241077
0.574701 0.454856 0.127886
0.672633 0.485847 0.105562
0.750027 0.503563 0.105501
0.815457 0.511955 0.105669
0.883085 0.504402 0.118181
0 0.538949 0.315389
0.0203708 0.506813 0.232853
0.206088 0.480491 0.20177
0.421057 0.497169 0.267735
0.561563 0.540505 0.290181
0.693782 0.579156 0.199115
0.784848 0.611261 0.153994
0.850919 0.632227 0.134401
0.908751 0.640513 0.119387
0 0.610544 0.34435
0.0303197 0.593256 0.260548
0.189929 0.562127 0.217456
0.4271 0.565148 0.276265
0.580575 0.609583 0.3337
0.698756 0.658473 0.340307
0.810605 0.697078 0.278172
0.894835 0.723445 0.219104
0.9523 0.734615 0.159945
0.0135348 0.675868 0.379995
0.0460822 0.67303 0.288228
0.163104 0.640345 0.229206
0.402945 0.620661 0.266468
0.590723 0.65948 0.343877
0.716365 0.715938 0.396109
0.812558 0.761547 0.401526
0.897627 0.791424 0.353704
0.977798 0.803952 0.248844
0.0304723 0.731304 0.42948
0.059617 0.738506 0.339391
0.12314 0.715999 0.261784
0.306371 0.678889 0.238987
0.537514 0.684627 0.315892
0.704784 0.744564 0.396246
0.817136 0.806943 0.447776
0.896544 0.842481 0.467063
0.974731 0.866056 0.417838
0.0417487 0.769375 0.484321
0.0602884 0.778164 0.425513
0.0889296 0.774304 0.359915
0.162554 0.750729 0.278294
0.339406 0.709331 0.238437
0.564279 0.720546 0.310338
0.758526 0.797009 0.407462
0.877592 0.863706 0.49041
0.958511 0.902861 0.560342
0.115038 0.110735 0.350179
0.233707 0.13164 0.339696
0.394949 0.148562 0.303502
0.564553 0.176989 0.261585
0.686244 0.20293 0.242649
0.76817 0.223148 0.250248
0.82681 0.240742 0.281315
0.87013 0.26067 0.34107
0.905638 0.299046 0.465843
0.00520333 0.149767 0.277958
0.141115 0.168963 0.323445
0.338613 0.223423 0.358679
0.52575 0.254704 0.333852
0.662211 0.27451 0.312657
0.750713 0.284932 0.308293
0.813703 0.2916 0.316136
0.863706 0.297719 0.343282
0.908171 0.316213 0.432319
0.00653086 0.279255 0.328939
0.0818036 0.266575 0.314458
0.24448 0.307988 0.335897
0.460151 0.337209 0.314076
0.616434 0.359243 0.302708
0.716396 0.366934 0.302724
0.785168 0.368093 0.307042
0.842176 0.367926 0.322499
0.903746 0.369146 0.389548
0 0.417166 0.376013
0.0270542 0.390707 0.339574
0.179889 0.406867 0.325093
0.411597 0.428367 0.33875
0.556619 0.46424 0.258976
0.660685 0.475563 0.239414
0.746303 0.479576 0.240162
0.817258 0.483711 0.254124
0.895216 0.486229 0.308568
0 0.523751 0.429709
0.0102388 0.50779 0.387701
0.144152 0.504967 0.349355
0.385748 0.517784 0.339269
0.539361 0.539818 0.379751
0.657786 0.5673 0.290593
0.743526 0.593668 0.251484
0.819867 0.612055 0.244221
0.896712 0.621546 0.247639
0 0.604807 0.466163
0.0136721 0.610086 0.418555
0.123583 0.596399 0.368856
0.358968 0.58996 0.34255
0.550057 0.605066 0.40267
0.657374 0.640635 0.427161
0.766644 0.675441 0.359548
0.85185 0.701656 0.296818
0.92047 0.716716 0.24387
0.00276188 0.676265 0.502007
0.0243992 0.698161 0.448112
0.104601 0.686244 0.387762
0.316106 0.659327 0.346426
0.551598 0.659846 0.414359
0.674754 0.69897 0.471717
0.766934 0.7364 0.479652
0.862852 0.762036 0.397559
0.947768 0.781811 0.307637
0.0178683 0.730892 0.538018
0.0359655 0.754223 0.48835
0.0765545 0.755077 0.427543
0.215473 0.731563 0.359747
0.479362 0.706661 0.386587
0.659739 0.734493 0.467918
0.768322 0.779278 0.519219
0.857893 0.811139 0.514153
0.954635 0.844373 0.445777
0.0289311 0.765209 0.574914
0.0401923 0.778363 0.541741
0.0562295 0.786633 0.503075
0.099382 0.78558 0.442008
0.241443 0.764019 0.34612
0.505135 0.738857 0.361913
0.708415 0.781445 0.45156
0.840162 0.845243 0.546471
0.939223 0.897124 0.611734
0.193622 0.15581 0.521859
0.308827 0.172732 0.509255
0.441642 0.17882 0.485817
0.581613 0.187243 0.455985
0.696208 0.206516 0.441642
0.77406 0.229038 0.451331
0.828672 0.252277 0.479667
0.870542 0.279042 0.524712
0.913375 0.326345 0.608454
0.00923171 0.198581 0.44065
0.196567 0.217319 0.510109
0.352361 0.249348 0.520226
0.533974 0.265003 0.497856
0.675731 0.278447 0.48101
0.762463 0.292195 0.482673
0.8215 0.307362 0.496956
0.868589 0.324834 0.527581
0.919875 0.361654 0.603403
0.0243839 0.277394 0.470512
0.104692 0.285237 0.463554
0.244526 0.334981 0.492973
0.484169 0.356115 0.521813
0.642527 0.371511 0.514031
0.736294 0.377249 0.512734
0.803632 0.382834 0.516045
0.860883 0.391241 0.530388
0.922087 0.414771 0.585412
0 0.420798 0.495979
0.0467994 0.395926 0.470481
0.198276 0.417975 0.492393
0.402243 0.46067 0.504479
0.587259 0.476081 0.485328
0.696162 0.479942 0.477668
0.781048 0.482383 0.478813
0.853498 0.485557 0.492485
0.923949 0.495476 0.543938
0 0.530053 0.537758
0.0246586 0.512306 0.515419
0.15082 0.516564 0.506111
0.340459 0.551431 0.497963
0.543267 0.566522 0.501244
0.654414 0.587213 0.460914
0.754849 0.597009 0.451041
0.84004 0.602518 0.443931
0.917357 0.605692 0.468849
0 0.610834 0.567208
0.0199741 0.614649 0.550347
0.119326 0.605478 0.526299
0.298344 0.617243 0.504646
0.511421 0.639918 0.505394
0.65481 0.660716 0.556542
0.755673 0.686137 0.490303
0.832227 0.701701 0.444053
0.908431 0.707332 0.425589
0.00442512 0.678218 0.593423
0.0204929 0.699672 0.577646
0.0869764 0.691691 0.549493
0.243549 0.680812 0.521172
0.463294 0.700145 0.518227
0.655634 0.719844 0.574563
0.754437 0.744228 0.601953
0.848493 0.763531 0.511971
0.924392 0.782635 0.447852
0.0169528 0.728298 0.6177
0.0258793 0.749996 0.604395
0.0534066 0.755261 0.579919
0.152316 0.744366 0.545907
0.353414 0.747616 0.525505
0.597208 0.762097 0.556405
0.747524 0.786633 0.630014
0.839536 0.814954 0.645396
0.941756 0.846525 0.54667
0.0277256 0.760845 0.642954
0.0314794 0.772519 0.633951
0.0393988 0.782193 0.618051
0.0659342 0.787121 0.591943
0.155276 0.786419 0.540597
0.358709 0.789288 0.489494
0.638605 0.799771 0.548043
0.798611 0.845167 0.653468
0.914626 0.892546 0.68867
0.262715 0.195239 0.637507
0.375418 0.202533 0.62562
0.505028 0.200565 0.615396
0.629587 0.198993 0.603189
0.721126 0.213443 0.599985
0.785367 0.238575 0.609415
0.836011 0.265766 0.62681
0.877836 0.294697 0.65098
0.921889 0.345663 0.69601
0.113893 0.233585 0.622812
0.250843 0.252979 0.643839
0.395956 0.270665 0.643549
0.564218 0.277455 0.633661
0.687419 0.283894 0.620737
0.767834 0.297337 0.620111
0.829328 0.316106 0.629908
0.879515 0.341207 0.651942
0.932311 0.392233 0.705318
0.0260471 0.307759 0.580102
0.0923171 0.340078 0.56582
0.305211 0.35053 0.644999
0.503212 0.377081 0.655573
0.651072 0.385504 0.646937
0.743114 0.390616 0.640101
0.814328 0.400793 0.643793
0.874968 0.419669 0.658488
0.937377 0.463844 0.705409
0.0122072 0.440192 0.620356
0.0774853 0.416037 0.60145
0.22295 0.43389 0.619791
0.398581 0.486061 0.626627
0.608057 0.496178 0.65156
0.72137 0.502434 0.64361
0.805417 0.508202 0.644205
0.874434 0.518944 0.654643
0.939712 0.544198 0.692744
0.00701915 0.571633 0.648661
0.0463417 0.545892 0.626688
0.169574 0.5346 0.615152
0.361715 0.561685 0.634806
0.547021 0.599435 0.649561
0.697505 0.609537 0.644022
0.79115 0.614969 0.63473
0.869596 0.617273 0.634424
0.938796 0.619928 0.65774
0.0104067 0.650233 0.661723
0.038117 0.642969 0.649653
0.138384 0.620523 0.628138
0.311482 0.626932 0.633326
0.504509 0.670756 0.65449
0.667247 0.694942 0.651026
0.766598 0.705211 0.626169
0.854475 0.706142 0.61503
0.93225 0.702708 0.610666
0.0155642 0.701076 0.671748
0.0306859 0.711833 0.669673
0.0964981 0.695872 0.652598
0.24506 0.685679 0.645853
0.445319 0.720913 0.661173
0.629084 0.756695 0.670405
0.766201 0.765194 0.699901
0.847715 0.779477 0.635538
0.925505 0.784329 0.60061
0.0238346 0.737041 0.683711
0.0292821 0.751629 0.684901
0.0538033 0.754223 0.678309
0.144625 0.74406 0.666972
0.328283 0.75729 0.666926
0.540978 0.797009 0.68629
0.734691 0.822202 0.718624
0.84892 0.836103 0.739437
0.940887 0.860548 0.639567
0.0312963 0.761486 0.692256
0.0351263 0.771542 0.692775
0.0417182 0.781109 0.693019
0.0628824 0.786023 0.688396
0.140276 0.787106 0.672358
0.310384 0.806683 0.66183
0.540139 0.852049 0.681422
0.76704 0.881086 0.729473
0.916335 0.906981 0.766217
0.296284 0.218357 0.702205
0.414939 0.221042 0.692943
0.540383 0.218173 0.689494
0.655375 0.214252 0.68423
0.738155 0.225132 0.682063
0.797757 0.250889 0.68806
0.847776 0.279591 0.698985
0.888685 0.3093 0.714763
0.930205 0.364126 0.746349
0.174609 0.252323 0.721202
0.284169 0.268025 0.720333
0.432349 0.283955 0.717906
0.588312 0.289525 0.712535
0.700511 0.293141 0.701762
0.776638 0.3066 0.698955
0.840482 0.326207 0.70631
0.892393 0.354269 0.723064
0.942779 0.415152 0.762661
0.0193484 0.352392 0.647791
0.109102 0.374929 0.65243
0.340673 0.372625 0.727764
0.521218 0.3944 0.729915
0.657465 0.398459 0.719127
0.749706 0.402609 0.712215
0.824552 0.414282 0.716884
0.887358 0.437675 0.731411
0.949508 0.49015 0.770611
0.0370794 0.456809 0.715373
0.113542 0.44036 0.699825
0.230243 0.462028 0.687449
0.429252 0.492775 0.715846
0.614084 0.511116 0.728603
0.731197 0.52163 0.725826
0.816953 0.531853 0.727596
0.886839 0.54757 0.736965
0.953765 0.579751 0.770687
0.0243229 0.597299 0.738476
0.0708629 0.567544 0.712764
0.189899 0.548363 0.695384
0.372274 0.567544 0.710384
0.533898 0.617456 0.714977
0.705791 0.629709 0.743603
0.806683 0.638712 0.737224
0.88751 0.642496 0.73962
0.954742 0.654566 0.765423
0.0218357 0.685969 0.746151
0.052842 0.668299 0.729793
0.151827 0.636851 0.703761
0.317876 0.635416 0.70634
0.511025 0.676234 0.73579
0.666682 0.709148 0.748074
0.78854 0.715267 0.733394
0.879149 0.713848 0.728038
0.950912 0.714137 0.741955
0.0196384 0.728252 0.742687
0.0336156 0.732525 0.743435
0.0994888 0.713695 0.727077
0.24593 0.699992 0.718288
0.447181 0.728099 0.738643
0.631083 0.766262 0.764157
0.767452 0.780209 0.749706
0.864881 0.782528 0.725032
0.941192 0.783963 0.718883
0.0217288 0.75317 0.741543
0.0262455 0.764675 0.747417
0.0510109 0.767285 0.746273
0.14107 0.759075 0.738628
0.327504 0.769314 0.744564
0.541344 0.809857 0.779141
0.720211 0.842725 0.784543
0.860105 0.849348 0.783688
0.935958 0.870329 0.720363
0.0276493 0.769085 0.73547
0.0323491 0.777951 0.7402
0.0390326 0.7879 0.74641
0.0599527 0.795697 0.750057
0.142733 0.799542 0.744549
0.315984 0.822843 0.755932
0.530159 0.874632 0.784894
0.756756 0.90721 0.779477
0.924239 0.922362 0.818952
0.313375 0.233814 0.746044
0.437568 0.237659 0.738521
0.557885 0.236255 0.738231
0.666407 0.231708 0.734646
0.746624 0.240024 0.732403
0.805798 0.264561 0.73637
0.856535 0.29427 0.744305
0.897505 0.325963 0.756252
0.93875 0.386145 0.780789
0.188083 0.263813 0.781704
0.304311 0.27776 0.773281
0.452842 0.294972 0.769009
0.601663 0.299397 0.764248
0.71165 0.303075 0.75494
0.787228 0.318379 0.751919
0.851926 0.34165 0.757488
0.905226 0.374228 0.772457
0.954192 0.440284 0.802899
0.0161593 0.381094 0.707103
0.125566 0.398993 0.716228
0.366705 0.391699 0.785046
0.534905 0.40824 0.780179
0.666957 0.412268 0.769131
0.759091 0.419059 0.764324
0.835355 0.434211 0.769345
0.901656 0.460166 0.783673
0.963104 0.515221 0.816114
0.0580758 0.473579 0.787533
0.142565 0.466529 0.769696
0.234363 0.495247 0.729976
0.452003 0.505409 0.775143
0.622324 0.526207 0.780438
0.739773 0.542138 0.780789
0.82829 0.554772 0.78407
0.903166 0.570336 0.793561
0.966796 0.605371 0.820691
0.0367132 0.604746 0.803281
0.0954604 0.578073 0.779263
0.214099 0.561303 0.761563
0.381979 0.578637 0.765255
0.536736 0.627039 0.767132
0.710369 0.646586 0.800153
0.818433 0.657984 0.799908
0.903441 0.663813 0.803571
0.964797 0.683268 0.822828
0.0263523 0.70071 0.809995
0.0637217 0.680568 0.793774
0.163149 0.650065 0.767941
0.323079 0.644816 0.762875
0.511727 0.6795 0.787015
0.652018 0.723125 0.789334
0.798886 0.72607 0.805707
0.895903 0.728161 0.802533
0.960723 0.739315 0.818448
0.0196994 0.747219 0.801373
0.0347143 0.750011 0.804364
0.0994278 0.73315 0.788922
0.243183 0.716152 0.774044
0.443397 0.733974 0.789563
0.631037 0.769299 0.816709
0.763729 0.78793 0.810452
0.883528 0.787381 0.796735
0.953109 0.794049 0.802029
0.0196231 0.76936 0.790341
0.0237583 0.78114 0.800031
0.0479591 0.785824 0.800885
0.136797 0.778943 0.791455
0.32401 0.785077 0.798337
0.538857 0.818708 0.828519
0.721263 0.847959 0.83035
0.866239 0.858351 0.817975
0.935988 0.877714 0.789578
0.0250706 0.781567 0.774136
0.0292058 0.789792 0.78056
0.0357671 0.800198 0.788174
0.0566567 0.80972 0.791943
0.144656 0.816205 0.791669
0.326711 0.842268 0.814466
0.54258 0.887037 0.836606
0.767361 0.918364 0.822263
0.931243 0.933181 0.857404
0.322866 0.24918 0.785336
0.452445 0.257313 0.779141
0.567926 0.25658 0.779385
0.672404 0.251484 0.776425
0.751232 0.258518 0.773724
0.811246 0.280598 0.77615
0.863706 0.311284 0.783688
0.906584 0.347204 0.794888
0.949386 0.412406 0.814374
0.179248 0.275502 0.830365
0.314107 0.290303 0.821454
0.463111 0.307179 0.814511
0.609659 0.309606 0.807828
0.721111 0.31426 0.800137
0.799756 0.33283 0.798352
0.865995 0.362661 0.804211
0.920775 0.40148 0.817975
0.967315 0.4701 0.84094
0.00769055 0.401953 0.759915
0.139376 0.417639 0.77438
0.384131 0.406088 0.835966
0.546838 0.419959 0.825422
0.679606 0.428702 0.815595
0.774319 0.44184 0.813352
0.853483 0.462394 0.81915
0.922026 0.491691 0.832731
0.977111 0.547417 0.85745
0.07953 0.494804 0.849241
0.169558 0.49984 0.825376
0.250965 0.529076 0.775265
0.473808 0.526116 0.827344
0.635721 0.550408 0.828962
0.75465 0.570123 0.830884
0.846891 0.581659 0.834333
0.923735 0.598611 0.842496
0.979507 0.637049 0.863859
0.0516213 0.611261 0.858778
0.126055 0.591699 0.839567
0.244556 0.580911 0.824842
0.388891 0.601297 0.809949
0.543709 0.645884 0.813107
0.721447 0.665324 0.847105
0.83267 0.676982 0.848875
0.91873 0.687037 0.851484
0.974823 0.709957 0.866087
0.0276036 0.708095 0.867277
0.0749371 0.689509 0.851423
0.176791 0.665171 0.829038
0.332235 0.659037 0.819425
0.516411 0.689052 0.834745
0.651179 0.735531 0.830518
0.807202 0.740414 0.857176
0.906126 0.747509 0.853666
0.968978 0.765789 0.868132
0.0163729 0.762417 0.859785
0.0358282 0.764706 0.860914
0.102663 0.751003 0.845762
0.244724 0.733135 0.828672
0.440604 0.743984 0.837858
0.630793 0.774502 0.858244
0.761608 0.798886 0.85124
0.894423 0.80119 0.854566
0.960525 0.817273 0.863355
0.0177615 0.784909 0.839445
0.0225834 0.796384 0.849454
0.0482795 0.802686 0.849744
0.137652 0.7991 0.841703
0.319158 0.803769 0.849165
0.529122 0.827741 0.865461
0.725353 0.850858 0.868009
0.864866 0.86891 0.853635
0.943908 0.887114 0.851331
0.0235447 0.796063 0.812741
0.0272221 0.803906 0.819272
0.0338903 0.813291 0.825315
0.0573892 0.822705 0.828031
0.149798 0.833799 0.834455
0.334234 0.862638 0.86125
0.562036 0.895109 0.869215
0.780743 0.924559 0.864515
0.936355 0.94342 0.886946
0.325444 0.269001 0.825055
0.460044 0.282063 0.818219
0.572854 0.280705 0.816266
0.674998 0.275166 0.812314
0.75314 0.281025 0.810529
0.814817 0.299779 0.81207
0.870192 0.330556 0.819028
0.919264 0.371984 0.833021
0.96434 0.442496 0.850752
0.144106 0.299519 0.862394
0.315877 0.309682 0.866011
0.466606 0.323796 0.855985
0.615366 0.323964 0.846128
0.730343 0.328298 0.840604
0.814237 0.347982 0.840314
0.885527 0.382773 0.84712
0.942199 0.43035 0.860487
0.981384 0.506004 0.877317
0 0.420111 0.803006
0.137087 0.434485 0.821485
0.389517 0.414893 0.883741
0.557366 0.427649 0.869642
0.696757 0.440864 0.86186
0.800488 0.459815 0.861387
0.885634 0.488197 0.867658
0.950072 0.528496 0.879606
0.991501 0.588495 0.896925
0.104479 0.522789 0.899336
0.194247 0.536248 0.873228
0.272114 0.561685 0.822568
0.493828 0.556619 0.876265
0.654902 0.583047 0.879469
0.781491 0.600458 0.880812
0.877714 0.612802 0.88246
0.949538 0.637919 0.889387
0.991699 0.678019 0.905608
0.0730144 0.629908 0.909407
0.161578 0.618265 0.896223
0.278477 0.611749 0.883391
0.40647 0.635721 0.857542
0.547173 0.681727 0.852262
0.741543 0.690303 0.893248
0.85713 0.699336 0.892973
0.940139 0.717083 0.895979
0.986908 0.742397 0.909285
0.0279545 0.723629 0.925048
0.0872969 0.706096 0.907591
0.194583 0.686748 0.887053
0.347402 0.682719 0.875761
0.521385 0.711498 0.882826
0.654459 0.755642 0.870954
0.822248 0.75758 0.900847
0.921874 0.769818 0.90016
0.97821 0.795239 0.914809
0.00814832 0.783139 0.924132
0.0346532 0.781933 0.918868
0.109926 0.769451 0.901946
0.253849 0.754742 0.885771
0.43949 0.763256 0.888197
0.629007 0.786618 0.900282
0.778088 0.808682 0.900053
0.90338 0.82118 0.905699
0.964706 0.845838 0.915908
0.0113222 0.802762 0.895171
0.0183566 0.81265 0.902708
0.0514076 0.81976 0.902968
0.147234 0.821927 0.89926
0.319875 0.827543 0.903288
0.520577 0.839628 0.905638
0.730556 0.855512 0.907408
0.860243 0.883253 0.904707
0.950545 0.903075 0.912627
0.0226444 0.808362 0.851972
0.0262913 0.814603 0.857343
0.0352026 0.822889 0.863798
0.0654765 0.834836 0.870298
0.162753 0.853391 0.884657
0.343923 0.881559 0.906493
0.577279 0.902464 0.901671
0.793667 0.930037 0.907332
0.931655 0.955917 0.913802
