presets/Hgold暖.cube
TITLE "XH Copyright"
# XH Copyright
# G200-3
# 20250101
LUT_3D_SIZE 33
0.00292973 0.0197757 0.0661479
0.0621347 0.0152132 0.0493782
0.132494 0.0115969 0.0378119
0.20235 0.00895705 0.0324865
0.26421 0.00729381 0.0314031
0.317662 0.00631724 0.0317235
0.362982 0.00624094 0.0338445
0.399039 0.00703441 0.0371862
0.430961 0.0087892 0.0408637
0.461265 0.0113222 0.045182
0.489311 0.0145571 0.0496834
0.516579 0.0181888 0.0544747
0.542535 0.0222477 0.0590372
0.567285 0.0260929 0.0634928
0.590311 0.0294957 0.0671244
0.612406 0.032639 0.0707713
0.633143 0.0351415 0.0742046
0.652293 0.0370794 0.0767987
0.669902 0.0385595 0.079408
0.685496 0.0396429 0.0817426
0.699046 0.0404364 0.0838941
0.711635 0.0407874 0.0859693
0.723384 0.0415351 0.0886854
0.734401 0.041825 0.0908217
0.745007 0.0419776 0.0931563
0.755917 0.0422522 0.096025
0.767025 0.0422827 0.0988937
0.77821 0.0417182 0.101961
0.790478 0.0412757 0.105516
0.804273 0.0414588 0.110063
0.819654 0.0417945 0.115465
0.837766 0.0429084 0.123003
0.858763 0.0446021 0.133791
0.00207523 0.0384375 0.0471962
0.0320287 0.0306859 0.041825
0.0931716 0.0249027 0.0295567
0.159274 0.0202792 0.0213626
0.221973 0.0164034 0.018555
0.277028 0.0137942 0.017792
0.325841 0.0116426 0.0181582
0.367483 0.0106813 0.0194553
0.403098 0.0108949 0.0208133
0.435355 0.0121614 0.0234379
0.465965 0.0144045 0.0267338
0.495308 0.0173037 0.0303349
0.523491 0.0207675 0.0343481
0.550713 0.0242313 0.0383001
0.576822 0.0272221 0.0442359
0.601404 0.030457 0.0483864
0.626169 0.0327611 0.0555123
0.647807 0.0348516 0.0605936
0.667308 0.0366522 0.0648203
0.684627 0.0380255 0.0686809
0.699413 0.0389258 0.0726635
0.712779 0.0394903 0.0762798
0.724636 0.0401617 0.0803235
0.735988 0.0406043 0.084062
0.746517 0.0409247 0.0880598
0.757351 0.0414588 0.092195
0.767971 0.0418708 0.0967117
0.778424 0.0416571 0.101198
0.790341 0.0412757 0.10547
0.804105 0.041474 0.110002
0.819532 0.0417945 0.115419
0.837629 0.0429236 0.122957
0.858564 0.0445716 0.133669
0.00732433 0.0720989 0.0357519
0.0252842 0.0599374 0.0288243
0.0796979 0.0527047 0.0235294
0.144289 0.0469673 0.0223392
0.205539 0.042771 0.0209354
0.257176 0.0404364 0.0173037
0.30547 0.0379644 0.0155795
0.347677 0.0360418 0.0159762
0.385977 0.0350195 0.0172885
0.418784 0.03505 0.0192874
0.450324 0.0360418 0.0209201
0.480308 0.037705 0.0236973
0.509743 0.0396735 0.026978
0.537987 0.0415808 0.0303349
0.56553 0.043061 0.0340581
0.591684 0.0444038 0.0374304
0.617121 0.0449226 0.0423133
0.640558 0.0453346 0.0464485
0.662455 0.045594 0.0504463
0.681392 0.0451514 0.0538491
0.698207 0.0442817 0.0575723
0.713512 0.0424964 0.061677
0.727245 0.0413062 0.0654459
0.739971 0.040116 0.0685283
0.752346 0.0388952 0.071809
0.763729 0.0379797 0.0751965
0.775555 0.03888 0.0796979
0.787243 0.0398871 0.0842908
0.799527 0.0406195 0.0898146
0.813291 0.0415503 0.0966049
0.828412 0.0423896 0.104555
0.845777 0.0435187 0.114351
0.865476 0.0449836 0.127199
0.0221866 0.116167 0.0416876
0.03122 0.0972152 0.026215
0.0751202 0.0884871 0.0205081
0.13373 0.0836652 0.0205386
0.19559 0.0801099 0.0229038
0.252537 0.0769818 0.0252995
0.300664 0.0743877 0.0260777
0.340368 0.0733959 0.0239567
0.376761 0.0727245 0.0229038
0.408957 0.0724498 0.0230106
0.440253 0.0729534 0.0245365
0.470695 0.0733043 0.0267491
0.500771 0.0738994 0.0293889
0.529702 0.0746471 0.0320592
0.557656 0.0743725 0.0347143
0.584543 0.0735943 0.0373693
0.610376 0.0729381 0.0400702
0.63444 0.0711376 0.0426795
0.657069 0.0690776 0.045243
0.677043 0.0667887 0.0474556
0.694621 0.0635996 0.0495308
0.712062 0.0595712 0.054902
0.727352 0.0559243 0.0581216
0.741176 0.0526741 0.0608835
0.753979 0.0503548 0.0624552
0.768627 0.0467689 0.0697337
0.781292 0.0446937 0.0728313
0.794598 0.0434424 0.0759594
0.808652 0.0429084 0.0799725
0.823377 0.042771 0.0850538
0.839994 0.0435035 0.0924544
0.858167 0.0446326 0.102937
0.877836 0.0460975 0.117571
0.0331731 0.167178 0.0615549
0.04065 0.139773 0.0355993
0.0738842 0.128023 0.0237583
0.124361 0.124514 0.0202945
0.185016 0.122866 0.0237278
0.245762 0.120058 0.0320592
0.29601 0.118181 0.0372778
0.337758 0.117403 0.0383764
0.374365 0.116701 0.0383001
0.405844 0.11667 0.037583
0.435492 0.116747 0.0365911
0.465141 0.116487 0.0363928
0.495399 0.11635 0.0376898
0.524483 0.115572 0.0392615
0.552697 0.114336 0.0415198
0.58056 0.112902 0.0441291
0.606561 0.110369 0.0460975
0.631357 0.107362 0.0485542
0.654185 0.1037 0.0504921
0.674891 0.0997787 0.0525368
0.693202 0.095491 0.0541543
0.710231 0.0910811 0.0565805
0.725963 0.0860609 0.0590066
0.740353 0.0810712 0.0610056
0.754391 0.0756695 0.0626078
0.768902 0.0697795 0.0664378
0.783505 0.064332 0.0693065
0.798825 0.0588846 0.0739605
0.814496 0.0542306 0.0768749
0.831525 0.0501717 0.0810712
0.849973 0.047837 0.0857404
0.870146 0.0472114 0.0946059
0.891279 0.0483711 0.109987
0.0324102 0.220447 0.0929885
0.045243 0.186297 0.0551003
0.0730297 0.169085 0.0358434
0.116472 0.164172 0.0284428
0.170382 0.165072 0.028336
0.227359 0.166629 0.0323339
0.282002 0.166308 0.0398871
0.332097 0.16405 0.0509346
0.373709 0.163027 0.0578775
0.406607 0.162539 0.0594034
0.436133 0.162005 0.0569924
0.464744 0.161181 0.0539406
0.494057 0.159777 0.0523232
0.522713 0.158083 0.052018
0.551369 0.155901 0.0527047
0.57879 0.153246 0.0538949
0.605173 0.149523 0.0556039
0.630381 0.145235 0.0578164
0.653544 0.141253 0.0597391
0.674708 0.136904 0.0615549
0.693416 0.131884 0.0632029
0.710185 0.126635 0.0646677
0.72604 0.120974 0.0664378
0.740642 0.115114 0.0677348
0.754849 0.108537 0.0686961
0.769238 0.101839 0.0702373
0.784009 0.0942855 0.0721904
0.799893 0.0859236 0.0759442
0.816831 0.0773175 0.0788128
0.835691 0.0686809 0.0827802
0.856641 0.0604105 0.0866865
0.879591 0.0549172 0.0937209
0.902174 0.0536202 0.107088
0.019852 0.272267 0.131044
0.0379034 0.233814 0.0830396
0.0657664 0.211856 0.0551003
0.104829 0.204608 0.0424964
0.154772 0.205615 0.0397345
0.213474 0.208133 0.0430762
0.271214 0.209598 0.0510414
0.316136 0.212024 0.0560769
0.360754 0.211734 0.0637217
0.402136 0.209476 0.0730602
0.439139 0.206622 0.0804913
0.471107 0.203769 0.0819867
0.499016 0.20206 0.0776532
0.526268 0.199908 0.0728771
0.55288 0.196597 0.069749
0.579751 0.192599 0.0688334
0.606073 0.18822 0.0691234
0.63122 0.183581 0.0702831
0.654536 0.179019 0.0713817
0.675334 0.173465 0.0723735
0.69424 0.167865 0.0737011
0.711376 0.162066 0.0751354
0.726833 0.156176 0.0761578
0.741588 0.149889 0.0773938
0.75584 0.143587 0.0784619
0.769985 0.136202 0.0795911
0.784894 0.128695 0.081117
0.800015 0.120165 0.082414
0.816342 0.110216 0.08336
0.834775 0.0995956 0.0838331
0.858534 0.0860151 0.0913405
0.884535 0.0741283 0.100511
0.907866 0.0687877 0.111971
0.0119173 0.318212 0.16492
0.0264744 0.281559 0.116594
0.0531014 0.25565 0.0819867
0.0904402 0.244892 0.063508
0.137377 0.244953 0.0568246
0.192721 0.249256 0.0566873
0.25333 0.251575 0.0612192
0.309438 0.25243 0.0698711
0.353918 0.254063 0.0758679
0.39353 0.254353 0.0820325
0.431174 0.252399 0.088777
0.468986 0.249134 0.095491
0.503929 0.244129 0.0999924
0.534707 0.239445 0.099794
0.560571 0.235676 0.0959335
0.585519 0.231235 0.0914778
0.610025 0.226276 0.0884108
0.633509 0.221164 0.0865034
0.656565 0.215564 0.0860151
0.677089 0.209979 0.0860151
0.69572 0.203967 0.0862898
0.712444 0.197818 0.0869154
0.728054 0.19144 0.087892
0.742916 0.185031 0.089189
0.757061 0.178042 0.0900435
0.770977 0.170504 0.090959
0.785687 0.162585 0.0919509
0.800931 0.154421 0.0933547
0.817533 0.145388 0.0946975
0.835782 0.134722 0.0959335
0.858045 0.121569 0.0985733
0.882628 0.107485 0.102358
0.910582 0.095964 0.120897
0.0141299 0.358724 0.196353
0.0224308 0.325811 0.149371
0.0440528 0.298772 0.111482
0.0790265 0.285573 0.0890669
0.124559 0.283772 0.0787213
0.176638 0.287907 0.0755474
0.234592 0.291554 0.0759289
0.294194 0.292302 0.0813458
0.346181 0.293294 0.088304
0.389792 0.294224 0.0944991
0.426368 0.294408 0.0995346
0.462928 0.292332 0.104692
0.500923 0.287388 0.111055
0.536294 0.281468 0.115969
0.567559 0.275273 0.117906
0.594644 0.269169 0.116213
0.618418 0.263493 0.112505
0.640238 0.257725 0.108125
0.660945 0.251804 0.105013
0.680217 0.246082 0.103014
0.698039 0.239933 0.102052
0.714137 0.234165 0.10164
0.729244 0.227863 0.101579
0.743664 0.221317 0.101915
0.757412 0.214252 0.102419
0.771801 0.207019 0.103426
0.786053 0.198978 0.10428
0.801266 0.190738 0.105776
0.817716 0.181491 0.106981
0.836179 0.170474 0.108492
0.858106 0.157244 0.110643
0.882704 0.142046 0.114076
0.909789 0.129915 0.127611
0.0252232 0.394736 0.225315
0.0269017 0.366781 0.181613
0.0421607 0.340871 0.142809
0.0728618 0.325826 0.117159
0.116075 0.321477 0.103807
0.166186 0.3243 0.0979171
0.221088 0.328954 0.0952926
0.279118 0.330861 0.0957351
0.335134 0.331487 0.10071
0.384619 0.33193 0.107164
0.423911 0.331807 0.112535
0.460319 0.331136 0.116167
0.495888 0.328588 0.119966
0.532723 0.323033 0.125322
0.568215 0.316335 0.131655
0.600259 0.308324 0.135622
0.627192 0.300664 0.135882
0.649912 0.29369 0.132952
0.669108 0.287572 0.128756
0.686168 0.281636 0.124605
0.70222 0.275547 0.121431
0.716777 0.269856 0.119265
0.731136 0.26363 0.118212
0.744686 0.257633 0.117372
0.758083 0.250797 0.117021
0.771496 0.244205 0.117174
0.785641 0.236561 0.11751
0.800778 0.228336 0.118349
0.817075 0.219348 0.119432
0.835966 0.208698 0.121096
0.857694 0.195132 0.122698
0.883055 0.17995 0.127169
0.908965 0.166522 0.13608
0.0418402 0.426184 0.250828
0.0400702 0.404089 0.212161
0.0488746 0.380774 0.174273
0.0736553 0.36492 0.146639
0.113176 0.358434 0.130404
0.162493 0.359442 0.122621
0.215183 0.363531 0.117708
0.26923 0.366781 0.114641
0.323156 0.368154 0.115206
0.374807 0.367819 0.119203
0.419867 0.366949 0.125124
0.459388 0.366171 0.130037
0.493858 0.365255 0.132387
0.528466 0.362707 0.135561
0.563394 0.356893 0.140169
0.598703 0.349111 0.146624
0.631479 0.340032 0.152956
0.658961 0.330983 0.156115
0.680247 0.323171 0.155077
0.696849 0.316609 0.151476
0.71075 0.31046 0.146258
0.723415 0.304936 0.141802
0.735836 0.299123 0.138293
0.747845 0.293538 0.135927
0.760616 0.287022 0.134264
0.773205 0.280873 0.133303
0.786358 0.274037 0.132692
0.800626 0.266697 0.132311
0.816724 0.258396 0.132433
0.834806 0.248371 0.13283
0.856641 0.236118 0.134218
0.882109 0.22089 0.137881
0.908339 0.207126 0.146487
0.0621042 0.454658 0.274006
0.0594644 0.43714 0.240269
0.063508 0.417334 0.204837
0.0820478 0.402045 0.176364
0.117235 0.394354 0.158541
0.164904 0.393256 0.148562
0.216983 0.396384 0.142473
0.266789 0.399298 0.136965
0.315999 0.401617 0.133959
0.364767 0.402533 0.133806
0.410864 0.401816 0.137026
0.455192 0.399969 0.143328
0.494469 0.398596 0.148638
0.526909 0.397879 0.15021
0.559869 0.394873 0.152697
0.593378 0.389441 0.156558
0.627695 0.381537 0.162478
0.659907 0.372488 0.169757
0.687144 0.362509 0.175555
0.707637 0.353552 0.177386
0.723552 0.346288 0.175967
0.73637 0.33994 0.17232
0.747127 0.334157 0.167224
0.757794 0.328634 0.163104
0.768383 0.323308 0.159197
0.778881 0.317815 0.15584
0.790738 0.311528 0.152972
0.80351 0.305257 0.15111
0.818357 0.298268 0.149493
0.835584 0.289677 0.148165
0.856596 0.278813 0.147692
0.880796 0.264912 0.149508
0.906157 0.251774 0.15671
0.0840162 0.479988 0.295644
0.0820172 0.466896 0.266773
0.0841077 0.450568 0.233875
0.0978866 0.436698 0.205798
0.128023 0.428275 0.186374
0.172702 0.425498 0.174838
0.223331 0.427253 0.167712
0.269688 0.429999 0.161547
0.314199 0.432578 0.156634
0.357961 0.434562 0.153246
0.401373 0.435477 0.152834
0.444968 0.434699 0.15613
0.488838 0.432334 0.162585
0.52755 0.430213 0.168215
0.558389 0.429435 0.169528
0.590127 0.426719 0.17142
0.623575 0.42211 0.175097
0.654887 0.414679 0.179751
0.683589 0.405661 0.185748
0.709377 0.395605 0.191928
0.730236 0.386236 0.196536
0.746548 0.377951 0.197803
0.759731 0.370657 0.196628
0.771252 0.364691 0.194369
0.781537 0.359243 0.190539
0.791379 0.353918 0.186511
0.801343 0.34876 0.182147
0.812894 0.343725 0.178393
0.825925 0.33785 0.174716
0.841352 0.331121 0.170977
0.860044 0.322301 0.167636
0.882429 0.311376 0.166781
0.905776 0.300084 0.171054
0.107027 0.503502 0.315602
0.106065 0.493889 0.29192
0.107271 0.480537 0.261921
0.117662 0.468635 0.234852
0.142824 0.460151 0.214511
0.183505 0.456641 0.202411
0.231357 0.456992 0.194629
0.276097 0.459022 0.188144
0.317571 0.461509 0.182086
0.357794 0.464149 0.177295
0.396689 0.46598 0.17435
0.436225 0.466651 0.173739
0.478492 0.465599 0.176638
0.521111 0.463035 0.182696
0.55874 0.460807 0.188098
0.589624 0.459922 0.18967
0.619959 0.45745 0.190921
0.650568 0.453132 0.193591
0.67921 0.447074 0.197467
0.704677 0.439155 0.202045
0.727886 0.430091 0.207202
0.748333 0.420294 0.21268
0.765713 0.411521 0.216373
0.780621 0.403677 0.218616
0.793454 0.396948 0.218677
0.80502 0.391165 0.217517
0.816251 0.386191 0.215366
0.827482 0.381506 0.212207
0.840085 0.376593 0.208118
0.854002 0.371756 0.20354
0.870878 0.365194 0.198032
0.890776 0.357443 0.194446
0.911864 0.349279 0.195254
0.130068 0.525154 0.334005
0.130053 0.518456 0.315084
0.131853 0.5084 0.288548
0.139834 0.498329 0.26334
0.159777 0.490288 0.242878
0.195743 0.486488 0.229984
0.241138 0.486 0.221866
0.284749 0.487572 0.215549
0.324498 0.489738 0.209674
0.360876 0.491997 0.2038
0.395636 0.494285 0.198703
0.431144 0.495796 0.195499
0.470146 0.4963 0.195178
0.511101 0.495354 0.198184
0.552117 0.492821 0.203601
0.588556 0.490425 0.207919
0.619196 0.489204 0.209583
0.64773 0.487648 0.210285
0.674846 0.484276 0.212192
0.700206 0.479545 0.214969
0.723033 0.472648 0.218433
0.74374 0.464546 0.222324
0.762966 0.456001 0.227253
0.781018 0.44741 0.232395
0.797803 0.439475 0.236805
0.813001 0.432609 0.240269
0.8271 0.426246 0.242252
0.840955 0.420951 0.242756
0.855116 0.415915 0.241932
0.870268 0.411658 0.239826
0.887633 0.406958 0.23621
0.90663 0.401953 0.232212
0.925322 0.396765 0.23032
0.153567 0.545129 0.351385
0.154726 0.540993 0.336934
0.157092 0.533654 0.313771
0.163546 0.525856 0.290639
0.178943 0.518914 0.270909
0.210941 0.515053 0.258106
0.252659 0.514183 0.250004
0.293721 0.514824 0.243091
0.331487 0.516396 0.236942
0.36611 0.518608 0.231174
0.398093 0.520943 0.225711
0.430289 0.523079 0.220539
0.46482 0.524819 0.217731
0.50251 0.525032 0.217319
0.542123 0.523735 0.219837
0.581262 0.521294 0.224109
0.616953 0.519448 0.228077
0.646403 0.518288 0.229343
0.672221 0.517678 0.229877
0.696574 0.515373 0.231052
0.719219 0.511498 0.233036
0.738918 0.50631 0.235157
0.758007 0.499779 0.238285
0.775937 0.492424 0.242481
0.793744 0.484779 0.247318
0.811383 0.477333 0.252705
0.828977 0.470115 0.258076
0.846448 0.463859 0.263157
0.864042 0.458549 0.266941
0.882551 0.454002 0.269902
0.902754 0.449943 0.271504
0.923674 0.446052 0.27158
0.943358 0.442679 0.271748
0.176547 0.563622 0.368338
0.178943 0.561227 0.35787
0.183429 0.556497 0.337652
0.189303 0.550958 0.316762
0.200961 0.545464 0.298131
0.227817 0.542397 0.285817
0.264164 0.540871 0.277104
0.30248 0.540993 0.270527
0.338903 0.542245 0.26482
0.372992 0.544259 0.259388
0.403098 0.546624 0.253834
0.432288 0.549187 0.248295
0.463493 0.551293 0.243366
0.497612 0.552529 0.240497
0.533883 0.552529 0.239704
0.571511 0.551202 0.241459
0.609628 0.549035 0.245304
0.64387 0.547189 0.248844
0.671565 0.546914 0.250401
0.694392 0.546426 0.250278
0.715892 0.545251 0.250797
0.735531 0.542535 0.251408
0.754009 0.538857 0.253468
0.770993 0.533639 0.255726
0.788022 0.527672 0.258686
0.805585 0.521416 0.263233
0.823804 0.514885 0.268421
0.842939 0.508888 0.274693
0.863554 0.503456 0.281453
0.885496 0.498482 0.288502
0.909514 0.494179 0.295201
0.934554 0.490333 0.301503
0.958282 0.487984 0.307881
0.200061 0.580835 0.38526
0.202792 0.579751 0.377783
0.208728 0.576898 0.360143
0.215412 0.573434 0.341207
0.224918 0.569894 0.324269
0.245731 0.567361 0.311894
0.276829 0.565866 0.303288
0.312093 0.566049 0.297032
0.34699 0.566995 0.2916
0.380072 0.568673 0.28687
0.408682 0.570718 0.281453
0.436515 0.573236 0.275929
0.465187 0.575631 0.27068
0.495857 0.5776 0.266209
0.528557 0.578592 0.262898
0.564111 0.578759 0.262089
0.600809 0.57763 0.263798
0.636759 0.575555 0.266667
0.668086 0.5738 0.269551
0.693401 0.573358 0.271015
0.714366 0.573632 0.270954
0.733166 0.573434 0.270939
0.751003 0.571923 0.271489
0.768109 0.56939 0.272862
0.784451 0.56556 0.274632
0.801068 0.561044 0.277424
0.818112 0.556741 0.281147
0.836515 0.551766 0.285756
0.857328 0.547112 0.291875
0.880369 0.542794 0.299382
0.907423 0.538659 0.309102
0.93637 0.534981 0.320012
0.964645 0.532265 0.332677
0.222522 0.596735 0.402152
0.224964 0.596521 0.39736
0.231998 0.595041 0.381399
0.239094 0.593225 0.364202
0.247852 0.591394 0.348516
0.264546 0.589899 0.336583
0.2907 0.589181 0.328176
0.321935 0.589181 0.321996
0.35523 0.590234 0.31722
0.386786 0.591943 0.312657
0.414954 0.593973 0.308507
0.441978 0.596323 0.303532
0.469017 0.598703 0.29781
0.497551 0.60116 0.293141
0.527382 0.602991 0.288701
0.55906 0.603738 0.28542
0.592615 0.603296 0.284016
0.627863 0.602136 0.285283
0.661067 0.600305 0.287907
0.689662 0.599084 0.290532
0.713329 0.598596 0.291707
0.732326 0.599298 0.291829
0.749111 0.599451 0.291173
0.765499 0.599084 0.291356
0.781888 0.597513 0.292607
0.798169 0.595285 0.294621
0.814328 0.592081 0.296849
0.832212 0.588922 0.300496
0.851667 0.586114 0.30518
0.873869 0.582742 0.311055
0.900771 0.580056 0.319753
0.931456 0.576974 0.332265
0.963394 0.573663 0.348226
0.242679 0.611276 0.418402
0.244785 0.611582 0.41561
0.252689 0.611307 0.401923
0.260685 0.61091 0.386343
0.269856 0.610574 0.372229
0.283864 0.610376 0.360815
0.305119 0.61033 0.352468
0.332815 0.611048 0.346777
0.362921 0.611963 0.342077
0.392584 0.613489 0.337636
0.420081 0.615305 0.333608
0.447135 0.617472 0.329198
0.473899 0.620172 0.324651
0.500435 0.622766 0.319509
0.52781 0.624857 0.31458
0.556817 0.626291 0.310216
0.587518 0.626719 0.306783
0.620188 0.626078 0.305425
0.652811 0.625132 0.306401
0.68246 0.623804 0.308415
0.708827 0.622446 0.31075
0.730587 0.622278 0.312154
0.748486 0.622614 0.31191
0.764569 0.62356 0.311727
0.780209 0.624002 0.311772
0.795972 0.623529 0.312688
0.811994 0.622141 0.314458
0.829221 0.620279 0.31722
0.848096 0.618814 0.321096
0.869474 0.617014 0.326207
0.895094 0.615854 0.333532
0.924987 0.613581 0.343938
0.958053 0.610254 0.359716
0.261128 0.624689 0.433997
0.262623 0.625086 0.433066
0.271077 0.626001 0.421485
0.280461 0.626841 0.407965
0.290028 0.627863 0.395331
0.301976 0.628733 0.384497
0.319554 0.629648 0.376486
0.342901 0.630838 0.370947
0.369924 0.631891 0.366186
0.397604 0.633158 0.362112
0.424399 0.634943 0.358419
0.451347 0.637049 0.354299
0.477791 0.639582 0.350118
0.503517 0.642039 0.345541
0.529305 0.644495 0.340612
0.556039 0.646342 0.335393
0.584253 0.647532 0.330999
0.614359 0.647715 0.327672
0.645258 0.647425 0.326711
0.674083 0.646464 0.327092
0.701015 0.64506 0.328389
0.724956 0.644373 0.330556
0.745693 0.644068 0.331991
0.763577 0.644923 0.332662
0.779278 0.645899 0.332326
0.794568 0.646967 0.33254
0.810117 0.64712 0.333242
0.826825 0.646891 0.33521
0.84506 0.646128 0.338201
0.86627 0.645731 0.34287
0.890547 0.644923 0.349248
0.919661 0.643717 0.358328
0.9523 0.641398 0.372473
0.278691 0.637369 0.449149
0.279377 0.637766 0.449409
0.287938 0.639292 0.43917
0.297978 0.640955 0.428367
0.308339 0.643198 0.417411
0.319341 0.644999 0.407568
0.333547 0.646693 0.399969
0.352941 0.648341 0.394507
0.377356 0.649744 0.390341
0.402365 0.65127 0.386389
0.428168 0.653117 0.382681
0.454322 0.655039 0.378851
0.480827 0.657404 0.375051
0.506447 0.659724 0.370825
0.531289 0.662104 0.366064
0.556558 0.664363 0.360922
0.583032 0.666087 0.356146
0.610574 0.667201 0.351675
0.639155 0.667277 0.34847
0.666728 0.666682 0.346761
0.693111 0.666331 0.347219
0.717311 0.665415 0.348486
0.739315 0.66479 0.35024
0.759396 0.664683 0.351812
0.777478 0.665217 0.352728
0.793545 0.666651 0.353063
0.808789 0.667857 0.353002
0.825208 0.669306 0.354345
0.842756 0.669551 0.356359
0.863203 0.669886 0.359976
0.887144 0.669505 0.365743
0.915206 0.669093 0.373938
0.946944 0.667475 0.38674
0.29456 0.648753 0.463249
0.295155 0.649088 0.463783
0.303655 0.651453 0.456443
0.313344 0.653819 0.447089
0.323476 0.65655 0.437873
0.3346 0.659358 0.429892
0.346975 0.661768 0.422782
0.363577 0.664195 0.4177
0.384207 0.665904 0.413779
0.40676 0.667735 0.410437
0.431449 0.669764 0.407233
0.456718 0.671824 0.403845
0.482689 0.673716 0.399939
0.508202 0.675853 0.395941
0.533272 0.67837 0.391562
0.557733 0.680705 0.38677
0.582834 0.682918 0.381857
0.608331 0.684459 0.376669
0.634577 0.685237 0.372183
0.660731 0.685389 0.368841
0.686091 0.685206 0.367407
0.709133 0.684718 0.367254
0.731426 0.68455 0.368582
0.752483 0.683833 0.370184
0.772503 0.684001 0.372335
0.790845 0.684688 0.373648
0.80766 0.686091 0.374044
0.823804 0.687922 0.374426
0.840665 0.689189 0.375357
0.860441 0.690776 0.378485
0.883879 0.691035 0.383001
0.911284 0.69099 0.390677
0.942107 0.68954 0.402487
0.308965 0.65922 0.477134
0.309499 0.659693 0.47776
0.316991 0.662211 0.471931
0.32723 0.665339 0.464805
0.337667 0.668742 0.457252
0.348257 0.672068 0.450202
0.36022 0.675273 0.444633
0.374517 0.678203 0.439979
0.391562 0.68072 0.436713
0.412207 0.682872 0.434165
0.434363 0.68481 0.431022
0.458244 0.686763 0.427878
0.483482 0.688823 0.42443
0.509209 0.690944 0.421088
0.534279 0.69337 0.417197
0.55877 0.695689 0.412772
0.583154 0.698024 0.408209
0.607324 0.699916 0.403082
0.631937 0.701381 0.397971
0.656367 0.70219 0.393591
0.679911 0.702159 0.390341
0.702541 0.702449 0.389212
0.72343 0.702266 0.388769
0.744472 0.702129 0.389685
0.765026 0.701915 0.391196
0.785 0.701915 0.393042
0.803952 0.702815 0.394965
0.821683 0.704219 0.395773
0.839292 0.706538 0.39704
0.858015 0.708431 0.398077
0.880903 0.710002 0.401755
0.907561 0.710262 0.407843
0.937942 0.709041 0.418448
0.321935 0.669184 0.490425
0.322438 0.669551 0.490929
0.329274 0.672267 0.487053
0.33959 0.675929 0.481483
0.350271 0.679606 0.475334
0.361547 0.683497 0.469963
0.373037 0.687388 0.465003
0.385428 0.690806 0.461295
0.399573 0.693736 0.458518
0.417121 0.696071 0.455726
0.437385 0.698314 0.453681
0.460014 0.700832 0.451499
0.484443 0.703136 0.448646
0.5093 0.705135 0.445396
0.534264 0.707332 0.441764
0.558984 0.709514 0.437858
0.583047 0.71194 0.433707
0.607111 0.714275 0.429587
0.630381 0.716091 0.424491
0.652979 0.717311 0.419608
0.675319 0.718151 0.415488
0.696468 0.718318 0.412406
0.71693 0.718837 0.41091
0.736843 0.718959 0.410605
0.756786 0.71902 0.411185
0.77731 0.718883 0.412634
0.797589 0.719142 0.414588
0.8177 0.719982 0.416571
0.836393 0.721584 0.418067
0.855634 0.724193 0.419211
0.877958 0.726787 0.421302
0.90457 0.727871 0.425849
0.93434 0.726833 0.434791
0.333822 0.67808 0.502678
0.334325 0.678477 0.50312
0.341176 0.681498 0.501335
0.351202 0.685405 0.497078
0.362554 0.689662 0.492927
0.373709 0.694072 0.488518
0.385092 0.698375 0.484855
0.395193 0.702159 0.481437
0.408026 0.705364 0.47895
0.423438 0.708415 0.477562
0.441321 0.711055 0.475822
0.461936 0.713405 0.473655
0.484718 0.715785 0.471351
0.508812 0.718273 0.468879
0.533394 0.720592 0.465583
0.558419 0.722759 0.462318
0.582879 0.725155 0.458808
0.606226 0.727398 0.454719
0.629053 0.72961 0.450614
0.650538 0.731289 0.445823
0.671672 0.732341 0.441062
0.691875 0.733349 0.437552
0.711284 0.733837 0.434501
0.730068 0.734554 0.43299
0.74905 0.734752 0.431998
0.768811 0.73521 0.432486
0.789014 0.73521 0.433722
0.81004 0.735424 0.436072
0.831342 0.73666 0.438514
0.852171 0.738598 0.44033
0.874632 0.741665 0.441581
0.900999 0.743923 0.444846
0.930785 0.743603 0.451987
0.345525 0.686793 0.514824
0.345983 0.687205 0.515404
0.352422 0.690181 0.514641
0.362478 0.69453 0.51194
0.373678 0.699016 0.509255
0.384756 0.703517 0.505913
0.39501 0.70811 0.502953
0.405478 0.712489 0.500969
0.416831 0.71603 0.499168
0.430243 0.719234 0.49752
0.446128 0.722332 0.496559
0.464454 0.725139 0.495262
0.485313 0.727733 0.493736
0.50782 0.730236 0.491691
0.531731 0.732754 0.488914
0.556573 0.735332 0.486213
0.58146 0.737621 0.48307
0.605234 0.739849 0.479454
0.627314 0.74197 0.475715
0.648554 0.744289 0.471519
0.66862 0.745953 0.467369
