presets/Hgold浓.cube
TITLE "XH Copyright"
# XH Copyright
# G200-4
# 20250101
LUT_3D_SIZE 5
0.0625162 0 0
0.315465 0.0150759 0
0.540566 0.0606851 0
0.668803 0.127779 0
0.765179 0.22858 0.056733
0.0660563 0.236927 0
0.289952 0.243442 0.00308232
0.501488 0.316014 0
0.661463 0.362722 0
0.776272 0.36054 0
0.11104 0.470954 0.0034638
0.274495 0.497841 0.0961471
0.604395 0.506691 0.105638
0.650019 0.563226 0.0213016
0.776898 0.577173 0.0468147
0.186343 0.651728 0.0906081
0.257786 0.675807 0.127474
0.576226 0.735271 0.252186
0.825025 0.716152 0.238163
0.820172 0.781338 0.16173
0.217639 0.762387 0.271382
0.236042 0.781399 0.269947
0.367025 0.842832 0.290501
0.664637 0.914641 0.387884
0.984253 0.898161 0.443488
0.115206 0.00941482 0.264012
0.348394 0.0537423 0.230121
0.552544 0.0986954 0.24332
0.663523 0.157687 0.266606
0.766735 0.257389 0.345281
0.0669108 0.249119 0.230304
0.226215 0.258747 0.193683
0.513832 0.270542 0.172015
0.668482 0.289647 0.179339
0.796841 0.300252 0.196658
0.102892 0.49839 0.32369
0.198215 0.491753 0.215473
0.570993 0.504875 0.268696
0.656886 0.533578 0.184894
0.813123 0.529656 0.200885
0.154055 0.652262 0.360586
0.191577 0.673213 0.24593
0.53608 0.741421 0.387152
0.809766 0.736645 0.397711
0.838132 0.792752 0.354086
0.210834 0.768521 0.448203
0.225147 0.788693 0.461433
0.276555 0.843091 0.411887
0.573587 0.920348 0.43154
0.980056 0.924285 0.535561
0.183886 0.0617227 0.517037
0.377584 0.10045 0.501274
0.544671 0.141634 0.490898
0.661494 0.195071 0.510887
0.76733 0.295399 0.527977
0.0664378 0.210376 0.526299
0.25156 0.24715 0.522072
0.512764 0.281682 0.506386
0.667964 0.30869 0.494942
0.796979 0.372763 0.53106
0.105364 0.485344 0.582238
0.211185 0.50016 0.567407
0.475746 0.527779 0.547234
0.6636 0.532799 0.526101
0.81181 0.538064 0.545098
0.162799 0.660288 0.611658
0.192676 0.684993 0.582422
0.436576 0.719997 0.56463
0.679576 0.752224 0.613321
0.830152 0.776989 0.605722
0.218463 0.771115 0.645121
0.232639 0.792874 0.660456
0.284855 0.850828 0.663874
0.428885 0.892897 0.570748
0.885451 0.942489 0.708415
0.261097 0.13048 0.643473
0.417716 0.164141 0.6383
0.5458 0.202213 0.641917
0.64535 0.254917 0.651164
0.753323 0.335012 0.67277
0.101472 0.181125 0.691112
0.286259 0.232303 0.691371
0.508766 0.293294 0.688548
0.655863 0.335286 0.686732
0.786084 0.401633 0.704707
0.134539 0.47921 0.750683
0.268376 0.496056 0.748516
0.485161 0.514336 0.74461
0.657877 0.533318 0.740032
0.80708 0.570642 0.747402
0.176623 0.676066 0.786114
0.224002 0.693095 0.793561
0.444999 0.718639 0.788174
0.651316 0.748333 0.784924
0.828305 0.772351 0.788678
0.227985 0.780255 0.785199
0.243702 0.801663 0.800778
0.300633 0.856825 0.837079
0.477897 0.896651 0.822934
0.794888 0.922194 0.831922
0.350454 0.261433 0.76965
0.438941 0.280369 0.769726
0.550362 0.315312 0.773419
0.638941 0.353628 0.778912
0.742046 0.426825 0.799146
0.252003 0.324697 0.822339
0.357244 0.33431 0.819669
0.5308 0.367361 0.817487
0.650492 0.405982 0.821042
0.764828 0.482994 0.838788
0.264973 0.517555 0.892363
0.341405 0.520134 0.890974
0.523659 0.52639 0.886091
0.667536 0.551553 0.885679
0.789456 0.601663 0.889876
0.291173 0.692668 0.929656
0.351583 0.69926 0.928954
0.511635 0.72018 0.92607
0.664393 0.739773 0.925505
0.800198 0.754299 0.925551
0.271824 0.810925 0.921111
0.305348 0.829007 0.93695
0.419394 0.858152 0.958007
0.588434 0.880461 0.959121
0.778012 0.906569 0.955169
