presets/Hgold暖.cube
TITLE "XH Copyright"
# XH Copyright
# G200-3
# 20250101
LUT_3D_SIZE 9
0.00292973 0.0197757 0.0661479
0.26421 0.00729381 0.0314031
0.430961 0.0087892 0.0408637
0.542535 0.0222477 0.0590372
0.633143 0.0351415 0.0742046
0.699046 0.0404364 0.0838941
0.745007 0.0419776 0.0931563
0.790478 0.0412757 0.105516
0.858763 0.0446021 0.133791
0.0331731 0.167178 0.0615549
0.185016 0.122866 0.0237278
0.374365 0.116701 0.0383001
0.495399 0.11635 0.0376898
0.606561 0.110369 0.0460975
0.693202 0.095491 0.0541543
0.754391 0.0756695 0.0626078
0.814496 0.0542306 0.0768749
0.891279 0.0483711 0.109987
0.0141299 0.358724 0.196353
0.124559 0.283772 0.0787213
0.346181 0.293294 0.088304
0.500923 0.287388 0.111055
0.618418 0.263493 0.112505
0.698039 0.239933 0.102052
0.757412 0.214252 0.102419
0.817716 0.181491 0.106981
0.909789 0.129915 0.127611
0.0840162 0.479988 0.295644
0.128023 0.428275 0.186374
0.314199 0.432578 0.156634
0.488838 0.432334 0.162585
0.623575 0.42211 0.175097
0.730236 0.386236 0.196536
0.781537 0.359243 0.190539
0.825925 0.33785 0.174716
0.905776 0.300084 0.171054
0.176547 0.563622 0.368338
0.200961 0.545464 0.298131
0.338903 0.542245 0.26482
0.463493 0.551293 0.243366
0.609628 0.549035 0.245304
0.715892 0.545251 0.250797
0.788022 0.527672 0.258686
0.863554 0.503456 0.281453
0.958282 0.487984 0.307881
0.261128 0.624689 0.433997
0.290028 0.627863 0.395331
0.369924 0.631891 0.366186
0.477791 0.639582 0.350118
0.584253 0.647532 0.330999
0.701015 0.64506 0.328389
0.779278 0.645899 0.332326
0.84506 0.646128 0.338201
0.9523 0.641398 0.372473
0.321935 0.669184 0.490425
0.350271 0.679606 0.475334
0.399573 0.693736 0.458518
0.484443 0.703136 0.448646
0.583047 0.71194 0.433707
0.675319 0.718151 0.415488
0.756786 0.71902 0.411185
0.836393 0.721584 0.418067
0.93434 0.726833 0.434791
0.3682 0.703685 0.539071
0.392218 0.715038 0.538628
0.434531 0.734478 0.536355
0.488258 0.748943 0.535943
0.574472 0.761135 0.530251
0.66334 0.770855 0.51986
0.729412 0.777676 0.50605
0.801099 0.782162 0.498146
0.918395 0.790753 0.510903
0.414298 0.737682 0.589334
0.430381 0.746822 0.59443
0.467643 0.765438 0.603052
0.50605 0.783917 0.611688
0.558434 0.804456 0.618494
0.6309 0.823072 0.619654
0.697719 0.837766 0.619242
0.755428 0.848127 0.613001
0.842496 0.860807 0.603265
0 0.0124514 0.152926
0.239612 0.0112459 0.14139
0.40618 0.0193637 0.143389
0.518456 0.0365911 0.159594
0.615213 0.0505837 0.168811
0.68777 0.0565499 0.171023
0.738521 0.0568399 0.170916
0.785306 0.0535592 0.172702
0.852522 0.047303 0.181598
0.00901808 0.166049 0.178561
0.135958 0.112902 0.108141
0.338018 0.106966 0.103624
0.483711 0.102876 0.110079
0.604685 0.0942092 0.113924
0.693858 0.0784619 0.11281
0.75378 0.065156 0.114916
0.809689 0.051133 0.121904
0.883619 0.0476844 0.149386
0 0.356939 0.285054
0.0633097 0.276478 0.166979
0.28954 0.277424 0.153918
0.470756 0.270604 0.16672
0.59707 0.251865 0.153887
0.689967 0.225345 0.146746
0.753857 0.195621 0.140932
0.816052 0.162661 0.137606
0.917128 0.111391 0.152407
0.0420386 0.478492 0.360616
0.0654459 0.426749 0.261997
0.249226 0.420554 0.221729
0.450523 0.41828 0.214405
0.608896 0.401953 0.229038
0.712688 0.376455 0.233234
0.762066 0.356558 0.213046
0.81677 0.331182 0.197696
0.913466 0.28011 0.192691
0.145739 0.562631 0.418463
0.159106 0.546929 0.355077
0.276265 0.537911 0.31162
0.426078 0.544091 0.28838
0.587488 0.541009 0.279927
0.711299 0.534859 0.284321
0.793927 0.516915 0.297887
0.868772 0.498299 0.315816
0.961929 0.481819 0.315328
0.239567 0.624537 0.469551
0.266148 0.629297 0.440467
0.321736 0.63386 0.404639
0.438544 0.642176 0.388113
0.562875 0.651225 0.363394
0.6972 0.650523 0.352941
0.785824 0.650324 0.355261
0.861967 0.648753 0.361776
0.979858 0.642206 0.397726
0.304707 0.669673 0.515877
0.334936 0.68069 0.507591
0.379599 0.697353 0.494774
0.445594 0.712551 0.486976
0.55996 0.725887 0.474311
0.671443 0.734051 0.450721
0.765087 0.73434 0.438331
0.85301 0.735027 0.441413
0.959838 0.734615 0.457374
0.358572 0.705684 0.557641
0.383001 0.715724 0.559487
0.423835 0.735653 0.561364
0.470207 0.755154 0.565179
0.550072 0.775418 0.565286
0.656321 0.789105 0.555276
0.733822 0.796063 0.538994
0.812421 0.798764 0.523522
0.939178 0.804303 0.531518
0.413672 0.740932 0.597513
0.428962 0.748684 0.603754
0.462104 0.766217 0.613931
0.499748 0.785245 0.624994
0.551598 0.808988 0.633829
0.620401 0.833005 0.637858
0.692515 0.85182 0.638605
0.758114 0.863401 0.633646
0.852232 0.876539 0.623972
0 0.0087892 0.241306
0.22472 0.0166629 0.242649
0.391653 0.0237736 0.246784
0.499428 0.047303 0.257145
0.595621 0.0677653 0.263966
0.673198 0.0737163 0.261601
0.730571 0.0719463 0.255802
0.78352 0.0670481 0.254276
0.85214 0.0591745 0.263691
0 0.13164 0.258946
0.107607 0.102693 0.224552
0.306661 0.107576 0.21677
0.458198 0.11783 0.217441
0.584787 0.119203 0.218158
0.679744 0.104707 0.211337
0.745327 0.083711 0.204608
0.80444 0.0631723 0.206729
0.873655 0.0555581 0.234394
0 0.339864 0.359991
0.0445869 0.272053 0.279911
0.237888 0.280858 0.264332
0.44445 0.2748 0.256367
0.584955 0.255528 0.251102
0.682582 0.227924 0.239338
0.750179 0.194034 0.226596
0.814969 0.15314 0.21178
0.914809 0.0960098 0.2103
0.00723278 0.472221 0.419501
0.0308995 0.427085 0.339879
0.212787 0.422293 0.315175
0.426154 0.422583 0.301671
0.589807 0.406592 0.311009
0.685145 0.385885 0.291585
0.748348 0.360449 0.277455
0.812634 0.325292 0.262745
0.922515 0.252445 0.25005
0.108095 0.559838 0.464714
0.124712 0.546151 0.412467
0.246311 0.538582 0.381765
0.409125 0.547143 0.366171
0.574075 0.547402 0.356207
0.705867 0.537957 0.363226
0.79057 0.520027 0.375738
0.854459 0.504814 0.369512
0.948165 0.473548 0.3346
0.208377 0.624002 0.508965
0.240726 0.630076 0.485801
0.298039 0.634653 0.461509
0.422339 0.64361 0.451331
0.554742 0.654429 0.42974
0.690867 0.654124 0.418235
0.781323 0.654932 0.418326
0.868376 0.650141 0.425574
1 0.635843 0.448905
0.285481 0.670787 0.54699
0.317922 0.683223 0.542779
0.360189 0.698695 0.536446
0.426352 0.714229 0.533104
0.546181 0.730816 0.524834
0.667689 0.742016 0.5028
0.767376 0.743465 0.487953
0.863188 0.745739 0.487572
0.98999 0.740459 0.499748
0.346822 0.708568 0.580209
0.371389 0.71928 0.583337
0.411933 0.737026 0.588052
0.45359 0.757504 0.594949
0.526192 0.784894 0.60116
0.639216 0.810681 0.59852
0.735866 0.82153 0.583322
0.826596 0.824094 0.563104
0.964813 0.821653 0.559792
0.408301 0.744915 0.615961
0.423896 0.751965 0.620569
0.45742 0.768963 0.629374
0.491676 0.787655 0.640742
0.540841 0.813092 0.654475
0.607187 0.842908 0.661128
0.681086 0.86833 0.663294
0.757733 0.879576 0.655695
0.862379 0.892149 0.642939
0 0.00114443 0.321447
0.212573 0.0182193 0.331807
0.37702 0.0252232 0.34052
0.488655 0.0484016 0.352453
0.583383 0.0778973 0.355627
0.661097 0.0945449 0.353445
0.72163 0.092195 0.345937
0.779156 0.0832227 0.339834
0.856565 0.0743114 0.345785
0 0.0914473 0.327276
0.0862593 0.0856947 0.31487
0.271351 0.100542 0.320195
0.43595 0.114488 0.325261
0.564874 0.135348 0.327932
0.662715 0.13576 0.324315
0.731548 0.121416 0.316274
0.797833 0.0929885 0.310552
0.876677 0.0723125 0.32604
0 0.299031 0.418158
0.0370794 0.246723 0.372808
0.215641 0.270375 0.374945
0.417655 0.274281 0.367758
0.565942 0.271611 0.357168
0.67013 0.254124 0.346792
0.741512 0.224109 0.333654
0.809064 0.175219 0.314046
0.909728 0.100221 0.298756
0 0.459312 0.483467
0.0134432 0.41648 0.42826
0.198856 0.41915 0.414359
0.388922 0.427375 0.403922
0.567697 0.413458 0.39173
0.679103 0.392111 0.383246
0.747967 0.364492 0.369055
0.816434 0.321309 0.351995
0.928359 0.231312 0.326879
0.0797894 0.557107 0.515084
0.0876173 0.543435 0.475273
0.223743 0.539742 0.454856
0.38938 0.548943 0.450828
0.559182 0.552773 0.439704
0.700511 0.540444 0.454124
0.769467 0.528649 0.439292
0.834089 0.510613 0.419577
0.941817 0.453925 0.384863
0.177234 0.624811 0.545495
0.203265 0.630137 0.529519
0.27425 0.63592 0.512337
0.404852 0.644587 0.513466
0.543008 0.657023 0.501854
0.684962 0.658701 0.4916
0.780041 0.657389 0.492638
0.873976 0.647822 0.50663
0.990295 0.630747 0.499672
0.257099 0.67068 0.575769
0.293187 0.683818 0.574395
0.342916 0.701778 0.570184
0.410925 0.715984 0.573068
0.532891 0.732052 0.573114
0.664515 0.744472 0.555337
0.767132 0.746899 0.545266
0.864347 0.749569 0.543755
1 0.738598 0.559106
0.328603 0.708553 0.602289
0.355489 0.72047 0.606226
0.402731 0.740536 0.610605
0.44358 0.760143 0.618112
0.511238 0.787717 0.631342
0.627161 0.81709 0.632486
0.7355 0.832853 0.621256
0.834119 0.839261 0.605234
0.989197 0.838056 0.602731
0.400031 0.746807 0.633356
0.416175 0.75378 0.638407
0.453391 0.770779 0.646494
0.488045 0.790555 0.655482
0.533272 0.816983 0.669703
0.595865 0.849943 0.683085
0.668315 0.886397 0.6916
0.755322 0.904677 0.687785
0.87332 0.912032 0.667369
0 0 0.393164
0.19408 0.00970474 0.409689
0.354376 0.0221256 0.42443
0.473304 0.0407111 0.439551
0.579873 0.0667887 0.450309
0.658701 0.0931868 0.44979
0.718639 0.111406 0.44419
0.776562 0.108919 0.437797
0.855802 0.0995956 0.438102
0 0.0463874 0.399634
0.0701305 0.0539254 0.401572
0.239338 0.0808728 0.414649
0.411521 0.101274 0.429145
0.554009 0.125063 0.438148
0.655329 0.146502 0.438621
0.726574 0.149004 0.433555
0.792065 0.128603 0.427237
0.874464 0.103685 0.430213
0 0.239551 0.473213
0.021622 0.222965 0.458045
0.190784 0.252247 0.466606
0.382666 0.269413 0.470771
0.546319 0.271687 0.46598
0.65803 0.273564 0.459007
0.73373 0.258732 0.450919
0.804807 0.220478 0.440101
0.906523 0.151843 0.427314
0 0.421118 0.536706
0 0.39086 0.513283
0.1823 0.400046 0.511482
0.372808 0.415717 0.51133
0.545953 0.416617 0.505318
0.667948 0.409537 0.494606
0.745495 0.3888 0.483818
0.817227 0.34931 0.469551
0.923766 0.26041 0.443717
0.0419776 0.546868 0.570901
0.0577859 0.532845 0.552728
0.213916 0.53341 0.545312
0.376837 0.545739 0.546212
0.528786 0.557961 0.546029
0.678218 0.549187 0.533227
0.76228 0.532509 0.526024
0.837629 0.50486 0.513817
0.943572 0.433539 0.484398
0.148486 0.624063 0.590051
0.163821 0.630381 0.583383
0.238209 0.636332 0.575692
0.382071 0.645747 0.57702
0.522164 0.659052 0.576364
0.673579 0.663691 0.565438
0.78172 0.657115 0.576104
0.859342 0.650828 0.569253
0.962448 0.62237 0.54345
0.230076 0.673533 0.606302
0.259586 0.684962 0.607813
0.306889 0.702037 0.608988
0.389456 0.718761 0.613214
0.516579 0.734142 0.618753
0.654459 0.746685 0.609247
0.765118 0.750317 0.601617
0.86685 0.750988 0.605097
0.997086 0.73492 0.615671
0.30399 0.708904 0.624475
0.331014 0.720302 0.630533
0.381476 0.741131 0.63888
0.430121 0.763149 0.647959
0.501579 0.79263 0.65951
0.615717 0.819715 0.667903
0.734813 0.834867 0.659281
0.837461 0.843351 0.649241
0.997116 0.840589 0.654017
0.388983 0.747753 0.65124
0.405295 0.756161 0.656825
0.440757 0.772549 0.665599
0.483192 0.793347 0.67541
0.530221 0.820768 0.686168
0.587472 0.855299 0.70164
0.660273 0.895872 0.716091
0.750103 0.928817 0.721553
0.884382 0.933318 0.702953
0 0.000122072 0.459541
0.170932 0 0.478355
0.322652 0.0133822 0.498009
0.450156 0.0319677 0.519524
0.56791 0.049897 0.534035
0.662608 0.0710765 0.54226
0.725307 0.0993973 0.539345
0.785061 0.115633 0.537026
0.865354 0.120195 0.535607
0 0.0118105 0.475608
0.0349432 0.0134127 0.477562
0.196429 0.0368353 0.494484
0.376516 0.0745098 0.517571
0.53518 0.102007 0.536156
0.654734 0.12575 0.54258
0.72929 0.14966 0.541238
0.794644 0.150652 0.539757
0.878111 0.134585 0.537118
0 0.189563 0.531929
0.000564584 0.19443 0.532082
0.15552 0.218647 0.543542
0.344076 0.248859 0.553063
0.520272 0.26099 0.559747
0.649729 0.265003 0.557778
0.728695 0.271427 0.553887
0.801678 0.252491 0.552285
0.901213 0.193957 0.544198
0 0.380362 0.583551
0 0.369543 0.578531
0.146593 0.385031 0.583444
0.347341 0.403235 0.586709
0.515923 0.414267 0.589273
0.654475 0.413809 0.585946
0.738445 0.408728 0.581613
0.813504 0.381338 0.57586
0.913619 0.310185 0.55938
0 0.527337 0.614115
0.0091249 0.514092 0.611246
0.186801 0.518654 0.611826
0.359503 0.531899 0.615595
0.5122 0.550759 0.620142
0.662745 0.553841 0.617792
0.755093 0.546334 0.610452
0.836591 0.521645 0.604593
0.935592 0.462165 0.589075
0.128313 0.620386 0.629023
0.137713 0.625238 0.6318
0.222507 0.631556 0.633127
0.370169 0.642267 0.636637
0.508415 0.657008 0.63978
0.64538 0.670298 0.636194
0.764843 0.665248 0.630137
0.853803 0.65214 0.628992
0.955139 0.608988 0.616327
0.212268 0.672724 0.638941
0.234913 0.684688 0.643412
0.276112 0.701411 0.649012
0.356588 0.718227 0.655741
0.49575 0.734539 0.661692
0.636591 0.74847 0.659876
0.756924 0.755718 0.651957
0.867506 0.751781 0.664515
0.969619 0.734035 0.649134
0.282872 0.710475 0.648203
0.306554 0.720256 0.653437
0.351308 0.740047 0.663127
0.403082 0.763867 0.675273
0.487999 0.797803 0.69247
0.615183 0.823407 0.699962
0.731273 0.836271 0.696529
0.840391 0.845716 0.691279
0.997223 0.835081 0.703853
0.3691 0.747677 0.665461
0.387701 0.756451 0.671016
0.42504 0.774304 0.681178
0.471122 0.797498 0.694316
0.527016 0.827375 0.708919
0.592584 0.865019 0.722301
0.664286 0.900923 0.737865
0.753445 0.934173 0.746838
0.897459 0.949889 0.737102
0 3.0518e-05 0.516136
0.153109 0 0.534081
0.291463 0.0137026 0.554818
0.420127 0.0400397 0.577371
0.545785 0.0560769 0.597498
0.651698 0.0675669 0.609903
0.727962 0.0807202 0.612451
0.788342 0.113649 0.613123
0.874952 0.136995 0.616983
0 0.00135805 0.538735
0.000793469 0.000808728 0.536492
0.145693 0.000701915 0.552544
0.323369 0.0347601 0.579187
0.502235 0.0775921 0.607065
0.642344 0.0994125 0.619104
0.73225 0.116762 0.620096
0.797177 0.145724 0.619333
0.886595 0.155062 0.621759
0 0.143984 0.588159
0 0.14258 0.586069
0.0834058 0.154208 0.595209
0.273411 0.18555 0.610437
0.480507 0.227878 0.624964
0.636286 0.235981 0.630167
0.731044 0.24004 0.629664
0.801602 0.253147 0.628855
0.906584 0.219989 0.630137
0 0.349248 0.627527
0 0.35137 0.628199
0.0759442 0.366629 0.634577
0.297215 0.379049 0.640116
0.482994 0.398199 0.646067
0.638239 0.401266 0.648356
0.735882 0.398154 0.646708
0.811536 0.395117 0.645853
0.920272 0.335897 0.638346
0 0.511376 0.652186
0 0.500465 0.655207
0.0954299 0.505714 0.657755
0.316518 0.520974 0.663813
0.494881 0.54406 0.672206
0.644846 0.553048 0.674968
0.750042 0.549569 0.671748
0.831601 0.540169 0.66865
0.940017 0.481529 0.656565
0.101152 0.614511 0.663081
0.0946212 0.617426 0.671778
0.168826 0.621942 0.678645
0.33724 0.631708 0.683391
0.492348 0.648081 0.689723
0.634577 0.665461 0.695491
0.756374 0.669169 0.691386
0.847807 0.663828 0.687938
0.959381 0.625559 0.67892
0.212726 0.673335 0.668376
0.229282 0.683772 0.675792
0.259739 0.699687 0.687587
0.341405 0.71577 0.698314
0.486122 0.731594 0.705104
0.626566 0.7458 0.707439
0.742885 0.75845 0.698116
0.856931 0.7579 0.704021
0.975708 0.733684 0.699275
0.28542 0.711482 0.672328
0.30544 0.721065 0.677699
0.343633 0.740826 0.688441
0.387655 0.764874 0.701747
0.464881 0.799146 0.720424
0.611414 0.825299 0.731258
0.728084 0.83801 0.729397
0.838666 0.849317 0.726253
0.991073 0.837552 0.736568
0.367147 0.750408 0.680797
0.382162 0.757931 0.684901
0.412634 0.774639 0.694224
0.455055 0.798413 0.707118
0.520653 0.836164 0.729107
0.603143 0.882338 0.754284
0.684108 0.915999 0.766979
0.768261 0.933532 0.770169
0.905165 0.94966 0.763806
0 0.000122072 0.562921
0.11722 0 0.575082
0.253697 0.0119326 0.598032
0.383734 0.0462196 0.618433
0.51284 0.0754864 0.63975
0.626184 0.0829328 0.652995
0.714168 0.085481 0.661418
0.783597 0.0994888 0.665034
0.869184 0.155398 0.67248
0 0.00015259 0.590097
0 0.00015259 0.585962
0.0943465 0 0.593942
0.273182 0.0147097 0.620554
0.460838 0.073106 0.649332
0.614649 0.0933394 0.666621
0.719585 0.0976425 0.673396
0.793698 0.115877 0.674739
0.880842 0.174121 0.679652
0 0.0682536 0.632563
0 0.0597848 0.627848
0 0.0515602 0.625223
0.149233 0.0604257 0.637003
0.40087 0.125765 0.664485
0.600366 0.168505 0.684504
0.725704 0.176013 0.690791
0.809445 0.19266 0.692531
0.904265 0.236851 0.693339
0 0.315358 0.676799
0 0.315984 0.675502
0 0.316991 0.677958
0.145327 0.317235 0.685588
0.411093 0.328328 0.694682
0.602548 0.34786 0.700908
0.729351 0.343114 0.704387
0.817212 0.345373 0.7066
0.924865 0.354314 0.704723
0 0.494194 0.694652
0 0.487709 0.702281
0 0.497704 0.706386
0.221592 0.509453 0.712047
0.453056 0.523842 0.722301
0.618524 0.535653 0.727886
0.743404 0.531273 0.728328
0.833555 0.526345 0.726329
0.944595 0.506981 0.717845
0 0.607034 0.696605
0 0.609888 0.710185
0 0.612268 0.723186
0.202853 0.619013 0.728527
0.446281 0.639857 0.738277
0.620768 0.661372 0.746059
0.74583 0.66833 0.747326
0.844968 0.666957 0.744457
0.962554 0.645609 0.734783
0.184176 0.671168 0.698436
0.189731 0.679866 0.708553
0.195972 0.693507 0.727535
0.269734 0.705791 0.743358
0.450782 0.720348 0.75346
0.613214 0.737667 0.760159
0.732219 0.753002 0.764141
0.849287 0.758801 0.760189
0.97821 0.746792 0.753536
0.27863 0.713909 0.698238
0.296376 0.722698 0.705089
0.327779 0.740978 0.719646
0.370092 0.76556 0.739116
0.449882 0.79736 0.763363
0.600458 0.820813 0.775067
0.722988 0.834669 0.775479
0.830182 0.846738 0.76669
0.985367 0.840528 0.773236
0.369955 0.75581 0.700435
0.385733 0.764157 0.70518
0.40885 0.779843 0.714214
0.444984 0.802441 0.727367
0.503594 0.839506 0.748943
0.596353 0.891615 0.780743
0.706676 0.935195 0.806165
0.793149 0.94786 0.806363
0.918715 0.954787 0.797589
0 0 0.613886
0.0249638 0 0.614115
0.164096 0 0.630014
0.31014 0.0290227 0.651102
0.454795 0.0838636 0.676341
0.583078 0.111803 0.694102
0.681361 0.113313 0.702327
0.759213 0.115526 0.709667
0.848875 0.14992 0.719036
0 0 0.640085
0 0 0.633906
0.0379492 0 0.631815
0.211963 0.00865187 0.65182
0.410666 0.0726482 0.681193
0.568795 0.120928 0.702907
0.682109 0.123278 0.710735
0.765377 0.125231 0.717266
0.859602 0.162417 0.727398
0 0.0287633 0.676219
0 0.0230869 0.671977
0 0.0186618 0.664012
0.061326 0.0198978 0.661219
0.311833 0.0617685 0.690028
0.533822 0.141192 0.720027
0.681254 0.151629 0.729686
0.777356 0.152789 0.735637
0.879362 0.205097 0.743587
0 0.232639 0.728176
0 0.218616 0.725383
0 0.201907 0.721309
0 0.182986 0.716335
0.2121 0.171939 0.722179
0.497124 0.217395 0.744305
0.67512 0.235462 0.753384
0.788357 0.236149 0.758618
0.899184 0.291005 0.761303
0 0.468559 0.756374
0 0.467903 0.763134
0 0.467216 0.766873
0.013962 0.458091 0.76875
0.2907 0.436591 0.772839
0.512093 0.423438 0.779416
0.680308 0.428885 0.782361
0.800015 0.415641 0.784009
0.920256 0.441794 0.779904
0 0.594766 0.745312
0 0.595804 0.759762
0 0.597696 0.778622
0.030045 0.605035 0.787579
0.343297 0.617105 0.795727
0.555596 0.623636 0.805249
0.698817 0.626276 0.808209
0.813733 0.618814 0.807507
0.938949 0.612634 0.801404
0.0466163 0.663325 0.738628
0.0295262 0.669932 0.751247
0.0131991 0.677378 0.771832
0.0834211 0.683207 0.792798
0.317357 0.693462 0.805432
0.549111 0.718532 0.817411
0.705882 0.736095 0.82359
0.814527 0.73994 0.823255
0.947951 0.734493 0.818463
0.247013 0.712642 0.737026
0.253849 0.719829 0.746227
0.269368 0.732189 0.76376
0.301823 0.747433 0.78648
0.393774 0.767224 0.81445
0.555123 0.787259 0.830777
0.69987 0.805646 0.835981
0.804425 0.821271 0.83772
0.947494 0.824933 0.832013
0.369131 0.763577 0.734173
0.385428 0.773281 0.74139
0.40914 0.787274 0.752804
0.441215 0.807355 0.767971
0.495552 0.837751 0.790722
0.581933 0.87776 0.818952
0.688914 0.912978 0.840864
0.789731 0.931212 0.846616
0.907439 0.936721 0.83357
