presets/Hgold浓.cube
TITLE "XH Copyright"
# XH Copyright
# G200-4
# 20250101
LUT_3D_SIZE 33
0.0625162 0 0
0.0624247 0 0
0.0680705 0 0
0.0896773 0 0
0.127489 0.00169375 0
0.174182 0.00900282 0
0.224369 0.0121004 0
0.272816 0.0133822 0
0.315465 0.0150759 0
0.352361 0.0180667 0
0.384268 0.0218814 0
0.414176 0.0264134 0
0.440757 0.0318456 0
0.468009 0.0380407 0
0.494697 0.0451972 0
0.519066 0.0528878 0
0.540566 0.0606851 0
0.560204 0.068864 0
0.578775 0.0771191 0
0.596216 0.0853285 0
0.612619 0.0937819 0
0.628061 0.102235 0
0.642527 0.110521 0
0.656092 0.119112 0
0.668803 0.127779 0
0.68098 0.136507 0
0.692775 0.145785 0
0.704067 0.155779 0
0.715053 0.166735 0
0.72636 0.179065 0
0.73843 0.193286 0.0145571
0.751537 0.210071 0.0327306
0.765179 0.22858 0.056733
0.0644236 0.00807202 0
0.0644388 0.00825513 0
0.0672313 0.00859083 0
0.0889906 0.00886549 0
0.118166 0.0175631 0
0.161089 0.0255894 0
0.209445 0.0308385 0
0.256291 0.0335851 0
0.299306 0.0358892 0
0.336828 0.0384527 0
0.370245 0.0416114 0
0.401633 0.0451057 0
0.430198 0.0495155 0
0.45774 0.0546883 0
0.485801 0.0607462 0
0.511574 0.0673686 0
0.534524 0.0743877 0
0.555444 0.0817884 0
0.575021 0.0895247 0
0.593545 0.097322 0
0.610788 0.105241 0
0.626917 0.113344 0
0.642191 0.121553 0
0.656382 0.129778 0
0.669764 0.137774 0
0.682475 0.145373 0
0.694591 0.152911 0
0.70605 0.160922 0
0.716869 0.169955 0
0.727657 0.180774 0
0.739193 0.193988 0.0089723
0.751888 0.210117 0.0278477
0.765286 0.22829 0.0521248
0.0670024 0.0363775 0
0.0669871 0.0364691 0
0.068864 0.0365148 0
0.0832685 0.0367437 0
0.116747 0.0400244 0
0.149813 0.0511635 0
0.195453 0.0581674 0
0.240391 0.0628824 0
0.28275 0.0660868 0
0.321019 0.0688945 0
0.355474 0.0717174 0
0.387915 0.0749218 0
0.418784 0.0788128 0
0.447166 0.0835584 0
0.475944 0.0887312 0
0.503304 0.0945754 0
0.527428 0.100984 0
0.549386 0.107515 0
0.56994 0.114321 0
0.589197 0.121279 0
0.607416 0.128328 0
0.624094 0.135592 0
0.639994 0.142824 0
0.655116 0.150072 0
0.669245 0.156909 0
0.682826 0.163073 0
0.696071 0.168414 0
0.708568 0.173739 0
0.720226 0.180209 0
0.731319 0.188617 0
0.742687 0.199664 0
0.754833 0.213718 0.0126497
0.767514 0.230488 0.0384222
0.0675517 0.0675364 0
0.0675364 0.0675669 0
0.0688945 0.0674296 0
0.0806439 0.0667582 0
0.106355 0.0700084 0
0.148821 0.0770428 0
0.182864 0.0889448 0
0.226383 0.0948806 0
0.267536 0.0991379 0
0.306279 0.102876 0
0.341619 0.10634 0
0.374929 0.109514 0
0.407675 0.113115 0
0.437888 0.11751 0
0.467018 0.122637 0
0.495476 0.128267 0
0.521035 0.134234 0
0.543847 0.140291 0
0.565118 0.146532 0
0.585153 0.153063 0
0.603708 0.159518 0
0.620874 0.165911 0
0.637369 0.172457 0
0.65275 0.178897 0
0.667033 0.184863 0
0.680842 0.18967 0
0.694499 0.193317 0
0.70779 0.196887 0
0.720531 0.200885 0
0.732769 0.205585 0
0.745083 0.212512 0
0.757412 0.222675 0
0.770489 0.236744 0.0216526
0.0664683 0.100313 0
0.066453 0.100359 0
0.0675669 0.100053 0
0.0775464 0.0988479 0
0.10367 0.100145 0
0.145342 0.105852 0
0.181598 0.116854 0
0.214328 0.12755 0
0.254261 0.133104 0
0.2934 0.137957 0
0.329503 0.142199 0
0.36347 0.145937 0
0.397498 0.150225 0
0.429587 0.154879 0
0.459022 0.159991 0
0.488853 0.16582 0
0.515587 0.171649 0
0.5393 0.177646 0
0.561013 0.183566 0
0.581338 0.189624 0
0.600427 0.195773 0
0.617975 0.201999 0
0.634577 0.208118 0
0.65008 0.21416 0
0.664485 0.21976 0
0.67837 0.223987 0
0.692103 0.226474 0
0.705653 0.228138 0
0.719112 0.229252 0
0.732265 0.230442 0
0.745541 0.233219 0
0.759136 0.23888 0
0.773007 0.24892 0.00733959
0.0648051 0.134096 0
0.0647746 0.134203 0
0.0656443 0.133867 0
0.0747234 0.131624 0
0.0997177 0.131243 0
0.133425 0.139239 0
0.197543 0.138705 0
0.214328 0.156725 0
0.244587 0.166354 0
0.28307 0.171923 0
0.319539 0.177371 0
0.354513 0.182345 0
0.389059 0.187533 0
0.422736 0.192813 0
0.453101 0.198749 0
0.483543 0.204791 0
0.511284 0.210834 0
0.535668 0.216724 0
0.557977 0.222568 0
0.579065 0.228504 0
0.59855 0.234424 0
0.616266 0.240452 0
0.633066 0.246403 0
0.648966 0.252384 0
0.663722 0.257816 0
0.677531 0.261326 0
0.690867 0.262455 0
0.704112 0.262608 0
0.717449 0.26244 0
0.730953 0.261769 0
0.744854 0.261402 0
0.759182 0.262989 0
0.774136 0.269139 0
0.0637675 0.16878 0
0.0637522 0.168734 0
0.0644541 0.168109 0
0.0728618 0.164569 0
0.0965133 0.162402 0
0.13196 0.168994 0
0.173571 0.178103 0
0.242771 0.174792 0
0.246479 0.196063 0
0.276539 0.204685 0
0.312856 0.210544 0
0.348104 0.216632 0
0.383093 0.223102 0
0.417624 0.229374 0
0.448829 0.235798 0
0.479561 0.242206 0
0.507729 0.248478 0
0.532815 0.254505 0
0.555703 0.260349 0
0.577005 0.266163 0
0.596963 0.272023 0
0.615 0.27808 0
0.632013 0.283955 0
0.648188 0.289647 0
0.663127 0.294926 0
0.67715 0.298253 0
0.690455 0.29926 0
0.703548 0.299107 0
0.716625 0.298375 0
0.730007 0.296895 0
0.744091 0.295399 0
0.758907 0.294331 0
0.774639 0.295979 0
0.06421 0.202976 0
0.0642557 0.203006 0
0.0648661 0.202289 0
0.0726177 0.197253 0
0.0948501 0.193362 0
0.131289 0.199054 0
0.16936 0.210575 0
0.235431 0.209461 0
0.283268 0.21294 0
0.280201 0.234897 0
0.30901 0.242954 0
0.343847 0.248981 0
0.378622 0.25568 0
0.413794 0.26276 0
0.445472 0.269917 0
0.476097 0.276921 0
0.50457 0.283543 0
0.5299 0.289708 0
0.553109 0.29575 0
0.574868 0.301854 0
0.59501 0.307683 0
0.613352 0.313466 0
0.630671 0.319066 0
0.647181 0.324788 0
0.662593 0.330358 0
0.676936 0.334051 0
0.690486 0.335149 0
0.703792 0.335119 0
0.716884 0.334478 0
0.73019 0.332677 0
0.744183 0.330465 0
0.75906 0.328191 0
0.775357 0.327077 0
0.0660563 0.236927 0
0.0660258 0.236683 0
0.0663767 0.235981 0
0.0733349 0.230121 0
0.0946822 0.225055 0
0.13077 0.229679 0
0.170779 0.240604 0
0.213382 0.250233 0
0.289952 0.243442 0.00308232
0.319112 0.252399 0
0.314137 0.272877 0
0.341039 0.280629 0
0.375341 0.286778 0
0.410239 0.294011 0
0.442512 0.301656 0
0.473121 0.309102 0
0.501488 0.316014 0
0.526955 0.322576 0
0.550286 0.328679 0
0.572106 0.334615 0
0.592523 0.340307 0
0.611185 0.345953 0
0.628672 0.35169 0
0.645655 0.357366 0
0.661463 0.362722 0
0.676143 0.366552 0
0.690028 0.368093 0
0.703487 0.368032 0
0.716884 0.367559 0
0.730327 0.366033 0
0.744381 0.36437 0
0.75964 0.3626 0
0.776272 0.36054 0
0.0690013 0.270268 0
0.0689708 0.270039 0
0.0692302 0.269535 0
0.0754253 0.263035 0
0.0954604 0.256611 0
0.130831 0.260395 0
0.171939 0.270787 0
0.209552 0.283009 0.00637827
0.275898 0.282109 0.0119173
0.337652 0.279088 0.0181735
0.352636 0.291493 0
0.348226 0.309773 0
0.373373 0.317723 0
0.407691 0.323964 0
0.439933 0.331319 0
0.470115 0.338872 0
0.498573 0.346044 0
0.524102 0.352651 0
0.547372 0.358923 0
0.569223 0.364904 0
0.589761 0.370657 0
0.608759 0.376135 0
0.626307 0.381277 0
0.643397 0.386007 0
0.659464 0.390677 0
0.674372 0.3944 0
0.688472 0.39649 0
0.702632 0.397345 0
0.716518 0.397375 0
0.730327 0.396597 0
0.74461 0.395468 0
0.760342 0.394461 0
0.777493 0.39292 0
0.0733654 0.303136 0
0.0733654 0.303181 0
0.0734569 0.302602 0
0.0788891 0.295781 0
0.0978103 0.288563 0
0.131716 0.291524 0
0.173663 0.301442 0
0.212894 0.313893 0.0177768
0.255283 0.322759 0.0255283
0.336599 0.314 0.0365911
0.382864 0.315053 0.0308385
0.387243 0.329 0
0.383215 0.345754 0
0.406607 0.353918 0
0.438102 0.359869 0
0.46775 0.366629 0
0.495781 0.373632 0
0.521401 0.380331 0
0.54461 0.386526 0
0.566125 0.39205 0
0.586603 0.39733 0
0.605829 0.402335 0
0.62356 0.407065 0
0.640818 0.41149 0
0.657069 0.415717 0
0.672358 0.419577 0
0.686763 0.422202 0
0.700862 0.423651 0
0.715145 0.424292 0
0.72958 0.424186 0
0.744701 0.423529 0
0.760952 0.423117 0
0.778653 0.421881 0.000579843
0.0788128 0.33492 0
0.0787671 0.334768 0
0.0787671 0.334539 0
0.0837415 0.328222 0
0.101396 0.320729 0
0.133822 0.322896 0
0.175677 0.332433 0.00389105
0.216266 0.3449 0.027985
0.252689 0.356329 0.0420081
0.317723 0.354986 0.0451057
0.390448 0.347662 0.0564584
0.426749 0.351019 0.0429541
0.424079 0.365332 0.00637827
0.419623 0.380545 0
0.438499 0.38819 0
0.466316 0.393561 0
0.494011 0.399481 0
0.519295 0.40557 0
0.542245 0.411505 0
0.563439 0.417121 0
0.583642 0.42237 0
0.602869 0.427268 0
0.620584 0.431785 0
0.63798 0.435981 0
0.654749 0.440055 0
0.670253 0.443793 0
0.684688 0.446571 0
0.699168 0.448203 0
0.713542 0.449424 0
0.728267 0.449989 0
0.743618 0.449653 0.000793469
0.760678 0.449592 0.00306706
0.779278 0.448859 0.00735485
0.0847791 0.365774 0
0.0847486 0.365698 0
0.0846571 0.365301 0
0.0894179 0.359762 0
0.10602 0.35288 0
0.137041 0.354589 0
0.178317 0.363165 0.0105898
0.219791 0.375372 0.037232
0.256748 0.386892 0.0551003
0.300389 0.3935 0.0612192
0.382376 0.384741 0.0702068
0.440269 0.381598 0.0733196
0.467369 0.385611 0.0545205
0.460029 0.39913 0.0171511
0.454505 0.412161 0
0.468986 0.419837 0
0.493248 0.425345 0
0.518166 0.430533 0
0.540688 0.436133 0
0.561654 0.441535 0
0.581582 0.446586 0
0.600458 0.45127 0
0.618006 0.455756 0
0.635203 0.459815 0
0.651987 0.4636 0
0.667964 0.467124 0
0.682689 0.469963 0
0.697139 0.47187 0
0.711559 0.473289 0.00170901
0.726192 0.474083 0.00424201
0.742031 0.47451 0.00688182
0.759655 0.474815 0.00976577
0.779309 0.474723 0.0146792
0.0911879 0.394385 0
0.0911574 0.394217 0
0.0911269 0.39408 0
0.0954299 0.390158 0
0.111299 0.384146 0
0.1411 0.38555 0
0.181323 0.393011 0.0174868
0.223331 0.404501 0.0458228
0.261448 0.415747 0.0668803
0.297627 0.425208 0.0785382
0.360494 0.423606 0.0801862
0.440497 0.414511 0.0930648
0.485893 0.413031 0.0882429
0.504311 0.417365 0.0655528
0.494789 0.430091 0.0289616
0.488273 0.442252 0.00265507
0.499016 0.450202 0
0.518303 0.455695 0
0.54023 0.460487 0
0.561028 0.465492 0
0.580575 0.470649 0
0.599084 0.47541 0
0.61619 0.479667 0
0.632914 0.483635 0
0.649561 0.487358 0
0.665675 0.491051 0
0.68069 0.494026 0.00268559
0.695201 0.496101 0.00515755
0.709636 0.497765 0.00761425
0.724285 0.498878 0.0100557
0.7402 0.499779 0.0129397
0.758129 0.500328 0.016434
0.778637 0.500282 0.0219577
0.0978561 0.421256 0
0.0978256 0.421225 0
0.0977951 0.421149 0
0.10193 0.418006 0
0.117082 0.413077 0
0.145296 0.414466 0
0.185046 0.421653 0.0249027
0.227146 0.432746 0.0542153
0.266133 0.443992 0.0776532
0.302052 0.453803 0.0927138
0.345205 0.45861 0.0969558
0.426566 0.44979 0.103136
0.490913 0.443503 0.111635
0.52668 0.443091 0.101671
0.538354 0.447944 0.0767681
0.528298 0.459419 0.042359
0.520668 0.470863 0.0159609
0.527504 0.478798 0.00271611
0.542733 0.485054 0
0.561608 0.490578 0
0.581033 0.495644 0
0.598993 0.500359 0
0.615625 0.504677 0.000762951
0.631876 0.508675 0.00256352
0.648234 0.51223 0.00453193
0.664164 0.515618 0.00697337
0.679057 0.5187 0.00944533
0.693843 0.52108 0.0121309
0.708446 0.522927 0.0146181
0.723018 0.524422 0.0169833
0.738674 0.525338 0.0195468
0.756893 0.525979 0.0235599
0.777752 0.525887 0.0294957
0.104494 0.446525 0
0.104524 0.446616 0
0.104494 0.446525 0
0.108095 0.444373 0
0.122576 0.440269 0
0.150149 0.441962 0.0069276
0.188617 0.44918 0.0320592
0.230838 0.459876 0.0621042
0.270665 0.47097 0.0873274
0.306889 0.48069 0.104646
0.342077 0.488304 0.113695
0.403876 0.486107 0.114092
0.485298 0.47602 0.125872
0.535103 0.472419 0.127703
0.563409 0.472435 0.114504
0.571435 0.47718 0.0901503
0.562509 0.487968 0.0577401
0.55378 0.499397 0.0312047
0.557092 0.508202 0.0167391
0.568322 0.515251 0.00975052
0.58349 0.521126 0.00721752
0.600153 0.526146 0.0074464
0.616526 0.530343 0.00889601
0.632471 0.534066 0.010544
0.64831 0.537469 0.0125277
0.663722 0.540627 0.0148165
0.678691 0.543618 0.017319
0.693187 0.546212 0.0199741
0.707759 0.548394 0.0224613
0.722667 0.550225 0.0250248
0.738155 0.551431 0.0276646
0.75581 0.551659 0.0311894
0.776913 0.55111 0.0377966
0.11104 0.470954 0.0034638
0.111009 0.470954 0.00347906
0.110979 0.470832 0.00340276
0.114076 0.469474 0.00251774
0.128206 0.466285 0.00309758
0.154543 0.468482 0.0148623
0.192126 0.475914 0.0393378
0.233829 0.486534 0.069276
0.274495 0.497841 0.0961471
0.311788 0.507958 0.115877
0.345144 0.516396 0.127916
0.389578 0.519707 0.130617
0.467399 0.511803 0.134874
0.534524 0.50367 0.145983
0.574517 0.501472 0.142794
0.597696 0.501976 0.128969
0.604395 0.506691 0.105638
0.596765 0.51664 0.0750134
0.5879 0.527703 0.0490272
0.587549 0.537102 0.0327306
0.595102 0.544564 0.0239261
0.606332 0.55082 0.0196384
0.619745 0.555901 0.0186465
0.634562 0.560037 0.0194705
0.650019 0.563226 0.0213016
0.66482 0.566171 0.0232547
0.679393 0.569039 0.025864
0.693736 0.571725 0.0285954
0.708293 0.574319 0.0314488
0.723156 0.576532 0.0341344
0.738796 0.57792 0.0365911
0.756268 0.578012 0.0399634
0.776898 0.577173 0.0468147
0.118318 0.495445 0.0121157
0.118334 0.495552 0.012192
0.118303 0.495445 0.0121462
0.120668 0.495018 0.0117647
0.134096 0.492912 0.0124971
0.158831 0.495216 0.0233005
0.194629 0.502281 0.0458991
0.236316 0.513085 0.0762493
0.277806 0.524376 0.104433
0.315908 0.534524 0.126009
0.350149 0.54287 0.140124
0.385519 0.548913 0.146944
0.445975 0.546975 0.147005
0.524437 0.536721 0.156893
0.577417 0.531121 0.163836
0.609888 0.529824 0.157809
0.629267 0.530877 0.143648
0.635554 0.535576 0.121889
0.629694 0.544442 0.0941024
0.621424 0.555047 0.0688945
0.618402 0.564797 0.0510414
0.622385 0.573068 0.04065
0.630365 0.579736 0.0346227
0.64097 0.585031 0.031632
0.653803 0.589014 0.031281
0.667445 0.592035 0.032517
0.681697 0.594965 0.0348516
0.695842 0.597803 0.0375677
0.710231 0.600565 0.0406806
0.725155 0.603189 0.0436866
0.740475 0.60499 0.0463111
0.758068 0.605844 0.0498054
0.777798 0.604181 0.0558328
0.126177 0.519142 0.0209659
0.126238 0.519356 0.0211032
0.126223 0.519432 0.0211795
0.127657 0.519356 0.021088
0.139727 0.51809 0.0214542
0.162997 0.520882 0.0315709
0.197223 0.527871 0.0528115
0.237552 0.538033 0.0819104
0.279835 0.549569 0.111452
0.319127 0.559899 0.135073
0.354421 0.568597 0.151339
0.387594 0.575784 0.161334
0.433433 0.578149 0.163058
0.505318 0.571084 0.165866
0.572808 0.562127 0.177905
0.614649 0.558663 0.180728
0.642084 0.5579 0.173434
0.659449 0.559014 0.159182
0.665644 0.563272 0.139147
0.662013 0.571511 0.114351
0.654826 0.581811 0.0903944
0.650156 0.591852 0.0715953
0.65037 0.600504 0.0586404
0.655543 0.607492 0.0506752
0.663859 0.613062 0.0460975
0.67425 0.617487 0.0444343
0.686442 0.621103 0.0451667
0.699062 0.624018 0.0467079
0.713115 0.627039 0.0496529
0.728206 0.630198 0.0531014
0.743679 0.632395 0.0560311
0.761334 0.634318 0.0599222
0.780301 0.6327 0.0657969
0.134615 0.542153 0.0298924
0.13463 0.542382 0.0300908
0.134646 0.542504 0.0301976
0.135195 0.542748 0.0303655
0.146014 0.542916 0.0308995
0.167102 0.545296 0.0396124
0.199313 0.552132 0.0594644
0.238437 0.562173 0.0874647
0.280705 0.573632 0.117449
0.320851 0.584466 0.142931
0.357717 0.593591 0.161593
0.391974 0.601083 0.173693
0.429358 0.606409 0.179294
0.487007 0.604166 0.178897
0.558999 0.594369 0.186801
0.61265 0.587777 0.196658
0.64741 0.585473 0.196735
0.672282 0.585168 0.189166
0.688319 0.586603 0.175799
0.695277 0.590753 0.157687
0.693523 0.598245 0.135134
0.687541 0.607874 0.112337
0.68159 0.61796 0.0924086
0.679088 0.626886 0.0772869
0.681392 0.634409 0.0671244
0.687709 0.640528 0.0616007
0.696284 0.645579 0.0590524
0.706355 0.649378 0.0584726
0.718364 0.653483 0.0598917
0.732204 0.657176 0.0622416
0.747829 0.659907 0.0657054
0.765042 0.662181 0.0696269
0.784283 0.661646 0.0769665
0.14406 0.565057 0.0394446
0.144152 0.565377 0.039704
0.144183 0.565515 0.0398413
0.144259 0.565789 0.0400854
0.153567 0.566964 0.0409094
0.172335 0.569696 0.0486152
0.201938 0.57583 0.0666209
0.238514 0.585275 0.0924086
0.279713 0.596353 0.121874
0.320806 0.607492 0.149233
0.359121 0.61735 0.170321
0.395499 0.625681 0.184878
0.429831 0.63241 0.193545
0.474907 0.634043 0.194553
0.539818 0.62739 0.196094
0.603479 0.618097 0.206607
0.64686 0.61323 0.213581
0.677913 0.611795 0.212192
0.700954 0.611917 0.204776
0.71632 0.613855 0.19263
0.723964 0.617929 0.176272
0.723735 0.624659 0.15552
0.718456 0.633417 0.133104
0.712016 0.643305 0.11249
0.707729 0.65301 0.0958114
0.708034 0.661219 0.0847639
0.712383 0.667384 0.0783856
0.719158 0.672648 0.0747387
0.728527 0.677958 0.0736553
0.739742 0.682933 0.0742504
0.752941 0.686503 0.0760815
0.769848 0.688975 0.0801251
0.788693 0.689097 0.0885176
0.154513 0.58761 0.0505531
0.154635 0.587869 0.0507973
0.154711 0.588067 0.0510109
0.154849 0.588327 0.0512703
0.162036 0.590188 0.0519265
0.177966 0.593149 0.0580453
0.203586 0.598444 0.0729229
0.2374 0.606989 0.0964218
0.27689 0.617655 0.124666
0.31809 0.629114 0.153048
0.358312 0.639826 0.177249
0.39646 0.64889 0.194385
0.43151 0.656275 0.205158
0.468803 0.660945 0.209796
0.521248 0.658915 0.209201
0.586069 0.650309 0.214389
0.639902 0.642618 0.224689
0.678294 0.639124 0.229801
0.70692 0.638148 0.22771
0.72845 0.638697 0.220584
0.74316 0.640452 0.209155
0.751171 0.644007 0.193744
0.752117 0.650034 0.174502
0.747219 0.65864 0.152071
0.740032 0.668406 0.130419
0.734661 0.678019 0.113283
0.734035 0.686473 0.102159
0.737575 0.693736 0.0957198
0.743847 0.700267 0.0920424
0.751995 0.705837 0.0902266
0.762127 0.710445 0.0899519
0.775982 0.714137 0.0921187
0.793683 0.715023 0.101579
0.165362 0.6094 0.0631266
0.165484 0.609735 0.0633707
0.165591 0.610056 0.0635843
0.165774 0.610529 0.0639048
0.170504 0.61239 0.06392
0.183169 0.615656 0.0677195
0.205142 0.620768 0.0798657
0.234943 0.628077 0.0999008
0.272084 0.63798 0.126177
0.312764 0.649317 0.154772
0.35375 0.660487 0.181048
0.394034 0.670558 0.201419
0.43154 0.678798 0.215061
0.46569 0.685389 0.223072
0.508095 0.687388 0.224247
0.564614 0.682643 0.224552
0.624765 0.673686 0.232364
0.672175 0.667155 0.241886
0.707134 0.664027 0.245289
0.733715 0.66331 0.242359
0.754269 0.663966 0.235294
0.768627 0.66569 0.224414
0.776913 0.668956 0.209842
0.777676 0.674357 0.190723
0.772717 0.682506 0.168002
0.765621 0.692729 0.1467
0.761395 0.70312 0.131334
0.760494 0.712276 0.120729
0.763104 0.720287 0.114092
0.76817 0.726589 0.110231
0.775326 0.732296 0.1084
0.785794 0.737118 0.108766
0.8 0.739315 0.117693
0.175677 0.630976 0.0761273
0.175891 0.631464 0.076524
0.176043 0.631846 0.0768139
0.176211 0.632258 0.0771344
0.179171 0.633875 0.0771344
0.188693 0.63743 0.0787671
0.206271 0.642252 0.0872969
0.232029 0.648814 0.103746
0.265431 0.657313 0.126848
0.303975 0.667659 0.153887
0.344717 0.678874 0.181262
0.386267 0.68957 0.205005
0.42681 0.698955 0.222354
0.462821 0.706828 0.233478
0.498085 0.7122 0.238773
0.544015 0.711681 0.238025
0.601984 0.704829 0.239902
0.657267 0.696223 0.248737
0.701473 0.69073 0.257465
0.734768 0.688365 0.260151
0.759762 0.688075 0.257099
0.7794 0.68838 0.249897
0.793011 0.689647 0.239002
0.8009 0.692317 0.224033
0.801709 0.698131 0.204822
0.797086 0.706905 0.18323
0.791394 0.717372 0.164462
0.787335 0.727901 0.150088
0.785992 0.737377 0.140017
0.787427 0.74522 0.133577
0.791791 0.752117 0.13051
0.798764 0.758038 0.129763
0.808743 0.761364 0.137896
0.186343 0.651728 0.0906081
0.186481 0.652064 0.0909133
0.186603 0.652461 0.0913252
0.186755 0.652827 0.0916915
0.187747 0.653712 0.0919203
0.194644 0.657435 0.0915694
0.20824 0.662669 0.0963455
0.22916 0.66862 0.108522
0.257786 0.675807 0.127474
0.293034 0.684779 0.151492
0.332052 0.695323 0.178439
0.3738 0.70634 0.204669
0.416373 0.71667 0.225834
0.455772 0.725704 0.240986
0.490913 0.733196 0.250462
0.528222 0.737118 0.253223
0.576226 0.735271 0.252186
0.63238 0.727886 0.255665
0.686458 0.719676 0.265476
0.728542 0.71487 0.273411
0.760204 0.712825 0.27538
0.78436 0.712032 0.271748
0.803357 0.712108 0.264378
0.817258 0.713191 0.253208
0.825025 0.716152 0.238163
0.825711 0.722316 0.219608
0.821607 0.731197 0.200595
0.816541 0.741711 0.183688
0.812222 0.75227 0.170077
0.810697 0.76199 0.161364
0.811048 0.770275 0.155734
0.814603 0.777234 0.154467
0.820172 0.781338 0.16173
0.195773 0.67068 0.106065
0.195926 0.671107 0.106386
0.196063 0.671519 0.106691
0.196277 0.671992 0.107103
0.196567 0.672648 0.107744
0.201419 0.675898 0.106477
0.211673 0.681163 0.10811
0.227726 0.687037 0.115724
0.250706 0.693507 0.129839
0.280858 0.701213 0.149432
0.316747 0.710674 0.174136
0.356893 0.721355 0.200824
0.399969 0.732006 0.225025
0.442435 0.742061 0.24448
0.4813 0.75108 0.258152
0.515312 0.758465 0.265965
0.553918 0.761364 0.267231
0.602716 0.758495 0.266529
0.658503 0.751232 0.271244
0.712627 0.743542 0.281529
0.754025 0.739132 0.289433
0.785199 0.737179 0.290929
0.809033 0.736416 0.287312
0.828275 0.736217 0.279698
0.841794 0.737148 0.268132
0.849378 0.740429 0.253452
0.849882 0.746578 0.236683
0.846479 0.755322 0.220035
0.84155 0.765652 0.205035
0.836759 0.776608 0.193194
0.834058 0.786847 0.185428
0.833432 0.795514 0.182269
0.834775 0.800778 0.189029
0.203326 0.688014 0.122698
0.203525 0.688426 0.123171
0.20383 0.688914 0.123796
0.20412 0.689403 0.124468
0.204349 0.689876 0.125002
0.207675 0.692378 0.123995
0.215702 0.697444 0.123247
0.228122 0.703777 0.126665
0.246036 0.710277 0.135851
0.270832 0.717266 0.150546
0.30164 0.725597 0.170809
0.338231 0.735424 0.195712
0.379171 0.745907 0.221042
0.423331 0.756405 0.243915
0.466087 0.766629 0.262165
0.503761 0.775479 0.274006
0.53727 0.782452 0.280446
0.576989 0.785 0.281392
0.625391 0.782269 0.281346
0.684443 0.774426 0.287221
0.737835 0.767086 0.297856
0.778271 0.76321 0.305226
0.809232 0.761196 0.306584
0.833432 0.76025 0.30251
0.852934 0.759991 0.294957
0.866484 0.761227 0.283528
0.873259 0.764538 0.270375
0.873808 0.770687 0.255772
0.870649 0.779507 0.241276
0.865751 0.790219 0.228504
0.86038 0.802167 0.218082
0.856641 0.813046 0.213489
0.853162 0.820111 0.217838
0.208896 0.70309 0.14052
0.209064 0.703548 0.1411
0.209232 0.704051 0.141726
0.2094 0.70454 0.142367
0.209583 0.705058 0.143023
0.211185 0.706554 0.142977
0.218128 0.711208 0.140734
0.229252 0.718181 0.141009
0.243565 0.72546 0.146105
