presets/Hgold柔.cube
TITLE "Generated by Resolve"
LUT_3D_SIZE 9
0.0974594 0.110307 0.0951553
0.321859 0.091249 0.0599069
0.461509 0.0912795 0.0702373
0.559533 0.103548 0.0912032
0.63328 0.111482 0.105699
0.678477 0.114351 0.114351
0.717189 0.114565 0.127031
0.761227 0.114305 0.140246
0.839429 0.117891 0.179919
0.121859 0.246845 0.128206
0.261189 0.203128 0.0780652
0.423682 0.204257 0.0915389
0.540703 0.203571 0.0946212
0.635111 0.198199 0.106905
0.695628 0.189364 0.114809
0.744991 0.176761 0.12076
0.803647 0.154452 0.122377
0.891386 0.13994 0.169619
0.109117 0.433371 0.308812
0.204303 0.373434 0.165698
0.401312 0.377035 0.165377
0.517998 0.370489 0.188724
0.599695 0.351705 0.185718
0.646021 0.338918 0.166629
0.693401 0.323781 0.164401
0.756344 0.300618 0.168383
0.853864 0.264027 0.199878
0.179889 0.521645 0.407095
0.236728 0.489616 0.306676
0.380591 0.487343 0.270939
0.50312 0.486229 0.2692
0.593698 0.479835 0.285847
0.648066 0.466194 0.290013
0.700618 0.446983 0.300999
0.756283 0.431937 0.307103
0.821363 0.420203 0.299672
0.25835 0.569406 0.464439
0.297002 0.562203 0.407568
0.399344 0.559045 0.38352
0.482704 0.565301 0.360494
0.573724 0.563561 0.356466
0.642893 0.56022 0.364706
0.685649 0.558587 0.365408
0.741833 0.551507 0.373175
0.840269 0.540017 0.406867
0.310674 0.600809 0.505043
0.344167 0.607263 0.474983
0.410956 0.610132 0.459007
0.48539 0.616495 0.445151
0.551766 0.622492 0.427848
0.616373 0.622324 0.42385
0.676463 0.621271 0.429267
0.731899 0.624002 0.432547
0.819303 0.621164 0.449531
0.342901 0.624735 0.5355
0.375082 0.63769 0.524407
0.417365 0.64741 0.516213
0.484428 0.65539 0.509606
0.544106 0.6645 0.499413
0.596109 0.669886 0.487098
0.646967 0.672786 0.482628
0.716014 0.673884 0.489006
0.80531 0.677409 0.496132
0.370169 0.64654 0.564889
0.397681 0.661143 0.563958
0.429053 0.675715 0.562951
0.477073 0.689189 0.563775
0.536538 0.70132 0.561425
0.583673 0.71165 0.555886
0.623575 0.718883 0.546578
0.675898 0.724941 0.539986
0.792432 0.729992 0.552117
0.400519 0.673945 0.601984
0.415335 0.682567 0.606195
0.442573 0.699138 0.615259
0.472541 0.718486 0.622248
0.512566 0.738338 0.62884
0.557137 0.755657 0.633249
0.597238 0.768643 0.636316
0.635737 0.780041 0.632364
0.702251 0.793774 0.622248
0.0833143 0.102953 0.195682
0.295079 0.0955367 0.187121
0.436179 0.101289 0.196963
0.540154 0.117708 0.224231
0.619944 0.12726 0.23827
0.671534 0.13077 0.24593
0.712779 0.130541 0.253605
0.756359 0.12784 0.264942
0.828122 0.122576 0.286091
0.103258 0.242161 0.265904
0.204929 0.196429 0.176867
0.39559 0.193225 0.174289
0.530922 0.190112 0.184482
0.630533 0.182086 0.1897
0.691936 0.171939 0.18909
0.741421 0.157626 0.188174
0.798184 0.138109 0.18883
0.883665 0.131853 0.230259
0.0758831 0.429648 0.398917
0.144991 0.363928 0.276219
0.355779 0.363027 0.262119
0.494499 0.355108 0.268711
0.58143 0.342 0.245731
0.642832 0.325139 0.241871
0.693797 0.306218 0.239078
0.761349 0.278904 0.235935
0.886702 0.224674 0.258198
0.138445 0.522499 0.467292
0.169833 0.491722 0.385657
0.340002 0.477409 0.348745
0.4766 0.475761 0.334997
0.577813 0.468193 0.344671
0.646662 0.453132 0.354574
0.691295 0.44152 0.353689
0.738048 0.430793 0.336843
0.821332 0.401083 0.304967
0.224811 0.570962 0.508629
0.254398 0.565393 0.463035
0.358694 0.557977 0.431769
0.459968 0.562173 0.409277
0.560891 0.561898 0.397589
0.637797 0.558587 0.402686
0.689723 0.554482 0.402228
0.757824 0.546105 0.410773
0.861128 0.532494 0.429007
0.28574 0.602243 0.536492
0.320668 0.608881 0.517525
0.371176 0.614206 0.497185
0.461295 0.621424 0.485664
0.540291 0.63003 0.465034
0.616175 0.631128 0.454368
0.687648 0.629038 0.458564
0.750576 0.630976 0.456977
0.852415 0.623087 0.472526
0.325139 0.627466 0.559899
0.357977 0.638178 0.554726
0.391562 0.652155 0.547723
0.452079 0.667628 0.543954
0.532036 0.681529 0.536889
0.594949 0.690028 0.522225
0.655848 0.691554 0.510857
0.738842 0.689372 0.514504
0.831907 0.687724 0.514305
0.359442 0.650172 0.583932
0.384894 0.661021 0.585916
0.415045 0.676921 0.588708
0.454582 0.697597 0.592432
0.515435 0.71902 0.594568
0.579751 0.733227 0.590494
0.627359 0.741192 0.577585
0.686503 0.745174 0.562951
0.814557 0.746365 0.571694
0.398337 0.675883 0.612558
0.411261 0.683955 0.616617
0.43566 0.699626 0.626078
0.464744 0.719127 0.636851
0.504128 0.743709 0.645701
0.547662 0.766979 0.652445
0.593439 0.78468 0.657328
0.63856 0.796384 0.655955
0.712947 0.812421 0.64625
0.0889601 0.0966049 0.315908
0.278935 0.0978714 0.318578
0.420218 0.104204 0.333043
0.522118 0.130495 0.357626
0.604883 0.146304 0.374334
0.661738 0.148318 0.377737
0.70724 0.146014 0.379309
0.757626 0.140948 0.38616
0.835172 0.136431 0.406088
0.0899367 0.202457 0.355612
0.184878 0.185336 0.317281
0.362539 0.194965 0.32253
0.50071 0.211215 0.335775
0.603815 0.212345 0.343786
0.671397 0.201831 0.342519
0.72639 0.183597 0.335195
0.790127 0.151324 0.325338
0.869474 0.138308 0.358175
0.0579843 0.415747 0.470878
0.123674 0.361486 0.396475
0.317494 0.365484 0.379171
0.47097 0.358297 0.372381
0.567697 0.343847 0.368109
0.630762 0.326711 0.362081
0.685924 0.303059 0.355673
0.761593 0.267124 0.349187
0.894713 0.201587 0.345464
0.106416 0.520531 0.516121
0.136431 0.492912 0.456626
0.316442 0.478477 0.434241
0.4589 0.478859 0.426413
0.566522 0.469902 0.43534
0.620752 0.46125 0.420554
0.663447 0.450233 0.407263
0.72015 0.430518 0.39205
0.823972 0.373953 0.360296
0.185672 0.573541 0.542458
0.219837 0.568002 0.509819
0.338308 0.55761 0.490318
0.450767 0.562387 0.480369
0.549523 0.564706 0.47097
0.625299 0.562295 0.472938
0.686244 0.554742 0.47602
0.753918 0.545174 0.480385
0.846021 0.524926 0.454948
0.253437 0.604318 0.564218
0.297017 0.611383 0.54757
0.352651 0.614511 0.53724
0.45037 0.620951 0.532738
0.535683 0.631128 0.520027
0.612039 0.633402 0.511437
0.682124 0.632151 0.513741
0.751797 0.632517 0.510094
0.873304 0.618158 0.51902
0.30428 0.628397 0.58378
0.343648 0.640787 0.578058
0.375982 0.65272 0.575555
0.436591 0.667918 0.577447
0.524193 0.684794 0.57409
0.593133 0.696696 0.562203
0.65774 0.700694 0.551354
0.749325 0.699611 0.554376
0.85774 0.695888 0.548119
0.345785 0.650782 0.603937
0.375631 0.663218 0.605203
0.404746 0.677852 0.60856
0.439063 0.699031 0.618173
0.495888 0.729015 0.627176
0.567727 0.755932 0.631876
0.630152 0.768627 0.623224
0.700313 0.774426 0.603784
0.839445 0.767102 0.603403
0.390539 0.676997 0.629847
0.407126 0.685634 0.633539
0.430121 0.700893 0.639078
0.456733 0.721706 0.65182
0.492515 0.747723 0.665843
0.533852 0.777707 0.674983
0.582803 0.802258 0.682216
0.637079 0.81265 0.678141
0.721111 0.827802 0.665568
0.0954299 0.0870832 0.405646
0.267994 0.0962539 0.413733
0.408164 0.103639 0.43154
0.517281 0.128283 0.460822
0.601221 0.152239 0.478492
0.658274 0.167498 0.486015
0.704265 0.169162 0.489509
0.758465 0.159167 0.491936
0.83978 0.158587 0.504692
0.0763867 0.1608 0.427451
0.169177 0.16556 0.420401
0.334661 0.18764 0.432395
0.485054 0.20795 0.453315
0.585443 0.229282 0.465782
0.651896 0.232334 0.469917
0.708019 0.220768 0.472129
0.780194 0.19147 0.475166
0.868833 0.172793 0.487709
0.0339971 0.374533 0.51809
0.110475 0.340017 0.487404
0.295232 0.358526 0.477226
0.448569 0.361547 0.470939
0.549142 0.360983 0.470176
0.615015 0.351476 0.467674
0.669383 0.331868 0.464027
0.744183 0.292317 0.461311
0.877379 0.218402 0.461906
0.0779889 0.512169 0.563531
0.121614 0.486351 0.533928
0.301396 0.477241 0.514885
0.437919 0.481697 0.506554
0.541833 0.477165 0.501579
0.609995 0.465782 0.497704
0.660792 0.450187 0.490013
0.722438 0.422309 0.477134
0.827802 0.352743 0.447578
0.156024 0.574762 0.581674
0.177493 0.570474 0.559655
0.315587 0.559518 0.543755
0.435721 0.5626 0.540825
0.537804 0.567681 0.538109
0.619348 0.563043 0.543999
0.67039 0.557519 0.536843
0.727489 0.548516 0.522683
0.821439 0.51252 0.493675
0.223774 0.608469 0.594583
0.257649 0.614145 0.583581
0.330434 0.616663 0.57351
0.434943 0.621195 0.575006
0.528756 0.631312 0.571847
0.60647 0.635782 0.566476
0.674418 0.635782 0.568048
0.7514 0.630823 0.571435
0.853773 0.615152 0.561791
0.280064 0.630213 0.607019
0.317983 0.641062 0.606104
0.359686 0.655344 0.604227
0.42295 0.669566 0.609293
0.514046 0.684215 0.613581
0.591592 0.697276 0.607462
0.65687 0.70309 0.599695
0.746227 0.703349 0.604013
0.86421 0.693187 0.604517
0.328618 0.650919 0.623072
0.359182 0.663661 0.627863
0.39382 0.679637 0.631601
0.430182 0.701579 0.639551
0.482444 0.73135 0.655619
0.560189 0.759991 0.664271
0.631022 0.775814 0.66154
0.705364 0.786847 0.649271
0.854582 0.785214 0.652186
0.381781 0.678492 0.646159
0.398077 0.686885 0.650446
0.423789 0.701671 0.657053
0.453315 0.723674 0.666606
0.484672 0.751476 0.681727
0.524269 0.784421 0.697292
0.572 0.820844 0.712642
0.63444 0.84062 0.715816
0.729397 0.847364 0.697673
0.0968185 0.0846876 0.471366
0.248997 0.0881361 0.482567
0.390799 0.0982986 0.502373
0.507073 0.117082 0.532067
0.603876 0.13753 0.555489
0.66482 0.158419 0.564111
0.712657 0.172198 0.568566
0.767224 0.172961 0.571145
0.838239 0.187121 0.573846
0.0809339 0.128252 0.492836
0.154284 0.137346 0.49723
0.309422 0.168322 0.513756
0.47245 0.195651 0.541619
0.586542 0.219287 0.555993
0.649226 0.239567 0.55729
0.699626 0.243153 0.559045
0.771344 0.222431 0.564843
0.851057 0.208789 0.565911
0.00895705 0.324742 0.555566
0.0933242 0.324727 0.553231
0.273457 0.348013 0.549157
0.428748 0.359167 0.54313
0.53753 0.363668 0.545663
0.60499 0.367102 0.546807
0.657816 0.357839 0.546304
0.727825 0.32636 0.546441
0.83418 0.271977 0.544106
0.0421912 0.4907 0.601267
0.101762 0.472541 0.590082
0.28452 0.466926 0.576455
0.423392 0.475929 0.569299
0.527459 0.481147 0.56849
0.599573 0.477638 0.567025
0.654658 0.464927 0.563485
0.719158 0.438727 0.556848
0.810254 0.381903 0.538506
0.132158 0.572549 0.619959
0.154437 0.567636 0.612573
0.303548 0.557061 0.599496
0.423651 0.561379 0.595346
0.521248 0.570642 0.593652
0.600122 0.570001 0.591348
0.659236 0.561151 0.588052
0.725399 0.543877 0.580682
0.813626 0.49836 0.559884
0.2009 0.609613 0.627848
0.225864 0.616678 0.624842
0.300053 0.617777 0.618112
0.416114 0.621729 0.617151
0.51516 0.63151 0.618677
0.597803 0.639811 0.618738
0.669413 0.63798 0.625742
0.735195 0.634394 0.618051
0.822095 0.610666 0.595514
0.256199 0.633036 0.633082
0.289479 0.642786 0.63444
0.330526 0.655436 0.637263
0.40473 0.670848 0.643427
0.503059 0.684581 0.649927
0.586191 0.697337 0.652171
0.654368 0.705623 0.649134
0.739818 0.706233 0.654322
0.844053 0.69041 0.651667
0.308614 0.652674 0.641398
0.336828 0.662806 0.64651
0.375036 0.680308 0.65568
0.418448 0.70425 0.667582
0.477791 0.736721 0.682719
0.55639 0.761242 0.695491
0.632166 0.775296 0.697429
0.707195 0.788266 0.691051
0.848295 0.783795 0.697093
0.370474 0.678889 0.658793
0.386709 0.688197 0.664729
0.416007 0.704723 0.674769
0.44651 0.725933 0.684947
0.484016 0.757305 0.698894
0.521324 0.790417 0.717205
0.569299 0.827085 0.735195
0.632258 0.856962 0.746212
0.741253 0.869108 0.736217
0.0965744 0.0845045 0.521935
0.236088 0.0818341 0.534371
0.37142 0.0971542 0.553307
0.494224 0.114595 0.583597
0.599145 0.129503 0.607202
0.669917 0.14287 0.620035
0.72105 0.164843 0.627161
0.777279 0.179767 0.633173
0.848341 0.199725 0.631022
0.0872511 0.10544 0.54847
0.122423 0.106691 0.548363
0.265278 0.128878 0.564492
0.448081 0.175418 0.59556
0.583902 0.200595 0.619043
0.661601 0.217929 0.624552
0.705135 0.239002 0.62182
0.765637 0.239033 0.625345
0.849195 0.227176 0.623819
0 0.29337 0.593744
0.0709392 0.307561 0.598749
0.238575 0.32845 0.600549
0.409003 0.348501 0.594598
0.527169 0.356573 0.5991
0.60354 0.360601 0.601663
0.653864 0.365011 0.601801
0.719158 0.348531 0.604608
0.820813 0.297917 0.600656
0.00433356 0.474311 0.63534
0.0582132 0.46247 0.632029
0.250126 0.461463 0.622736
0.409369 0.470451 0.615869
0.515084 0.47982 0.61648
0.593439 0.480339 0.619028
0.64802 0.476677 0.618647
0.713359 0.456397 0.61561
0.801617 0.404654 0.599039
0.106706 0.567819 0.652934
0.120806 0.561563 0.655528
0.280293 0.550942 0.64477
0.411093 0.554589 0.64123
0.509743 0.567712 0.641413
0.590265 0.572931 0.642649
0.651148 0.569253 0.641703
0.721157 0.55375 0.638315
0.805539 0.513298 0.621088
0.19704 0.609247 0.656275
0.211627 0.615473 0.662013
0.287877 0.615656 0.661372
0.407797 0.619226 0.660105
0.505226 0.629908 0.661768
0.585412 0.642039 0.663661
0.654307 0.644785 0.664073
0.728588 0.637156 0.662638
0.816861 0.604715 0.648264
0.254353 0.632578 0.657313
0.28072 0.642451 0.661967
0.314931 0.655497 0.66807
0.384573 0.670054 0.674983
0.492042 0.684352 0.682017
0.577676 0.69781 0.687129
0.648249 0.709682 0.689082
0.736568 0.708858 0.700099
0.823926 0.692058 0.679393
0.30602 0.652781 0.659037
0.327291 0.662806 0.66421
0.358282 0.679149 0.673289
0.401022 0.705364 0.688441
0.473152 0.742138 0.711528
0.560037 0.763409 0.722454
0.632547 0.775494 0.728084
0.708888 0.789288 0.727214
0.845731 0.780209 0.736431
0.361944 0.679377 0.6692
0.375891 0.68835 0.674403
0.403357 0.705119 0.684932
0.441581 0.732357 0.70277
0.483009 0.765942 0.722667
0.527642 0.801434 0.739498
0.576104 0.831144 0.757
0.639582 0.856138 0.768307
0.74725 0.872755 0.765393
0.0925002 0.084947 0.561517
0.221958 0.081651 0.573175
0.35169 0.10161 0.590433
0.478172 0.126329 0.621973
0.586755 0.137636 0.647974
0.665248 0.144152 0.665019
0.722652 0.154406 0.674174
0.776761 0.180682 0.68191
0.841138 0.2215 0.674205
0.0917983 0.0894026 0.590234
0.0966812 0.0881819 0.586572
0.212375 0.0919051 0.596063
0.404654 0.138415 0.629999
0.564508 0.176364 0.666835
0.66511 0.190372 0.68191
0.725032 0.204868 0.68571
0.771878 0.230503 0.682231
0.843885 0.247395 0.671336
0.000915541 0.267689 0.635447
0.0344701 0.270832 0.636423
0.164477 0.285817 0.646448
0.374548 0.30898 0.644556
0.512749 0.333394 0.648371
0.604089 0.335668 0.654276
0.662684 0.338796 0.656977
0.721447 0.345312 0.658763
0.821134 0.314824 0.653742
0 0.46099 0.672114
0.0108339 0.454124 0.672251
0.192126 0.459297 0.668833
0.386816 0.459846 0.660334
0.501106 0.472282 0.662013
0.587732 0.47277 0.666148
0.648341 0.47013 0.667659
0.710292 0.464195 0.667353
0.808179 0.416785 0.653727
0.0575418 0.563851 0.684871
0.043473 0.557702 0.695583
0.199405 0.549874 0.689433
0.384726 0.548989 0.682887
0.500435 0.564813 0.68455
0.583154 0.572457 0.686427
0.647883 0.571237 0.688579
0.714382 0.564904 0.688106
0.810254 0.524224 0.672404
0.177661 0.608637 0.684535
0.176364 0.614176 0.69781
0.24239 0.613199 0.703151
0.388708 0.612512 0.701091
0.496284 0.624613 0.704082
0.57731 0.639277 0.706218
0.646647 0.646937 0.708965
0.72166 0.644343 0.70985
0.822873 0.616007 0.69955
0.252186 0.6336 0.681102
0.270344 0.642634 0.690105
0.29836 0.655238 0.702907
0.373968 0.667689 0.713252
0.485283 0.681376 0.71899
0.571206 0.695491 0.723659
0.641077 0.70927 0.727474
0.723644 0.713954 0.730632
0.831937 0.693736 0.724559
0.30779 0.655009 0.679698
0.32488 0.663874 0.68542
0.352209 0.680858 0.696239
0.387778 0.70663 0.713222
0.459571 0.74255 0.736706
0.56025 0.764584 0.750362
0.631907 0.776577 0.755596
0.707927 0.791714 0.759869
0.840421 0.782834 0.76643
0.362203 0.683314 0.682673
0.373587 0.691493 0.688136
0.395193 0.706065 0.697215
0.430381 0.733669 0.714717
0.48043 0.776806 0.744671
0.53785 0.820645 0.774411
0.591775 0.846372 0.787808
0.653147 0.85948 0.794827
0.756878 0.875578 0.793729
0.0925765 0.0853895 0.593484
0.192615 0.0823682 0.601312
0.320897 0.100221 0.618112
0.453025 0.135348 0.653269
0.567651 0.152758 0.683665
0.65037 0.155657 0.701091
0.713222 0.157336 0.714137
0.772946 0.170611 0.724422
0.827298 0.241108 0.71426
0.0914015 0.0860304 0.623789
0.0918593 0.0858625 0.61857
0.163638 0.0839551 0.622477
0.358358 0.110979 0.652293
0.533639 0.162799 0.701671
0.65005 0.17171 0.723644
0.723918 0.176852 0.73434
0.784451 0.195529 0.738125
0.827695 0.269322 0.71487
0.0220645 0.212909 0.681025
0.0311131 0.200061 0.675944
0.077821 0.188891 0.677089
0.282734 0.201389 0.691752
0.490608 0.25626 0.710231
0.612894 0.269566 0.72108
0.68896 0.272465 0.72752
0.75024 0.285313 0.726986
0.814557 0.328344 0.706813
0 0.44715 0.7187
0 0.445045 0.721096
0.0693065 0.446952 0.721614
0.318898 0.430228 0.709117
0.470787 0.435477 0.710292
0.574929 0.441032 0.715343
0.64863 0.434958 0.719738
0.717266 0.433326 0.721172
0.808087 0.429496 0.709606
0 0.557412 0.721004
0 0.550958 0.739971
0.0587472 0.552254 0.74342
0.335439 0.544427 0.731289
0.481514 0.555413 0.733944
0.572564 0.564401 0.735271
0.644602 0.562203 0.738186
0.714626 0.55903 0.738262
0.810544 0.541039 0.726955
0.113634 0.609018 0.718334
0.0782025 0.615183 0.738735
0.0947127 0.617182 0.755581
0.318181 0.604669 0.746761
0.471153 0.618494 0.75079
0.56936 0.636271 0.753536
0.640558 0.645319 0.755291
0.716335 0.645609 0.759213
0.820813 0.629389 0.750454
0.231815 0.634012 0.70985
0.238788 0.641688 0.723751
0.24918 0.65272 0.744762
0.336141 0.659251 0.759014
0.467521 0.672068 0.766003
0.563592 0.688899 0.770977
0.633722 0.704326 0.772946
0.713771 0.714 0.777874
0.827588 0.70428 0.772976
0.299458 0.65774 0.703822
0.314855 0.665415 0.711894
0.339879 0.681468 0.727901
0.375006 0.706691 0.752163
0.450553 0.738506 0.778988
0.552621 0.759854 0.790372
0.628489 0.773144 0.793637
0.702098 0.786068 0.796872
0.829114 0.78471 0.798169
0.363027 0.689174 0.701411
0.372747 0.69723 0.706905
0.391058 0.711208 0.716274
0.419654 0.736217 0.733761
0.467063 0.779004 0.763699
0.534585 0.829023 0.801465
0.608927 0.86273 0.826368
0.671336 0.872557 0.829999
0.767575 0.880919 0.828122
0.0907149 0.0863203 0.632136
0.124483 0.0856184 0.632776
0.250843 0.0886397 0.646494
0.400854 0.128557 0.680171
0.527565 0.171832 0.720531
0.619501 0.183902 0.739162
0.683665 0.188418 0.751629
0.741314 0.195865 0.761852
0.795316 0.255665 0.755947
0.0854047 0.0886091 0.669017
0.0867018 0.0879835 0.660716
0.128252 0.0899062 0.657237
0.313817 0.110353 0.680659
0.493065 0.178058 0.730404
0.607843 0.20119 0.751766
0.682139 0.204364 0.763104
0.742504 0.210391 0.770947
0.793744 0.277974 0.759167
0.0398108 0.165774 0.724697
0.0494545 0.152575 0.716747
0.0694743 0.143404 0.706523
0.170199 0.145373 0.707973
0.427832 0.192782 0.74435
0.574304 0.239246 0.764843
0.664393 0.242985 0.772381
0.728954 0.250767 0.774365
0.786191 0.308751 0.758556
0 0.414633 0.778454
0 0.401801 0.777325
0.0182193 0.383017 0.772976
0.139742 0.359213 0.769604
0.373327 0.332265 0.760006
0.516823 0.347753 0.764263
0.617456 0.347494 0.769985
0.697276 0.344152 0.774273
0.782422 0.380133 0.765332
0 0.545373 0.779217
0 0.541985 0.796872
0.0237583 0.542428 0.80412
0.215381 0.528725 0.796582
0.412253 0.510964 0.790051
0.522438 0.507836 0.790814
0.6094 0.508309 0.791485
0.687785 0.49572 0.792569
0.786969 0.497642 0.785351
0.0125429 0.604746 0.767742
0.00332647 0.605539 0.785718
0.0273594 0.6047 0.808286
0.189776 0.599664 0.810178
0.417273 0.60235 0.80734
0.535454 0.613031 0.810834
0.613321 0.619257 0.811048
0.688579 0.615732 0.812863
0.794186 0.606546 0.810742
0.127306 0.636759 0.760815
0.114656 0.641794 0.775128
0.115404 0.646922 0.797162
0.216892 0.643565 0.813062
0.39884 0.647471 0.81709
0.526802 0.669886 0.824445
0.614282 0.687907 0.826734
0.684779 0.695598 0.826917
0.794491 0.692042 0.829862
0.273899 0.657313 0.747723
0.285359 0.663722 0.759121
0.302754 0.671595 0.774792
0.34168 0.686046 0.801801
0.424353 0.705409 0.827863
0.528344 0.726177 0.84033
0.611093 0.74435 0.84358
0.679377 0.760281 0.843122
0.789242 0.76762 0.847593
0.364111 0.696757 0.738827
0.375631 0.704646 0.746212
0.389975 0.716808 0.757198
0.416098 0.737636 0.775464
0.461723 0.769879 0.802197
0.523278 0.810681 0.835859
0.595453 0.839582 0.856794
0.66772 0.8542 0.863691
0.758022 0.860838 0.861631
