presets/Hgold粉.cube
TITLE "Generated by Resolve"
LUT_3D_SIZE 5
0.112001 0.0252079 0
0.405585 0.0167697 0
0.589105 0.00926223 0
0.656672 0.00326543 0
0.754376 0.00132753 0.0246738
0.165118 0.360891 0.182757
0.367208 0.304479 0.0335088
0.594217 0.263905 0.06392
0.66804 0.234119 0.0295567
0.783932 0.17557 0.0530861
0.245274 0.549432 0.39881
0.374182 0.546288 0.283406
0.565011 0.552499 0.23476
0.680186 0.545647 0.263722
0.800992 0.537697 0.328283
0.31606 0.618555 0.505547
0.405554 0.644205 0.477119
0.542702 0.658564 0.447715
0.633356 0.665782 0.42092
0.775204 0.667094 0.454917
0.388479 0.67216 0.604364
0.44361 0.695521 0.62182
0.519432 0.727886 0.636088
0.590707 0.750912 0.641047
0.683406 0.770611 0.618845
0.102724 0.010193 0.228763
0.359167 0.0313878 0.247745
0.561547 0.0449683 0.253285
0.64303 0.0348669 0.247196
0.750149 0.0216678 0.272374
0.132692 0.338125 0.402136
0.288411 0.292226 0.291905
0.559396 0.264225 0.269108
0.656352 0.217258 0.244038
0.799405 0.101595 0.200717
0.208072 0.546059 0.500908
0.307668 0.54287 0.438849
0.544457 0.553048 0.408408
0.671153 0.543938 0.423224
0.802792 0.52372 0.39559
0.281559 0.621347 0.575296
0.35613 0.650538 0.566598
0.526207 0.678203 0.558022
0.642847 0.690532 0.520836
0.814206 0.683436 0.534234
0.377279 0.675792 0.643366
0.42974 0.697749 0.655299
0.501671 0.737102 0.685176
0.580484 0.780377 0.700801
0.700191 0.799496 0.675715
0.0985275 0 0.435401
0.32842 0.0192416 0.468498
0.559716 0.0294957 0.486259
0.641703 0.059266 0.490242
0.749523 0.0799115 0.495872
0.0809949 0.241154 0.527214
0.258457 0.265949 0.518242
0.536202 0.291157 0.516625
0.643763 0.288533 0.51809
0.779019 0.191516 0.496605
0.182437 0.539925 0.606409
0.279271 0.540658 0.592447
0.519509 0.559625 0.582818
0.642817 0.551629 0.574121
0.777264 0.492454 0.543328
0.247349 0.623789 0.641947
0.308263 0.653559 0.65301
0.507973 0.678981 0.662806
0.639612 0.694179 0.654322
0.793454 0.682017 0.657832
0.354757 0.678614 0.682643
0.413504 0.702296 0.701488
0.494774 0.746136 0.727565
0.570825 0.801846 0.765957
0.717708 0.83418 0.761532
0.0858167 0 0.550088
0.292058 0.0188907 0.581445
0.544335 0.0271305 0.613504
0.64889 0.0388342 0.632517
0.763027 0.128847 0.650507
0.0684367 0.185763 0.638376
0.195361 0.19617 0.64268
0.509331 0.251575 0.65861
0.648188 0.265339 0.672175
0.784131 0.248356 0.671397
0.141787 0.525505 0.689357
0.218112 0.523659 0.705272
0.500694 0.55465 0.704936
0.633585 0.563012 0.707225
0.77406 0.521889 0.69366
0.245762 0.625238 0.704295
0.281895 0.65359 0.736034
0.491173 0.677485 0.749584
0.628305 0.697902 0.751431
0.784466 0.685298 0.746441
0.347097 0.683818 0.71371
0.389136 0.70489 0.731182
0.493675 0.763546 0.783352
0.591653 0.817349 0.826398
0.730556 0.839628 0.82855
0.0852522 0 0.645823
0.219226 0.00144961 0.664012
0.486671 0.0658885 0.711833
0.616053 0.0796216 0.736965
0.742458 0.174105 0.772488
0.0821393 0.0823377 0.751049
0.0970779 0.0583505 0.730098
0.379065 0.0969711 0.752331
0.616266 0.148318 0.780011
0.755856 0.241672 0.798764
0.068864 0.500938 0.802335
0.121843 0.502052 0.833295
0.400153 0.497734 0.835676
0.602243 0.497581 0.834669
0.759701 0.495384 0.832258
0.183642 0.617777 0.792157
0.179324 0.629969 0.836072
0.390661 0.648936 0.868772
0.605295 0.680156 0.869032
0.756252 0.683772 0.869932
0.352667 0.697978 0.782574
0.386206 0.715908 0.803662
0.475395 0.759014 0.851637
0.595285 0.811688 0.90544
0.731624 0.827573 0.90724
