presets/Hgold粉.cube
TITLE "Generated by Resolve"
LUT_3D_SIZE 33
0.112001 0.0252079 0
0.142657 0.0219577 0
0.185657 0.0200351 0
0.225681 0.0192416 0
0.260639 0.019501 0
0.295552 0.0191958 0
0.332479 0.0185245 0
0.369238 0.0179141 0
0.405585 0.0167697 0
0.441627 0.0155642 0
0.474037 0.0146487 0
0.502678 0.0137331 0
0.526513 0.0125429 0
0.546899 0.0118105 0
0.563561 0.0109255 0
0.577401 0.010132 0
0.589105 0.00926223 0
0.599268 0.00831617 0
0.608164 0.00762951 0
0.616724 0.00680552 0
0.624735 0.00627146 0
0.63238 0.00543221 0
0.640101 0.00485237 0
0.648371 0.00408942 0
0.656672 0.00326543 0
0.665141 0.00236515 0
0.674128 0.00138857 0
0.683589 0.000366217 0
0.69427 0 0
0.706127 1.5259e-05 0
0.720043 0.000259403 0
0.736294 0.000885023 0.00872816
0.754376 0.00132753 0.0246738
0.109712 0.042771 0
0.122286 0.0355077 0
0.160113 0.031693 0
0.199817 0.027924 0
0.23537 0.0258793 0
0.266987 0.0243992 0
0.301732 0.0228275 0
0.338216 0.0214542 0
0.375921 0.0199588 0
0.413382 0.0182193 0
0.450446 0.0162966 0
0.483436 0.0144961 0
0.512795 0.0122072 0
0.536995 0.010605 0
0.557137 0.00941482 0
0.573129 0.00828565 0
0.587091 0.00727855 0
0.598932 0.00639353 0
0.609155 0.00497444 0
0.618967 0.00392157 0
0.628153 0.00283818 0
0.637079 0.00173953 0
0.64625 0.000747692 0
0.655222 0 0
0.66453 0 0
0.674022 0 0
0.683467 0 0
0.693278 0 0
0.704631 0 0
0.717296 0.000411994 0
0.731365 0.000732433 0
0.747066 0.00134279 0
0.763638 0.00187686 0.014435
0.112322 0.0771344 0
0.1196 0.0648966 0
0.152453 0.0609293 0
0.191241 0.057557 0
0.223621 0.0564431 0
0.254871 0.0540627 0
0.286946 0.0513161 0
0.323598 0.0486915 0
0.361563 0.0460365 0
0.399832 0.0431525 0
0.437629 0.0401617 0
0.472648 0.0374151 0
0.503044 0.0342718 0
0.528908 0.0315709 0
0.550698 0.0290074 0
0.568765 0.0268406 0
0.583749 0.0249027 0
0.596323 0.0229038 0
0.607752 0.0207675 0
0.619364 0.0177462 0
0.629725 0.0154879 0
0.639689 0.0131533 0
0.649744 0.0107576 0
0.660136 0.00843824 0
0.670405 0.00624094 0
0.680598 0.00399786 0
0.691157 0.00256352 0
0.702693 0.00144961 0
0.715312 0.000839246 0
0.728893 0.000732433 0
0.74435 0.00131228 0
0.760159 0.00190738 0
0.775235 0.00387579 0.0040589
0.117968 0.124926 0
0.121065 0.102815 0
0.143816 0.0988937 0
0.186145 0.0967422 0
0.225238 0.0940566 0
0.257328 0.0920119 0
0.287327 0.0913405 0
0.321157 0.0891127 0
0.357397 0.0857557 0
0.395468 0.0823835 0
0.433875 0.0787823 0
0.468986 0.0751202 0
0.499947 0.0714733 0
0.526131 0.0675059 0
0.54847 0.0644083 0
0.566888 0.0609445 0
0.582132 0.0578927 0
0.595193 0.0547799 0
0.607065 0.0518654 0
0.618067 0.0487221 0
0.628901 0.0453346 0
0.639155 0.0419928 0
0.65008 0.0384222 0
0.660685 0.0345922 0
0.67155 0.0305333 0
0.683589 0.0255589 0
0.695415 0.0214542 0
0.707759 0.0170443 0
0.72137 0.0123751 0
0.737133 0.00784314 0
0.753994 0.00549325 0
0.77052 0.00616464 0
0.784604 0.0102998 0
0.126665 0.177539 0.0178988
0.125856 0.146288 0
0.143145 0.136141 0
0.177081 0.137621 0
0.220829 0.13695 0
0.257908 0.135088 0
0.29633 0.132067 0
0.33257 0.129885 0
0.365743 0.127947 0
0.399664 0.125139 0
0.435401 0.121721 0
0.468757 0.117693 0
0.499413 0.114137 0
0.525154 0.110292 0
0.547433 0.106065 0
0.565759 0.102083 0
0.580987 0.0987259 0
0.5944 0.0949111 0
0.606363 0.0913252 0
0.617548 0.0875563 0
0.628595 0.0838483 0
0.639078 0.0798352 0
0.649943 0.0755016 0
0.660761 0.0708324 0
0.671763 0.0661021 0
0.682734 0.0606851 0
0.694484 0.0547341 0
0.707439 0.048249 0
0.72137 0.0408942 0
0.740032 0.0305028 0
0.758053 0.0231479 0
0.775402 0.0205997 0
0.790204 0.0251011 0.0027924
0.136706 0.227451 0.0630655
0.13341 0.191516 0.00268559
0.146181 0.175143 0
0.174228 0.175814 0
0.212833 0.178866 0
0.254093 0.178271 0
0.295598 0.176593 0
0.337896 0.173571 0
0.378439 0.169741 0
0.41471 0.165988 0
0.447425 0.163119 0
0.47631 0.159838 0
0.502998 0.1561 0
0.52668 0.152316 0
0.547692 0.148226 0
0.565087 0.144549 0
0.58027 0.14052 0
0.593439 0.136721 0
0.605509 0.132952 0
0.616739 0.129137 0
0.627573 0.124971 0
0.6383 0.120745 0
0.649241 0.116503 0
0.659861 0.111711 0
0.670634 0.106493 0
0.681559 0.100999 0
0.693599 0.0949111 0
0.706264 0.0875257 0
0.721096 0.0781567 0
0.737987 0.0670329 0
0.756359 0.0558328 0
0.776822 0.0479286 0
0.792187 0.0502174 0.0147402
0.146105 0.275288 0.105699
0.142779 0.237736 0.0421607
0.1514 0.215305 0.00151064
0.175647 0.212085 0
0.20882 0.217441 0
0.24715 0.219989 0
0.290608 0.219165 0
0.335973 0.217227 0.00318914
0.380087 0.214176 0.0122835
0.422766 0.209735 0.0194095
0.460182 0.204639 0.021622
0.490349 0.200259 0.0169223
0.514 0.196643 0.00750744
0.534005 0.192874 0
0.551537 0.189181 0
0.56701 0.185367 0
0.580941 0.181506 0
0.593515 0.178073 0
0.605127 0.174197 0
0.616037 0.170474 0
0.626612 0.166674 0
0.637171 0.162799 0
0.647715 0.158495 0
0.65832 0.153872 0
0.668864 0.148867 0
0.680034 0.143877 0
0.691386 0.137636 0
0.703868 0.130632 0
0.718715 0.121431 0
0.7355 0.109697 0
0.754864 0.0962997 0
0.77351 0.0862898 0.00367742
0.79144 0.0850385 0.0296178
0.155795 0.319982 0.145266
0.152438 0.284443 0.0823377
0.15816 0.257191 0.0348211
0.179461 0.249989 0.0137636
0.209201 0.25449 0.00552377
0.242039 0.260319 0.000854505
0.282307 0.261891 0.00309758
0.329549 0.261143 0.0124666
0.375723 0.259037 0.0228428
0.421363 0.255436 0.0317845
0.462745 0.25037 0.0393988
0.49723 0.244587 0.0450904
0.524193 0.238926 0.0460212
0.544747 0.233677 0.0417487
0.560449 0.229252 0.0337072
0.573678 0.225452 0.024979
0.58555 0.221851 0.0181277
0.596475 0.21828 0.0124971
0.607248 0.214588 0.00917067
0.617304 0.211444 0.00698863
0.627436 0.207782 0.00537118
0.637217 0.204273 0.00428778
0.647272 0.200229 0.00396735
0.657389 0.196399 0.00389105
0.667475 0.191943 0.00411994
0.678157 0.18706 0.00444038
0.689006 0.181613 0.004654
0.701701 0.175128 0.00534066
0.715709 0.166583 0.0055848
0.73257 0.155688 0.00691234
0.751583 0.142535 0.0104829
0.770916 0.131304 0.020325
0.787793 0.128328 0.0392157
0.165118 0.360891 0.182757
0.162753 0.330861 0.123461
0.166812 0.302937 0.0726635
0.184283 0.291783 0.0464485
0.211612 0.293736 0.0352178
0.241032 0.300099 0.0280919
0.275486 0.304692 0.0230869
0.319585 0.305837 0.0253147
0.367208 0.304479 0.0335088
0.415091 0.3019 0.0434424
0.459037 0.298009 0.0524453
0.495674 0.293294 0.0600595
0.526162 0.28748 0.0673991
0.549691 0.2813 0.0722515
0.567758 0.274998 0.0730144
0.582361 0.268971 0.0698253
0.594217 0.263905 0.06392
0.604501 0.259846 0.0565957
0.613809 0.255955 0.0501259
0.622721 0.252552 0.0441444
0.631769 0.248905 0.0396124
0.640818 0.245792 0.0363622
0.649668 0.242054 0.0336461
0.658885 0.238224 0.0315709
0.66804 0.234119 0.0295567
0.677852 0.230106 0.0284428
0.688441 0.225605 0.0274968
0.700084 0.219745 0.0261845
0.713542 0.212543 0.0249485
0.729992 0.203494 0.0250553
0.748287 0.191562 0.0272984
0.767315 0.18056 0.0357366
0.783932 0.17557 0.0530861
0.174517 0.397818 0.21796
0.172915 0.373312 0.162905
0.175921 0.347951 0.111788
0.1906 0.334417 0.0818036
0.215808 0.334035 0.068574
0.243091 0.339101 0.0595865
0.274006 0.344717 0.0514839
0.312383 0.34844 0.0470283
0.356863 0.348821 0.0480964
0.40473 0.347051 0.0557717
0.45098 0.343984 0.0649882
0.490349 0.3402 0.0740978
0.522301 0.33611 0.0822003
0.547677 0.330617 0.0893873
0.568551 0.324361 0.0952926
0.585794 0.317891 0.0995346
0.600198 0.311299 0.100511
0.612634 0.305165 0.0991836
0.623041 0.300114 0.095613
0.63267 0.296101 0.09131
0.641337 0.292134 0.0855879
0.649287 0.288518 0.0801404
0.65687 0.285344 0.0748913
0.664652 0.282261 0.0704204
0.672541 0.278981 0.0658732
0.681071 0.275212 0.062211
0.690303 0.271305 0.0585641
0.701213 0.266468 0.0554513
0.713863 0.261173 0.0526589
0.728771 0.252888 0.0491951
0.745769 0.242496 0.048127
0.763912 0.23241 0.0533761
0.780819 0.226734 0.0687572
0.184512 0.429694 0.250553
0.183551 0.411185 0.201221
0.18558 0.38996 0.151156
0.19791 0.376226 0.118807
0.22118 0.373693 0.103212
0.247272 0.377539 0.0943465
0.276814 0.382498 0.0850996
0.31017 0.386984 0.076463
0.348943 0.389624 0.0714275
0.3935 0.389914 0.0725567
0.440421 0.387839 0.078996
0.481605 0.384817 0.0879225
0.51545 0.381186 0.0968795
0.542504 0.377371 0.104448
0.56495 0.373007 0.111513
0.583688 0.367697 0.117433
0.600305 0.361257 0.12221
0.615076 0.354498 0.12575
0.628199 0.348165 0.127794
0.639689 0.342153 0.127794
0.649485 0.336858 0.12636
0.658488 0.332296 0.124422
0.666621 0.329 0.121324
0.67425 0.325521 0.117174
0.681788 0.322438 0.112871
0.689387 0.319539 0.107576
0.697887 0.31664 0.102754
0.707042 0.313405 0.0968948
0.718288 0.309224 0.0912032
0.731411 0.303502 0.0848859
0.746944 0.296284 0.0802625
0.763455 0.28806 0.0805066
0.77911 0.282673 0.0903792
0.195041 0.457923 0.281437
0.194949 0.444511 0.238056
0.196414 0.427939 0.191608
0.206394 0.415717 0.157275
0.227466 0.412009 0.140459
0.252506 0.41387 0.130526
0.282399 0.417578 0.120943
0.313008 0.421653 0.110292
0.346456 0.424949 0.10161
0.385382 0.426444 0.096376
0.429435 0.426139 0.096849
0.471199 0.424094 0.103105
0.506691 0.421439 0.111208
0.535851 0.418799 0.119448
0.559091 0.415579 0.12697
0.579202 0.411978 0.133349
0.59675 0.407675 0.13875
0.612589 0.402518 0.142962
0.627207 0.396353 0.146853
0.64062 0.39028 0.150668
0.652201 0.384573 0.153521
0.662486 0.37879 0.154803
0.672053 0.374044 0.155657
0.680766 0.369833 0.155459
0.689708 0.36643 0.155169
0.6981 0.363088 0.152972
0.707057 0.360189 0.150072
0.716487 0.357259 0.146059
0.727062 0.354833 0.140642
0.739254 0.351461 0.133989
0.752987 0.347204 0.126574
0.767559 0.342214 0.122072
0.781292 0.338491 0.125566
0.205173 0.481956 0.308919
0.206088 0.472694 0.271778
0.207889 0.460975 0.230243
0.216144 0.450858 0.197177
0.233906 0.446326 0.177874
0.259663 0.446891 0.167575
0.289708 0.449577 0.157992
0.318395 0.452506 0.146868
0.34847 0.455619 0.136095
0.382742 0.457969 0.126864
0.421714 0.459312 0.122118
0.461067 0.458732 0.122728
0.497261 0.45684 0.12755
0.527565 0.454383 0.134874
0.5523 0.452445 0.142657
0.57322 0.449897 0.149203
0.591562 0.447257 0.155184
0.60827 0.443717 0.159915
0.62388 0.439796 0.16408
0.637705 0.434974 0.167803
0.650095 0.429633 0.17142
0.661555 0.424353 0.174655
0.672114 0.419608 0.178271
0.682445 0.415091 0.181369
0.692149 0.410956 0.18378
0.702235 0.407187 0.185657
0.712428 0.404486 0.187045
0.723064 0.401755 0.18764
0.734997 0.398962 0.187228
0.748058 0.396536 0.184802
0.76228 0.39411 0.180957
0.776028 0.39173 0.176837
0.788449 0.390188 0.176287
0.215534 0.502708 0.334325
0.21735 0.496788 0.302846
0.219409 0.488533 0.26566
0.22594 0.481178 0.234607
0.241474 0.477317 0.215991
0.267552 0.476738 0.20502
0.297002 0.478065 0.195331
0.325444 0.480247 0.184543
0.353552 0.48304 0.173571
0.384176 0.485588 0.162249
0.418311 0.487556 0.153613
0.453849 0.488258 0.148943
0.488487 0.487617 0.149187
0.518822 0.486076 0.153323
0.544488 0.48423 0.159594
0.565835 0.482307 0.166262
0.584985 0.480735 0.172305
0.602487 0.478813 0.1776
0.618814 0.476463 0.181765
0.633631 0.473335 0.185687
0.646677 0.469673 0.189364
0.658625 0.46537 0.192889
0.66949 0.461128 0.196582
0.680079 0.456931 0.200259
0.6907 0.453071 0.204089
0.701549 0.449439 0.208087
0.712734 0.446372 0.212238
0.724651 0.443595 0.215778
0.737438 0.441215 0.218997
0.752026 0.439307 0.222492
0.768032 0.437263 0.225376
0.783627 0.435676 0.227985
0.797452 0.43537 0.231434
0.225544 0.520775 0.358572
0.228046 0.517143 0.331365
0.230793 0.512169 0.299413
0.236378 0.507347 0.271199
0.250248 0.504005 0.25211
0.275883 0.50277 0.240391
0.30457 0.503609 0.231693
0.332921 0.505043 0.22237
0.36025 0.507012 0.211398
0.388312 0.509377 0.200229
0.418936 0.511528 0.189502
0.450568 0.513176 0.181262
0.48188 0.513619 0.177096
0.511299 0.512901 0.176944
0.536965 0.511467 0.180011
0.558709 0.509972 0.185443
0.577951 0.508537 0.190738
0.595819 0.507393 0.196139
0.612573 0.506218 0.200351
0.627985 0.504616 0.204257
0.642115 0.502525 0.208087
0.654582 0.499657 0.211383
0.665873 0.49659 0.215335
0.676997 0.493385 0.219623
0.687663 0.49015 0.223514
0.698665 0.486961 0.227909
0.710002 0.484398 0.232425
0.722347 0.48217 0.237324
0.73611 0.480171 0.243015
0.75172 0.478431 0.249027
0.768429 0.476936 0.255818
0.786145 0.476188 0.265034
0.802182 0.475349 0.274922
0.235279 0.536187 0.380728
0.238849 0.534249 0.357992
0.242344 0.531365 0.330037
0.2477 0.528588 0.304906
0.260899 0.526146 0.286442
0.284382 0.525246 0.275196
0.312047 0.525307 0.266468
0.340215 0.526284 0.257527
0.367453 0.528038 0.248249
0.394644 0.530175 0.23801
0.42269 0.53225 0.22681
0.450614 0.533989 0.216876
0.478691 0.53492 0.209216
0.505837 0.535103 0.205173
0.530495 0.53434 0.204776
0.55198 0.533272 0.207568
0.571145 0.532052 0.211429
0.588739 0.531044 0.216083
0.605386 0.530373 0.220249
0.621347 0.529442 0.224002
0.636286 0.528542 0.227741
0.649714 0.527413 0.231327
0.661616 0.525444 0.235309
0.672801 0.523186 0.23917
0.683894 0.520821 0.243397
0.695262 0.518685 0.24831
0.706706 0.51667 0.252918
0.719203 0.514992 0.258442
0.732921 0.51342 0.263905
0.748928 0.512428 0.271183
0.766125 0.511559 0.279683
0.784802 0.510552 0.291142
0.80235 0.509743 0.305211
0.245274 0.549432 0.39881
0.249622 0.548638 0.381262
0.254551 0.547356 0.357794
0.260533 0.54609 0.335698
0.272312 0.544869 0.318425
0.292912 0.544121 0.307485
0.319326 0.544289 0.299321
0.347189 0.545052 0.291737
0.374182 0.546288 0.283406
0.401007 0.54786 0.273884
0.4271 0.549859 0.263325
0.452537 0.551919 0.253178
0.477745 0.553338 0.243992
0.502007 0.554101 0.237049
0.5252 0.553979 0.233021
0.546014 0.553368 0.232624
0.565011 0.552499 0.23476
0.582147 0.551522 0.238041
0.598657 0.550637 0.241474
0.614603 0.55021 0.245258
0.629908 0.549737 0.248417
0.643793 0.549203 0.251545
0.656504 0.548379 0.25536
0.668513 0.547189 0.259419
0.680186 0.545647 0.263722
0.691707 0.54406 0.26865
0.703395 0.542657 0.273548
0.716075 0.541695 0.279423
0.729809 0.540475 0.285344
0.745739 0.539757 0.292271
0.763165 0.539208 0.300877
0.782238 0.538582 0.312734
0.800992 0.537697 0.328283
0.255375 0.561028 0.415518
0.260594 0.561288 0.400275
0.266773 0.561166 0.382422
0.273121 0.561196 0.363684
0.283604 0.560906 0.348226
0.301961 0.560784 0.337881
0.326177 0.56083 0.329961
0.353262 0.561349 0.322972
0.380224 0.562463 0.315587
0.407141 0.563958 0.307576
0.432135 0.565682 0.298634
0.455497 0.567681 0.288808
0.478187 0.569406 0.278889
0.500298 0.570718 0.270481
0.521569 0.571267 0.264225
0.541329 0.570947 0.260349
0.559289 0.570321 0.259648
0.576257 0.569833 0.261448
0.592081 0.56907 0.263981
0.607874 0.568429 0.267018
0.623102 0.56791 0.269627
0.637537 0.567803 0.272831
0.651026 0.56759 0.276127
0.663645 0.567132 0.279561
0.675685 0.566384 0.283742
0.687495 0.565347 0.28806
0.699809 0.564462 0.293553
0.712642 0.563729 0.29929
0.726589 0.56289 0.305653
0.742428 0.562722 0.313115
0.760311 0.562356 0.321675
0.77937 0.561868 0.33286
0.798367 0.56083 0.347402
0.265721 0.57145 0.431144
0.271595 0.572473 0.418082
0.278325 0.573281 0.402792
0.285145 0.574319 0.3879
0.29482 0.574899 0.375692
0.310719 0.575326 0.366155
0.332937 0.575479 0.358419
0.358312 0.575998 0.351949
0.385046 0.577081 0.345541
0.411994 0.578225 0.338613
0.4365 0.579828 0.330465
0.458915 0.581765 0.321752
0.479835 0.58378 0.312886
0.49958 0.585336 0.303853
0.519036 0.586496 0.296223
0.537316 0.58677 0.290028
0.554391 0.586587 0.287068
0.570672 0.586297 0.286519
0.585977 0.585672 0.287068
0.600931 0.585351 0.289021
0.615991 0.584848 0.291493
0.630808 0.584665 0.29424
0.644511 0.584405 0.296834
0.657664 0.584497 0.299916
0.670619 0.584512 0.304006
0.683055 0.583856 0.307774
0.695644 0.583413 0.31284
0.708583 0.582742 0.31812
0.723018 0.582483 0.324895
0.738643 0.582177 0.332265
0.756741 0.582055 0.341054
0.775937 0.581582 0.351797
0.795621 0.580667 0.365972
0.275441 0.580941 0.445762
0.281804 0.582467 0.434669
0.289219 0.584054 0.421836
0.296635 0.585916 0.408865
0.305516 0.587198 0.39794
0.319478 0.588281 0.390005
0.339345 0.588922 0.38381
0.363088 0.589502 0.378546
0.38909 0.590463 0.373114
0.415396 0.591485 0.366888
0.439628 0.593088 0.360082
0.461921 0.594797 0.35256
0.481636 0.596841 0.344503
0.500191 0.598962 0.336355
0.518059 0.600458 0.328099
0.534569 0.601221 0.32076
0.55079 0.60148 0.315526
0.566049 0.601358 0.312535
0.580682 0.601236 0.311894
0.595026 0.601022 0.312383
0.609461 0.600763 0.313832
0.623987 0.60032 0.315557
0.638422 0.600351 0.318181
0.651759 0.60029 0.320882
0.664897 0.60058 0.324147
0.677867 0.600412 0.327459
0.691066 0.60058 0.332326
0.704555 0.600244 0.337163
0.719066 0.600061 0.343282
0.734966 0.59971 0.350286
0.75317 0.599863 0.359487
0.772457 0.59939 0.369924
0.79237 0.598291 0.381888
0.284489 0.589532 0.458732
0.291142 0.591821 0.449943
0.29868 0.593683 0.439002
0.306737 0.596201 0.428199
0.315572 0.598398 0.418891
0.32842 0.600015 0.411658
0.345724 0.601053 0.405753
0.367849 0.601999 0.401022
0.392691 0.602945 0.396323
0.418143 0.604013 0.391287
0.442161 0.605402 0.385534
0.464256 0.60708 0.379782
0.483543 0.609384 0.373999
0.501167 0.611429 0.366262
0.517601 0.613169 0.358587
0.53286 0.614389 0.350881
0.54786 0.61532 0.344472
0.562219 0.615503 0.339498
0.576059 0.615686 0.337026
0.589548 0.615579 0.335882
0.603357 0.615717 0.33637
0.617319 0.615412 0.33727
0.631647 0.615305 0.339254
0.645243 0.615183 0.341497
0.659037 0.615564 0.34435
0.672465 0.615854 0.347585
0.685939 0.615991 0.351385
0.699977 0.616053 0.35584
0.714885 0.616297 0.36144
0.731075 0.616053 0.367987
0.749233 0.615991 0.375372
0.768597 0.615427 0.384878
0.78883 0.614359 0.397436
0.292805 0.597406 0.470924
0.299657 0.600046 0.463828
0.307759 0.602762 0.454932
0.316564 0.605615 0.446052
0.325521 0.608515 0.438071
0.336934 0.610574 0.43154
0.352758 0.61239 0.426886
0.372549 0.61355 0.422415
0.395605 0.614633 0.417975
0.420203 0.615854 0.41387
0.443992 0.617365 0.409049
0.465812 0.618875 0.403754
0.484993 0.620706 0.398123
0.501976 0.622843 0.392126
0.51783 0.625101 0.386252
0.532052 0.626673 0.379553
0.545678 0.627695 0.372793
0.55906 0.628428 0.367529
0.572183 0.628733 0.363119
0.585107 0.629145 0.361135
0.597726 0.629221 0.359899
0.611292 0.629328 0.359884
0.625025 0.629267 0.360708
0.639094 0.629343 0.362554
0.652827 0.629267 0.364767
0.666728 0.629557 0.367605
0.680644 0.629908 0.370489
0.695003 0.630488 0.374182
0.710109 0.630747 0.378195
0.726986 0.630976 0.383719
0.745266 0.630884 0.390646
0.764996 0.630198 0.399924
0.78529 0.62887 0.412421
0.300908 0.604913 0.483055
0.308034 0.608042 0.477226
0.316548 0.611078 0.470008
0.32578 0.61442 0.462623
0.334951 0.617624 0.455985
0.345495 0.620645 0.45069
0.359319 0.622538 0.446097
0.377508 0.624155 0.442512
0.398901 0.625452 0.439094
0.421942 0.626856 0.435279
0.445014 0.628168 0.430976
0.466407 0.629664 0.426398
0.485954 0.631601 0.421653
0.50312 0.63357 0.416556
0.517906 0.635599 0.410986
0.531456 0.637461 0.404669
0.544411 0.639078 0.398703
0.556786 0.64004 0.392966
0.569162 0.640742 0.388052
0.581079 0.641108 0.384619
0.593271 0.641581 0.382437
0.605722 0.641917 0.381369
0.618891 0.642222 0.381231
0.632502 0.642145 0.381674
0.646296 0.642252 0.38323
0.660273 0.642435 0.38529
0.674739 0.642725 0.388052
0.689357 0.643091 0.391363
0.705272 0.643793 0.395224
0.722393 0.644358 0.400198
0.741039 0.644419 0.406088
0.761471 0.643824 0.414755
0.781674 0.642054 0.426657
0.308385 0.611765 0.494362
0.31606 0.615457 0.490181
0.324788 0.618753 0.484413
0.33463 0.622675 0.478691
0.34403 0.626215 0.473075
0.353918 0.629328 0.468147
0.366522 0.631846 0.464378
0.382376 0.633738 0.461372
0.402106 0.635233 0.458473
0.423957 0.636881 0.455299
0.445701 0.638331 0.45182
0.466941 0.639887 0.448051
0.486213 0.641489 0.443763
0.503304 0.643351 0.439185
0.51838 0.645457 0.434943
0.531411 0.647562 0.429541
0.543374 0.64921 0.423651
0.555215 0.650584 0.417975
0.566567 0.651469 0.412482
0.577996 0.652369 0.408667
0.589471 0.65275 0.40499
0.601205 0.653376 0.402823
0.613382 0.653788 0.401526
0.626551 0.654322 0.401389
0.639933 0.654582 0.401862
0.653651 0.654566 0.403174
0.66807 0.654841 0.405615
0.683162 0.655207 0.408576
0.699306 0.655711 0.412253
0.717159 0.656596 0.416617
0.736706 0.657053 0.422156
0.757839 0.656703 0.43006
0.778637 0.654841 0.440711
0.31606 0.618555 0.505547
0.323964 0.622446 0.5028
0.332815 0.626032 0.498497
0.342687 0.629816 0.49395
0.352468 0.633921 0.489311
0.362509 0.637354 0.485527
0.373831 0.640146 0.481941
0.388006 0.64242 0.479438
0.405554 0.644205 0.477119
0.425513 0.645945 0.474586
0.446403 0.647669 0.471855
0.466682 0.649348 0.468437
0.485817 0.650874 0.464652
0.503212 0.652811 0.46099
0.518227 0.654658 0.456977
0.531273 0.656733 0.45272
0.542702 0.658564 0.447715
0.553796 0.660334 0.442283
0.564614 0.661662 0.437156
0.575357 0.662486 0.432654
0.58613 0.66331 0.428641
0.597192 0.664225 0.425681
0.608743 0.664668 0.423102
0.620905 0.665354 0.421592
0.633356 0.665782 0.42092
0.646723 0.6663 0.421576
0.6607 0.666438 0.423087
0.676265 0.666697 0.425666
0.692592 0.667124 0.429191
0.711162 0.667872 0.43328
0.731823 0.668849 0.438468
0.753643 0.66891 0.445319
0.775204 0.667094 0.454917
0.323873 0.625193 0.516426
0.331456 0.628855 0.514534
0.34023 0.632532 0.511711
0.350362 0.63653 0.508354
0.360464 0.640803 0.505013
0.370535 0.64448 0.502144
0.381064 0.647562 0.499153
0.394095 0.650309 0.497368
0.409415 0.652369 0.495277
0.427283 0.654231 0.4934
0.44651 0.656046 0.491142
0.466331 0.657954 0.488823
0.485023 0.659831 0.485588
0.50219 0.661601 0.48191
0.517555 0.66334 0.478492
0.530648 0.665354 0.474739
0.542229 0.667491 0.470832
0.552895 0.66923 0.465919
0.563226 0.670939 0.461234
0.573159 0.67216 0.456352
0.58323 0.673289 0.452445
0.593637 0.67393 0.448524
0.604456 0.674769 0.44535
0.615656 0.675608 0.442786
0.627863 0.676371 0.441047
0.640223 0.677043 0.44036
0.653422 0.677577 0.440787
0.668467 0.678096 0.442771
0.68513 0.678386 0.445686
0.704295 0.678935 0.449653
0.725795 0.679911 0.454673
0.748806 0.680323 0.460914
0.771893 0.67921 0.470344
0.331594 0.631449 0.527337
0.338704 0.634852 0.526253
0.347417 0.638651 0.524376
0.35761 0.642741 0.522103
0.367803 0.646922 0.519722
0.378317 0.651011 0.517815
0.388663 0.654353 0.516045
0.400168 0.657099 0.514061
0.413855 0.659663 0.512901
0.429526 0.661921 0.511681
0.447211 0.664088 0.510216
0.46566 0.666102 0.508293
0.483696 0.668177 0.505821
0.500923 0.670085 0.503273
0.516289 0.672023 0.500221
0.529503 0.673961 0.497093
0.541573 0.676005 0.494041
0.55198 0.677913 0.489845
0.561913 0.679759 0.485801
0.571405 0.681346 0.481407
0.580804 0.682536 0.477043
0.590356 0.683619 0.472694
0.600412 0.684718 0.469093
0.611002 0.685466 0.465202
0.622385 0.686412 0.46247
0.634073 0.687236 0.460777
0.646586 0.688304 0.460243
0.660273 0.688991 0.460563
0.676402 0.689693 0.462501
0.696086 0.690166 0.466163
0.718685 0.691127 0.471611
0.743282 0.691829 0.478019
0.767422 0.69099 0.486549
0.339818 0.637659 0.538705
0.34609 0.640726 0.538018
0.354406 0.64448 0.53698
0.364584 0.648692 0.535866
0.375357 0.653071 0.534768
0.386053 0.657176 0.533669
0.396414 0.660655 0.532372
0.406577 0.663691 0.531167
0.418616 0.666697 0.530739
