presets/Hgold柔.cube
TITLE "Generated by Resolve"
LUT_3D_SIZE 5
0.0974594 0.110307 0.0951553
0.461509 0.0912795 0.0702373
0.63328 0.111482 0.105699
0.717189 0.114565 0.127031
0.839429 0.117891 0.179919
0.109117 0.433371 0.308812
0.401312 0.377035 0.165377
0.599695 0.351705 0.185718
0.693401 0.323781 0.164401
0.853864 0.264027 0.199878
0.25835 0.569406 0.464439
0.399344 0.559045 0.38352
0.573724 0.563561 0.356466
0.685649 0.558587 0.365408
0.840269 0.540017 0.406867
0.342901 0.624735 0.5355
0.417365 0.64741 0.516213
0.544106 0.6645 0.499413
0.646967 0.672786 0.482628
0.80531 0.677409 0.496132
0.400519 0.673945 0.601984
0.442573 0.699138 0.615259
0.512566 0.738338 0.62884
0.597238 0.768643 0.636316
0.702251 0.793774 0.622248
0.0889601 0.0966049 0.315908
0.420218 0.104204 0.333043
0.604883 0.146304 0.374334
0.70724 0.146014 0.379309
0.835172 0.136431 0.406088
0.0579843 0.415747 0.470878
0.317494 0.365484 0.379171
0.567697 0.343847 0.368109
0.685924 0.303059 0.355673
0.894713 0.201587 0.345464
0.185672 0.573541 0.542458
0.338308 0.55761 0.490318
0.549523 0.564706 0.47097
0.686244 0.554742 0.47602
0.846021 0.524926 0.454948
0.30428 0.628397 0.58378
0.375982 0.65272 0.575555
0.524193 0.684794 0.57409
0.65774 0.700694 0.551354
0.85774 0.695888 0.548119
0.390539 0.676997 0.629847
0.430121 0.700893 0.639078
0.492515 0.747723 0.665843
0.582803 0.802258 0.682216
0.721111 0.827802 0.665568
0.0968185 0.0846876 0.471366
0.390799 0.0982986 0.502373
0.603876 0.13753 0.555489
0.712657 0.172198 0.568566
0.838239 0.187121 0.573846
0.00895705 0.324742 0.555566
0.273457 0.348013 0.549157
0.53753 0.363668 0.545663
0.657816 0.357839 0.546304
0.83418 0.271977 0.544106
0.132158 0.572549 0.619959
0.303548 0.557061 0.599496
0.521248 0.570642 0.593652
0.659236 0.561151 0.588052
0.813626 0.49836 0.559884
0.256199 0.633036 0.633082
0.330526 0.655436 0.637263
0.503059 0.684581 0.649927
0.654368 0.705623 0.649134
0.844053 0.69041 0.651667
0.370474 0.678889 0.658793
0.416007 0.704723 0.674769
0.484016 0.757305 0.698894
0.569299 0.827085 0.735195
0.741253 0.869108 0.736217
0.0925002 0.084947 0.561517
0.35169 0.10161 0.590433
0.586755 0.137636 0.647974
0.722652 0.154406 0.674174
0.841138 0.2215 0.674205
0.000915541 0.267689 0.635447
0.164477 0.285817 0.646448
0.512749 0.333394 0.648371
0.662684 0.338796 0.656977
0.821134 0.314824 0.653742
0.0575418 0.563851 0.684871
0.199405 0.549874 0.689433
0.500435 0.564813 0.68455
0.647883 0.571237 0.688579
0.810254 0.524224 0.672404
0.252186 0.6336 0.681102
0.29836 0.655238 0.702907
0.485283 0.681376 0.71899
0.641077 0.70927 0.727474
0.831937 0.693736 0.724559
0.362203 0.683314 0.682673
0.395193 0.706065 0.697215
0.48043 0.776806 0.744671
0.591775 0.846372 0.787808
0.756878 0.875578 0.793729
0.0907149 0.0863203 0.632136
0.250843 0.0886397 0.646494
0.527565 0.171832 0.720531
0.683665 0.188418 0.751629
0.795316 0.255665 0.755947
0.0398108 0.165774 0.724697
0.0694743 0.143404 0.706523
0.427832 0.192782 0.74435
0.664393 0.242985 0.772381
0.786191 0.308751 0.758556
0 0.545373 0.779217
0.0237583 0.542428 0.80412
0.412253 0.510964 0.790051
0.6094 0.508309 0.791485
0.786969 0.497642 0.785351
0.127306 0.636759 0.760815
0.115404 0.646922 0.797162
0.39884 0.647471 0.81709
0.614282 0.687907 0.826734
0.794491 0.692042 0.829862
0.364111 0.696757 0.738827
0.389975 0.716808 0.757198
0.461723 0.769879 0.802197
0.595453 0.839582 0.856794
0.758022 0.860838 0.861631
