presets/Hgold暖.cube
TITLE "XH Copyright"
# XH Copyright
# G200-3
# 20250101
LUT_3D_SIZE 5
0.00292973 0.0197757 0.0661479
0.430961 0.0087892 0.0408637
0.633143 0.0351415 0.0742046
0.745007 0.0419776 0.0931563
0.858763 0.0446021 0.133791
0.0141299 0.358724 0.196353
0.346181 0.293294 0.088304
0.618418 0.263493 0.112505
0.757412 0.214252 0.102419
0.909789 0.129915 0.127611
0.176547 0.563622 0.368338
0.338903 0.542245 0.26482
0.609628 0.549035 0.245304
0.788022 0.527672 0.258686
0.958282 0.487984 0.307881
0.321935 0.669184 0.490425
0.399573 0.693736 0.458518
0.583047 0.71194 0.433707
0.756786 0.71902 0.411185
0.93434 0.726833 0.434791
0.414298 0.737682 0.589334
0.467643 0.765438 0.603052
0.558434 0.804456 0.618494
0.697719 0.837766 0.619242
0.842496 0.860807 0.603265
0 0.0087892 0.241306
0.391653 0.0237736 0.246784
0.595621 0.0677653 0.263966
0.730571 0.0719463 0.255802
0.85214 0.0591745 0.263691
0 0.339864 0.359991
0.237888 0.280858 0.264332
0.584955 0.255528 0.251102
0.750179 0.194034 0.226596
0.914809 0.0960098 0.2103
0.108095 0.559838 0.464714
0.246311 0.538582 0.381765
0.574075 0.547402 0.356207
0.79057 0.520027 0.375738
0.948165 0.473548 0.3346
0.285481 0.670787 0.54699
0.360189 0.698695 0.536446
0.546181 0.730816 0.524834
0.767376 0.743465 0.487953
0.98999 0.740459 0.499748
0.408301 0.744915 0.615961
0.45742 0.768963 0.629374
0.540841 0.813092 0.654475
0.681086 0.86833 0.663294
0.862379 0.892149 0.642939
0 0 0.393164
0.354376 0.0221256 0.42443
0.579873 0.0667887 0.450309
0.718639 0.111406 0.44419
0.855802 0.0995956 0.438102
0 0.239551 0.473213
0.190784 0.252247 0.466606
0.546319 0.271687 0.46598
0.73373 0.258732 0.450919
0.906523 0.151843 0.427314
0.0419776 0.546868 0.570901
0.213916 0.53341 0.545312
0.528786 0.557961 0.546029
0.76228 0.532509 0.526024
0.943572 0.433539 0.484398
0.230076 0.673533 0.606302
0.306889 0.702037 0.608988
0.516579 0.734142 0.618753
0.765118 0.750317 0.601617
0.997086 0.73492 0.615671
0.388983 0.747753 0.65124
0.440757 0.772549 0.665599
0.530221 0.820768 0.686168
0.660273 0.895872 0.716091
0.884382 0.933318 0.702953
0 3.0518e-05 0.516136
0.291463 0.0137026 0.554818
0.545785 0.0560769 0.597498
0.727962 0.0807202 0.612451
0.874952 0.136995 0.616983
0 0.143984 0.588159
0.0834058 0.154208 0.595209
0.480507 0.227878 0.624964
0.731044 0.24004 0.629664
0.906584 0.219989 0.630137
0 0.511376 0.652186
0.0954299 0.505714 0.657755
0.494881 0.54406 0.672206
0.750042 0.549569 0.671748
0.940017 0.481529 0.656565
0.212726 0.673335 0.668376
0.259739 0.699687 0.687587
0.486122 0.731594 0.705104
0.742885 0.75845 0.698116
0.975708 0.733684 0.699275
0.367147 0.750408 0.680797
0.412634 0.774639 0.694224
0.520653 0.836164 0.729107
0.684108 0.915999 0.766979
0.905165 0.94966 0.763806
0 0 0.613886
0.164096 0 0.630014
0.454795 0.0838636 0.676341
0.681361 0.113313 0.702327
0.848875 0.14992 0.719036
0 0.0287633 0.676219
0 0.0186618 0.664012
0.311833 0.0617685 0.690028
0.681254 0.151629 0.729686
0.879362 0.205097 0.743587
0 0.468559 0.756374
0 0.467216 0.766873
0.2907 0.436591 0.772839
0.680308 0.428885 0.782361
0.920256 0.441794 0.779904
0.0466163 0.663325 0.738628
0.0131991 0.677378 0.771832
0.317357 0.693462 0.805432
0.705882 0.736095 0.82359
0.947951 0.734493 0.818463
0.369131 0.763577 0.734173
0.40914 0.787274 0.752804
0.495552 0.837751 0.790722
0.688914 0.912978 0.840864
0.907439 0.936721 0.83357
