presets/Hgold粉.cube
TITLE "Generated by Resolve"
LUT_3D_SIZE 9
0.112001 0.0252079 0
0.260639 0.019501 0
0.405585 0.0167697 0
0.526513 0.0125429 0
0.589105 0.00926223 0
0.624735 0.00627146 0
0.656672 0.00326543 0
0.69427 0 0
0.754376 0.00132753 0.0246738
0.126665 0.177539 0.0178988
0.220829 0.13695 0
0.365743 0.127947 0
0.499413 0.114137 0
0.580987 0.0987259 0
0.628595 0.0838483 0
0.671763 0.0661021 0
0.72137 0.0408942 0
0.790204 0.0251011 0.0027924
0.165118 0.360891 0.182757
0.211612 0.293736 0.0352178
0.367208 0.304479 0.0335088
0.526162 0.28748 0.0673991
0.594217 0.263905 0.06392
0.631769 0.248905 0.0396124
0.66804 0.234119 0.0295567
0.713542 0.212543 0.0249485
0.783932 0.17557 0.0530861
0.205173 0.481956 0.308919
0.233906 0.446326 0.177874
0.34847 0.455619 0.136095
0.497261 0.45684 0.12755
0.591562 0.447257 0.155184
0.650095 0.429633 0.17142
0.692149 0.410956 0.18378
0.734997 0.398962 0.187228
0.788449 0.390188 0.176287
0.245274 0.549432 0.39881
0.272312 0.544869 0.318425
0.374182 0.546288 0.283406
0.477745 0.553338 0.243992
0.565011 0.552499 0.23476
0.629908 0.549737 0.248417
0.680186 0.545647 0.263722
0.729809 0.540475 0.285344
0.800992 0.537697 0.328283
0.284489 0.589532 0.458732
0.315572 0.598398 0.418891
0.392691 0.602945 0.396323
0.483543 0.609384 0.373999
0.54786 0.61532 0.344472
0.603357 0.615717 0.33637
0.659037 0.615564 0.34435
0.714885 0.616297 0.36144
0.78883 0.614359 0.397436
0.31606 0.618555 0.505547
0.352468 0.633921 0.489311
0.405554 0.644205 0.477119
0.485817 0.650874 0.464652
0.542702 0.658564 0.447715
0.58613 0.66331 0.428641
0.633356 0.665782 0.42092
0.692592 0.667124 0.429191
0.775204 0.667094 0.454917
0.348424 0.643763 0.550484
0.38265 0.658885 0.549767
0.42414 0.673167 0.548486
0.480842 0.684215 0.546822
0.537713 0.693324 0.540078
0.576867 0.701534 0.530327
0.612787 0.70724 0.515206
0.659693 0.712444 0.504555
0.754818 0.716777 0.522377
0.388479 0.67216 0.604364
0.408301 0.680308 0.610147
0.44361 0.695521 0.62182
0.479194 0.711772 0.62977
0.519432 0.727886 0.636088
0.556359 0.740932 0.639109
0.590707 0.750912 0.641047
0.626688 0.759472 0.634455
0.683406 0.770611 0.618845
0.100786 0.01561 0.0920729
0.242039 0.0235447 0.095079
0.374075 0.0291142 0.095964
0.503227 0.0284581 0.103639
0.575372 0.0258793 0.10663
0.614893 0.0230869 0.108309
0.64976 0.0191806 0.112993
0.688106 0.0136263 0.122667
0.746258 0.00642405 0.141634
0.113863 0.172915 0.169329
0.17995 0.130053 0.0749371
0.327199 0.122194 0.0610819
0.486732 0.101961 0.0521096
0.576562 0.0817578 0.0442206
0.624643 0.0640879 0.0384985
0.668147 0.0460975 0.0345922
0.718776 0.0234836 0.0350042
0.786221 0.0164034 0.0768139
0.145144 0.356252 0.300298
0.177249 0.283024 0.157717
0.320226 0.289723 0.143069
0.490974 0.274266 0.152422
0.569848 0.257984 0.12076
0.617197 0.239277 0.111559
0.660792 0.21796 0.106142
0.712093 0.18883 0.0980392
0.797421 0.129946 0.108003
0.184588 0.478202 0.392538
0.200549 0.442084 0.279408
0.308507 0.443046 0.239933
0.468681 0.444465 0.217441
0.579156 0.43209 0.24213
0.637781 0.418479 0.253391
0.676539 0.407691 0.248264
0.717494 0.397177 0.224994
0.787671 0.363684 0.184436
0.227329 0.54789 0.455848
0.242741 0.544671 0.396368
0.327962 0.543999 0.357839
0.450507 0.550103 0.321065
0.554376 0.550347 0.299351
0.628275 0.546212 0.312673
0.682963 0.541497 0.325216
0.737377 0.537682 0.339071
0.815305 0.532403 0.35819
0.265202 0.589395 0.503044
0.293385 0.599252 0.476631
0.345083 0.607294 0.45005
0.456245 0.614725 0.431128
0.538079 0.623377 0.399283
0.603098 0.624582 0.382116
0.668818 0.623194 0.387961
0.732006 0.622721 0.401144
0.810498 0.618555 0.425162
0.299245 0.62118 0.541817
0.333455 0.634455 0.535393
0.374151 0.649699 0.525856
0.45037 0.663874 0.518532
0.533181 0.67512 0.503929
0.585702 0.681743 0.478264
0.641901 0.683101 0.460624
0.710903 0.681285 0.464576
0.796094 0.676051 0.484276
0.336645 0.647852 0.578546
0.367651 0.659144 0.581506
0.40708 0.674937 0.585229
0.457099 0.693416 0.589273
0.520806 0.71043 0.588479
0.573953 0.720638 0.578988
0.616907 0.726375 0.559106
0.668864 0.729641 0.537667
0.773022 0.730617 0.551125
0.386252 0.67422 0.61941
0.403616 0.681727 0.624369
0.435782 0.696345 0.63743
0.471122 0.71284 0.650004
0.512154 0.73283 0.658427
0.549584 0.751278 0.664729
0.588159 0.764797 0.668391
0.629709 0.773373 0.664805
0.692805 0.786419 0.650782
0.102724 0.010193 0.228763
0.230625 0.0268254 0.242542
0.359167 0.0313878 0.247745
0.484169 0.0416419 0.250126
0.561547 0.0449683 0.253285
0.605097 0.0408942 0.249912
0.64303 0.0348669 0.247196
0.687358 0.0271458 0.252491
0.750149 0.0216678 0.272374
0.0953384 0.135317 0.278416
0.165042 0.118242 0.229129
0.296986 0.124071 0.224262
0.458625 0.124041 0.217884
0.560021 0.11458 0.213535
0.61117 0.0988022 0.205249
0.657115 0.0751049 0.19295
0.712032 0.0381628 0.180865
0.776059 0.023682 0.214847
0.132692 0.338125 0.402136
0.168338 0.279133 0.308965
0.288411 0.292226 0.291905
0.459495 0.283635 0.279805
0.559396 0.264225 0.269108
0.6103 0.243488 0.257908
0.656352 0.217258 0.244038
0.711315 0.177035 0.224933
0.799405 0.101595 0.200717
0.168704 0.472724 0.455573
0.183673 0.440238 0.379583
0.28809 0.443076 0.363806
0.448249 0.449195 0.352819
0.560739 0.439689 0.36582
0.60827 0.430838 0.34403
0.650187 0.418524 0.325856
0.701717 0.396109 0.305669
0.790814 0.325994 0.266529
0.208072 0.546059 0.500908
0.224796 0.54342 0.456641
0.307668 0.54287 0.438849
0.439216 0.550118 0.423941
0.544457 0.553048 0.408408
0.616892 0.548852 0.418357
0.671153 0.543938 0.423224
0.725902 0.538994 0.42533
0.802792 0.52372 0.39559
0.243595 0.588922 0.541955
0.274479 0.600534 0.521294
0.325307 0.607294 0.50724
0.44329 0.614374 0.498238
0.533852 0.623972 0.475395
0.598199 0.626322 0.461402
0.664744 0.625055 0.465904
0.729564 0.624018 0.474281
0.819806 0.61651 0.478492
0.281559 0.621347 0.575296
0.318837 0.637217 0.569268
0.35613 0.650538 0.566598
0.431876 0.664698 0.567285
0.526207 0.678203 0.558022
0.584024 0.687419 0.538537
0.642847 0.690532 0.520836
0.719356 0.689815 0.525322
0.814206 0.683436 0.534234
0.322744 0.6486 0.6065
0.357473 0.661601 0.608927
0.39472 0.676265 0.613565
0.439582 0.695598 0.625971
0.503746 0.720287 0.635233
0.565133 0.740978 0.636591
0.620905 0.750118 0.62182
0.681102 0.75433 0.593896
0.793759 0.747524 0.596002
0.377279 0.675792 0.643366
0.398886 0.683925 0.648096
0.42974 0.697749 0.655299
0.46302 0.715633 0.670237
0.501671 0.737102 0.685176
0.539742 0.761166 0.694743
0.580484 0.780377 0.700801
0.629618 0.787457 0.692836
0.700191 0.799496 0.675715
0.103853 0 0.346075
0.221454 0.0228733 0.366873
0.346426 0.0274815 0.376196
0.479164 0.0352026 0.38407
0.556756 0.0480507 0.386999
0.599725 0.0584573 0.387594
0.636683 0.0574655 0.387121
0.684092 0.0456092 0.385962
0.749828 0.045716 0.399176
0.0802625 0.0906233 0.375708
0.151553 0.0962387 0.362295
0.27248 0.114931 0.367758
0.440299 0.11928 0.370855
0.548287 0.132036 0.37464
0.601297 0.13286 0.374609
0.646891 0.119417 0.370825
0.70425 0.0842145 0.364584
0.773922 0.0628367 0.376608
0.10901 0.290578 0.469505
0.160555 0.25391 0.433448
0.272297 0.281361 0.427237
0.434607 0.288121 0.42031
0.545754 0.287114 0.415305
0.601602 0.276616 0.410742
0.650431 0.252995 0.403647
0.708064 0.208087 0.389914
0.792508 0.124453 0.356603
0.153307 0.459983 0.522591
0.177752 0.430472 0.481941
0.277836 0.440421 0.472892
0.423163 0.453056 0.463188
0.539422 0.449256 0.454978
0.598093 0.436835 0.449805
0.647318 0.418677 0.441001
0.703975 0.385824 0.426673
0.792721 0.296986 0.391913
0.194034 0.544686 0.555093
0.204471 0.542062 0.525719
0.287846 0.543816 0.513344
0.420966 0.550484 0.508827
0.53431 0.555886 0.502159
0.604547 0.552056 0.510918
0.653269 0.547875 0.501228
0.703197 0.541192 0.482124
0.783215 0.5084 0.448997
0.227527 0.590677 0.582376
0.246891 0.600855 0.571038
0.303624 0.609247 0.560586
0.424765 0.614969 0.560891
0.527352 0.623972 0.551888
0.593576 0.628305 0.542535
0.659113 0.627207 0.548531
0.72163 0.624949 0.554025
0.802533 0.61297 0.539208
0.263416 0.622293 0.607324
0.29485 0.637125 0.608225
0.338247 0.653651 0.60763
0.415808 0.666972 0.612284
0.517311 0.677913 0.613214
0.582696 0.687724 0.601053
0.641764 0.691997 0.588357
0.717754 0.691875 0.59527
0.811444 0.683589 0.600336
0.306004 0.648737 0.633249
0.339223 0.662303 0.640497
0.38204 0.678538 0.646372
0.429648 0.698299 0.655772
0.490913 0.723049 0.673259
0.559289 0.744671 0.679057
0.622019 0.7561 0.672099
0.685771 0.764813 0.654765
0.808209 0.761776 0.663981
0.367483 0.677745 0.665507
0.388556 0.685588 0.671061
0.422522 0.698802 0.678523
0.459556 0.718074 0.689281
0.495171 0.741222 0.706416
0.532464 0.767437 0.723018
0.572168 0.796368 0.738399
0.62884 0.811002 0.739101
0.707561 0.815579 0.714855
0.0985275 0 0.435401
0.208026 0.0103914 0.45626
0.32842 0.0192416 0.468498
0.46949 0.0214694 0.477302
0.559716 0.0294957 0.486259
0.603433 0.0465858 0.488136
0.641703 0.059266 0.490242
0.690211 0.0601358 0.491829
0.749523 0.0799115 0.495872
0.0810559 0.0516518 0.460822
0.13669 0.0628367 0.462425
0.253635 0.093019 0.47216
0.422721 0.105104 0.482719
0.546212 0.119112 0.488579
0.60029 0.140581 0.492241
0.646372 0.145632 0.495674
0.703655 0.122911 0.49546
0.766506 0.110369 0.493294
0.0809949 0.241154 0.527214
0.150408 0.23714 0.517815
0.258457 0.265949 0.518242
0.410605 0.284947 0.515846
0.536202 0.291157 0.516625
0.594659 0.298375 0.518425
0.643763 0.288533 0.51809
0.703731 0.250996 0.515053
0.779019 0.191516 0.496605
0.128847 0.430976 0.575784
0.169482 0.411109 0.5626
0.266819 0.425391 0.559472
0.405875 0.445838 0.553124
0.526864 0.454444 0.550225
0.589517 0.452537 0.547967
0.641779 0.438834 0.54403
0.701366 0.409171 0.538018
0.779995 0.338537 0.51693
0.182437 0.539925 0.606409
0.193713 0.536522 0.597635
0.279271 0.540658 0.592447
0.40679 0.549813 0.588235
0.519509 0.559625 0.582818
0.587259 0.559243 0.578134
0.642817 0.551629 0.574121
0.701503 0.536507 0.56611
0.777264 0.492454 0.543328
0.216953 0.589944 0.626856
0.228855 0.600778 0.625742
0.277974 0.60914 0.622019
0.401831 0.616159 0.620203
0.515129 0.624933 0.618021
0.58584 0.632319 0.614694
0.651316 0.630869 0.623957
0.706615 0.628702 0.613733
0.777493 0.607263 0.585809
0.247349 0.623789 0.641947
0.27158 0.637705 0.646815
0.308263 0.653559 0.65301
0.394263 0.669245 0.659998
0.507973 0.678981 0.662806
0.578195 0.688075 0.661067
0.639612 0.694179 0.654322
0.714427 0.693812 0.664714
0.793454 0.682017 0.657832
0.28838 0.65005 0.658091
0.315969 0.661692 0.666285
0.360037 0.679713 0.678325
0.416312 0.701656 0.692638
0.486488 0.728252 0.70724
0.556558 0.745907 0.717845
0.623346 0.755856 0.716289
0.687861 0.766033 0.707408
0.80354 0.760143 0.720653
0.354757 0.678614 0.682643
0.375479 0.687465 0.690013
0.413504 0.702296 0.701488
0.452659 0.720531 0.713298
0.494774 0.746136 0.727565
0.530465 0.772992 0.747326
0.570825 0.801846 0.765957
0.627832 0.824781 0.77586
0.717708 0.83418 0.761532
0.0926375 0 0.499443
0.198215 0 0.51957
0.309621 0.0159762 0.533135
0.45481 0.01738 0.547158
0.556344 0.0192569 0.559304
0.608331 0.0278935 0.566629
0.647807 0.0499428 0.569635
0.697383 0.0677653 0.576547
0.760967 0.0991226 0.58027
0.083711 0.0218204 0.531106
0.110536 0.024445 0.530526
0.223926 0.0515297 0.544198
0.392981 0.0838788 0.559747
0.539315 0.0964523 0.571969
0.603983 0.114412 0.578271
0.650095 0.141207 0.582116
0.705043 0.144747 0.58851
0.772488 0.136065 0.584833
0.0690929 0.211063 0.582528
0.134112 0.220218 0.582742
0.239353 0.241032 0.58677
0.386389 0.270909 0.588083
0.526421 0.282322 0.593164
0.593301 0.290181 0.596628
0.64155 0.299901 0.598871
0.700343 0.282124 0.603006
0.777401 0.22388 0.590066
0.0978714 0.408576 0.621942
0.143053 0.395575 0.619165
0.246082 0.414572 0.62121
0.389868 0.439109 0.618662
0.515068 0.453376 0.617533
0.584604 0.456641 0.620829
0.636072 0.454765 0.621271
0.696406 0.433127 0.620188
0.773373 0.371374 0.603998
0.170718 0.533257 0.650278
0.177768 0.527169 0.654887
0.262638 0.532677 0.654139
0.392309 0.542885 0.652186
0.509148 0.556954 0.649332
0.579583 0.562966 0.649149
0.63624 0.560174 0.647471
0.697963 0.546944 0.64477
0.770108 0.509102 0.627405
0.215625 0.589639 0.665141
0.222614 0.598688 0.674464
0.269703 0.606821 0.679591
0.392782 0.614221 0.678019
0.506447 0.623926 0.676173
0.575525 0.635142 0.674769
0.638529 0.637644 0.673609
0.701427 0.631144 0.671443
0.773709 0.601709 0.655543
0.246647 0.623606 0.673899
0.265568 0.637385 0.682551
0.294575 0.653895 0.693095
0.370794 0.669551 0.701457
0.497581 0.679576 0.703929
0.571328 0.688914 0.705303
0.634653 0.698085 0.704784
0.708736 0.697185 0.717403
0.777844 0.683345 0.692805
0.286534 0.650706 0.681208
0.306935 0.661967 0.689082
0.341192 0.679408 0.701381
0.396124 0.703777 0.72015
0.483314 0.733623 0.743404
0.560128 0.74786 0.750591
0.623941 0.756054 0.753338
0.689281 0.766827 0.750759
0.798459 0.758572 0.764446
0.345586 0.679423 0.696284
0.363012 0.688151 0.703182
0.398657 0.703441 0.715587
0.448066 0.726665 0.735348
0.494896 0.753918 0.756298
0.536446 0.782116 0.773617
0.576654 0.804959 0.791196
0.63444 0.824094 0.80148
0.72256 0.836957 0.795346
0.0858167 0 0.550088
0.189181 0 0.56817
0.292058 0.0188907 0.581445
0.434516 0.0288701 0.598657
0.544335 0.0271305 0.613504
0.603418 0.0290837 0.626627
0.64889 0.0388342 0.632517
0.696803 0.069688 0.642496
0.763027 0.128847 0.650507
0.085359 0.000900282 0.58732
0.0887922 0 0.582635
0.184192 0.00787366 0.596155
0.347417 0.0487678 0.61735
0.521752 0.069337 0.637491
0.601602 0.0812085 0.649424
0.656092 0.0999161 0.654917
0.707225 0.13518 0.662165
0.777707 0.164065 0.663111
0.0684367 0.185763 0.638376
0.096376 0.187015 0.636774
0.195361 0.19617 0.64268
0.342931 0.22298 0.649683
0.509331 0.251575 0.65861
0.592218 0.257572 0.666835
0.648188 0.265339 0.672175
0.703639 0.279469 0.678279
0.784131 0.248356 0.671397
0.0699931 0.390387 0.671824
0.105547 0.383368 0.673426
0.218616 0.40502 0.67837
0.364889 0.425864 0.679988
0.502098 0.4448 0.680293
0.581109 0.44831 0.684688
0.637858 0.448112 0.687419
0.694469 0.444953 0.689189
0.779522 0.390936 0.679057
0.141787 0.525505 0.689357
0.132433 0.517769 0.702388
0.218112 0.523659 0.705272
0.362127 0.537377 0.70605
0.500694 0.55465 0.704936
0.574273 0.563226 0.704829
0.633585 0.563012 0.707225
0.692882 0.55906 0.708141
0.77406 0.521889 0.69366
0.206561 0.587915 0.700374
0.206195 0.59472 0.71754
0.239963 0.601007 0.729641
0.370153 0.608133 0.730053
0.497948 0.619135 0.728389
0.56936 0.633036 0.728267
0.632547 0.640146 0.730022
0.696559 0.638361 0.730098
0.778317 0.613367 0.719112
0.245762 0.625238 0.704295
0.258686 0.637522 0.717586
0.281895 0.65359 0.736034
0.359213 0.668132 0.748959
0.491173 0.677485 0.749584
0.566522 0.68719 0.750393
0.628305 0.697902 0.751431
0.699031 0.701946 0.75433
0.784466 0.685298 0.746441
0.288792 0.653346 0.707225
0.305425 0.663722 0.715831
0.335836 0.681437 0.730571
0.380468 0.705974 0.751415
0.46923 0.735149 0.774838
0.560342 0.748913 0.783078
0.623575 0.756771 0.785931
0.688685 0.768872 0.789059
0.793103 0.76202 0.796704
0.347097 0.683818 0.71371
0.360632 0.691554 0.720333
0.389136 0.70489 0.731182
0.43537 0.728679 0.750973
0.493675 0.763546 0.783352
0.545754 0.797909 0.814069
0.591653 0.817349 0.826398
0.64622 0.826612 0.831434
0.730556 0.839628 0.82855
0.0854505 0 0.592584
0.167224 0 0.605066
0.267567 0.0163729 0.621424
0.403845 0.0387732 0.641703
0.525872 0.043473 0.661158
0.590524 0.0416571 0.675319
0.639841 0.0420691 0.686809
0.692027 0.0581064 0.697429
0.761013 0.155917 0.714412
0.0852216 0 0.63444
0.0852216 0 0.627436
0.144533 0 0.633036
0.303975 0.0227054 0.659403
0.492866 0.055848 0.687861
0.588968 0.0590677 0.703029
0.65008 0.0649424 0.712612
0.706645 0.0922408 0.720333
0.775601 0.193133 0.731426
0.0737469 0.131945 0.696895
0.0754406 0.119661 0.690211
0.110491 0.106569 0.687221
0.252705 0.113359 0.697383
0.461616 0.161776 0.715389
0.582254 0.177691 0.729686
0.652079 0.185092 0.739345
0.714855 0.206287 0.748119
0.783078 0.268879 0.74284
0.0592813 0.37258 0.731014
0.0697032 0.370764 0.734783
0.156115 0.377737 0.737438
0.299886 0.382574 0.740764
0.470268 0.396567 0.742519
0.572366 0.407736 0.74786
0.641276 0.403845 0.754238
0.70338 0.407385 0.758465
0.780438 0.410681 0.748974
0.0953078 0.51606 0.732982
0.0754101 0.50724 0.755398
0.145342 0.513787 0.761669
0.31078 0.532296 0.76553
0.481559 0.546517 0.766094
0.566705 0.555978 0.765484
0.632364 0.554864 0.768078
0.694392 0.554055 0.769482
0.773968 0.540459 0.759441
0.175219 0.582391 0.737179
0.157183 0.587167 0.760525
0.167041 0.591104 0.782071
0.296574 0.599207 0.785595
0.47219 0.614267 0.785931
0.563561 0.630961 0.785153
0.627573 0.639384 0.785977
0.692805 0.639994 0.788922
0.77673 0.626825 0.779217
0.233982 0.624659 0.738888
0.238666 0.63476 0.75697
0.246662 0.648692 0.784466
0.318486 0.660594 0.804471
0.473274 0.669795 0.806195
0.56054 0.681697 0.806302
0.622492 0.693858 0.805676
0.691585 0.702159 0.810315
0.781628 0.694469 0.803754
0.282292 0.656474 0.737163
0.296727 0.665492 0.748562
0.323659 0.682597 0.768902
0.366903 0.707042 0.798413
0.460517 0.732433 0.825086
0.554879 0.745449 0.830427
0.621088 0.754025 0.830808
0.68394 0.764477 0.832731
0.784268 0.763638 0.833051
0.349203 0.689769 0.737118
0.3617 0.697612 0.744015
0.385946 0.710201 0.755398
0.423407 0.731823 0.774685
0.48072 0.766537 0.807004
0.543954 0.805325 0.846006
0.608301 0.830564 0.870115
0.662425 0.837491 0.872099
0.739315 0.844282 0.868254
0.0852522 0 0.645823
0.113085 0 0.646265
0.219226 0.00144961 0.664012
0.348669 0.0355688 0.686885
0.486671 0.0658885 0.711833
0.566445 0.074342 0.725383
0.616053 0.0796216 0.736965
0.669093 0.0908217 0.749294
0.742458 0.174105 0.772488
0.0852369 0 0.694102
0.0852064 0 0.683421
0.121202 1.5259e-05 0.678614
0.269169 0.0219883 0.700099
0.450248 0.0758984 0.727977
0.558846 0.0959793 0.743389
0.617426 0.0998398 0.753735
0.675013 0.110643 0.765286
0.751232 0.202884 0.787243
0.0821393 0.0823377 0.751049
0.0845502 0.068513 0.742611
0.0970779 0.0583505 0.730098
0.17995 0.0575875 0.726482
0.379065 0.0969711 0.752331
0.540673 0.141924 0.771527
0.616266 0.148318 0.780011
0.681163 0.162646 0.78793
0.755856 0.241672 0.798764
0.0757916 0.334661 0.806073
0.0876936 0.318898 0.805402
0.119081 0.296269 0.80174
0.199084 0.270039 0.798795
0.35201 0.252613 0.800748
0.520531 0.275685 0.806073
0.609735 0.279896 0.812924
0.685527 0.281788 0.820127
0.762066 0.342107 0.816678
0.068864 0.500938 0.802335
0.0788891 0.498146 0.823041
0.121843 0.502052 0.833295
0.228962 0.504311 0.83592
0.400153 0.497734 0.835676
0.526406 0.494881 0.833814
0.602243 0.497581 0.834669
0.676417 0.486656 0.837751
0.759701 0.495384 0.832258
0.109941 0.572473 0.792477
0.102892 0.57351 0.813519
0.124956 0.574411 0.84097
0.215045 0.583597 0.852506
0.409476 0.599359 0.854856
0.537194 0.608377 0.853635
0.602945 0.614252 0.851469
0.671351 0.611505 0.853162
0.758114 0.605051 0.851652
0.183642 0.617777 0.792157
0.177691 0.62295 0.808957
0.179324 0.629969 0.836072
0.228595 0.637659 0.861601
0.390661 0.648936 0.868772
0.531258 0.665812 0.870039
0.605295 0.680156 0.869032
0.667643 0.686168 0.867414
0.756252 0.683772 0.869932
0.263828 0.655756 0.789929
0.273762 0.663615 0.804532
0.288884 0.673289 0.824048
0.328542 0.68896 0.856764
0.428519 0.704219 0.882567
0.534707 0.717281 0.889174
0.6047 0.730144 0.889097
0.665339 0.742672 0.886778
0.753704 0.74905 0.890837
0.352667 0.697978 0.782574
0.367163 0.705074 0.791241
0.386206 0.715908 0.803662
0.420737 0.733867 0.824155
0.475395 0.759014 0.851637
0.534325 0.790646 0.886076
0.595285 0.811688 0.90544
0.659175 0.8224 0.911101
0.731624 0.827573 0.90724
