presets/Hgold柔.cube
TITLE "Generated by Resolve"
LUT_3D_SIZE 33
0.0974594 0.110307 0.0951553
0.137392 0.107027 0.0805982
0.2009 0.100893 0.0694896
0.266011 0.0953689 0.0635691
0.321859 0.091249 0.0599069
0.365759 0.0890059 0.0596323
0.401465 0.088365 0.061799
0.4327 0.0893568 0.0656138
0.461509 0.0912795 0.0702373
0.488777 0.0940871 0.075761
0.513603 0.0971237 0.0813916
0.537194 0.100587 0.0864271
0.559533 0.103548 0.0912032
0.580896 0.106264 0.0958572
0.600717 0.108644 0.0996109
0.617777 0.110033 0.102495
0.63328 0.111482 0.105699
0.64654 0.112505 0.108309
0.657664 0.113207 0.110262
0.668467 0.113527 0.112535
0.678477 0.114351 0.114351
0.689448 0.114061 0.119768
0.698589 0.114366 0.12221
0.707774 0.114443 0.124559
0.717189 0.114565 0.127031
0.726879 0.114336 0.129503
0.737194 0.114305 0.132601
0.748287 0.114199 0.135821
0.761227 0.114305 0.140246
0.776867 0.1149 0.146319
0.79472 0.115877 0.154559
0.815671 0.117052 0.165469
0.839429 0.117891 0.179919
0.0981308 0.123095 0.0849622
0.113146 0.117235 0.0803845
0.160983 0.113558 0.0607919
0.223957 0.105211 0.0535744
0.282658 0.0987869 0.0492714
0.331518 0.0942702 0.0462043
0.372183 0.0917678 0.0456245
0.406561 0.0908675 0.0468452
0.43801 0.091371 0.0492866
0.46772 0.0929122 0.0528115
0.495003 0.0949721 0.0567788
0.521065 0.0978714 0.0612802
0.545983 0.100237 0.0677501
0.569421 0.102892 0.0720836
0.591745 0.105226 0.0762646
0.611734 0.107225 0.0803082
0.629252 0.108522 0.0834669
0.645121 0.109834 0.0870527
0.658244 0.11046 0.0897231
0.670253 0.110658 0.0922103
0.681331 0.110964 0.0944533
0.692287 0.111009 0.09691
0.702922 0.111284 0.0994278
0.71339 0.111452 0.102007
0.723766 0.111788 0.104372
0.734508 0.112627 0.107256
0.746242 0.113649 0.110704
0.758099 0.114412 0.114412
0.774609 0.114611 0.123507
0.790784 0.115572 0.13109
0.80911 0.11632 0.140337
0.829938 0.117372 0.154269
0.851499 0.118441 0.172473
0.108522 0.148806 0.0827497
0.115663 0.139193 0.0722972
0.160479 0.134691 0.0699626
0.213153 0.130144 0.0615244
0.267094 0.124544 0.0539864
0.316823 0.119432 0.0504005
0.359091 0.116258 0.0493324
0.39498 0.114565 0.0500649
0.427771 0.114397 0.0525216
0.458488 0.115267 0.055314
0.487068 0.116976 0.0589151
0.514427 0.118944 0.062974
0.54023 0.120714 0.0665904
0.56527 0.122469 0.0704662
0.588495 0.12372 0.0734569
0.61059 0.124834 0.0772412
0.629297 0.125551 0.080293
0.645701 0.125917 0.0829328
0.660349 0.125689 0.0855268
0.674311 0.124193 0.0908827
0.686992 0.123415 0.0931716
0.698299 0.122484 0.0950637
0.709453 0.121019 0.0967117
0.720867 0.119921 0.0980697
0.732326 0.118837 0.0997787
0.743984 0.117784 0.101549
0.755947 0.116808 0.10309
0.770047 0.116579 0.105882
0.786221 0.116426 0.109331
0.804089 0.116777 0.115084
0.826062 0.117082 0.128191
0.846845 0.118181 0.143236
0.867048 0.120424 0.165805
0.121691 0.19089 0.0967575
0.124147 0.170169 0.0757305
0.155993 0.165789 0.0684062
0.21059 0.163363 0.0679026
0.267567 0.160357 0.0674907
0.319921 0.155673 0.0716716
0.358221 0.154955 0.0676585
0.392447 0.154772 0.0657511
0.424994 0.154543 0.0667887
0.456397 0.155184 0.0694133
0.487236 0.156847 0.0733654
0.51577 0.158389 0.077348
0.542611 0.159243 0.0810407
0.56846 0.159915 0.0843519
0.592676 0.16025 0.0874495
0.614969 0.159945 0.0904555
0.634531 0.159396 0.0930953
0.651499 0.158068 0.0954604
0.666743 0.157 0.0977646
0.680995 0.155261 0.0996872
0.69337 0.153231 0.100877
0.705287 0.151019 0.102281
0.717052 0.148638 0.103807
0.72842 0.145907 0.104723
0.740337 0.142779 0.105837
0.753536 0.138781 0.111101
0.76704 0.135348 0.112062
0.781262 0.13167 0.112795
0.797452 0.127687 0.113542
0.816388 0.124041 0.115923
0.837705 0.12195 0.12195
0.861753 0.122148 0.13991
0.880873 0.126192 0.163149
0.121859 0.246845 0.128206
0.130205 0.211902 0.090135
0.154208 0.201541 0.076997
0.199771 0.202716 0.0734874
0.261189 0.203128 0.0780652
0.30927 0.204791 0.0801862
0.356527 0.203861 0.0893568
0.394369 0.203235 0.0944228
0.423682 0.204257 0.0915389
0.453498 0.204868 0.0885634
0.483375 0.204471 0.0889296
0.512169 0.203845 0.0910811
0.540703 0.203571 0.0946212
0.567468 0.202655 0.0982071
0.592737 0.201282 0.101564
0.61561 0.199557 0.104662
0.635111 0.198199 0.106905
0.652537 0.196033 0.108904
0.668055 0.19408 0.110948
0.682567 0.19176 0.113054
0.695628 0.189364 0.114809
0.708217 0.186618 0.116548
0.720531 0.183795 0.117983
0.732692 0.180316 0.119112
0.744991 0.176761 0.12076
0.757855 0.172274 0.122057
0.771695 0.167208 0.122927
0.786938 0.161013 0.123781
0.803647 0.154452 0.122377
0.825467 0.145449 0.129351
0.847227 0.138598 0.132586
0.870924 0.135454 0.146868
0.891386 0.13994 0.169619
0.108827 0.3037 0.175631
0.125048 0.262745 0.116976
0.148363 0.243992 0.0935988
0.185183 0.245274 0.0869764
0.240986 0.249073 0.0877546
0.303029 0.250004 0.0973373
0.344564 0.254353 0.102052
0.382559 0.255497 0.10898
0.418799 0.254643 0.116457
0.450996 0.253697 0.118456
0.478233 0.253193 0.113619
0.50399 0.252293 0.109255
0.530266 0.25005 0.107393
0.556954 0.247608 0.108934
0.583185 0.244724 0.111604
0.607004 0.242069 0.114763
0.6271 0.238895 0.116838
0.645472 0.235691 0.119249
0.661891 0.232746 0.122072
0.676768 0.229786 0.124239
0.69041 0.22652 0.126101
0.703685 0.223011 0.128252
0.716182 0.21976 0.129778
0.729107 0.215732 0.131807
0.741909 0.211521 0.133211
0.755657 0.206744 0.135271
0.77026 0.201816 0.136828
0.786587 0.195743 0.138552
0.805264 0.188571 0.140124
0.826413 0.179202 0.141329
0.849653 0.169131 0.142855
0.875349 0.16141 0.160189
0.897002 0.16257 0.181872
0.100786 0.356069 0.22594
0.113085 0.315602 0.158877
0.136416 0.289906 0.120226
0.172564 0.287144 0.10869
0.220676 0.293217 0.105562
0.280629 0.296223 0.108263
0.338369 0.296681 0.118471
0.380102 0.298878 0.128298
0.410407 0.301472 0.133196
0.443229 0.300526 0.139132
0.474464 0.297948 0.143282
0.501747 0.294987 0.141512
0.525429 0.292882 0.136034
0.547875 0.290471 0.130037
0.569238 0.287022 0.126467
0.591302 0.283375 0.125994
0.612131 0.279454 0.127062
0.630732 0.275929 0.128817
0.647669 0.271901 0.130739
0.66305 0.268055 0.132891
0.677012 0.264485 0.135012
0.690974 0.2607 0.137545
0.7037 0.256825 0.139605
0.717006 0.252613 0.141817
0.730129 0.248157 0.143755
0.744091 0.243519 0.146029
0.758709 0.23801 0.147585
0.775494 0.231861 0.149981
0.795514 0.224018 0.152453
0.818509 0.213764 0.15523
0.844526 0.202075 0.159777
0.869963 0.193896 0.169787
0.891875 0.192309 0.191165
0.101595 0.398657 0.271321
0.107729 0.365698 0.20621
0.12694 0.337758 0.156817
0.162493 0.330098 0.138338
0.209262 0.334722 0.132555
0.262959 0.33933 0.129396
0.320531 0.340322 0.131838
0.371023 0.34052 0.141604
0.411231 0.340291 0.152041
0.440833 0.341039 0.157565
0.468055 0.340291 0.161593
0.496086 0.33695 0.165698
0.522683 0.332906 0.16733
0.546227 0.328557 0.164828
0.565927 0.324758 0.158358
0.583368 0.321416 0.151675
0.599176 0.318227 0.14667
0.614984 0.314427 0.143801
0.629999 0.310567 0.142779
0.644724 0.306813 0.143481
0.658717 0.302754 0.144274
0.672084 0.298817 0.145937
0.685634 0.294377 0.147723
0.698665 0.290318 0.149844
0.712184 0.285771 0.15172
0.726024 0.28072 0.153735
0.740719 0.27538 0.155703
0.757488 0.269291 0.157656
0.776898 0.261555 0.159976
0.80087 0.251667 0.163149
0.82855 0.239399 0.168521
0.85565 0.22945 0.178622
0.876204 0.225925 0.19501
0.109117 0.433371 0.308812
0.111421 0.408698 0.253452
0.125597 0.383474 0.20145
0.158022 0.372839 0.175479
0.204303 0.373434 0.165698
0.255589 0.376928 0.159289
0.308186 0.378668 0.15491
0.357717 0.378088 0.156863
0.401312 0.377035 0.165377
0.440208 0.375326 0.175448
0.470192 0.374304 0.181949
0.493523 0.37377 0.185214
0.517998 0.370489 0.188724
0.542748 0.366018 0.192477
0.565118 0.360983 0.19321
0.584024 0.355962 0.190768
0.599695 0.351705 0.185718
0.612421 0.34844 0.179919
0.624048 0.34522 0.174273
0.635279 0.342123 0.17023
0.646021 0.338918 0.166629
0.657389 0.335744 0.164935
0.669047 0.331914 0.164202
0.680598 0.328115 0.163958
0.693401 0.323781 0.164401
0.706844 0.319493 0.16553
0.721325 0.314336 0.166232
0.73727 0.308263 0.166949
0.756344 0.300618 0.168383
0.779477 0.291341 0.170901
0.805859 0.28014 0.175036
0.83209 0.269413 0.184207
0.853864 0.264027 0.199878
0.122789 0.461433 0.339712
0.123049 0.44303 0.293111
0.131716 0.422965 0.244846
0.159579 0.410864 0.215473
0.20531 0.40763 0.201709
0.256016 0.408591 0.193271
0.303716 0.410086 0.184848
0.348699 0.410636 0.180911
0.391058 0.409903 0.182361
0.430961 0.408209 0.190509
0.466743 0.405692 0.200076
0.496056 0.404013 0.20734
0.517479 0.40325 0.210651
0.539345 0.400824 0.213977
0.56173 0.396094 0.216999
0.582605 0.390921 0.219959
0.600504 0.385397 0.220981
0.616007 0.380163 0.220035
0.62858 0.375937 0.217655
0.640024 0.372519 0.214405
0.649851 0.369406 0.209705
0.658457 0.366552 0.204807
0.667353 0.363836 0.20058
0.676493 0.361135 0.196704
0.68603 0.35816 0.193866
0.696773 0.354665 0.190921
0.708644 0.350881 0.188724
0.722942 0.346181 0.186999
0.739879 0.340444 0.186175
0.760983 0.33257 0.185534
0.784939 0.322484 0.186847
0.809659 0.312352 0.193286
0.830625 0.305989 0.20705
0.140398 0.484855 0.36556
0.139422 0.470939 0.326543
0.145434 0.455116 0.283803
0.168734 0.443534 0.253346
0.212879 0.437995 0.237537
0.261799 0.436896 0.227878
0.305867 0.437751 0.218708
0.345464 0.438666 0.210986
0.382788 0.439216 0.207065
0.420096 0.438788 0.209262
0.457084 0.437064 0.216846
0.490974 0.434241 0.226123
0.518608 0.431937 0.233524
0.539559 0.430915 0.236881
0.558999 0.429068 0.238895
0.578851 0.425406 0.24152
0.597192 0.420294 0.244038
0.614435 0.41471 0.246525
0.629267 0.409277 0.248157
0.642756 0.403891 0.248737
0.655161 0.398917 0.248569
0.665675 0.394934 0.247623
0.675349 0.391775 0.245457
0.684672 0.388785 0.242512
0.693324 0.386297 0.238682
0.702525 0.383642 0.23476
0.712657 0.381064 0.23035
0.723888 0.378058 0.22591
0.737453 0.374411 0.221057
0.754467 0.369162 0.216281
0.774929 0.362234 0.213443
0.796551 0.354086 0.214817
0.816526 0.348089 0.224262
0.159594 0.505058 0.388159
0.159533 0.494636 0.355825
0.163409 0.482353 0.319188
0.183001 0.471595 0.289845
0.223606 0.465507 0.273106
0.270268 0.462608 0.26302
0.311574 0.462272 0.253712
0.346838 0.463554 0.245136
0.379843 0.465019 0.238376
0.413092 0.465553 0.234943
0.447745 0.464637 0.237018
0.481315 0.462577 0.243534
0.512474 0.460227 0.251713
0.539361 0.457725 0.258228
0.560037 0.45684 0.261845
0.576867 0.455207 0.262852
0.594049 0.452598 0.264866
0.610544 0.448402 0.26685
0.625391 0.443351 0.268437
0.639277 0.437903 0.270649
0.653056 0.432547 0.273091
0.665522 0.427237 0.274708
0.678218 0.422553 0.276692
0.690089 0.418509 0.277714
0.701793 0.414832 0.278706
0.712077 0.411658 0.277607
0.722988 0.408713 0.275669
0.734554 0.405722 0.272282
0.747585 0.402792 0.268605
0.761791 0.399588 0.262409
0.778714 0.395331 0.256397
0.796231 0.390402 0.252552
0.813916 0.386099 0.256657
0.179889 0.521645 0.407095
0.181567 0.514275 0.380743
0.18471 0.50515 0.349615
0.200916 0.496223 0.323262
0.236728 0.489616 0.306676
0.280369 0.48603 0.296239
0.319829 0.484977 0.287907
0.351797 0.485557 0.279133
0.380591 0.487343 0.270939
0.409598 0.48867 0.264469
0.440681 0.489158 0.261967
0.472129 0.488136 0.263767
0.50312 0.486229 0.2692
0.532128 0.483635 0.275731
0.558206 0.481682 0.282124
0.577874 0.480613 0.284901
0.593698 0.479835 0.285847
0.608103 0.477928 0.286366
0.622187 0.474647 0.287678
0.635554 0.470634 0.288563
0.648066 0.466194 0.290013
0.660929 0.461295 0.291951
0.674174 0.456489 0.294835
0.687312 0.451713 0.297841
0.700618 0.446983 0.300999
0.714 0.442634 0.303548
0.727871 0.438987 0.30602
0.741299 0.43563 0.307118
0.756283 0.431937 0.307103
0.772396 0.428656 0.30631
0.789395 0.425544 0.303273
0.806012 0.422614 0.299931
0.821363 0.420203 0.299672
0.200473 0.536309 0.423743
0.203632 0.530983 0.401541
0.207568 0.524315 0.375525
0.220508 0.517296 0.352255
0.250996 0.511376 0.336812
0.291447 0.507408 0.327291
0.328283 0.505776 0.319051
0.358251 0.505943 0.311101
0.384024 0.507378 0.303319
0.410071 0.509026 0.29604
0.437156 0.510231 0.290227
0.465446 0.510643 0.287999
0.494987 0.510002 0.289631
0.523339 0.50808 0.293553
0.550057 0.505745 0.298268
0.574548 0.503899 0.303334
0.593835 0.502953 0.306645
0.608377 0.502419 0.307317
0.621134 0.501183 0.30753
0.63331 0.499184 0.308019
0.645457 0.496239 0.308827
0.657343 0.492317 0.309636
0.669123 0.488304 0.310826
0.68127 0.484154 0.312795
0.694438 0.479927 0.315221
0.708949 0.475517 0.318654
0.723796 0.471473 0.322789
0.74049 0.467262 0.326818
0.75819 0.4636 0.330831
0.776745 0.459968 0.334157
0.796597 0.45655 0.336858
0.816236 0.453651 0.339162
0.833387 0.452018 0.341741
0.221332 0.548669 0.438636
0.226505 0.545068 0.419974
0.231739 0.540856 0.398322
0.242435 0.535714 0.378012
0.266407 0.530816 0.363638
0.302159 0.526635 0.353521
0.336522 0.525078 0.346502
0.364767 0.525139 0.340139
0.389395 0.526192 0.33315
0.412436 0.527825 0.325795
0.436713 0.529198 0.319051
0.461769 0.530358 0.314183
0.488228 0.530571 0.312016
0.515114 0.529625 0.312718
0.541573 0.528176 0.316258
0.566827 0.526085 0.320226
0.589395 0.524605 0.324331
0.60705 0.523507 0.326513
0.621439 0.523293 0.32723
0.632929 0.522866 0.327276
0.644343 0.521706 0.327138
0.655299 0.51931 0.327291
0.666529 0.516396 0.328191
0.677867 0.513405 0.329686
0.689998 0.510018 0.331273
0.703395 0.506371 0.333364
0.717388 0.503105 0.336431
0.734112 0.499687 0.340261
0.752865 0.496071 0.345281
0.774487 0.491997 0.351324
0.797436 0.488151 0.358144
0.820508 0.485115 0.365133
0.841077 0.482933 0.372473
0.240818 0.559564 0.451896
0.247837 0.557488 0.436393
0.253681 0.554421 0.417838
0.262196 0.551186 0.399893
0.282063 0.547341 0.386755
0.312795 0.544549 0.377798
0.343679 0.542733 0.371237
0.370596 0.542382 0.365469
0.394522 0.543267 0.359625
0.41651 0.544961 0.353307
0.438315 0.546517 0.34638
0.461021 0.548058 0.340261
0.48423 0.548714 0.335958
0.509102 0.548913 0.334112
0.534188 0.548028 0.3346
0.558724 0.546563 0.336751
0.581292 0.544884 0.339971
0.601938 0.543709 0.343572
0.618875 0.542596 0.345525
0.632776 0.542412 0.346761
0.64445 0.542458 0.346868
0.654826 0.542062 0.346593
0.664775 0.54049 0.346288
0.6757 0.538659 0.346914
0.687099 0.536431 0.347982
0.699901 0.533944 0.349905
0.713222 0.531487 0.351827
0.728634 0.528908 0.354742
0.746059 0.526009 0.358343
0.767666 0.522927 0.363989
0.79234 0.519539 0.37174
0.818189 0.515587 0.381811
0.842283 0.512612 0.392645
0.25835 0.569406 0.464439
0.264866 0.568124 0.451072
0.272725 0.566262 0.43476
0.281315 0.564416 0.419608
0.297002 0.562203 0.407568
0.322942 0.559884 0.399405
0.350393 0.558511 0.393637
0.376303 0.558556 0.388907
0.399344 0.559045 0.38352
0.420829 0.560265 0.377905
0.441245 0.562188 0.371633
0.461799 0.563851 0.365606
0.482704 0.565301 0.360494
0.504814 0.565637 0.356252
0.528008 0.565682 0.354803
0.551156 0.564752 0.35491
0.573724 0.563561 0.356466
0.593866 0.562325 0.358801
0.612604 0.561059 0.361212
0.62884 0.56054 0.363439
0.642893 0.56022 0.364706
0.654597 0.560204 0.364965
0.665003 0.560204 0.365042
0.675242 0.559594 0.364904
0.685649 0.558587 0.365408
0.697307 0.556939 0.366598
0.710277 0.555291 0.368307
0.725032 0.553841 0.370703
0.741833 0.551507 0.373175
0.761547 0.549615 0.377249
0.785763 0.547189 0.383825
0.812879 0.543664 0.393805
0.840269 0.540017 0.406867
0.273243 0.578241 0.475792
0.280903 0.577829 0.464286
0.28954 0.57705 0.450645
0.297642 0.576562 0.437186
0.311009 0.575204 0.426795
0.33196 0.573785 0.419303
0.356786 0.573144 0.413962
0.380484 0.572961 0.409033
0.403174 0.573632 0.404898
0.424887 0.574624 0.400061
0.44445 0.576318 0.39469
0.463661 0.578195 0.389425
0.482597 0.579675 0.38378
0.502693 0.581018 0.37882
0.52369 0.58143 0.37528
0.545403 0.581186 0.373724
0.566918 0.580407 0.373724
0.586831 0.579629 0.37499
0.605158 0.578653 0.376959
0.622232 0.577523 0.378668
0.637934 0.577005 0.380713
0.651469 0.576547 0.381582
0.664179 0.576776 0.382605
0.675196 0.577035 0.382971
0.685313 0.576883 0.382696
0.696193 0.57644 0.383108
0.708263 0.575784 0.384146
0.722301 0.574807 0.385901
0.73843 0.573693 0.388434
0.757641 0.572457 0.391867
0.780621 0.57084 0.396918
0.80676 0.567956 0.404791
0.835157 0.564263 0.417197
0.287526 0.586511 0.486046
0.295323 0.586816 0.47657
0.303746 0.586587 0.464607
0.31223 0.58706 0.453391
0.323568 0.587015 0.444282
0.340307 0.586633 0.437507
0.362142 0.585946 0.43209
0.384665 0.586114 0.428351
0.406806 0.586557 0.424277
0.427893 0.5879 0.420554
0.447166 0.589242 0.415763
0.465339 0.591287 0.410788
0.483055 0.593118 0.405478
0.501396 0.594797 0.400519
0.520531 0.595636 0.39617
0.540368 0.595895 0.392935
0.560708 0.595728 0.391424
0.57998 0.595254 0.391257
0.597833 0.594446 0.391989
0.614466 0.593759 0.393286
0.630747 0.593286 0.39498
0.645914 0.592569 0.396643
0.659876 0.592264 0.398138
0.673075 0.592523 0.399268
0.684459 0.592782 0.399649
0.695476 0.593027 0.399741
0.706844 0.593408 0.400046
0.719646 0.592813 0.400702
0.73547 0.592599 0.402914
0.753994 0.591959 0.405951
0.776181 0.590661 0.409964
0.801633 0.588815 0.416663
0.830045 0.585641 0.427756
0.299641 0.593866 0.495979
0.307576 0.59472 0.487587
0.316411 0.595529 0.477852
0.324529 0.596689 0.468071
0.334585 0.597498 0.460136
0.348287 0.59791 0.454063
0.367315 0.597894 0.449454
0.3879 0.598321 0.445914
0.409018 0.598932 0.442206
0.429664 0.599939 0.438865
0.449027 0.601404 0.43476
0.466819 0.603311 0.430549
0.484489 0.60528 0.426032
0.501167 0.606989 0.421088
0.518853 0.608545 0.416632
0.536706 0.609339 0.412222
0.555627 0.609445 0.409308
0.574441 0.609506 0.40824
0.591424 0.609094 0.408057
0.60798 0.60885 0.408606
0.623285 0.608209 0.409155
0.638682 0.60763 0.410544
0.653956 0.607446 0.412512
0.668223 0.606836 0.413901
0.682063 0.607156 0.415183
0.69453 0.607431 0.4159
0.706203 0.608209 0.416114
0.718837 0.608972 0.416556
0.733501 0.609125 0.41738
0.751278 0.608804 0.419699
0.77261 0.608515 0.423774
0.797452 0.607065 0.429282
0.824857 0.604471 0.438666
0.310674 0.600809 0.505043
0.318364 0.602274 0.498161
0.326772 0.603464 0.489693
0.335241 0.605325 0.481621
0.344167 0.607263 0.474983
0.356115 0.60795 0.469291
0.372091 0.60882 0.465385
0.390997 0.609262 0.462013
0.410956 0.610132 0.459007
0.43093 0.611276 0.455848
0.450401 0.612741 0.452842
0.468498 0.614267 0.448829
0.48539 0.616495 0.445151
0.501671 0.618555 0.440528
0.517906 0.620371 0.436194
0.534401 0.621454 0.431495
0.551766 0.622492 0.427848
0.568978 0.622538 0.424918
0.585824 0.622614 0.423804
0.601465 0.622583 0.423514
0.616373 0.622324 0.42385
0.631418 0.622156 0.424689
0.646357 0.621683 0.425879
0.660975 0.621317 0.427375
0.676463 0.621271 0.429267
0.690974 0.621546 0.430991
0.70486 0.621927 0.431861
0.717845 0.622827 0.432166
0.731899 0.624002 0.432547
0.748608 0.624323 0.433555
0.769146 0.624323 0.4365
0.792599 0.623331 0.441352
0.819303 0.621164 0.449531
0.319692 0.607141 0.51313
0.327565 0.609308 0.507988
0.335821 0.61088 0.501106
0.344442 0.613474 0.494636
0.353109 0.615564 0.488518
0.36347 0.617227 0.483513
0.37705 0.618601 0.480217
0.393637 0.619593 0.477272
0.41268 0.620645 0.474693
0.431617 0.621637 0.471962
0.451072 0.623209 0.469322
0.468849 0.62501 0.465904
0.486061 0.626963 0.462852
0.501854 0.628962 0.458564
0.517571 0.631464 0.455085
0.533318 0.632761 0.450523
0.549401 0.634028 0.44651
0.565148 0.634485 0.442802
0.581003 0.635035 0.440742
0.596124 0.635264 0.439643
0.610422 0.635279 0.439033
0.624399 0.635264 0.439185
0.639155 0.635355 0.440192
0.654017 0.635126 0.441062
0.669383 0.634928 0.442512
0.685618 0.634913 0.44448
0.700938 0.634897 0.446128
0.716121 0.635874 0.447639
0.730495 0.636759 0.447715
0.746532 0.638346 0.448127
0.765881 0.638804 0.449332
0.789517 0.638376 0.453803
0.815442 0.636164 0.461173
0.32813 0.613153 0.521218
0.335424 0.615702 0.517037
0.343893 0.618112 0.511757
0.352651 0.620615 0.506096
0.361318 0.623514 0.501503
0.37026 0.625772 0.497017
0.381949 0.627604 0.494087
0.396918 0.628779 0.491539
0.414267 0.630243 0.489418
0.432288 0.631571 0.487373
0.451026 0.633173 0.484871
0.46894 0.634821 0.482078
0.486244 0.637064 0.479408
0.502464 0.638972 0.476127
0.517143 0.641276 0.472862
0.532311 0.643153 0.468772
0.546914 0.644846 0.464729
0.562173 0.645838 0.461006
0.57702 0.646433 0.457771
0.591134 0.647211 0.455909
0.604837 0.647456 0.45452
0.618555 0.647913 0.454078
0.632471 0.64831 0.454231
0.646586 0.647929 0.454398
0.662058 0.647929 0.455711
0.677989 0.647944 0.457389
0.694591 0.647776 0.459083
0.711681 0.64831 0.461204
0.728252 0.649119 0.46247
0.745418 0.650904 0.463127
0.763699 0.652399 0.463508
0.78648 0.652354 0.466026
0.811307 0.650462 0.472618
0.335698 0.619013 0.528786
0.343038 0.621744 0.525521
0.351736 0.624689 0.521675
0.360021 0.627665 0.517266
0.368399 0.630976 0.513466
0.376699 0.633448 0.509697
0.387503 0.635782 0.507073
0.40029 0.637736 0.505119
0.41561 0.639078 0.50341
0.43331 0.640955 0.502007
0.450858 0.642527 0.499611
0.468681 0.64448 0.497597
0.485847 0.646586 0.495186
0.501823 0.648539 0.492226
0.516869 0.650813 0.48957
0.531548 0.653056 0.486198
0.545556 0.654994 0.482399
0.559945 0.656703 0.478706
0.573434 0.657496 0.47483
0.586954 0.65861 0.472755
0.600092 0.659022 0.470314
0.613153 0.659556 0.468971
0.626291 0.660044 0.468421
0.640101 0.660334 0.46833
0.654307 0.6607 0.469062
0.670024 0.660639 0.470207
0.686778 0.660517 0.471855
0.704845 0.660746 0.473945
0.723888 0.661265 0.47631
0.742809 0.662699 0.47776
0.761822 0.664485 0.477699
0.783749 0.66598 0.479454
0.807858 0.664073 0.483726
0.342901 0.624735 0.5355
0.350362 0.627634 0.533104
0.35848 0.630838 0.530617
0.366781 0.634073 0.527321
0.375082 0.63769 0.524407
0.383474 0.640848 0.521996
0.392798 0.643305 0.519524
0.404013 0.64564 0.517784
0.417365 0.64741 0.516213
0.433799 0.649638 0.515633
0.450294 0.651438 0.513985
0.467567 0.653574 0.512139
0.484428 0.65539 0.509606
0.501015 0.658076 0.507652
0.516396 0.660029 0.50544
0.531029 0.662547 0.502892
0.544106 0.6645 0.499413
0.557671 0.666468 0.495918
0.570504 0.667872 0.492515
0.583551 0.669032 0.489708
0.596109 0.669886 0.487098
0.608316 0.670726 0.485267
0.620768 0.671412 0.483513
0.633585 0.672267 0.482918
0.646967 0.672786 0.482628
0.661814 0.673213 0.483116
0.678019 0.673503 0.484443
0.696162 0.673289 0.48603
0.716014 0.673884 0.489006
0.737881 0.67451 0.491264
0.759793 0.676234 0.492622
0.781735 0.678431 0.493278
0.80531 0.677409 0.496132
0.350011 0.630152 0.54229
0.356924 0.633387 0.540856
0.364294 0.636484 0.538598
0.372992 0.640131 0.536553
0.381552 0.643763 0.534325
0.389425 0.647364 0.532189
0.398276 0.650278 0.530648
0.407706 0.653086 0.529412
0.420035 0.655329 0.528405
0.434318 0.657557 0.527413
0.449653 0.659709 0.526482
0.466423 0.661997 0.525429
0.482856 0.66424 0.523919
0.499184 0.666789 0.522225
0.515145 0.668742 0.520195
0.529717 0.671275 0.518395
0.542916 0.673625 0.515908
0.555947 0.675746 0.512596
0.568383 0.677577 0.509499
0.580606 0.679179 0.506798
0.592187 0.680491 0.504173
0.60383 0.681422 0.501335
0.615305 0.682338 0.499214
0.627878 0.683452 0.498054
0.640665 0.684123 0.496925
0.653986 0.684977 0.496696
0.669535 0.685695 0.497322
0.686534 0.685908 0.498421
0.706828 0.686397 0.50071
0.730098 0.686656 0.503426
0.755459 0.687678 0.50663
0.779675 0.689815 0.507561
0.802716 0.690532 0.508507
0.356725 0.635447 0.548959
0.363195 0.638468 0.548379
0.37026 0.642008 0.547265
0.378302 0.645685 0.545281
0.387427 0.64976 0.544091
0.394919 0.653483 0.542199
0.403296 0.657038 0.541039
0.41207 0.659709 0.539879
0.422507 0.662348 0.539437
0.435233 0.664927 0.538888
0.449424 0.667674 0.538537
0.465019 0.669963 0.537682
0.481453 0.672786 0.536706
0.497505 0.675227 0.535271
0.5131 0.677852 0.534112
0.527581 0.680064 0.532586
0.541833 0.682658 0.530648
0.554543 0.684825 0.528405
0.566888 0.687388 0.526223
0.577707 0.68896 0.52343
0.588907 0.690684 0.521019
0.60032 0.692103 0.518608
0.610971 0.692988 0.516182
0.62266 0.694209 0.513863
0.634333 0.695369 0.512062
0.646906 0.69633 0.510811
0.661036 0.697704 0.510826
0.677073 0.698131 0.511193
0.696483 0.69897 0.513024
0.7205 0.699153 0.515496
0.748272 0.700298 0.519112
0.776333 0.70164 0.521538
0.800427 0.703075 0.521859
0.363333 0.641154 0.556771
0.368612 0.643687 0.556191
