presets/Hgold浓.cube
TITLE "XH Copyright"
# XH Copyright
# G200-4
# 20250101
LUT_3D_SIZE 9
0.0625162 0 0
0.127489 0.00169375 0
0.315465 0.0150759 0
0.440757 0.0318456 0
0.540566 0.0606851 0
0.612619 0.0937819 0
0.668803 0.127779 0
0.715053 0.166735 0
0.765179 0.22858 0.056733
0.0664683 0.100313 0
0.10367 0.100145 0
0.254261 0.133104 0
0.397498 0.150225 0
0.515587 0.171649 0
0.600427 0.195773 0
0.664485 0.21976 0
0.719112 0.229252 0
0.773007 0.24892 0.00733959
0.0660563 0.236927 0
0.0946822 0.225055 0
0.289952 0.243442 0.00308232
0.375341 0.286778 0
0.501488 0.316014 0
0.592523 0.340307 0
0.661463 0.362722 0
0.716884 0.367559 0
0.776272 0.36054 0
0.0847791 0.365774 0
0.10602 0.35288 0
0.256748 0.386892 0.0551003
0.467369 0.385611 0.0545205
0.493248 0.425345 0
0.581582 0.446586 0
0.651987 0.4636 0
0.711559 0.473289 0.00170901
0.779309 0.474723 0.0146792
0.11104 0.470954 0.0034638
0.128206 0.466285 0.00309758
0.274495 0.497841 0.0961471
0.467399 0.511803 0.134874
0.604395 0.506691 0.105638
0.595102 0.544564 0.0239261
0.650019 0.563226 0.0213016
0.708293 0.574319 0.0314488
0.776898 0.577173 0.0468147
0.14406 0.565057 0.0394446
0.153567 0.566964 0.0409094
0.279713 0.596353 0.121874
0.429831 0.63241 0.193545
0.64686 0.61323 0.213581
0.723964 0.617929 0.176272
0.707729 0.65301 0.0958114
0.728527 0.677958 0.0736553
0.788693 0.689097 0.0885176
0.186343 0.651728 0.0906081
0.187747 0.653712 0.0919203
0.257786 0.675807 0.127474
0.416373 0.71667 0.225834
0.576226 0.735271 0.252186
0.760204 0.712825 0.27538
0.825025 0.716152 0.238163
0.812222 0.75227 0.170077
0.820172 0.781338 0.16173
0.212482 0.716472 0.159457
0.212482 0.718029 0.162127
0.243626 0.739101 0.161151
0.337377 0.771191 0.212085
0.508537 0.812299 0.294926
0.670634 0.826459 0.310933
0.854826 0.806043 0.336553
0.918578 0.811719 0.309468
0.902388 0.855848 0.279683
0.217639 0.762387 0.271382
0.218173 0.765225 0.281392
0.236042 0.781399 0.269947
0.283986 0.812848 0.260151
0.367025 0.842832 0.290501
0.532387 0.885176 0.358068
0.664637 0.914641 0.387884
0.890333 0.891234 0.418372
0.984253 0.898161 0.443488
0.0914931 0.000457771 0.0587625
0.154772 0.0124208 0.0537881
0.336339 0.031693 0.0398718
0.448295 0.0501411 0.0373388
0.538216 0.0755016 0.0471351
0.607401 0.107866 0.0744182
0.662409 0.141253 0.106523
0.709621 0.179202 0.135378
0.762188 0.234806 0.182467
0.0629282 0.10547 0.0281529
0.0945144 0.101808 0.0120699
0.261662 0.117357 1.5259e-05
0.405966 0.122606 0
0.51693 0.136492 0
0.601373 0.154406 0.00291447
0.67216 0.16936 0.00526436
0.728099 0.193744 0.0272526
0.775326 0.245212 0.100618
0.0619364 0.257954 0.0580148
0.0784009 0.230228 0.0214237
0.259052 0.240146 0.0531167
0.377768 0.26041 0
0.50016 0.268849 0.0028687
0.592142 0.2813 0.0110781
0.667185 0.292027 0.0117647
0.732403 0.28603 0.00224308
0.791638 0.2963 0.0249332
0.0751202 0.391073 0.104784
0.0839246 0.363684 0.0446021
0.2365 0.37435 0.0919356
0.444282 0.374868 0.0951705
0.486992 0.402777 0.0196536
0.581003 0.412528 0.0226444
0.660731 0.421927 0.0297704
0.730907 0.425238 0.0264439
0.800259 0.417151 0.0226749
0.0955062 0.489769 0.13872
0.103502 0.476555 0.0819409
0.240116 0.486351 0.116014
0.416297 0.512688 0.172976
0.587274 0.498573 0.145739
0.583444 0.531472 0.0591287
0.655009 0.543816 0.0607614
0.726345 0.552132 0.067628
0.802823 0.551339 0.0661631
0.122927 0.570687 0.155367
0.128573 0.569772 0.122728
0.246769 0.589334 0.14081
0.416571 0.625483 0.233326
0.623072 0.617258 0.252659
0.712642 0.615946 0.220264
0.696162 0.652079 0.132067
0.737209 0.678294 0.119677
0.808545 0.680583 0.133776
0.156313 0.64419 0.16997
0.15761 0.646784 0.171817
0.238346 0.67628 0.156374
0.406561 0.713924 0.257694
0.558618 0.743343 0.300999
0.749783 0.723491 0.320073
0.825498 0.727016 0.292699
0.815076 0.76527 0.221988
0.833951 0.79353 0.220691
0.187472 0.709743 0.208469
0.18645 0.711604 0.219791
0.220554 0.736797 0.196399
0.317372 0.772732 0.230228
0.489219 0.816114 0.320272
0.637781 0.846983 0.355016
0.848646 0.824704 0.38323
0.926177 0.829633 0.366873
0.909316 0.874006 0.333074
0.211429 0.764584 0.309148
0.211994 0.768994 0.332006
0.225055 0.782895 0.325933
0.259419 0.813275 0.303563
0.314351 0.840604 0.306371
0.460899 0.878996 0.351629
0.627466 0.923476 0.409079
0.855985 0.914092 0.440253
0.988205 0.911864 0.476967
0.115206 0.00941482 0.264012
0.184237 0.0280766 0.255863
0.348394 0.0537423 0.230121
0.470329 0.0738231 0.236439
0.552544 0.0986954 0.24332
0.610422 0.126375 0.253498
0.663523 0.157687 0.266606
0.712291 0.195773 0.287129
0.766735 0.257389 0.345281
0.0645151 0.0882277 0.198489
0.1075 0.0961471 0.193088
0.273838 0.122347 0.183825
0.42034 0.132891 0.17174
0.528603 0.148959 0.16968
0.605219 0.169131 0.174823
0.670039 0.187152 0.176699
0.725689 0.209842 0.198901
0.777661 0.264927 0.288777
0.0669108 0.249119 0.230304
0.0861677 0.233555 0.204425
0.226215 0.258747 0.193683
0.393057 0.266819 0.177783
0.513832 0.270542 0.172015
0.598688 0.278538 0.176959
0.668482 0.289647 0.179339
0.729061 0.296025 0.17496
0.796841 0.300252 0.196658
0.0825513 0.398535 0.277134
0.0864576 0.373495 0.217899
0.207462 0.384848 0.203876
0.421637 0.387976 0.236561
0.496483 0.401999 0.165103
0.587594 0.403189 0.158373
0.662959 0.405631 0.164675
0.72871 0.411994 0.171069
0.805966 0.394217 0.171893
0.102892 0.49839 0.32369
0.101732 0.486625 0.264149
0.198215 0.491753 0.215473
0.38381 0.515236 0.282612
0.570993 0.504875 0.268696
0.580957 0.529442 0.185901
0.656886 0.533578 0.184894
0.728695 0.537881 0.19472
0.813123 0.529656 0.200885
0.125902 0.580285 0.359274
0.125078 0.579248 0.317494
0.19736 0.589151 0.234455
0.379049 0.613169 0.303777
0.551568 0.635828 0.339162
0.694942 0.622538 0.332372
0.684382 0.65301 0.245609
0.737636 0.669444 0.236774
0.820142 0.672099 0.277348
0.154055 0.652262 0.360586
0.155154 0.654795 0.359274
0.191577 0.673213 0.24593
0.345632 0.699229 0.2981
0.53608 0.741421 0.387152
0.705882 0.739971 0.402457
0.809766 0.736645 0.397711
0.802228 0.769314 0.330373
0.838132 0.792752 0.354086
0.179187 0.7122 0.377752
0.180438 0.714534 0.389609
0.192828 0.737606 0.325978
0.258854 0.767651 0.289479
0.441032 0.804837 0.367651
0.617472 0.851987 0.441382
0.806546 0.847333 0.465232
0.912612 0.843458 0.468177
0.900587 0.881376 0.432761
0.210834 0.768521 0.448203
0.213535 0.77203 0.466957
0.225147 0.788693 0.461433
0.247898 0.818296 0.430213
0.276555 0.843091 0.411887
0.356039 0.868757 0.366506
0.573587 0.920348 0.43154
0.783841 0.945327 0.482033
0.980056 0.924285 0.535561
0.145495 0.0303349 0.417365
0.215122 0.0485847 0.411414
0.358175 0.0741283 0.39321
0.466148 0.0921492 0.390936
0.556451 0.117891 0.397345
0.612726 0.144564 0.403845
0.661204 0.17348 0.407752
0.710552 0.209461 0.408988
0.769665 0.276036 0.442939
0.0631113 0.0760052 0.375814
0.1205 0.0913863 0.371221
0.27747 0.124697 0.362707
0.419867 0.139086 0.34992
0.533318 0.15169 0.343053
0.607187 0.175433 0.346441
0.668147 0.205356 0.350256
0.724102 0.23595 0.365835
0.782162 0.291127 0.422904
0.0649271 0.223316 0.39884
0.0987564 0.225193 0.394049
0.235111 0.249744 0.392813
0.394415 0.267796 0.38352
0.519112 0.277913 0.371099
0.601572 0.290394 0.370138
0.667231 0.306188 0.370489
0.727657 0.314351 0.363638
0.797879 0.329259 0.390265
0.0813916 0.381979 0.428183
0.0966201 0.372473 0.408667
0.213031 0.38764 0.401846
0.361944 0.405341 0.391257
0.503456 0.407843 0.377142
0.593027 0.408484 0.366064
0.665385 0.409445 0.363577
0.728954 0.411917 0.361318
0.803281 0.41416 0.388907
0.109789 0.50013 0.462318
0.112917 0.491936 0.432883
0.204456 0.502312 0.408499
0.342794 0.51902 0.398779
0.520027 0.519097 0.417502
0.582147 0.530129 0.372869
0.6607 0.530877 0.363394
0.730846 0.529717 0.362448
0.81059 0.533898 0.396338
0.136278 0.584909 0.485328
0.135729 0.584497 0.466361
0.196445 0.59762 0.416693
0.323323 0.613443 0.404364
0.498527 0.631815 0.44477
0.650004 0.631006 0.457267
0.669688 0.65333 0.396963
0.73434 0.661265 0.39089
0.819318 0.667918 0.436164
0.163622 0.65745 0.494057
0.16437 0.660243 0.494041
0.185382 0.680522 0.421424
0.292195 0.699809 0.408942
0.476951 0.719539 0.444678
0.614145 0.751842 0.499306
0.767361 0.743389 0.512642
0.784222 0.768292 0.458198
0.833616 0.784726 0.481407
0.186343 0.71635 0.502876
0.187961 0.718898 0.512215
0.195071 0.740566 0.47187
0.238727 0.772747 0.435554
0.359365 0.793835 0.429694
0.569055 0.828931 0.504448
0.706828 0.863859 0.561669
0.873915 0.851347 0.584619
0.884703 0.880812 0.538659
0.211963 0.767086 0.550179
0.215427 0.771145 0.563272
0.228855 0.790021 0.564782
0.251835 0.821973 0.552514
0.278019 0.84625 0.536721
0.319997 0.870329 0.478279
0.478752 0.898711 0.45153
0.722133 0.955673 0.568536
0.950057 0.935134 0.622232
0.183886 0.0617227 0.517037
0.250523 0.0780194 0.513146
0.377584 0.10045 0.501274
0.465202 0.115969 0.494545
0.544671 0.141634 0.490898
0.608042 0.167071 0.502358
0.661494 0.195071 0.510887
0.70721 0.230457 0.509422
0.76733 0.295399 0.527977
0.0735637 0.0685588 0.504067
0.136843 0.0870832 0.500008
0.290578 0.125277 0.491081
0.417395 0.147906 0.48159
0.524636 0.16492 0.474647
0.606287 0.182956 0.476143
0.669078 0.213107 0.480507
0.721279 0.251438 0.487709
0.781888 0.314992 0.526345
0.0664378 0.210376 0.526299
0.118807 0.221149 0.524285
0.25156 0.24715 0.522072
0.389685 0.266285 0.514839
0.512764 0.281682 0.506386
0.601785 0.290852 0.49868
0.667964 0.30869 0.494942
0.724559 0.333577 0.497627
0.796979 0.372763 0.53106
0.0802167 0.353704 0.547219
0.11397 0.36173 0.548348
0.228244 0.380331 0.548272
0.365209 0.392935 0.542809
0.500023 0.404349 0.532753
0.593378 0.410727 0.518425
0.664485 0.417853 0.515007
0.726406 0.429328 0.515312
0.802533 0.443244 0.542504
0.105364 0.485344 0.582238
0.116793 0.484947 0.574945
0.211185 0.50016 0.567407
0.344472 0.516762 0.55903
0.475746 0.527779 0.547234
0.586419 0.531075 0.534569
0.6636 0.532799 0.526101
0.73283 0.533974 0.522393
0.81181 0.538064 0.545098
0.133547 0.585443 0.603265
0.135149 0.585916 0.597162
0.202121 0.600122 0.580072
0.325978 0.617945 0.568185
0.46099 0.631174 0.556634
0.578103 0.639628 0.562661
0.656596 0.649287 0.538155
0.734432 0.656153 0.540963
0.81883 0.663066 0.569268
0.162799 0.660288 0.611658
0.164019 0.663523 0.613718
0.192676 0.684993 0.582422
0.295232 0.705379 0.573343
0.436576 0.719997 0.56463
0.565194 0.732036 0.573312
0.679576 0.752224 0.613321
0.763027 0.763531 0.590295
0.830152 0.776989 0.605722
0.190997 0.720088 0.615091
0.191882 0.722713 0.623041
0.202762 0.744854 0.611627
0.241215 0.776989 0.594675
0.351186 0.799619 0.591775
0.503609 0.81442 0.583185
0.665232 0.838407 0.643778
0.805325 0.854093 0.684245
0.861906 0.872999 0.650523
0.218463 0.771115 0.645121
0.221042 0.774884 0.656809
0.232639 0.792874 0.660456
0.258839 0.82475 0.661463
0.284855 0.850828 0.663874
0.324758 0.873777 0.634028
0.428885 0.892897 0.570748
0.664012 0.922911 0.632349
0.885451 0.942489 0.708415
0.22211 0.0955825 0.589654
0.283604 0.106538 0.583841
0.400336 0.130282 0.573953
0.47396 0.147494 0.575509
0.541817 0.168307 0.574868
0.599847 0.195621 0.578439
0.652598 0.224674 0.587381
0.702586 0.25359 0.597314
0.761517 0.312566 0.607385
0.105959 0.0831617 0.598932
0.161929 0.0982376 0.595499
0.308919 0.128817 0.585321
0.423896 0.156359 0.579248
0.518914 0.183673 0.57911
0.594751 0.208988 0.578882
0.661311 0.236667 0.586587
0.716701 0.269413 0.5953
0.774777 0.331807 0.612879
0.0818341 0.19678 0.622339
0.145266 0.216754 0.620111
0.275639 0.247272 0.620233
0.399878 0.269963 0.614099
0.507881 0.290043 0.608835
0.592371 0.301564 0.604196
0.664775 0.313008 0.598871
0.72639 0.33492 0.599451
0.794385 0.388373 0.627634
0.0945907 0.351446 0.649531
0.142763 0.360647 0.648997
0.253254 0.378561 0.650233
0.376684 0.389578 0.646601
0.49247 0.402548 0.640528
0.585122 0.410758 0.632013
0.66215 0.418051 0.625666
0.726955 0.430991 0.623911
0.800977 0.466835 0.651728
0.11368 0.473701 0.671824
0.140169 0.479423 0.673472
0.235508 0.496117 0.673961
0.355428 0.506661 0.671641
0.47895 0.516136 0.668223
0.582452 0.525216 0.665202
0.66424 0.534005 0.653284
0.73257 0.541604 0.653071
0.809033 0.563806 0.67509
0.137133 0.581888 0.700648
0.144015 0.585168 0.700816
0.215152 0.599329 0.697902
0.330266 0.614542 0.692256
0.458808 0.62594 0.684382
0.564065 0.638361 0.680522
0.660746 0.646387 0.669032
0.737026 0.655009 0.672236
0.820523 0.665125 0.692149
0.166552 0.668101 0.706828
0.168002 0.671199 0.709712
0.200183 0.689387 0.710719
0.299565 0.705577 0.706737
0.43621 0.720806 0.697795
0.553429 0.733898 0.692134
0.654185 0.747112 0.69073
0.744884 0.761395 0.695567
0.83003 0.771939 0.707927
0.191409 0.725292 0.710353
0.192874 0.727764 0.715709
0.205524 0.750362 0.725612
0.243549 0.779812 0.730251
0.353094 0.801999 0.727092
0.505516 0.818479 0.718425
0.631662 0.831617 0.713802
0.755032 0.851911 0.758831
0.843595 0.865629 0.737682
0.221744 0.776165 0.728145
0.224735 0.779904 0.734844
0.236332 0.797436 0.741146
0.259617 0.827985 0.751675
0.288075 0.853178 0.763287
0.334859 0.878477 0.755352
0.446357 0.89482 0.722118
0.615824 0.905638 0.704982
0.811597 0.938827 0.782528
0.261097 0.13048 0.643473
0.308019 0.138781 0.642054
0.417716 0.164141 0.6383
0.486137 0.182208 0.638498
0.5458 0.202213 0.641917
0.597253 0.226505 0.647501
0.64535 0.254917 0.651164
0.694911 0.288167 0.660548
0.753323 0.335012 0.67277
0.155612 0.124971 0.665187
0.198566 0.134142 0.663661
0.333852 0.158343 0.659968
0.437598 0.183566 0.658289
0.523217 0.210117 0.6589
0.591226 0.239322 0.662531
0.65211 0.272282 0.666163
0.706538 0.305211 0.672053
0.76492 0.354131 0.683406
0.101472 0.181125 0.691112
0.155474 0.200351 0.691005
0.286259 0.232303 0.691371
0.406668 0.260792 0.689525
0.508766 0.293294 0.688548
0.587243 0.317937 0.68838
0.655863 0.335286 0.686732
0.719524 0.354543 0.687449
0.786084 0.401633 0.704707
0.117586 0.351202 0.725963
0.174502 0.367498 0.724743
0.285725 0.386099 0.72401
0.394461 0.397498 0.722271
0.4963 0.408835 0.717571
0.581338 0.419257 0.714275
0.654871 0.427817 0.711421
0.724804 0.437919 0.71133
0.798657 0.473136 0.72517
0.134539 0.47921 0.750683
0.169467 0.483482 0.749935
0.268376 0.496056 0.748516
0.374258 0.505394 0.746548
0.485161 0.514336 0.74461
0.577752 0.523644 0.743862
0.657877 0.533318 0.740032
0.731167 0.543252 0.735225
0.80708 0.570642 0.747402
0.15433 0.583444 0.776638
0.168948 0.587442 0.776623
0.249653 0.598062 0.772656
0.352209 0.608148 0.770901
0.468132 0.619486 0.768215
0.568689 0.632486 0.769818
0.659724 0.644099 0.771252
0.737713 0.657023 0.76379
0.817151 0.67863 0.772503
0.176623 0.676066 0.786114
0.179141 0.67953 0.788769
0.224002 0.693095 0.793561
0.320409 0.705379 0.792233
0.444999 0.718639 0.788174
0.555245 0.731838 0.785641
0.651316 0.748333 0.784924
0.744198 0.7608 0.7794
0.828305 0.772351 0.788678
0.199374 0.732021 0.783185
0.200885 0.734966 0.787076
0.214694 0.756207 0.805615
0.259373 0.785306 0.819684
0.370245 0.803983 0.819059
0.515175 0.819043 0.812772
0.634409 0.833432 0.807446
0.740154 0.847318 0.805035
0.833494 0.858366 0.807446
0.227985 0.780255 0.785199
0.231113 0.783886 0.789303
0.243702 0.801663 0.800778
0.26659 0.829801 0.819379
0.300633 0.856825 0.837079
0.361089 0.881559 0.840055
0.477897 0.896651 0.822934
0.629129 0.906783 0.80058
0.794888 0.922194 0.831922
0.301122 0.176303 0.699565
0.334035 0.183139 0.697826
0.431113 0.207477 0.700938
0.495262 0.223865 0.699092
0.549386 0.243198 0.697932
0.596384 0.263172 0.705257
0.64213 0.293843 0.712306
0.690272 0.324392 0.719997
0.748165 0.375143 0.729946
0.215396 0.186389 0.726604
0.243732 0.191867 0.726452
0.366247 0.214435 0.723995
0.455512 0.236759 0.724865
0.530663 0.257984 0.722286
0.590753 0.280003 0.725933
0.645365 0.310063 0.731884
0.699168 0.343511 0.736019
0.757443 0.39237 0.743465
0.142733 0.213275 0.755306
0.167346 0.218128 0.755184
0.288762 0.240116 0.755886
0.40557 0.262272 0.753613
0.507378 0.290394 0.753658
0.585519 0.31986 0.755062
0.653193 0.355367 0.759503
0.715007 0.390997 0.762646
0.77554 0.433661 0.769665
0.128008 0.330251 0.78996
0.169131 0.342824 0.789776
0.286564 0.366003 0.790585
0.396841 0.380316 0.789395
0.502403 0.40032 0.788754
0.588083 0.423255 0.789181
0.660853 0.446479 0.791074
0.725353 0.465599 0.790387
0.793164 0.49601 0.795651
0.166918 0.488777 0.82533
0.209934 0.498787 0.824186
0.323827 0.516243 0.820829
0.415381 0.525414 0.820615
0.508064 0.531685 0.819852
0.590707 0.539239 0.819364
0.665476 0.549004 0.81828
0.732372 0.5608 0.81561
0.803601 0.585031 0.818448
0.183719 0.593271 0.849088
0.205859 0.598138 0.84918
0.304006 0.608804 0.845243
0.39324 0.618814 0.844907
0.492912 0.631617 0.845365
0.58349 0.642618 0.847013
0.667323 0.652323 0.848859
0.741222 0.666117 0.846342
0.813947 0.686473 0.844694
0.203052 0.682902 0.863951
0.206439 0.686336 0.866606
0.276448 0.696529 0.86508
0.364248 0.70515 0.863539
0.469566 0.717464 0.864485
0.568765 0.732433 0.867018
0.661128 0.749416 0.870939
0.746654 0.760372 0.874311
0.825971 0.775769 0.865354
0.21619 0.749722 0.861372
0.218448 0.753109 0.865583
0.239033 0.770977 0.881132
0.298878 0.790845 0.893004
0.410941 0.804334 0.893477
0.535637 0.817533 0.892546
0.643397 0.832197 0.89218
0.738323 0.846967 0.88922
0.83093 0.855024 0.87982
0.237522 0.788663 0.843915
0.240864 0.792889 0.847211
0.253513 0.808942 0.860365
0.279347 0.834501 0.878248
0.322148 0.861143 0.898329
0.39794 0.883116 0.907378
0.521996 0.896635 0.899733
0.655482 0.906111 0.88603
0.78674 0.919875 0.874495
0.350454 0.261433 0.76965
0.367727 0.263462 0.76878
0.438941 0.280369 0.769726
0.500282 0.299016 0.771298
0.550362 0.315312 0.773419
0.594659 0.33225 0.77496
0.638941 0.353628 0.778912
0.684504 0.378485 0.786191
0.742046 0.426825 0.799146
0.30927 0.279789 0.791119
0.323827 0.282551 0.79028
0.404883 0.298375 0.788754
0.478859 0.315892 0.787747
0.542184 0.33312 0.788739
0.593362 0.351034 0.790509
0.641749 0.373098 0.797528
0.690547 0.396185 0.800122
0.749249 0.443381 0.812238
0.252003 0.324697 0.822339
0.266926 0.325338 0.821546
0.357244 0.33431 0.819669
0.45127 0.350713 0.817914
0.5308 0.367361 0.817487
0.594553 0.385077 0.817365
0.650492 0.405982 0.821042
0.704433 0.432761 0.825635
0.764828 0.482994 0.838788
0.226429 0.397421 0.857679
0.236942 0.39823 0.857114
0.319814 0.400351 0.854643
0.42649 0.408194 0.851179
0.519478 0.42443 0.849958
0.594293 0.440497 0.849668
0.659358 0.459724 0.850675
0.717296 0.483879 0.853849
0.777829 0.528038 0.860914
0.264973 0.517555 0.892363
0.274952 0.51931 0.892729
0.341405 0.520134 0.890974
0.430472 0.522789 0.888365
0.523659 0.52639 0.886091
0.601343 0.538186 0.886275
0.667536 0.551553 0.885679
0.729885 0.568643 0.886961
0.789456 0.601663 0.889876
0.310994 0.627924 0.91577
0.321874 0.631235 0.91606
0.383337 0.638498 0.914946
0.456092 0.646891 0.91487
0.53492 0.651118 0.912978
0.607538 0.653208 0.911452
0.67538 0.655879 0.912398
0.732143 0.664561 0.910384
0.791348 0.687236 0.909773
0.291173 0.692668 0.929656
0.29688 0.695094 0.930297
0.351583 0.69926 0.928954
0.42858 0.708034 0.926329
0.511635 0.72018 0.92607
0.591913 0.731853 0.925658
0.664393 0.739773 0.925505
0.732677 0.741466 0.92697
0.800198 0.754299 0.925551
0.273533 0.76109 0.944579
0.281498 0.763302 0.946166
0.319738 0.767987 0.948745
0.39115 0.772503 0.947646
0.481407 0.77818 0.943099
0.566857 0.786389 0.939727
0.641611 0.800046 0.940459
0.716579 0.81268 0.941009
0.800046 0.818845 0.941238
0.271824 0.810925 0.921111
0.279347 0.815076 0.924193
0.305348 0.829007 0.93695
0.351644 0.845121 0.952789
0.419394 0.858152 0.958007
0.506188 0.868772 0.959564
0.588434 0.880461 0.959121
0.674769 0.892012 0.957702
0.778012 0.906569 0.955169
