presets/H哈苏青.cube
TITLE "XH Copyright"
# XH Copyright
# 5219
# 20250101
LUT_3D_SIZE 5
0 0.00880446 0.0416876
0.0736095 0.0245212 0.0395361
0.36701 0.0671092 0.0556802
0.409445 0.190509 0.0717174
0.542489 0.276371 0.0866407
0 0.183017 0.219791
0.257908 0.239368 0.0944076
0.52668 0.271977 0.120058
0.652903 0.374731 0.101595
0.753811 0.459785 0.107469
0 0.496544 0.482444
0 0.5738 0.513313
0.587015 0.545357 0.241505
0.781369 0.574731 0.228611
0.876661 0.642023 0.222232
0 0.66775 0.663813
0.213779 0.735012 0.701869
0.56025 0.772519 0.412634
0.861509 0.76704 0.359045
0.940139 0.811917 0.42118
0.241856 0.818479 0.808087
0.358465 0.895369 0.842466
0.588479 0.920882 0.801236
0.974105 0.91368 0.330648
0.968017 0.953353 0.594842
0 0.0135653 0.0754864
0 0.0610361 0.100206
0.372366 0.102281 0.0970321
0.489067 0.204395 0.0799115
0.596155 0.297642 0.134035
0 0.220661 0.334554
0.160372 0.284703 0.358389
0.529839 0.317266 0.213886
0.666133 0.408957 0.172717
0.748882 0.490974 0.258625
0 0.487282 0.55462
0.106874 0.57142 0.583581
0.577264 0.581689 0.367224
0.768841 0.613199 0.388769
0.859953 0.670207 0.412268
0.0580911 0.680842 0.708003
0.255543 0.766171 0.734462
0.499184 0.809293 0.664195
0.825132 0.8056 0.519066
0.915465 0.849012 0.572686
0.328099 0.835538 0.84097
0.407004 0.912779 0.875669
0.579675 0.948318 0.875822
0.857649 0.962158 0.562783
0.9449 0.983017 0.667567
0 0.0213321 0.286
0 0.0721752 0.36022
0.345083 0.106889 0.422705
0.466743 0.225772 0.354894
0.567468 0.37673 0.335882
0 0.243229 0.54641
0.152468 0.319158 0.553948
0.471641 0.364263 0.534478
0.614115 0.443412 0.50161
0.721584 0.575662 0.505196
0 0.493629 0.639017
0.194369 0.575784 0.689235
0.549325 0.599344 0.649943
0.736522 0.647822 0.596246
0.822202 0.709651 0.629892
0.275364 0.670588 0.750423
0.402411 0.753231 0.804532
0.552895 0.810636 0.798413
0.780484 0.843168 0.651881
0.907774 0.871061 0.741848
0.47451 0.823529 0.876905
0.51516 0.910033 0.916808
0.635645 0.957229 0.915938
0.834119 0.977569 0.780163
0.913268 0.999893 0.799649
0 0.0463111 0.367605
0.0435645 0.0957504 0.4383
0.368505 0.127337 0.552682
0.498085 0.226169 0.564782
0.585443 0.362112 0.560296
0 0.293309 0.61503
0.207874 0.34432 0.649683
0.503136 0.366094 0.678187
0.649943 0.43563 0.703517
0.723812 0.544991 0.688884
0.0306401 0.519997 0.70692
0.282368 0.593683 0.754345
0.564675 0.621805 0.780194
0.739803 0.664515 0.763561
0.825544 0.721355 0.787991
0.328237 0.693996 0.807721
0.461524 0.768673 0.85481
0.630106 0.816175 0.863462
0.796811 0.85333 0.841825
0.894652 0.887129 0.855283
0.569314 0.826658 0.895582
0.61976 0.902083 0.9364
0.714031 0.953124 0.945663
0.866423 0.975631 0.926986
0.939406 1 0.910964
0 0.0604868 0.42887
0.088777 0.127901 0.469306
0.378927 0.168795 0.561151
0.506966 0.266758 0.5794
0.6 0.38085 0.624781
0 0.319371 0.60293
0.268849 0.359091 0.675914
0.516655 0.393713 0.727031
0.666636 0.459541 0.752712
0.736767 0.567498 0.738598
0.0997177 0.542962 0.707637
0.339391 0.610224 0.77818
0.587808 0.635889 0.814023
0.759518 0.673411 0.816037
0.846601 0.737499 0.82829
0.40264 0.705364 0.825574
0.506081 0.779004 0.872663
0.65684 0.824292 0.894224
0.823026 0.861295 0.877791
0.898344 0.901137 0.906981
0.599817 0.840482 0.89134
0.664759 0.912261 0.934737
0.771389 0.950637 0.958114
0.885496 0.98471 0.967224
0.941146 1 0.956817
