presets/H哈苏.cube
TITLE "XH Copyright"
# XH Copyright
# 5219
# 20250101
LUT_3D_SIZE 9
0.0396582 0.0396582 0.0466163
0.0409247 0.0487984 0.0446937
0.187304 0.0516213 0.043473
0.328908 0.0612802 0.0467231
0.396338 0.0854047 0.0495003
0.388815 0.151965 0.0536812
0.431403 0.203937 0.0578927
0.503136 0.242893 0.0618143
0.557748 0.284245 0.065568
0.0739757 0.0712444 0.0893568
0.10959 0.106798 0.115541
0.286534 0.113481 0.0843977
0.411093 0.125399 0.0802777
0.472114 0.169329 0.0583047
0.52108 0.214786 0.0648661
0.567605 0.284337 0.0657664
0.624887 0.321035 0.0692607
0.677012 0.359106 0.072755
0.0602426 0.201434 0.221897
0.12932 0.235309 0.252674
0.299016 0.252491 0.135058
0.457038 0.242634 0.1075
0.542168 0.279896 0.104112
0.597681 0.332021 0.0709392
0.660227 0.375937 0.073518
0.714565 0.4094 0.0767529
0.749645 0.453666 0.0803082
0.0583352 0.358755 0.331151
0.075288 0.402792 0.378851
0.28896 0.394202 0.256245
0.439994 0.412451 0.17673
0.558831 0.420676 0.169009
0.642695 0.444007 0.15375
0.719432 0.468879 0.10959
0.773739 0.504356 0.114748
0.801678 0.535805 0.143236
0.0680705 0.467964 0.429816
0.101198 0.508415 0.477897
0.218799 0.531167 0.449607
0.456565 0.515633 0.329061
0.569543 0.529671 0.323873
0.665217 0.543252 0.320043
0.760708 0.559228 0.23267
0.814801 0.588464 0.212131
0.84538 0.620127 0.231357
0.128252 0.546563 0.525734
0.17055 0.583749 0.565133
0.252064 0.612955 0.571923
0.449805 0.620874 0.478935
0.567483 0.629282 0.433387
0.683833 0.63978 0.434272
0.77792 0.647578 0.388449
0.846525 0.67187 0.34023
0.874586 0.696666 0.363424
0.198474 0.624048 0.610437
0.26157 0.655421 0.63418
0.352407 0.681788 0.647684
0.476951 0.704082 0.604517
0.620996 0.709499 0.521614
0.688701 0.732311 0.485573
0.816434 0.730632 0.444205
0.880323 0.74725 0.443702
0.891493 0.772564 0.479484
0.254566 0.699657 0.685695
0.323079 0.733806 0.711299
0.412116 0.76051 0.71223
0.499138 0.778546 0.73051
0.642466 0.784787 0.654612
0.744671 0.799954 0.506523
0.883055 0.797086 0.411429
0.909087 0.81854 0.500053
0.910872 0.838422 0.577676
0.364187 0.759976 0.754314
0.414694 0.791241 0.775692
0.48249 0.821805 0.771511
0.552499 0.842374 0.803876
0.676158 0.847623 0.753475
0.798413 0.856077 0.602121
0.916915 0.857527 0.48455
0.923735 0.87332 0.611627
0.923278 0.893568 0.692653
0.0400397 0.04094 0.05037
0.0491493 0.0551156 0.0750591
0.20415 0.0642557 0.0445716
0.34995 0.0705119 0.0476844
0.411612 0.096849 0.0505379
0.414679 0.165179 0.0550393
0.461875 0.216449 0.0592966
0.534218 0.255879 0.0632639
0.593133 0.292348 0.0667887
0.0762646 0.0830091 0.118761
0.105684 0.128969 0.153689
0.293019 0.130282 0.0927443
0.432532 0.142428 0.0888991
0.484138 0.187823 0.0720226
0.541817 0.232578 0.074403
0.590417 0.294789 0.0668956
0.649577 0.333349 0.0705425
0.692531 0.367498 0.0735943
0.0659648 0.222812 0.274891
0.114137 0.264469 0.302113
0.308125 0.272663 0.166888
0.471733 0.267277 0.127367
0.55024 0.298894 0.120867
0.611841 0.351354 0.0928206
0.670375 0.389914 0.0746319
0.724865 0.428275 0.0827497
0.757321 0.463951 0.101732
0.0595102 0.376761 0.367041
0.0821241 0.422889 0.418555
0.294545 0.411246 0.306859
0.447868 0.428473 0.214038
0.569848 0.43711 0.202258
0.650568 0.459342 0.18793
0.730755 0.487449 0.139986
0.783185 0.515999 0.139803
0.814969 0.547448 0.172259
0.0776379 0.482109 0.451377
0.104021 0.524514 0.503441
0.229511 0.543282 0.483101
0.473381 0.531334 0.373968
0.580926 0.545647 0.352499
0.671672 0.558968 0.351217
0.768627 0.574151 0.280079
0.827939 0.601068 0.25333
0.854887 0.630564 0.277821
0.137148 0.56173 0.546975
0.183902 0.599008 0.580011
0.269352 0.628138 0.594079
0.446571 0.637415 0.519112
0.582757 0.643046 0.46775
0.68629 0.652216 0.462928
0.787579 0.661097 0.434211
0.844755 0.688823 0.394064
0.87097 0.710155 0.411582
0.210239 0.634775 0.626001
0.276402 0.671748 0.653346
0.365179 0.6981 0.654505
0.479515 0.718318 0.637247
0.623346 0.725139 0.553903
0.702434 0.740139 0.51841
0.814359 0.747051 0.502022
0.872145 0.764157 0.492668
0.891981 0.785977 0.528511
0.270695 0.714397 0.704387
0.340124 0.744778 0.723491
0.428229 0.770886 0.722438
0.512673 0.789303 0.742947
0.643336 0.798154 0.676219
0.744472 0.811734 0.555245
0.86807 0.8159 0.481163
0.907576 0.829602 0.551369
0.915496 0.847181 0.618433
0.38143 0.774395 0.772381
0.43447 0.802136 0.797559
0.49723 0.833967 0.787884
0.57055 0.850492 0.808454
0.677104 0.860487 0.776654
0.800427 0.865843 0.647868
0.907897 0.868574 0.538552
0.924773 0.889021 0.646265
0.92575 0.899504 0.71429
0.0405737 0.046128 0.0922103
0.0423133 0.068513 0.183276
0.121675 0.0892805 0.114199
0.295125 0.0889448 0.106828
0.399786 0.119005 0.0940871
0.424292 0.181979 0.0688487
0.509041 0.215808 0.0641794
0.563989 0.258259 0.0799115
0.608804 0.302998 0.116274
0.0513161 0.106538 0.237842
0.0675364 0.153933 0.292882
0.208377 0.17879 0.217914
0.38265 0.175799 0.191287
0.475914 0.225681 0.167895
0.520577 0.265232 0.146624
0.602792 0.307652 0.107256
0.638331 0.349416 0.152789
0.672572 0.389029 0.192844
0.0525673 0.243458 0.366186
0.0846723 0.293919 0.4094
0.239796 0.298161 0.383261
0.43267 0.310109 0.260151
0.542473 0.322362 0.207843
0.60676 0.370779 0.170138
0.671641 0.406836 0.150851
0.712978 0.443534 0.201801
0.747936 0.480537 0.240467
0.0658427 0.381491 0.459052
0.0910048 0.42826 0.501671
0.233738 0.43827 0.483909
0.419577 0.444297 0.380133
0.562203 0.452155 0.31754
0.645182 0.475975 0.301961
0.728161 0.498863 0.23946
0.777859 0.533394 0.259907
0.804868 0.563546 0.294331
0.0997787 0.479103 0.544381
0.129854 0.524086 0.579156
0.251728 0.546761 0.558129
0.437781 0.551247 0.490333
0.569665 0.560311 0.440528
0.672847 0.574334 0.42388
0.753307 0.59292 0.390631
0.817639 0.618326 0.370047
0.839765 0.643992 0.409201
0.166003 0.564172 0.616953
0.212787 0.600748 0.640055
0.302586 0.633433 0.626078
0.424475 0.651011 0.621836
0.581659 0.658106 0.549493
0.687465 0.661479 0.520775
0.77586 0.677867 0.51986
0.826185 0.704356 0.522332
0.853147 0.730953 0.540002
0.230686 0.644129 0.671519
0.29131 0.67689 0.698253
0.379614 0.710155 0.68011
0.468528 0.733425 0.691447
0.594171 0.7458 0.638071
0.696376 0.753338 0.599771
0.792172 0.762371 0.598306
0.848829 0.782345 0.610086
0.872526 0.804639 0.62446
0.296666 0.723278 0.73521
0.353231 0.75172 0.758389
0.446342 0.784405 0.741176
0.523659 0.805829 0.749203
0.63328 0.817243 0.71722
0.757366 0.817105 0.660899
0.812284 0.83772 0.638743
0.878599 0.847333 0.672755
0.902358 0.861616 0.696162
0.407614 0.780331 0.797162
0.456687 0.812589 0.820035
0.512139 0.841047 0.813382
0.569467 0.864485 0.812116
0.66424 0.874922 0.809628
0.805097 0.873106 0.722591
0.851026 0.890745 0.68603
0.89395 0.904128 0.728969
0.914519 0.916518 0.760922
0.0412909 0.0507362 0.167208
0.0435798 0.0786755 0.298985
0.0856641 0.112261 0.285908
0.252262 0.11252 0.245243
0.361364 0.129641 0.257664
0.419913 0.174243 0.241382
0.472053 0.263951 0.174731
0.537224 0.291096 0.174548
0.577356 0.334615 0.221088
0.0485389 0.119478 0.362203
0.0732433 0.167102 0.410361
0.162844 0.203937 0.38201
0.343191 0.207889 0.336431
0.442115 0.223758 0.349218
0.496834 0.274952 0.333593
0.553521 0.357397 0.270146
0.608469 0.382513 0.279301
0.647257 0.419577 0.31667
0.0538949 0.254643 0.483223
0.0715953 0.305898 0.531106
0.222965 0.317494 0.511269
0.370138 0.338689 0.447211
0.491615 0.352163 0.421393
0.573602 0.417594 0.383917
0.637964 0.430777 0.334188
0.685206 0.467918 0.363104
0.717144 0.505333 0.399512
0.0758221 0.381704 0.528984
0.106844 0.426749 0.575479
0.216907 0.452827 0.581674
0.39678 0.455573 0.549722
0.541695 0.474647 0.471
0.630991 0.489174 0.426596
0.702113 0.52108 0.403632
0.750134 0.557107 0.426093
0.780529 0.58677 0.45655
0.127993 0.479591 0.595483
0.168704 0.524376 0.634714
0.247349 0.562478 0.636698
0.42295 0.561868 0.606241
0.556054 0.574609 0.549706
0.672526 0.58735 0.500175
0.741726 0.61149 0.490166
0.79115 0.636164 0.500999
0.818418 0.663035 0.528542
0.214328 0.559625 0.65684
0.266545 0.594797 0.692134
0.328969 0.63711 0.69453
0.447456 0.656428 0.667338
0.566522 0.675196 0.629236
0.679179 0.679255 0.58677
0.772854 0.693065 0.576791
0.820676 0.717494 0.596506
0.848829 0.737621 0.610941
0.286366 0.640909 0.726665
0.330419 0.676127 0.749859
0.400854 0.715541 0.730968
0.488075 0.744121 0.727108
0.58172 0.759701 0.719631
0.705684 0.762463 0.654658
0.789319 0.77499 0.644022
0.845884 0.79588 0.665125
0.866392 0.817716 0.680323
0.327596 0.725582 0.772381
0.37908 0.759426 0.795712
0.457954 0.789944 0.782696
0.543053 0.813077 0.773526
0.628199 0.827146 0.776211
0.749233 0.830823 0.714488
0.800549 0.850507 0.712215
0.862669 0.863294 0.735744
0.898604 0.871138 0.754101
0.440879 0.782116 0.820905
0.483772 0.815702 0.838499
0.532296 0.847562 0.8421
0.58436 0.874189 0.835294
0.669795 0.882353 0.827695
0.793744 0.891066 0.766262
0.846311 0.901762 0.764218
0.884764 0.916335 0.784527
0.907698 0.922805 0.803311
0.0424353 0.0523384 0.333333
0.0522164 0.0758831 0.409064
0.116381 0.0974441 0.404837
0.253849 0.10251 0.436881
0.372076 0.120241 0.454597
0.44036 0.171649 0.416983
0.484977 0.234165 0.372656
0.532143 0.296269 0.341253
0.575616 0.376867 0.340215
0.0473335 0.132174 0.452125
0.0821851 0.170993 0.50103
0.203952 0.192355 0.49131
0.341527 0.201877 0.508782
0.452003 0.214496 0.539117
0.51574 0.269291 0.495598
0.556924 0.335882 0.452445
0.597955 0.391196 0.428382
0.64918 0.466392 0.438041
0.0551003 0.264179 0.59353
0.0738384 0.312184 0.615915
0.234485 0.32903 0.586419
0.35903 0.352987 0.554559
0.481697 0.364691 0.553048
0.561242 0.400519 0.53138
0.617044 0.436545 0.509438
0.683314 0.512535 0.500298
0.715328 0.557198 0.503441
0.062974 0.388754 0.617639
0.107073 0.434806 0.660273
0.22768 0.459678 0.64921
0.392508 0.469673 0.637934
0.509926 0.487663 0.588556
0.606592 0.504707 0.568719
0.679255 0.557931 0.552819
0.734203 0.598032 0.553582
0.762524 0.617578 0.565957
0.143084 0.492683 0.659571
0.186908 0.529702 0.691325
0.263813 0.564034 0.702815
0.418418 0.573587 0.684352
0.544228 0.580606 0.657252
0.656855 0.603037 0.608469
0.725551 0.622782 0.593439
0.78117 0.650111 0.601038
0.805997 0.678203 0.622782
0.239017 0.568154 0.697475
0.288502 0.606119 0.73695
0.347158 0.642054 0.749081
0.452705 0.666667 0.728679
0.561944 0.683619 0.709407
0.676661 0.688807 0.660014
0.766155 0.705394 0.643259
0.818372 0.731411 0.6636
0.841596 0.752483 0.681285
0.322866 0.646616 0.74966
0.366552 0.684596 0.786892
0.419303 0.718273 0.793408
0.497169 0.745785 0.771923
0.594217 0.760906 0.768673
0.703365 0.777157 0.726833
0.77409 0.790738 0.709606
0.844343 0.802823 0.723262
0.87219 0.824796 0.758236
0.38114 0.721233 0.819181
0.426535 0.755261 0.840894
0.478477 0.793194 0.827893
0.558785 0.821851 0.814832
0.64622 0.830076 0.823285
0.740688 0.842878 0.785916
0.814603 0.853529 0.773709
0.856504 0.872633 0.78381
0.903243 0.876829 0.803418
0.48397 0.781628 0.863478
0.523751 0.811536 0.879728
0.560327 0.850523 0.879225
0.603525 0.873625 0.870695
0.698787 0.886351 0.863081
0.791287 0.891707 0.829023
0.856458 0.903075 0.824277
0.882506 0.917876 0.8392
0.905272 0.929061 0.852705
0.0429847 0.0546426 0.401022
0.048249 0.0864118 0.471336
0.146258 0.104738 0.463157
0.276188 0.10985 0.505241
0.371008 0.125353 0.560113
0.440925 0.167452 0.563348
0.50779 0.224048 0.530449
0.544747 0.29247 0.484337
0.583062 0.347814 0.49015
0.0484932 0.146456 0.517601
0.0886854 0.182681 0.562066
0.234455 0.197345 0.536721
0.360845 0.205142 0.579431
0.454047 0.221927 0.633188
0.517189 0.267338 0.631525
0.577935 0.321462 0.58909
0.611048 0.386206 0.557641
0.646464 0.432334 0.568673
0.0567025 0.288396 0.648386
0.0614481 0.339818 0.670497
0.247486 0.340673 0.641627
0.386709 0.350042 0.627451
0.499153 0.352667 0.661036
0.58323 0.378317 0.669062
0.635401 0.433616 0.632258
0.67509 0.485039 0.611444
0.708064 0.517372 0.625528
0.0661326 0.407172 0.687053
0.105653 0.451408 0.715084
0.243519 0.471061 0.702937
0.408759 0.475319 0.698634
0.510536 0.4934 0.680995
0.60766 0.512825 0.670909
0.677668 0.538582 0.660365
0.729198 0.572564 0.663066
0.764569 0.60177 0.67303
0.146731 0.503029 0.699489
0.195468 0.540413 0.730663
0.281468 0.570779 0.749493
0.429084 0.581857 0.745541
0.549493 0.593225 0.739971
0.640574 0.614755 0.696727
0.718334 0.630259 0.697536
0.769726 0.657725 0.70135
0.817273 0.706218 0.718456
0.252644 0.581628 0.736004
0.30132 0.615732 0.772641
0.358907 0.649912 0.790509
0.463676 0.677119 0.780941
0.570397 0.688685 0.783337
0.674723 0.699702 0.74844
0.754086 0.720623 0.730404
0.808209 0.74905 0.746242
0.831128 0.766659 0.762188
0.339086 0.653986 0.785657
0.386938 0.691035 0.817777
0.435325 0.725963 0.831037
0.516793 0.75108 0.825132
0.60322 0.770733 0.822522
0.706081 0.78114 0.799359
0.782193 0.796628 0.774365
0.846204 0.815427 0.790066
0.871946 0.829343 0.817349
0.415915 0.727474 0.844556
0.458274 0.760555 0.870161
0.507027 0.794858 0.869871
0.571557 0.820325 0.866575
0.654093 0.836912 0.859449
0.749859 0.843946 0.844755
0.825498 0.856443 0.824384
0.870146 0.873457 0.837919
0.897917 0.887449 0.856031
0.526665 0.781781 0.884504
0.561868 0.814878 0.895918
0.589471 0.849058 0.904128
0.630045 0.877867 0.897749
0.716487 0.88719 0.888823
0.802563 0.897002 0.881849
0.866224 0.907408 0.874098
0.899016 0.921492 0.881712
0.921202 0.929976 0.89781
0.0441901 0.0755322 0.418494
0.0471656 0.110735 0.49955
0.168078 0.11696 0.482383
0.298848 0.123507 0.524498
0.393515 0.138094 0.589197
0.452033 0.180652 0.611734
0.515221 0.23125 0.592004
0.563043 0.296162 0.570153
0.593484 0.360204 0.576761
0.0500954 0.173617 0.545602
0.0820935 0.219425 0.597131
0.253864 0.217365 0.565515
0.379782 0.223087 0.597055
0.47303 0.236011 0.65478
0.531624 0.274723 0.67451
0.58996 0.331197 0.660975
0.626856 0.38941 0.639963
0.657786 0.435966 0.633066
0.0579843 0.311376 0.662242
0.076524 0.359335 0.690959
0.268925 0.350561 0.683513
0.41004 0.356893 0.672694
0.512306 0.364309 0.7028
0.597375 0.381933 0.726787
0.652369 0.426276 0.720638
0.692439 0.479484 0.704616
0.718639 0.52668 0.696529
0.0791333 0.423072 0.706447
0.12311 0.467323 0.727916
0.278294 0.476631 0.732952
0.430503 0.478477 0.746029
0.534005 0.490455 0.75639
0.634745 0.496391 0.774853
0.699672 0.525979 0.766308
0.740291 0.574975 0.73901
0.767559 0.611307 0.742611
0.15848 0.517342 0.734691
0.212406 0.553017 0.76614
0.314366 0.579965 0.774868
0.446525 0.59089 0.785336
0.557656 0.599832 0.79205
0.649287 0.617426 0.767773
0.727245 0.636423 0.766812
0.77557 0.666957 0.769543
0.808087 0.687495 0.786633
0.256428 0.594568 0.774258
0.309636 0.628763 0.810254
0.378058 0.66276 0.81059
0.472206 0.684855 0.820584
0.580224 0.695308 0.830014
0.686168 0.705562 0.806455
0.751644 0.72842 0.789593
0.809354 0.749126 0.806424
0.835492 0.770153 0.823224
0.349477 0.669612 0.816373
0.39678 0.703151 0.848173
0.456336 0.735424 0.856504
0.530037 0.761059 0.856229
0.617151 0.776837 0.859892
0.713634 0.785245 0.846906
0.789319 0.805676 0.826169
0.84123 0.824292 0.838834
0.864454 0.839017 0.853498
0.447593 0.734173 0.859876
0.492012 0.764477 0.884764
0.539712 0.799451 0.891829
0.593393 0.824292 0.890455
0.668727 0.840604 0.886427
0.762478 0.852232 0.885039
0.826398 0.865644 0.871489
0.867185 0.883238 0.873869
0.89987 0.893339 0.890242
0.558282 0.786831 0.892973
0.595895 0.817212 0.913024
0.622049 0.851286 0.918181
0.660349 0.878172 0.917601
0.736263 0.89044 0.913069
0.814527 0.898863 0.910903
0.872221 0.910674 0.906249
0.903853 0.924193 0.915892
0.927092 0.934661 0.924331
0.0449226 0.0842908 0.462379
0.0653239 0.1178 0.509438
0.183764 0.139986 0.493599
0.295308 0.155642 0.536889
0.404105 0.162646 0.590311
0.467613 0.200351 0.621164
0.5252 0.260105 0.605798
0.571023 0.312245 0.615473
0.598108 0.37023 0.626261
0.0652323 0.18439 0.563272
0.12871 0.223865 0.610254
0.276768 0.232456 0.584588
0.380163 0.253285 0.612482
0.477165 0.268055 0.658671
0.543084 0.304158 0.682307
0.596231 0.354635 0.672999
0.636027 0.406577 0.68365
0.664683 0.451041 0.699199
0.0657664 0.324132 0.650721
0.116915 0.368505 0.676753
0.303502 0.356527 0.702144
0.431144 0.363531 0.716777
0.519219 0.383505 0.738262
0.603433 0.405753 0.753353
0.662745 0.438621 0.760891
0.704234 0.487236 0.760128
0.723064 0.541756 0.750835
0.109331 0.442817 0.683101
0.164614 0.483909 0.710307
0.303944 0.490135 0.746349
0.440528 0.496071 0.77319
0.544793 0.506828 0.78056
0.643977 0.509361 0.811917
0.72015 0.531746 0.816709
0.753155 0.57995 0.790555
0.776776 0.62092 0.7794
0.188449 0.530007 0.734234
0.249516 0.567025 0.760525
0.341451 0.592142 0.785992
0.469413 0.59881 0.810071
0.573098 0.611963 0.818219
0.660883 0.62977 0.795773
0.74049 0.639719 0.812787
0.790188 0.669474 0.813092
0.818448 0.700801 0.828183
0.290562 0.605417 0.77731
0.34081 0.641642 0.812009
0.407019 0.670314 0.831922
0.494743 0.69369 0.849714
0.598535 0.699077 0.861173
0.698177 0.715663 0.838361
0.765484 0.734813 0.828412
0.816907 0.75787 0.841733
0.844648 0.780453 0.852613
0.387457 0.673884 0.830839
0.433021 0.709468 0.856611
0.484962 0.741665 0.872969
0.54963 0.766613 0.88336
0.633249 0.784405 0.893614
0.726955 0.793774 0.876173
0.796384 0.816693 0.86363
0.837949 0.835294 0.875731
0.870115 0.854444 0.888884
0.492424 0.735714 0.869352
0.531029 0.772045 0.882719
0.568429 0.803952 0.900908
0.625238 0.828275 0.906111
0.697475 0.843015 0.913298
0.775357 0.856519 0.905699
0.836576 0.869932 0.893355
0.882445 0.890974 0.906325
0.899901 0.903319 0.903822
0.589319 0.796551 0.885771
0.62153 0.826413 0.908049
0.657893 0.852552 0.917205
0.701625 0.876387 0.928832
0.763943 0.89189 0.932998
0.826749 0.902632 0.92961
0.879118 0.915679 0.936049
0.914916 0.930434 0.941024
0.929458 0.942946 0.944289
0.0452583 0.0885786 0.481682
0.0735332 0.120989 0.518608
0.196323 0.146746 0.511589
0.29572 0.164294 0.540871
0.401404 0.178012 0.595346
0.472724 0.215198 0.634791
0.52166 0.270222 0.604883
0.575372 0.317769 0.62768
0.606653 0.376974 0.642969
0.0740215 0.192844 0.589014
0.137743 0.224491 0.61854
0.282078 0.240589 0.595224
0.38201 0.264591 0.622019
0.483406 0.277424 0.65922
0.544213 0.309911 0.681605
0.597787 0.364508 0.685695
0.641443 0.407492 0.696391
0.669123 0.458991 0.69662
0.0756085 0.33579 0.646967
0.133577 0.374029 0.675868
0.309499 0.362692 0.708064
0.441825 0.366491 0.719936
0.523842 0.389487 0.751842
0.603235 0.414252 0.760143
0.667201 0.447639 0.770336
0.710582 0.49189 0.768627
0.729915 0.54667 0.746777
0.12253 0.446433 0.681163
0.178012 0.487526 0.707851
0.317037 0.496681 0.746838
0.453071 0.499962 0.777966
0.553704 0.510658 0.792859
0.645899 0.51519 0.818128
0.717952 0.536812 0.827115
0.75375 0.587625 0.795193
0.78439 0.626657 0.79736
0.20209 0.536767 0.731243
0.254643 0.571496 0.758618
0.353582 0.593698 0.797055
0.477729 0.602899 0.816342
0.5794 0.612085 0.825864
0.661509 0.632227 0.801266
0.746059 0.643763 0.820783
0.793683 0.675944 0.823941
0.827741 0.701564 0.827054
0.301747 0.607309 0.787243
0.348486 0.642771 0.815885
0.413062 0.67689 0.835172
0.493797 0.697047 0.862745
0.604273 0.701946 0.871656
0.703944 0.718624 0.843153
0.774517 0.737331 0.841138
0.820783 0.762097 0.853895
0.848783 0.78291 0.871244
0.4 0.679423 0.83653
0.441978 0.711772 0.857389
0.494804 0.744945 0.876905
0.554025 0.768414 0.895872
0.637003 0.784619 0.895201
0.732967 0.795102 0.886275
0.797589 0.816342 0.871885
0.842298 0.835966 0.883009
0.869062 0.851713 0.898253
0.502464 0.738094 0.871015
0.544137 0.773449 0.884886
0.57615 0.80531 0.906645
0.632761 0.828611 0.909819
0.705623 0.841794 0.916579
0.78088 0.856306 0.915785
0.84123 0.876005 0.899596
0.880629 0.891585 0.918181
0.906065 0.90338 0.905852
0.591272 0.798291 0.884169
0.62742 0.830137 0.906386
0.667445 0.859403 0.914305
0.714824 0.878447 0.928756
0.768505 0.892882 0.935699
0.832975 0.90605 0.936843
0.880735 0.921675 0.939925
0.915618 0.930694 0.941451
0.929137 0.936767 0.948119
