presets/H哈苏冷.cube
TITLE "XH Copyright"
# XH Copyright
# 5219
# 20250101
LUT_3D_SIZE 33
0 0 0.0919509
0 0 0.0871595
0 0 0.0860304
0 0.00231937 0.0881361
0 0.00802625 0.0898756
0 0.0100252 0.0927138
0 0.0110933 0.0894179
0.0514382 0.0102846 0.0869917
0.124224 0.00782788 0.0878004
0.202762 0.00648508 0.0885939
0.252125 0.00851453 0.0891737
0.292775 0.0111238 0.0895399
0.331121 0.0154879 0.090013
0.36202 0.0230869 0.0905165
0.385138 0.0266423 0.0906844
0.402808 0.0317388 0.0909285
0.414771 0.041474 0.0910658
0.415457 0.061799 0.0912184
0.407752 0.0825666 0.0909895
0.40238 0.10164 0.0894026
0.400305 0.117601 0.0893721
0.400534 0.12697 0.0893568
0.420829 0.143038 0.0907301
0.435523 0.160708 0.0896468
0.446571 0.175921 0.0899367
0.461982 0.18909 0.0899672
0.482719 0.20032 0.0902876
0.50457 0.209155 0.0902876
0.527794 0.218723 0.0905013
0.549065 0.231754 0.0906844
0.562768 0.245319 0.0908522
0.57763 0.257038 0.0909438
0.588708 0.264485 0.0910201
0 0 0.0993515
0 0.00321965 0.088426
0 0.00798047 0.0903639
0 0.012726 0.0996719
0 0.0175479 0.105882
0 0.0224308 0.0996567
0.00724804 0.0223239 0.0915999
0.0832227 0.0193637 0.0872053
0.165011 0.0175631 0.0881361
0.226246 0.01738 0.0889296
0.2748 0.024506 0.0894789
0.316854 0.0302129 0.0899062
0.355825 0.0315251 0.0903487
0.388769 0.0333562 0.0906844
0.406577 0.043946 0.0909133
0.420249 0.0519722 0.0911727
0.43151 0.0595407 0.0912947
0.44062 0.0766766 0.0914778
0.436759 0.0987411 0.0893721
0.433356 0.121508 0.0895247
0.434012 0.136965 0.0897231
0.44213 0.145556 0.0903182
0.454795 0.164767 0.0902571
0.467903 0.184421 0.0901045
0.485191 0.199664 0.0903029
0.505562 0.207599 0.0904097
0.524681 0.218051 0.0904707
0.543206 0.228214 0.0906539
0.561547 0.238819 0.0908217
0.580911 0.251896 0.0909438
0.596109 0.263218 0.0911116
0.611185 0.275944 0.0912795
0.620523 0.284077 0.0913558
0 0.00715648 0.104524
0 0.0127871 0.100191
0 0.0198978 0.103716
0 0.0259251 0.113451
0 0.0289464 0.120623
0 0.0389258 0.111482
0.0348516 0.0386664 0.102556
0.112413 0.035874 0.0949264
0.19855 0.0354009 0.0888075
0.257221 0.0331579 0.0921187
0.308782 0.0390478 0.0903182
0.349203 0.0443885 0.0902876
0.382223 0.0478065 0.0907149
0.41088 0.0497749 0.0940719
0.428046 0.0609445 0.09131
0.442451 0.0719463 0.091371
0.455604 0.0829175 0.0915389
0.464988 0.0979629 0.0894789
0.467018 0.118914 0.0896468
0.466712 0.13901 0.0898756
0.472328 0.151003 0.0898604
0.481239 0.16495 0.0913405
0.491508 0.185672 0.0910353
0.505608 0.204562 0.0903487
0.523613 0.219013 0.0904707
0.544076 0.228824 0.0906081
0.563119 0.239567 0.090837
0.579507 0.249989 0.0910048
0.596338 0.261036 0.0909285
0.615625 0.273243 0.0912947
0.631373 0.285939 0.091371
0.646143 0.297948 0.0915694
0.654292 0.304616 0.0916304
0 0.0181277 0.110903
0 0.0245365 0.116503
0 0.0350195 0.12105
0 0.0421912 0.129
0 0.0444648 0.135409
0.00572213 0.0588388 0.126925
0.0648508 0.0585946 0.116335
0.14226 0.0565042 0.106004
0.230747 0.0570382 0.0979019
0.29427 0.0535897 0.102235
0.344213 0.0534524 0.106722
0.381247 0.0578317 0.105882
0.406348 0.0652628 0.10071
0.432547 0.0708476 0.0992447
0.4495 0.0800946 0.0939193
0.465568 0.0942702 0.0897078
0.480964 0.110582 0.0898451
0.489097 0.123552 0.0896925
0.495171 0.140703 0.0899367
0.50042 0.154238 0.0899367
0.51136 0.165377 0.0901045
0.519661 0.185168 0.0909438
0.532189 0.206867 0.0917525
0.545388 0.223331 0.0906996
0.560708 0.237415 0.0906386
0.579416 0.252415 0.0909133
0.597177 0.262531 0.0910811
0.613977 0.273014 0.0912795
0.631251 0.283864 0.0912032
0.649393 0.294591 0.0915084
0.665095 0.309789 0.0915541
0.680095 0.3205 0.0918441
0.68835 0.325734 0.0917067
0 0.0319829 0.128084
0 0.0401617 0.133577
0 0.0511635 0.138125
0 0.0620737 0.144198
0 0.0716106 0.149706
0.0301366 0.0805982 0.143709
0.0965591 0.0805676 0.127703
0.180835 0.0788739 0.118807
0.266148 0.0756085 0.121065
0.332326 0.0735637 0.121447
0.369207 0.0733196 0.117708
0.399344 0.0780041 0.115923
0.428809 0.0863203 0.116472
0.459525 0.0944076 0.116335
0.471107 0.106859 0.10663
0.484138 0.120623 0.0991073
0.496803 0.135607 0.0917067
0.50901 0.152422 0.0900282
0.518196 0.163699 0.0901198
0.532723 0.173007 0.0902724
0.550912 0.186236 0.0944381
0.565286 0.208988 0.0907301
0.572122 0.232181 0.0909743
0.584573 0.250523 0.0910201
0.600412 0.264439 0.0911574
0.616632 0.275822 0.0911421
0.632242 0.284321 0.0912184
0.648249 0.294209 0.0914168
0.664973 0.304997 0.0917372
0.680568 0.315663 0.0916457
0.69424 0.32752 0.0919814
0.711849 0.339803 0.0919203
0.722942 0.347005 0.0920424
0 0.0573892 0.148653
0 0.0673228 0.149538
0 0.0782483 0.155367
0 0.0893873 0.164111
0.0152895 0.0994888 0.17174
0.0566415 0.105013 0.161578
0.125078 0.106203 0.146944
0.198825 0.108904 0.131319
0.275776 0.109071 0.123568
0.340337 0.104707 0.125643
0.381918 0.103975 0.124987
0.413031 0.109743 0.124102
0.440772 0.121096 0.121096
0.468223 0.13225 0.118486
0.485466 0.14284 0.11313
0.498482 0.155184 0.106706
0.511284 0.167514 0.100786
0.527977 0.177722 0.0957046
0.54081 0.183352 0.0971389
0.560983 0.193988 0.100801
0.578485 0.214664 0.0961013
0.591272 0.237125 0.0909438
0.598642 0.259205 0.0909438
0.611017 0.274876 0.0912795
0.625834 0.286687 0.091371
0.642603 0.297826 0.0915541
0.659678 0.307652 0.0916457
0.676081 0.317983 0.0917372
0.691707 0.328176 0.0919814
0.705806 0.337713 0.0921187
0.722576 0.348379 0.0920424
0.738811 0.361761 0.0924086
0.747189 0.369116 0.0924544
0 0.0916609 0.172137
0 0.10222 0.176959
0 0.11339 0.185428
0 0.124117 0.192401
0.0221256 0.134432 0.195026
0.0681468 0.140337 0.181582
0.145113 0.141131 0.164218
0.220417 0.139132 0.152361
0.28101 0.139467 0.139467
0.336873 0.144305 0.132342
0.383261 0.146609 0.130648
0.417624 0.152499 0.128313
0.447471 0.161761 0.126085
0.474113 0.171221 0.125261
0.49543 0.180819 0.123201
0.510811 0.18938 0.118212
0.527413 0.194278 0.113756
0.551583 0.200137 0.113863
0.569421 0.207797 0.111498
0.586679 0.226978 0.104112
0.599207 0.250156 0.094316
0.610101 0.270268 0.0912032
0.622339 0.288334 0.09131
0.636179 0.300938 0.0914778
0.652445 0.310948 0.0915694
0.670481 0.320607 0.0917372
0.688197 0.33167 0.0919203
0.70338 0.341451 0.0918288
0.717693 0.351583 0.0921645
0.731365 0.362783 0.0923171
0.747402 0.374472 0.0923323
0.762142 0.387137 0.092546
0.769162 0.393606 0.0925765
0 0.133806 0.206821
0 0.144793 0.214862
0 0.155215 0.224552
0 0.165774 0.22916
0.0161135 0.176165 0.226566
0.0641794 0.184741 0.211917
0.11371 0.191669 0.187594
0.214099 0.185245 0.159655
0.282704 0.183749 0.149966
0.35346 0.176242 0.149706
0.392905 0.176333 0.145785
0.426276 0.18117 0.138231
0.456931 0.187243 0.133227
0.482948 0.196811 0.133761
0.507134 0.206241 0.135897
0.530694 0.211398 0.134768
0.55523 0.220203 0.130266
0.57612 0.234424 0.124163
0.589746 0.249363 0.11075
0.604196 0.268009 0.101228
0.617227 0.287526 0.0944076
0.627314 0.306355 0.0915084
0.644785 0.319631 0.0916762
0.661814 0.329427 0.0916457
0.679942 0.337484 0.0917678
0.699779 0.345769 0.0919966
0.71632 0.356725 0.0921645
0.729946 0.365484 0.0922866
0.743297 0.376257 0.0923476
0.756176 0.389792 0.0925002
0.76762 0.402945 0.0925307
0.782147 0.415839 0.0928664
0.789197 0.421988 0.0927291
0 0.181781 0.248615
0 0.193118 0.255192
0 0.201022 0.262745
0 0.209873 0.271992
0.00701915 0.218067 0.272206
0.0460975 0.227207 0.251377
0.11397 0.226612 0.220127
0.192782 0.232715 0.147204
0.274907 0.233097 0.147692
0.340215 0.236271 0.144137
0.395789 0.227512 0.135042
0.437537 0.221897 0.131106
0.472786 0.219028 0.132403
0.501839 0.220539 0.138369
0.530159 0.23093 0.138399
0.552438 0.245045 0.133425
0.570108 0.259678 0.12636
0.586618 0.273075 0.119753
0.600717 0.287175 0.109377
0.616541 0.301564 0.100023
0.631968 0.317876 0.0928206
0.646387 0.33608 0.0916152
0.662898 0.348211 0.091783
0.682704 0.358312 0.0917678
0.702022 0.366491 0.0920119
0.718181 0.373022 0.0921035
0.73431 0.383856 0.0924544
0.749844 0.393179 0.0924544
0.76321 0.403189 0.0925002
0.775097 0.414374 0.0926528
0.788602 0.423865 0.0929274
0.798459 0.443076 0.0917525
0.803082 0.452323 0.0903944
0 0.225879 0.288945
0 0.239902 0.296696
0 0.247852 0.306722
0 0.258869 0.316564
0 0.269566 0.317678
0.0131228 0.274388 0.298314
0.0735943 0.280339 0.259815
0.147555 0.283833 0.205325
0.23125 0.289174 0.10695
0.330678 0.282582 0.111894
0.384375 0.283513 0.119738
0.424536 0.279683 0.122591
0.463661 0.27509 0.124056
0.503822 0.27335 0.126162
0.534386 0.280797 0.12459
0.554055 0.29073 0.125322
0.570855 0.302113 0.124697
0.589563 0.313466 0.121523
0.608942 0.323842 0.115526
0.628183 0.338125 0.108476
0.646281 0.352941 0.100587
0.662287 0.366384 0.0920272
0.679088 0.377569 0.0918746
0.698344 0.386877 0.0919051
0.718029 0.395239 0.0921187
0.736751 0.403525 0.0923629
0.752758 0.41387 0.0923323
0.766125 0.422858 0.0919509
0.779706 0.431876 0.0918441
0.793729 0.441459 0.0915389
0.805692 0.450416 0.0918135
0.817975 0.467292 0.0965133
0.822965 0.474403 0.0981155
0 0.277806 0.324483
0 0.291264 0.334951
0 0.29897 0.346517
0 0.313954 0.358892
0 0.327352 0.363317
0 0.327855 0.349981
0.0339513 0.331426 0.304921
0.123857 0.328832 0.256153
0.174197 0.342748 0.157656
0.265003 0.346883 0.0623178
0.376226 0.334249 0.0696117
0.42266 0.329915 0.0946975
0.460594 0.326085 0.112154
0.500648 0.323857 0.12108
0.531884 0.328008 0.121248
0.554284 0.334615 0.126162
0.574578 0.342428 0.129564
0.596551 0.352224 0.130297
0.61825 0.360616 0.128573
0.638529 0.372854 0.121736
0.658259 0.384817 0.111116
0.676493 0.395483 0.0996414
0.694636 0.405173 0.0910658
0.715129 0.413962 0.0886091
0.735531 0.422492 0.0889448
0.755138 0.431144 0.0895705
0.770413 0.439963 0.0894331
0.782223 0.4495 0.0917067
0.796063 0.458183 0.0926223
0.81059 0.466773 0.0903639
0.823651 0.47892 0.0951858
0.833265 0.490501 0.106264
0.836637 0.494804 0.110353
0 0.337469 0.356344
0 0.347509 0.370642
0 0.355657 0.382589
0 0.373495 0.398337
0 0.387823 0.408377
0 0.386587 0.404013
0 0.376059 0.354635
0.0883803 0.374884 0.313069
0.171878 0.384939 0.203586
0.240986 0.394171 0.0881361
0.3355 0.384451 0.0428779
0.417456 0.372915 0.0679789
0.46125 0.370275 0.0945449
0.498314 0.367712 0.114458
0.530831 0.369009 0.124147
0.559075 0.373953 0.134005
0.585184 0.380484 0.140734
0.609125 0.387976 0.144381
0.62826 0.396033 0.144747
0.648905 0.403922 0.136461
0.668849 0.413199 0.124849
0.687785 0.42266 0.111849
0.708476 0.430976 0.101762
0.732341 0.439033 0.0938125
0.753979 0.447425 0.0906844
0.771481 0.454963 0.0913558
0.783917 0.461509 0.0944228
0.797314 0.472618 0.101381
0.810773 0.481254 0.101625
0.825132 0.490486 0.100023
0.841871 0.507286 0.10602
0.843275 0.514366 0.114946
0.843122 0.516396 0.117464
0 0.382589 0.391608
0 0.38999 0.407294
0 0.406485 0.423026
0 0.422202 0.433982
0 0.432837 0.443946
0 0.435126 0.451011
0 0.436088 0.406271
0.0207218 0.428611 0.361364
0.132876 0.424186 0.270787
0.267094 0.415869 0.140673
0.313222 0.424018 0.0859693
0.392813 0.422171 0.0659037
0.456352 0.416617 0.0851606
0.499611 0.411246 0.111727
0.536171 0.407172 0.1337
0.563058 0.41268 0.153017
0.587015 0.417533 0.160708
0.610391 0.421332 0.159152
0.632609 0.42707 0.163409
0.655909 0.43534 0.161944
0.679927 0.442542 0.153185
0.704326 0.448905 0.14078
0.728099 0.455039 0.132219
0.74815 0.462654 0.117739
0.769574 0.469444 0.110307
0.790539 0.476768 0.10988
0.804227 0.487404 0.112856
0.818097 0.496635 0.111238
0.832273 0.508202 0.109789
0.845914 0.520409 0.111894
0.857237 0.531075 0.117357
0.862257 0.539895 0.127504
0.864088 0.542794 0.130648
0 0.424277 0.421759
0 0.437415 0.439109
0 0.449348 0.454627
0 0.46125 0.467048
0 0.471031 0.478279
0 0.4766 0.485466
0 0.481834 0.456687
0 0.479301 0.413657
0.0853285 0.468772 0.349218
0.202564 0.466865 0.211383
0.301503 0.461311 0.128252
0.363622 0.462318 0.088777
0.437934 0.454215 0.0840314
0.497459 0.446235 0.11519
0.538567 0.44123 0.145022
0.566918 0.445243 0.167041
0.591241 0.450965 0.181018
0.613779 0.455375 0.189487
0.638697 0.457206 0.198199
0.661707 0.463783 0.195377
0.686152 0.470634 0.184314
0.711788 0.476707 0.169284
0.738582 0.482383 0.155764
0.763851 0.488884 0.138552
0.786053 0.494774 0.131029
0.803983 0.502251 0.128283
0.818082 0.513268 0.122271
0.829923 0.522423 0.115236
0.844297 0.533028 0.116976
0.85948 0.543343 0.123903
0.872724 0.551324 0.131548
0.877379 0.561975 0.140368
0.878294 0.565164 0.142153
0 0.459525 0.451438
0 0.475731 0.470588
0 0.482017 0.483803
0 0.494347 0.498924
0 0.505348 0.510094
0 0.513176 0.514504
0 0.522484 0.505959
0 0.524422 0.468742
0.0323796 0.513436 0.418875
0.151141 0.508782 0.312322
0.31371 0.489952 0.173999
0.345953 0.496208 0.13135
0.409232 0.493507 0.103243
0.480964 0.485634 0.110918
0.541497 0.474845 0.157885
0.571633 0.477104 0.181735
0.596567 0.482139 0.201602
0.619547 0.487495 0.217746
0.64361 0.48925 0.227497
0.665309 0.492821 0.228107
0.690776 0.497917 0.218326
0.719097 0.503899 0.201816
0.748333 0.509377 0.181506
0.777478 0.514946 0.162463
0.79826 0.520592 0.152132
0.815229 0.527581 0.144152
0.832319 0.537926 0.132189
0.842832 0.547692 0.123934
0.855863 0.557427 0.127932
0.871077 0.566461 0.136675
0.885069 0.573266 0.143328
0.889113 0.583444 0.151827
0.890013 0.58613 0.153811
0 0.485573 0.482322
0 0.499611 0.501961
0 0.505806 0.513603
0 0.522591 0.529961
0 0.536767 0.54023
0 0.544915 0.542535
0 0.56109 0.54963
0 0.562188 0.525856
0 0.554925 0.482185
0.11603 0.540322 0.406409
0.232578 0.534585 0.293385
0.37145 0.519417 0.187671
0.386831 0.533944 0.14345
0.450996 0.530755 0.126223
0.543725 0.511971 0.17023
0.575723 0.509651 0.203571
0.601892 0.511742 0.224277
0.626337 0.51664 0.236133
0.64361 0.524361 0.235294
0.666438 0.524224 0.256886
0.696147 0.525216 0.257984
0.729793 0.528435 0.242329
0.762631 0.534325 0.217655
0.785397 0.539223 0.19411
0.805631 0.54461 0.172763
0.826474 0.551415 0.157961
0.850462 0.559945 0.151751
0.862486 0.570993 0.146868
0.872587 0.583078 0.147723
0.882383 0.59321 0.148699
0.892546 0.599863 0.149599
0.89987 0.606195 0.162615
0.901595 0.607462 0.165438
0 0.514336 0.516899
0 0.519875 0.527001
0 0.538445 0.536629
0 0.550454 0.554025
0 0.556405 0.568414
0 0.560418 0.576577
0 0.57525 0.579675
0 0.584375 0.569314
0 0.588434 0.538491
0.0704967 0.579004 0.489281
0.195331 0.571878 0.387121
0.305959 0.564813 0.257542
0.403326 0.552941 0.197726
0.442283 0.557733 0.158419
0.507774 0.553918 0.158419
0.565316 0.546273 0.195163
0.599268 0.54374 0.225162
0.625467 0.545312 0.245014
0.654459 0.549676 0.266865
0.678431 0.550683 0.282368
0.70425 0.552666 0.282719
0.732204 0.556176 0.268818
0.761212 0.561181 0.242634
0.788922 0.56437 0.221759
0.816007 0.569146 0.202899
0.840375 0.575662 0.189563
0.860777 0.584527 0.182727
0.866667 0.594385 0.17528
0.880552 0.601038 0.17702
0.895964 0.609827 0.179873
0.909621 0.622782 0.181613
0.915419 0.633539 0.184878
0.916655 0.63595 0.185672
0 0.534783 0.546075
0 0.546517 0.557214
0 0.558267 0.566384
0 0.569467 0.581491
0 0.578744 0.594812
0 0.586007 0.603204
0 0.595926 0.605417
0 0.609216 0.604562
0 0.61709 0.586267
0.0333715 0.616983 0.551614
0.164935 0.602655 0.485222
0.256596 0.601938 0.361685
0.380972 0.587655 0.246571
0.429068 0.5888 0.213611
0.472313 0.590311 0.193774
0.538567 0.584695 0.194049
0.593118 0.577218 0.223819
0.628504 0.574395 0.256535
0.658747 0.575158 0.282734
0.685588 0.57644 0.299046
0.710536 0.578546 0.306386
0.736126 0.581918 0.300542
0.764431 0.586679 0.281712
0.794553 0.589364 0.256046
0.822003 0.59379 0.231571
0.845243 0.599985 0.214817
0.863661 0.60766 0.204395
0.877455 0.618143 0.192126
0.891783 0.624033 0.196872
0.905089 0.631342 0.203159
0.916503 0.641993 0.20528
0.923796 0.655604 0.203891
0.925109 0.657877 0.20351
0 0.555001 0.572198
0 0.57258 0.586374
0 0.573831 0.595041
0 0.587076 0.608103
0 0.601389 0.619089
0 0.613733 0.626657
0 0.619272 0.629664
0 0.63003 0.633463
0 0.639399 0.625132
0.0247807 0.64445 0.600946
0.131121 0.634562 0.552972
0.233906 0.631373 0.462593
0.317098 0.631357 0.343908
0.438468 0.614694 0.266819
0.461799 0.620554 0.245075
0.512764 0.620325 0.219364
0.576623 0.611933 0.228199
0.626535 0.605158 0.262989
0.660471 0.602838 0.29044
0.689876 0.603525 0.312062
0.71603 0.605173 0.327886
0.742123 0.607706 0.332204
0.769055 0.610758 0.322026
0.799146 0.613596 0.292882
0.824613 0.618448 0.262135
0.847333 0.624292 0.238025
0.867826 0.630884 0.223911
0.88925 0.641306 0.209354
0.902815 0.648966 0.214054
0.912474 0.655421 0.220752
0.919966 0.661753 0.22414
0.929992 0.675044 0.225284
0.930983 0.676692 0.224674
0 0.578531 0.593271
0 0.592111 0.608057
0 0.593896 0.616907
0 0.607187 0.630045
0 0.623026 0.641993
0 0.636744 0.650645
0 0.638911 0.651576
0 0.643137 0.657694
0 0.651377 0.65211
0.0462654 0.660731 0.633524
0.116732 0.662486 0.598947
0.222965 0.656657 0.54757
0.298253 0.658732 0.456794
0.387823 0.656855 0.340261
0.489036 0.647379 0.276097
0.496864 0.651698 0.266041
0.55079 0.645548 0.254597
0.609995 0.637736 0.262867
0.655726 0.633021 0.291051
0.692103 0.632746 0.328649
0.722316 0.633616 0.343832
0.748074 0.633402 0.350057
0.770413 0.633112 0.349218
0.797574 0.636423 0.323949
0.826719 0.643473 0.291463
0.855299 0.650111 0.267872
0.880751 0.655406 0.25449
0.893172 0.662318 0.24387
0.908675 0.670558 0.239185
0.920623 0.678294 0.240055
0.928862 0.685374 0.246418
0.937575 0.694774 0.259113
0.938781 0.695796 0.260578
0 0.59556 0.619364
0 0.605432 0.632517
0 0.614588 0.643412
0 0.624765 0.654841
0 0.634958 0.661219
0 0.645167 0.664561
0 0.655604 0.668681
0 0.665934 0.669383
0.037232 0.668986 0.667369
0.0953994 0.671901 0.658381
0.134447 0.683284 0.638254
0.223011 0.679454 0.598489
0.296956 0.680873 0.524849
0.360174 0.686015 0.419364
0.452201 0.677409 0.331624
0.514549 0.669322 0.312184
0.521096 0.679911 0.295705
0.571008 0.678141 0.281346
0.643458 0.667155 0.291264
0.687953 0.663615 0.317693
0.724346 0.664958 0.33817
0.753491 0.665019 0.354833
0.778119 0.661295 0.367605
0.804013 0.663951 0.350179
0.833753 0.66772 0.328786
0.861692 0.673915 0.302388
0.885374 0.681041 0.275654
0.900649 0.685008 0.268711
0.915969 0.693721 0.272511
0.92784 0.702632 0.27776
0.936797 0.711437 0.283482
0.946258 0.720043 0.29276
0.946899 0.720821 0.293446
0 0.616037 0.641047
0 0.624445 0.651865
0 0.642481 0.666377
0 0.644511 0.671382
0 0.651698 0.677836
0 0.66276 0.68333
0 0.674083 0.685206
0.035462 0.681239 0.686152
0.0856947 0.685725 0.687358
0.130678 0.691463 0.682597
0.166781 0.700359 0.667887
0.228183 0.703151 0.63476
0.299367 0.703273 0.582773
0.354391 0.708736 0.499001
0.421485 0.707256 0.410437
0.494743 0.701564 0.353307
0.541375 0.700923 0.33698
0.548287 0.711894 0.314763
0.620035 0.701808 0.296727
0.671458 0.697673 0.307652
0.722484 0.692287 0.339849
0.756207 0.68986 0.364126
0.782544 0.6878 0.375937
0.809277 0.690745 0.368826
0.840604 0.694102 0.350408
0.870527 0.698299 0.321645
0.895277 0.702556 0.294789
0.912093 0.70573 0.293462
0.922835 0.714733 0.302968
0.931502 0.72314 0.312123
0.940627 0.731762 0.320317
0.953765 0.742138 0.326909
0.954391 0.742702 0.326879
0 0.637705 0.662104
0 0.647776 0.671016
0 0.66891 0.686168
0 0.664424 0.686778
0 0.671611 0.69543
0.0157473 0.683574 0.702892
0.0323186 0.693095 0.700221
0.0918441 0.694545 0.704555
0.129519 0.703395 0.707835
0.162448 0.711833 0.704555
0.201968 0.716457 0.692027
0.240314 0.725841 0.665782
0.304204 0.725978 0.629252
0.35903 0.72929 0.564218
0.414923 0.732082 0.482338
0.462333 0.736171 0.409308
0.532891 0.731014 0.365972
0.559304 0.734981 0.345113
0.599268 0.734325 0.315419
0.64712 0.731929 0.314733
0.71841 0.718334 0.341207
0.760845 0.71252 0.369818
0.78706 0.714153 0.373602
0.815961 0.717174 0.37229
0.849485 0.721065 0.353704
0.881956 0.722591 0.332006
0.908446 0.722881 0.315007
0.923888 0.72604 0.314458
0.930053 0.734279 0.329824
0.9355 0.742687 0.342428
0.943786 0.751461 0.350942
0.960388 0.763043 0.358862
0.960937 0.763272 0.359014
0 0.658656 0.687663
0 0.670481 0.695232
0 0.679088 0.702739
0.00434882 0.683391 0.712764
0.0359655 0.689738 0.716747
0.064622 0.69955 0.716335
0.0826276 0.712322 0.713268
0.121294 0.717357 0.718288
0.162676 0.719799 0.722545
0.201297 0.724651 0.722835
0.232898 0.73344 0.716594
0.26302 0.745556 0.696605
0.316411 0.74696 0.662394
0.368322 0.750622 0.600595
0.420279 0.755932 0.523461
0.472145 0.75671 0.454093
0.540658 0.75256 0.398047
0.584314 0.752377 0.377356
0.586328 0.764752 0.358465
0.617807 0.768963 0.330358
0.701473 0.755749 0.319249
0.770031 0.743954 0.345861
0.804318 0.744625 0.355077
0.832425 0.744198 0.357931
0.864561 0.74493 0.351858
0.893462 0.744884 0.343679
0.917418 0.746258 0.335683
0.933379 0.751385 0.32575
0.942351 0.755978 0.357534
0.945846 0.766842 0.358801
0.949889 0.779324 0.35111
0.962417 0.787015 0.365774
0.962432 0.786877 0.365759
0 0.678004 0.711254
0 0.684611 0.716213
0.00489815 0.697383 0.721187
0.0327153 0.707546 0.729229
0.0645914 0.711574 0.734447
0.0963302 0.71873 0.736294
0.1252 0.732723 0.735363
0.159106 0.737682 0.740032
0.200122 0.738415 0.743175
0.235828 0.742092 0.744259
0.263508 0.751125 0.741787
0.288365 0.764965 0.729732
0.324392 0.769436 0.701869
0.376745 0.76965 0.653681
0.422568 0.774609 0.572473
0.472328 0.778622 0.48249
0.531945 0.77966 0.422446
0.58999 0.777035 0.395987
0.601495 0.785367 0.380438
0.614893 0.793561 0.344839
0.679347 0.78996 0.314275
0.76466 0.775769 0.311131
0.821561 0.76611 0.327413
0.856092 0.762173 0.337423
0.881865 0.763104 0.333181
0.904768 0.764279 0.330571
0.924681 0.766842 0.331701
0.942412 0.77258 0.337285
0.952575 0.77821 0.364294
0.957137 0.786175 0.374014
0.959686 0.796094 0.380407
0.963699 0.806638 0.400031
0.963699 0.806729 0.400305
0 0.700008 0.734173
0.0120394 0.706172 0.73904
0.0242161 0.718135 0.743099
0.0547799 0.727718 0.749096
0.089662 0.732097 0.753002
0.123262 0.738567 0.753445
0.153735 0.749752 0.751614
0.186648 0.755718 0.757244
0.222843 0.759441 0.76199
0.254749 0.764431 0.765301
0.280324 0.772503 0.766064
0.306065 0.78294 0.759915
0.329641 0.791241 0.73756
0.379141 0.790555 0.705303
0.425391 0.792782 0.643046
0.470985 0.800824 0.537011
0.518883 0.805905 0.464607
0.581445 0.80322 0.41883
0.62211 0.803876 0.393027
0.621897 0.817365 0.348302
0.68101 0.81442 0.307103
0.771221 0.798154 0.287984
0.839033 0.784207 0.302937
0.87718 0.780819 0.308858
0.901595 0.784344 0.300862
0.920943 0.785794 0.305135
0.936599 0.788357 0.318395
0.9523 0.796017 0.336477
0.961227 0.800763 0.370718
0.965957 0.806531 0.393225
0.967697 0.814755 0.410239
0.96733 0.825757 0.42562
0.967315 0.825742 0.425635
0 0.723598 0.756237
0.0141299 0.732128 0.762478
0.0389105 0.740307 0.766064
0.0704051 0.746731 0.772061
0.111025 0.753231 0.773022
0.144152 0.760082 0.769772
0.169345 0.767422 0.765637
0.201297 0.775265 0.772488
0.235798 0.782345 0.78024
0.264088 0.789776 0.785779
0.28687 0.797436 0.788266
0.317067 0.801389 0.787305
0.336889 0.811322 0.772763
0.373404 0.813916 0.753597
0.426383 0.81149 0.71873
0.473213 0.820478 0.617914
0.508751 0.82771 0.532753
0.57705 0.825864 0.453529
0.637598 0.823819 0.404395
0.633005 0.840711 0.349218
0.699123 0.8318 0.294301
0.793194 0.81294 0.272923
0.855283 0.802792 0.275944
0.895582 0.802014 0.270191
0.924239 0.807568 0.262394
0.941238 0.808286 0.274495
0.9523 0.810834 0.29839
0.962264 0.82092 0.326207
0.968582 0.823133 0.377981
0.972488 0.828305 0.414435
0.973922 0.836011 0.435782
0.973541 0.844663 0.443305
0.973556 0.844663 0.443183
0.00918593 0.74136 0.775082
0.0296178 0.751141 0.779721
0.0509804 0.763348 0.784405
0.0869612 0.771603 0.796109
0.120455 0.77821 0.795758
0.150072 0.785916 0.792706
0.175982 0.795712 0.791394
0.197314 0.80322 0.793774
0.251621 0.804913 0.801465
