presets/H哈苏粉.cube
TITLE "XH Copyright"
# XH Copyright
# 5219
# 20250101
LUT_3D_SIZE 5
0.0616617 0.0030518 0
0.167544 0.0110018 0
0.320714 0.0492866 0
0.407736 0.150988 0
0.538674 0.227314 0.00538643
0.0845808 0.159091 0.123857
0.307317 0.20676 0
0.522591 0.222141 0.0708934
0.644022 0.320531 0
0.74406 0.39736 0
0.107897 0.418082 0.364645
0.237278 0.482444 0.389288
0.59736 0.482124 0.175998
0.774868 0.508049 0.100038
0.873503 0.573587 0.0744488
0.225025 0.580316 0.557336
0.365698 0.650721 0.604501
0.624537 0.698436 0.390295
0.863035 0.71014 0.292699
0.940108 0.759091 0.345098
0.383429 0.743038 0.724636
0.510246 0.819287 0.750362
0.702602 0.850996 0.7346
0.97319 0.866926 0.273884
0.966613 0.90808 0.573022
0.0561685 0.00810254 0
0.124407 0.0483711 0.0208591
0.326772 0.08365 0.0291752
0.477974 0.159014 0.0444953
0.582467 0.242115 0.108293
0.0803998 0.200137 0.293965
0.238346 0.254353 0.31545
0.51632 0.269032 0.194858
0.65626 0.350423 0.0859541
0.736507 0.420386 0.225727
0.134554 0.429511 0.482414
0.265568 0.499367 0.501228
0.588434 0.515755 0.349279
0.75259 0.546304 0.360265
0.84094 0.604501 0.387076
0.253391 0.603723 0.625177
0.39408 0.684718 0.641611
0.599634 0.736584 0.586389
0.827985 0.750668 0.490028
0.911681 0.799146 0.529458
0.428107 0.768658 0.774441
0.542214 0.842924 0.798245
0.693843 0.883436 0.797803
0.873014 0.912016 0.565377
0.947524 0.937057 0.668818
0.0577096 0.0168002 0.254582
0.121675 0.0598154 0.335348
0.341421 0.0797894 0.386877
0.453956 0.19202 0.300099
0.521782 0.339742 0.295399
0.0822156 0.21976 0.535546
0.235187 0.284749 0.53051
0.471183 0.320531 0.497032
0.591241 0.395483 0.450797
0.67924 0.519402 0.48011
0.170459 0.44329 0.610101
0.276081 0.517617 0.660914
0.550179 0.539376 0.617655
0.703166 0.591623 0.56524
0.791608 0.652811 0.624063
0.334905 0.609476 0.71519
0.43447 0.695888 0.768917
0.615686 0.748913 0.747509
0.797772 0.786374 0.642451
0.890898 0.824018 0.740688
0.50753 0.772488 0.850538
0.590997 0.854917 0.872206
0.728481 0.897093 0.857618
0.871824 0.922881 0.778088
0.92903 0.951095 0.809857
0.0606699 0.0390936 0.349172
0.164981 0.0782483 0.41442
0.361532 0.0959335 0.53019
0.491432 0.185443 0.535698
0.578607 0.313695 0.522042
0.0871138 0.265614 0.610697
0.264729 0.305608 0.637842
0.499748 0.319081 0.661952
0.639277 0.379263 0.682338
0.713542 0.480537 0.660258
0.184115 0.467384 0.693187
0.321675 0.535378 0.741863
0.564599 0.560784 0.768017
0.732509 0.601816 0.743084
0.815396 0.66212 0.767742
0.361303 0.637186 0.790448
0.474235 0.717327 0.840482
0.638834 0.768139 0.849058
0.807843 0.801724 0.814679
0.877791 0.84303 0.8477
0.58291 0.779843 0.884947
0.650599 0.856352 0.915694
0.764782 0.902052 0.912917
0.896834 0.925368 0.90724
0.953246 0.953918 0.917311
0.0618906 0.0513008 0.411978
0.189746 0.106767 0.445396
0.37261 0.1346 0.537911
0.501106 0.22414 0.55111
0.592218 0.330282 0.595666
0.103914 0.289433 0.594202
0.30164 0.318029 0.665721
0.512566 0.344259 0.716808
0.655344 0.400885 0.738399
0.725917 0.501854 0.716899
0.221668 0.487999 0.690227
0.359075 0.551095 0.76791
0.586877 0.574502 0.805814
0.751095 0.610529 0.803067
0.835386 0.678859 0.813199
0.411109 0.649882 0.81474
0.515068 0.729427 0.864256
0.658549 0.777584 0.888395
0.816922 0.814725 0.865766
0.88867 0.856504 0.896757
0.616159 0.79353 0.876036
0.695277 0.865843 0.912322
0.79585 0.904967 0.937652
0.906035 0.938415 0.944396
0.955032 0.955795 0.953002
