presets/H哈苏粉.cube
TITLE "XH Copyright"
# XH Copyright
# 5219
# 20250101
LUT_3D_SIZE 9
0.0616617 0.0030518 0
0.0672007 0.0108492 0
0.167544 0.0110018 0
0.260594 0.0272679 0
0.320714 0.0492866 0
0.354788 0.101289 0.0116579
0.407736 0.150988 0
0.482597 0.186633 0.0118257
0.538674 0.227314 0.00538643
0.0869306 0.0327611 0
0.120104 0.0671244 0
0.252796 0.0701305 0.0249027
0.345739 0.0851606 0.0330053
0.426337 0.117983 0.0382544
0.486198 0.158053 0.0505531
0.548257 0.225986 0.0145266
0.604883 0.261692 0.0145113
0.656916 0.29926 0.00810254
0.0845808 0.159091 0.123857
0.143221 0.191882 0.160876
0.307317 0.20676 0
0.43621 0.188663 0.0576791
0.522591 0.222141 0.0708934
0.57969 0.277546 0
0.644022 0.320531 0
0.698817 0.352834 0
0.74406 0.39736 0
0.0931563 0.312245 0.254246
0.110216 0.355428 0.308736
0.27187 0.360052 0.0975357
0.461311 0.36878 0
0.576364 0.370153 0.00906386
0.647883 0.391531 0.0122225
0.725826 0.41352 0
0.781582 0.447944 0
0.811627 0.480522 0
0.107897 0.418082 0.364645
0.137881 0.457633 0.413779
0.237278 0.482444 0.389288
0.459174 0.476905 0.170413
0.59736 0.482124 0.175998
0.675044 0.494255 0.221393
0.774868 0.508049 0.100038
0.836896 0.538567 0.0603494
0.873503 0.573587 0.0744488
0.162387 0.496666 0.463264
0.199176 0.536095 0.506004
0.270146 0.569543 0.516411
0.430457 0.594018 0.387015
0.578088 0.600473 0.292882
0.715755 0.603021 0.310628
0.802182 0.609659 0.287312
0.879377 0.636667 0.210636
0.909682 0.666453 0.239277
0.225025 0.580316 0.557336
0.280995 0.617777 0.586023
0.365698 0.650721 0.604501
0.493736 0.679896 0.561486
0.624537 0.698436 0.390295
0.708125 0.723217 0.325582
0.863035 0.71014 0.292699
0.925689 0.728038 0.313222
0.940108 0.759091 0.345098
0.278187 0.668589 0.642756
0.342443 0.710781 0.674296
0.431113 0.7449 0.680003
0.523156 0.768521 0.703807
0.634623 0.789792 0.57789
0.763088 0.806989 0.328038
0.941802 0.791821 0.195651
0.965347 0.816266 0.328328
0.962188 0.840375 0.430198
0.383429 0.743038 0.724636
0.436484 0.781369 0.751308
0.510246 0.819287 0.750362
0.582727 0.844999 0.788785
0.702602 0.850996 0.7346
0.816495 0.873625 0.44918
0.97319 0.866926 0.273884
0.974014 0.883986 0.457938
0.966613 0.90808 0.573022
0.0608072 0.00367742 0
0.0675975 0.0174868 0
0.184878 0.0219425 0
0.280125 0.0352789 0
0.339452 0.0585794 0.00218204
0.381201 0.113161 0.0178988
0.439307 0.161654 0.00822461
0.513405 0.197803 0.0222477
0.572732 0.232105 0.0260471
0.0886091 0.0437781 0.00901808
0.120027 0.088838 0.0340887
0.263478 0.0851606 0.0328527
0.36936 0.100557 0.0468147
0.441291 0.1355 0.0537423
0.508324 0.174853 0.062974
0.570459 0.235309 0.0202792
0.629328 0.272694 0.0200504
0.67245 0.307164 0.0107271
0.0906233 0.179904 0.187076
0.133028 0.220462 0.220523
0.315038 0.227253 0.00775158
0.453559 0.213474 0.0758373
0.532723 0.241718 0.0847181
0.59501 0.296971 0.00271611
0.656809 0.334661 0
0.713115 0.372274 0
0.749722 0.407691 0
0.0953384 0.329992 0.295262
0.11696 0.375036 0.35259
0.273091 0.376913 0.179141
0.467674 0.384863 0.0117952
0.583749 0.386954 0.0593271
0.651926 0.407279 0.0642863
0.735515 0.432319 0
0.787503 0.460517 0
0.819074 0.493797 0.0422827
0.116762 0.431693 0.386801
0.140993 0.473594 0.439338
0.246571 0.495232 0.422385
0.477607 0.492088 0.238071
0.607782 0.499138 0.21735
0.680415 0.511574 0.26511
0.775326 0.52546 0.178347
0.841047 0.554086 0.133318
0.872526 0.587732 0.157778
0.170459 0.512337 0.485817
0.211215 0.552621 0.522683
0.285863 0.586755 0.541329
0.451514 0.602945 0.462333
0.593515 0.616358 0.338308
0.717632 0.618418 0.344594
0.804776 0.627008 0.35877
0.875044 0.658061 0.285969
0.902861 0.683635 0.305898
0.235447 0.592462 0.574578
0.294759 0.636744 0.607538
0.379065 0.670207 0.612696
0.497734 0.696956 0.598764
0.622599 0.718364 0.433112
0.723171 0.731624 0.368734
0.858061 0.730571 0.363302
0.917357 0.749493 0.363272
0.938323 0.77554 0.404898
0.293187 0.686152 0.66424
0.359289 0.724178 0.689281
0.448722 0.757763 0.692149
0.537881 0.781582 0.718532
0.645701 0.801129 0.621973
0.759167 0.821683 0.396277
0.91809 0.817258 0.287343
0.960372 0.829816 0.39556
0.964538 0.850599 0.491356
0.401389 0.760616 0.745983
0.457908 0.794995 0.776745
0.526406 0.83415 0.769375
0.601099 0.854734 0.794446
0.704997 0.866438 0.761059
0.815091 0.884901 0.518593
0.957748 0.881544 0.34316
0.971435 0.903441 0.502953
0.967819 0.915145 0.604257
0.0561685 0.00810254 0
0.0594644 0.0312657 0.0766308
0.124407 0.0483711 0.0208591
0.231678 0.0583352 0.0162203
0.326772 0.08365 0.0291752
0.393011 0.129366 0.0310826
0.477974 0.159014 0.0444953
0.53669 0.198611 0.0663157
0.582467 0.242115 0.108293
0.0697795 0.0684062 0.141756
0.0865492 0.113939 0.208804
0.191455 0.139666 0.126848
0.315343 0.142763 0.106889
0.422766 0.181109 0.132998
0.48777 0.211246 0.131518
0.581628 0.246876 0.0862593
0.617411 0.288609 0.143816
0.652277 0.328176 0.192935
0.0803998 0.200137 0.293965
0.110536 0.249561 0.342489
0.238346 0.254353 0.31545
0.408682 0.262242 0.223194
0.51632 0.269032 0.194858
0.592554 0.314183 0.125444
0.65626 0.350423 0.0859541
0.69955 0.38439 0.171511
0.736507 0.420386 0.225727
0.100862 0.334844 0.393637
0.124559 0.380774 0.437476
0.243915 0.392432 0.422827
0.422232 0.400381 0.281331
0.557229 0.402884 0.264973
0.638086 0.421942 0.269429
0.718685 0.444327 0.176791
0.76936 0.47863 0.2103
0.798444 0.511055 0.257679
0.134554 0.429511 0.482414
0.16202 0.473747 0.520897
0.265568 0.499367 0.501228
0.432883 0.510155 0.426154
0.588434 0.515755 0.349279
0.673762 0.528557 0.382834
0.75259 0.546304 0.360265
0.816907 0.57467 0.333867
0.84094 0.604501 0.387076
0.194171 0.515511 0.56376
0.23534 0.555108 0.59028
0.316121 0.593713 0.578454
0.434669 0.616999 0.57792
0.586053 0.633829 0.452155
0.714275 0.629435 0.424475
0.787045 0.648432 0.468879
0.838712 0.679515 0.47129
0.871244 0.711192 0.48043
0.253391 0.603723 0.625177
0.308782 0.643381 0.65771
0.39408 0.684718 0.641611
0.487556 0.714534 0.658228
0.599634 0.736584 0.586389
0.709651 0.747494 0.488746
0.827985 0.750668 0.490028
0.885481 0.772564 0.520165
0.911681 0.799146 0.529458
0.317464 0.697719 0.699886
0.372366 0.733028 0.72874
0.468818 0.774258 0.71426
0.550546 0.801312 0.726299
0.658274 0.815274 0.692973
0.770916 0.824552 0.558648
0.837873 0.847044 0.512261
0.918746 0.852293 0.565316
0.944305 0.868223 0.599985
0.428107 0.768658 0.774441
0.481773 0.807996 0.802396
0.542214 0.842924 0.798245
0.601328 0.871138 0.799008
0.693843 0.883436 0.797803
0.816953 0.891722 0.632731
0.873014 0.912016 0.565377
0.925078 0.923766 0.624857
0.947524 0.937057 0.668818
0.0573587 0.0146639 0.0575418
0.0610208 0.0420081 0.215518
0.0983749 0.0740215 0.200015
0.23183 0.0744793 0.150072
0.317143 0.0935988 0.16405
0.35436 0.141573 0.154162
0.441169 0.212787 0.149096
0.505287 0.237507 0.16199
0.54435 0.281941 0.2159
0.0680247 0.0809796 0.287907
0.0919966 0.126619 0.342168
0.167666 0.162112 0.312016
0.321736 0.165347 0.260945
0.410697 0.182498 0.274174
0.445701 0.238834 0.263172
0.523674 0.307774 0.258473
0.574639 0.331716 0.277806
0.610773 0.370062 0.320348
0.0814832 0.210986 0.416114
0.0997482 0.260914 0.466972
0.225635 0.27364 0.448554
0.357809 0.294926 0.386328
0.468803 0.311101 0.359457
0.530571 0.379339 0.342489
0.604685 0.381903 0.33579
0.65037 0.418601 0.37174
0.683879 0.456977 0.411719
0.10869 0.334981 0.465202
0.136889 0.379568 0.516854
0.230015 0.406256 0.526452
0.392096 0.410773 0.494499
0.519646 0.434211 0.42266
0.601816 0.444739 0.411872
0.681865 0.469963 0.41857
0.732189 0.507332 0.450187
0.763622 0.539956 0.484596
0.157641 0.430549 0.539574
0.194125 0.474891 0.58381
0.262455 0.515572 0.587823
0.426123 0.518242 0.558816
0.561715 0.53225 0.501625
0.672465 0.541451 0.491981
0.741314 0.56669 0.497093
0.790967 0.594156 0.517769
0.820706 0.62594 0.544884
0.234226 0.511818 0.608835
0.280415 0.550317 0.649317
0.340078 0.598764 0.654307
0.458473 0.623941 0.628626
0.579965 0.647272 0.589563
0.702373 0.651499 0.506493
0.782483 0.666407 0.542611
0.83035 0.694194 0.579995
0.859037 0.718334 0.596277
0.301213 0.601678 0.688426
0.344091 0.643763 0.716075
0.41532 0.69163 0.698695
0.508583 0.727794 0.698573
0.603738 0.74725 0.693004
0.717571 0.757259 0.571771
0.821607 0.765957 0.552453
0.878401 0.788937 0.595941
0.901762 0.815091 0.605432
0.345632 0.701457 0.742123
0.397803 0.743053 0.771069
0.481163 0.781292 0.760845
0.570016 0.81001 0.753613
0.654658 0.827146 0.758755
0.754879 0.841489 0.638849
0.817029 0.862638 0.624262
0.89308 0.873365 0.652049
0.935546 0.87924 0.684977
0.46273 0.771756 0.802106
0.510735 0.812497 0.824216
0.562982 0.851041 0.830732
0.617044 0.882795 0.825269
0.699977 0.892348 0.818296
0.796139 0.914992 0.696956
0.861173 0.924117 0.684855
0.907759 0.938949 0.708492
0.935439 0.944366 0.734142
0.0577096 0.0168002 0.254582
0.0678264 0.0393835 0.339574
0.121675 0.0598154 0.335348
0.23476 0.0642863 0.369039
0.341421 0.0797894 0.386877
0.413138 0.128679 0.350332
0.453956 0.19202 0.300099
0.476143 0.260945 0.275319
0.521782 0.339742 0.295399
0.0673991 0.0932784 0.383124
0.0985885 0.130053 0.433402
0.200031 0.150851 0.425254
0.319066 0.159197 0.44416
0.427482 0.170169 0.477058
0.496437 0.223743 0.432624
0.532799 0.29276 0.389502
0.552605 0.354208 0.373541
0.600504 0.42945 0.398535
0.0822156 0.21976 0.535546
0.101244 0.266789 0.560601
0.235187 0.284749 0.53051
0.347692 0.309239 0.497307
0.471183 0.320531 0.497032
0.551461 0.355535 0.473869
0.591241 0.395483 0.450797
0.640696 0.475166 0.458412
0.67924 0.519402 0.48011
0.0971237 0.341497 0.562432
0.136904 0.386984 0.609949
0.238911 0.412955 0.600748
0.38822 0.424536 0.59202
0.509071 0.442649 0.539452
0.598947 0.460609 0.516701
0.649973 0.52105 0.511452
0.704723 0.564034 0.529381
0.734386 0.58526 0.549432
0.170459 0.44329 0.610101
0.208988 0.480522 0.646052
0.276081 0.517617 0.660914
0.42211 0.530556 0.644816
0.550179 0.539376 0.617655
0.64596 0.567819 0.569177
0.703166 0.591623 0.56524
0.759625 0.622126 0.589837
0.791608 0.652811 0.624063
0.255238 0.521157 0.654414
0.300786 0.563165 0.699611
0.357259 0.604959 0.71545
0.464851 0.636118 0.697154
0.576791 0.657221 0.678645
0.690166 0.663127 0.621408
0.775601 0.679774 0.639704
0.825788 0.710399 0.672633
0.851118 0.735225 0.691981
0.334905 0.609476 0.71519
0.378759 0.654887 0.75877
0.43447 0.695888 0.768917
0.518044 0.729992 0.748547
0.615686 0.748913 0.747509
0.710033 0.773816 0.682658
0.797772 0.786374 0.642451
0.866529 0.797589 0.689387
0.890898 0.824018 0.740688
0.396216 0.698268 0.795865
0.44535 0.739773 0.822721
0.503243 0.786053 0.811627
0.586801 0.820951 0.800275
0.671931 0.83064 0.810742
0.76228 0.846662 0.769207
0.832303 0.863554 0.718791
0.881315 0.884581 0.724834
0.935561 0.885008 0.765454
0.50753 0.772488 0.850538
0.550835 0.808652 0.870405
0.590997 0.854917 0.872206
0.634928 0.882261 0.864286
0.728481 0.897093 0.857618
0.813703 0.904616 0.817029
0.871824 0.922881 0.778088
0.901976 0.939345 0.794141
0.92903 0.951095 0.809857
0.0579843 0.0190127 0.330175
0.0645457 0.0490425 0.401328
0.146365 0.066804 0.394461
0.253605 0.0707713 0.438514
0.339437 0.0842298 0.497642
0.411521 0.124163 0.502144
0.484047 0.178515 0.467292
0.525963 0.246647 0.4215
0.563256 0.303014 0.427832
0.0686961 0.106615 0.450507
0.103929 0.14078 0.499596
0.22504 0.155367 0.473335
0.336431 0.161883 0.521096
0.428931 0.177035 0.580728
0.496208 0.221256 0.580163
0.560571 0.274891 0.534707
0.597223 0.339849 0.501366
0.632105 0.386725 0.513558
0.0845502 0.24303 0.595178
0.0919356 0.293324 0.619806
0.246357 0.295964 0.591562
0.373053 0.305852 0.577981
0.485985 0.307591 0.61532
0.569955 0.332067 0.624598
0.62475 0.387137 0.585718
0.665476 0.438834 0.563638
0.697887 0.472358 0.580285
0.100496 0.359365 0.63859
0.136324 0.402518 0.670481
0.252659 0.424018 0.660365
0.404166 0.429908 0.658549
0.509499 0.448508 0.641321
0.605463 0.467262 0.631251
0.675029 0.493324 0.620523
0.724315 0.530785 0.624201
0.755673 0.564752 0.63592
0.173678 0.453193 0.654124
0.216449 0.491432 0.689555
0.291569 0.524834 0.713008
0.433066 0.539788 0.713222
0.556298 0.553414 0.70985
0.646754 0.577127 0.663645
0.722179 0.594827 0.665232
0.765026 0.629648 0.670375
0.804837 0.689632 0.696712
0.267308 0.535775 0.697108
0.312474 0.573983 0.739376
0.368658 0.614527 0.761975
0.47689 0.648753 0.755398
0.585397 0.663539 0.760952
0.687449 0.676417 0.723903
0.756466 0.703487 0.707027
0.805859 0.738766 0.730571
0.828565 0.759762 0.749538
0.350317 0.61857 0.755673
0.399176 0.663081 0.793851
0.451591 0.705287 0.811154
0.538018 0.736843 0.808118
0.624857 0.760708 0.807416
0.725185 0.772656 0.783413
0.803861 0.791379 0.74377
0.862638 0.811734 0.793103
0.881514 0.831022 0.820172
0.431937 0.706935 0.825879
0.478569 0.74696 0.856184
0.532403 0.788418 0.858671
0.599313 0.819348 0.857618
0.680262 0.838987 0.851072
0.773617 0.84715 0.83621
0.843626 0.864683 0.796597
0.896239 0.882612 0.809735
0.925185 0.897505 0.83949
0.551003 0.773541 0.874891
0.588647 0.812833 0.889006
0.619287 0.853437 0.899763
0.660945 0.887251 0.89453
0.74548 0.898116 0.885786
0.82945 0.909499 0.879698
0.881971 0.925948 0.854582
0.92192 0.940948 0.858427
0.947906 0.949233 0.878599
0.0606699 0.0390936 0.349172
0.0650797 0.0725261 0.431159
0.164981 0.0782483 0.41442
0.274266 0.0835889 0.459007
0.361532 0.0959335 0.53019
0.423453 0.136431 0.555962
0.491432 0.185443 0.535698
0.54406 0.249683 0.512795
0.578607 0.313695 0.522042
0.0714427 0.132403 0.48101
0.101213 0.175998 0.538994
0.242634 0.174624 0.50576
0.35552 0.179171 0.541283
0.44921 0.190616 0.604746
0.510445 0.228199 0.627283
0.571893 0.284138 0.613825
0.612131 0.342336 0.592508
0.646143 0.389013 0.586358
0.0871138 0.265614 0.610697
0.105974 0.312261 0.64271
0.264729 0.305608 0.637842
0.396124 0.312322 0.627695
0.499748 0.319081 0.661952
0.583093 0.335241 0.688472
0.639277 0.379263 0.682338
0.683284 0.43238 0.66688
0.713542 0.480537 0.660258
0.11249 0.374929 0.660273
0.151644 0.418158 0.684993
0.282261 0.429755 0.694255
0.4262 0.433265 0.711803
0.53167 0.44538 0.724834
0.629068 0.450553 0.745922
0.694636 0.479988 0.737453
0.738949 0.53254 0.709712
0.769238 0.572976 0.715557
0.184115 0.467384 0.693187
0.231327 0.504952 0.729519
0.321675 0.535378 0.741863
0.451499 0.549996 0.757702
0.564599 0.560784 0.768017
0.654887 0.580346 0.742626
0.732509 0.601816 0.743084
0.782223 0.637751 0.747555
0.815396 0.66212 0.767742
0.271122 0.549599 0.7393
0.320943 0.588708 0.781384
0.387991 0.629953 0.785
0.486549 0.657984 0.799924
0.595514 0.671534 0.812833
0.698756 0.683589 0.788678
0.764492 0.71043 0.771405
0.822019 0.73492 0.791547
0.848661 0.760037 0.810803
0.361303 0.637186 0.790448
0.410056 0.677821 0.828229
0.474235 0.717327 0.840482
0.552392 0.748989 0.843122
0.638834 0.768139 0.849058
0.732631 0.777874 0.835966
0.807843 0.801724 0.814679
0.855482 0.825177 0.83032
0.877791 0.84303 0.8477
0.465171 0.715679 0.843763
0.514092 0.752514 0.873549
0.565774 0.794751 0.883879
0.62092 0.82443 0.884153
0.69485 0.843412 0.881285
0.786221 0.856855 0.880858
0.848936 0.872511 0.866773
0.889143 0.894301 0.861769
0.922957 0.904326 0.894438
0.58291 0.779843 0.884947
0.622278 0.815991 0.908507
0.650599 0.856352 0.915694
0.690044 0.887785 0.916411
0.764782 0.902052 0.912917
0.840955 0.911742 0.911315
0.896834 0.925368 0.90724
0.926146 0.942885 0.910109
0.953246 0.953918 0.917311
0.0618143 0.0474403 0.392584
0.0809033 0.0791638 0.44155
0.179217 0.10042 0.426139
0.273518 0.114519 0.472831
0.374395 0.11989 0.532235
0.440681 0.155566 0.566964
0.503685 0.213855 0.551873
0.552834 0.265614 0.563882
0.583658 0.323735 0.577371
0.0851911 0.142641 0.501335
0.139452 0.180316 0.553704
0.263294 0.189334 0.527535
0.35848 0.208957 0.559121
0.456367 0.222492 0.610147
0.5243 0.257847 0.637171
0.579782 0.307759 0.627909
0.622171 0.35935 0.640986
0.653758 0.404166 0.65977
0.094789 0.278035 0.598169
0.140063 0.321736 0.627802
0.295781 0.311711 0.659007
0.417609 0.319036 0.677119
0.507729 0.338186 0.70161
0.590616 0.359136 0.718395
0.650217 0.391852 0.727733
0.695109 0.440238 0.729076
0.719005 0.496757 0.721523
0.139055 0.394568 0.635081
0.187427 0.435065 0.666545
0.30605 0.443427 0.709697
0.437781 0.450889 0.742428
0.54342 0.461707 0.752026
0.639002 0.463645 0.786984
0.714534 0.486091 0.793729
0.752102 0.538262 0.767559
0.778714 0.583978 0.756649
0.209964 0.480705 0.693477
0.263478 0.520256 0.723949
0.347662 0.549081 0.755276
0.475853 0.559091 0.786068
0.581109 0.574655 0.797574
0.667201 0.594354 0.774227
0.745556 0.60592 0.794232
0.796307 0.640742 0.79617
0.826566 0.677897 0.814343
0.302373 0.562341 0.744396
0.350698 0.604456 0.78471
0.417395 0.639612 0.809781
0.510613 0.669169 0.833204
0.613474 0.676219 0.847837
0.711421 0.695659 0.824552
0.778408 0.71812 0.814893
0.830213 0.745556 0.830961
0.858915 0.772213 0.844083
0.398245 0.643015 0.807904
0.4477 0.686259 0.839139
0.504875 0.725505 0.859815
0.572183 0.755825 0.873762
0.654887 0.777249 0.886442
0.746654 0.788312 0.868955
0.815854 0.815229 0.856916
0.857389 0.837034 0.871015
0.890028 0.859495 0.886488
0.511818 0.718379 0.855589
0.554314 0.762142 0.872892
0.594079 0.800092 0.894163
0.651438 0.828946 0.901656
0.72285 0.846555 0.911086
0.798978 0.861982 0.903731
0.85922 0.877836 0.891478
0.905669 0.902281 0.906859
0.924636 0.916442 0.902327
0.614084 0.791409 0.877913
0.647761 0.826719 0.903761
0.685405 0.857847 0.915282
0.729839 0.885664 0.929061
0.791623 0.903853 0.934844
0.852781 0.916197 0.932021
0.903853 0.931304 0.940017
0.940826 0.948394 0.946303
0.953368 0.963928 0.945174
0.0618906 0.0513008 0.411978
0.0874647 0.0819715 0.45124
0.189746 0.106767 0.445396
0.274693 0.123018 0.477745
0.37261 0.1346 0.537911
0.447196 0.16997 0.582162
0.501106 0.22414 0.55111
0.557443 0.271015 0.577173
0.592218 0.330282 0.595666
0.0926528 0.150378 0.529686
0.146654 0.180835 0.562737
0.268467 0.197223 0.539391
0.361151 0.220325 0.569741
0.463615 0.231907 0.611048
0.525872 0.263508 0.636362
0.582193 0.317708 0.642206
0.627375 0.360281 0.655344
0.65864 0.412024 0.657191
0.103914 0.289433 0.594202
0.154238 0.327352 0.627207
0.30164 0.318029 0.665721
0.428641 0.321736 0.680629
0.512566 0.344259 0.716808
0.59118 0.367712 0.726192
0.655344 0.400885 0.738399
0.701366 0.444968 0.738323
0.725917 0.501854 0.716899
0.14995 0.398123 0.633143
0.198489 0.438865 0.664042
0.318242 0.449912 0.710552
0.450568 0.454826 0.747845
0.55256 0.465614 0.765911
0.641169 0.469429 0.794049
0.713085 0.491524 0.80528
0.753384 0.54667 0.772992
0.786511 0.59057 0.777234
0.221668 0.487999 0.690227
0.268452 0.52517 0.722316
0.359075 0.551095 0.76791
0.484886 0.563516 0.793271
0.586877 0.574502 0.805814
0.667887 0.597177 0.780118
0.751095 0.610529 0.803067
0.80032 0.648569 0.808545
0.835386 0.678859 0.813199
0.312398 0.564858 0.755749
0.35816 0.605814 0.789242
0.424125 0.64744 0.813626
0.509804 0.672801 0.847303
0.619181 0.679683 0.859449
0.71751 0.699214 0.83003
0.787228 0.721279 0.829053
0.834257 0.750515 0.844648
0.862959 0.77525 0.864744
0.411109 0.649882 0.81474
0.456947 0.68893 0.840085
0.515068 0.729427 0.864256
0.576577 0.758206 0.887556
0.658549 0.777584 0.888395
0.752346 0.789563 0.879957
0.816922 0.814725 0.865766
0.861448 0.837705 0.878981
0.88867 0.856504 0.896757
0.522362 0.721721 0.858091
0.567437 0.763729 0.875212
0.602121 0.801984 0.900771
0.658793 0.829511 0.905974
0.730556 0.844907 0.914809
0.804395 0.861875 0.914916
0.864454 0.884978 0.898756
0.903944 0.903136 0.919753
0.929671 0.916259 0.910964
0.616159 0.79353 0.876036
0.653712 0.831312 0.902129
0.695277 0.865843 0.912322
0.742748 0.888136 0.929122
0.79585 0.904967 0.937652
0.859022 0.920272 0.940139
0.906035 0.938415 0.944396
0.941543 0.94873 0.946807
0.955032 0.955795 0.953002
