presets/H哈苏粉.cube
TITLE "XH Copyright"
# XH Copyright
# 5219
# 20250101
LUT_3D_SIZE 33
0.0616617 0.0030518 0
0.063386 0.00291447 0
0.0643015 0.00326543 0
0.0658274 0.00601205 0
0.0672007 0.0108492 0
0.0808118 0.0133211 0
0.103365 0.0143435 0
0.137041 0.0112459 0
0.167544 0.0110018 0
0.198886 0.0133211 0
0.220737 0.0174716 0
0.24007 0.0218662 0
0.260594 0.0272679 0
0.279835 0.0339666 0
0.293996 0.037995 0
0.30721 0.0425879 0
0.320714 0.0492866 0
0.334676 0.0621347 0.00862135
0.341283 0.0757 0.0153201
0.348058 0.0892042 0.0155032
0.354788 0.101289 0.0116579
0.359213 0.108919 0.00759899
0.379339 0.122255 0.0102693
0.396078 0.137407 0.00335698
0.407736 0.150988 0
0.422904 0.162676 0
0.442023 0.171969 0
0.462196 0.179004 0.00469978
0.482597 0.186633 0.0118257
0.501854 0.197635 0.0130159
0.514961 0.210132 0.00820935
0.528435 0.2206 0.00552377
0.538674 0.227314 0.00538643
0.059266 0.00364691 0
0.0676585 0.00691234 0
0.0720684 0.0109407 0
0.0737774 0.0150912 0
0.0768597 0.0200656 0
0.0916609 0.0238651 0
0.115511 0.0240635 0
0.155306 0.0192721 0
0.189334 0.0195163 0
0.214755 0.0218357 0
0.240742 0.0288243 0
0.263447 0.0352941 0
0.282856 0.0385595 0
0.300542 0.0421759 0
0.317693 0.0500038 0
0.330907 0.0559548 0.00123598
0.342657 0.061738 0.00630198
0.358755 0.0735943 0.0164797
0.368399 0.0883803 0.0224918
0.378134 0.104997 0.021622
0.386099 0.116976 0.0177157
0.395239 0.124025 0.0180972
0.411841 0.140307 0.0130007
0.427329 0.157763 0.00366217
0.44419 0.171145 0.00030518
0.462837 0.177417 0.0074464
0.480003 0.18613 0.0103151
0.496498 0.194705 0.0126955
0.512947 0.203616 0.0141604
0.530892 0.215198 0.0144656
0.544625 0.225345 0.0124819
0.558465 0.236744 0.00915541
0.566751 0.24416 0.00619516
0.0654765 0.0107118 0
0.0725872 0.0151827 0
0.0778515 0.0220645 0
0.0805829 0.0267948 0
0.0864576 0.0299077 0
0.106386 0.0382849 0
0.132509 0.038056 0
0.173312 0.0332647 0
0.21297 0.033753 0
0.236713 0.0348211 0
0.264363 0.0404822 0
0.287373 0.0463111 0
0.306233 0.0505989 0.000442512
0.32285 0.0550546 0.00122072
0.341451 0.0623636 0.00755322
0.357046 0.0704967 0.0139773
0.371557 0.0786755 0.0199435
0.38616 0.0893416 0.0261997
0.39881 0.104341 0.0293431
0.408881 0.119234 0.0283513
0.418799 0.128801 0.0273899
0.431022 0.140063 0.0277256
0.446387 0.157534 0.0198062
0.462211 0.174258 0.0105135
0.479377 0.187167 0.00839246
0.497414 0.195132 0.012665
0.51429 0.204273 0.0146792
0.529229 0.213321 0.0155184
0.544732 0.223011 0.0154421
0.561563 0.233585 0.015671
0.575555 0.245258 0.0117952
0.588983 0.256123 0.00918593
0.595972 0.262287 0.00648508
0.0768597 0.0208438 0
0.0791943 0.025742 0
0.0847181 0.0346532 0
0.0903792 0.041001 0
0.0985733 0.043473 0
0.122881 0.0556802 0
0.150759 0.0553292 0
0.192126 0.0514839 0
0.234363 0.0518959 0
0.260853 0.0521401 0.00715648
0.283177 0.0559701 0.0114748
0.304631 0.0608225 0.0124056
0.326467 0.065919 0.0145876
0.346578 0.0710155 0.0167391
0.365087 0.0768292 0.0196994
0.384344 0.0867933 0.0250401
0.403143 0.0989395 0.0305638
0.415396 0.108598 0.0340887
0.428565 0.121553 0.0363012
0.438865 0.131746 0.0357824
0.451652 0.140551 0.0369879
0.466194 0.15668 0.0339666
0.483299 0.175174 0.0277562
0.497642 0.1897 0.019791
0.512154 0.202182 0.0152895
0.529702 0.215885 0.0126955
0.54551 0.224582 0.0140841
0.560403 0.233417 0.0146792
0.575387 0.243015 0.0142977
0.591241 0.252369 0.0152438
0.605524 0.266346 0.00881971
0.618662 0.276112 0.00704967
0.6262 0.280781 0.00737011
0.0869306 0.0327611 0
0.0902266 0.0397345 0
0.0988022 0.0491188 0
0.108751 0.0584573 0
0.120104 0.0671244 0
0.13846 0.0747845 0
0.170672 0.0747234 0
0.215503 0.0706798 0.00103761
0.252796 0.0701305 0.0249027
0.28307 0.0714275 0.028809
0.302632 0.0727703 0.0273442
0.323049 0.0773632 0.028275
0.345739 0.0851606 0.0330053
0.369574 0.0926833 0.0368353
0.388205 0.099321 0.0411383
0.407095 0.107851 0.0413519
0.426337 0.117983 0.0382544
0.443381 0.130602 0.0383612
0.455207 0.139391 0.0395666
0.4692 0.146853 0.0423285
0.486198 0.158053 0.0505531
0.507362 0.176196 0.0414435
0.520195 0.196628 0.028275
0.533562 0.213458 0.0187533
0.548257 0.225986 0.0145266
0.562814 0.236362 0.0131991
0.57615 0.243442 0.0144961
0.590265 0.252064 0.0148623
0.604883 0.261692 0.0145113
0.619058 0.271092 0.0139162
0.631128 0.281895 0.00959792
0.646845 0.293004 0.00820935
0.656916 0.29926 0.00810254
0.0912642 0.0543069 0
0.101427 0.0628977 0
0.111116 0.0726482 0
0.121508 0.0821851 0.00103761
0.134096 0.0909743 0.0177462
0.15584 0.0958572 0.00793469
0.189136 0.0968185 0.0065919
0.229328 0.0975814 0.00408942
0.272541 0.0961929 0.0224918
0.302266 0.0942092 0.0411231
0.324346 0.0955978 0.0455634
0.346914 0.100954 0.0492409
0.371801 0.110079 0.0545205
0.396262 0.118807 0.0588693
0.414878 0.126314 0.0589914
0.432181 0.134768 0.0556039
0.449165 0.143603 0.0506752
0.467018 0.151461 0.0473793
0.477287 0.155901 0.051545
0.494408 0.164996 0.060029
0.517235 0.18114 0.0526741
0.535912 0.200107 0.0359045
0.546304 0.221057 0.0192721
0.558221 0.235615 0.0103914
0.571283 0.246494 0.00672923
0.586114 0.256291 0.00662242
0.600946 0.26482 0.00761425
0.615335 0.273808 0.00715648
0.628992 0.282872 0.00662242
0.641413 0.291325 0.00582895
0.656748 0.300755 0.00601205
0.671244 0.312947 0.00234989
0.678889 0.319951 9.15541e-05
0.0908064 0.0855879 0.00402838
0.101946 0.0949264 0.0100557
0.112642 0.104524 0.0229496
0.125429 0.113359 0.0330816
0.143496 0.121889 0.0366369
0.172015 0.126253 0.0203555
0.207797 0.127398 0.0152438
0.245212 0.124514 0.0276646
0.281849 0.122652 0.0330053
0.317037 0.125673 0.04094
0.344732 0.127718 0.0540169
0.370687 0.133059 0.0601968
0.395682 0.140627 0.0643015
0.418448 0.148608 0.069398
0.438422 0.156252 0.0717021
0.45449 0.1626 0.0685283
0.468757 0.166155 0.0675364
0.486992 0.171176 0.0733501
0.503136 0.17705 0.0740368
0.525979 0.191867 0.0631571
0.544884 0.211994 0.0357519
0.557168 0.231174 0.0149386
0.56846 0.248569 0.00199893
0.580972 0.260197 0
0.594858 0.268849 0
0.610636 0.277089 0
0.626383 0.28658 6.10361e-05
0.640192 0.295369 0
0.652766 0.304631 0
0.665232 0.314641 0
0.679789 0.325292 0
0.693446 0.336782 0
0.700267 0.343008 0
0.0800488 0.123873 0.0580301
0.0888685 0.133013 0.0701915
0.103365 0.142016 0.0864576
0.117235 0.15108 0.0899367
0.136645 0.159762 0.0802777
0.172473 0.165774 0.0462959
0.21561 0.167697 0
0.260044 0.16495 0
0.290806 0.16437 0.00596628
0.333883 0.15375 0.0569467
0.360006 0.153002 0.0690929
0.387243 0.156558 0.0691997
0.412604 0.161471 0.0712749
0.434699 0.169726 0.0787671
0.454734 0.177829 0.0876173
0.473045 0.182254 0.0922408
0.494499 0.18883 0.0914015
0.517281 0.199832 0.0853132
0.535851 0.211734 0.0623941
0.552331 0.228702 0.0350042
0.564446 0.247944 0.0059205
0.57406 0.266163 0
0.590051 0.278431 0
0.605142 0.286809 0
0.620417 0.293629 0
0.637568 0.300298 0
0.652064 0.309651 0
0.66424 0.317311 0
0.676768 0.327504 0
0.689616 0.339849 0
0.701762 0.352285 0
0.715694 0.363867 0
0.722911 0.369467 0
0.0845808 0.159091 0.123857
0.091722 0.168139 0.131289
0.10927 0.176104 0.144884
0.125475 0.184405 0.159426
0.143221 0.191882 0.160876
0.16141 0.203418 0.101701
0.219516 0.197742 0.0363775
0.263706 0.201419 0
0.307317 0.20676 0
0.348211 0.20885 0
0.374197 0.201755 0
0.406287 0.1944 0.0240482
0.43621 0.188663 0.0576791
0.457191 0.189425 0.0842451
0.481147 0.198169 0.0915389
0.503639 0.209583 0.0851911
0.522591 0.222141 0.0708934
0.538689 0.234134 0.0556954
0.55169 0.247883 0.0273747
0.565454 0.262013 0.000961318
0.57969 0.277546 0
0.595315 0.294514 0
0.610727 0.304952 0
0.627909 0.313664 0
0.644022 0.320531 0
0.657298 0.325978 0
0.672206 0.335592 0
0.686076 0.343801 0
0.698817 0.352834 0
0.710628 0.36286 0
0.722957 0.371221 0
0.73727 0.389013 0
0.74406 0.39736 0
0.0856184 0.195041 0.170275
0.0931716 0.20621 0.177905
0.106294 0.21413 0.194476
0.118502 0.224109 0.20795
0.135378 0.233448 0.209232
0.164385 0.236164 0.181338
0.204639 0.242267 0.0753796
0.256123 0.242664 0.0173342
0.292607 0.250294 0
0.349599 0.250751 0
0.393179 0.250919 0
0.423865 0.246769 0
0.443778 0.243565 0
0.470375 0.241001 0.00440986
0.496162 0.246387 0.0158389
0.51371 0.254795 0.0209354
0.52871 0.264744 0.0183719
0.545449 0.274784 0.0113069
0.563165 0.283955 0.00282292
0.581338 0.296864 0
0.600122 0.310094 0
0.618128 0.321843 0
0.63328 0.331579 0
0.649622 0.339483 0
0.665629 0.346838 0
0.681315 0.353948 0
0.695735 0.362951 0
0.708232 0.371221 0
0.720714 0.37937 0
0.733745 0.387945 0
0.745052 0.395682 0
0.758587 0.410803 0
0.764248 0.417243 0
0.086244 0.235172 0.202502
0.0928817 0.246098 0.213931
0.102693 0.254185 0.23183
0.111604 0.266621 0.245563
0.126757 0.277638 0.249592
0.155306 0.278141 0.235386
0.186404 0.285389 0.134325
0.24564 0.282567 0.0621653
0.282811 0.288548 0.00541695
0.319005 0.299275 0
0.385229 0.295811 0
0.428107 0.292897 0
0.464256 0.288273 0
0.493202 0.285725 0
0.514122 0.289693 0
0.529412 0.295644 0
0.544427 0.302617 0
0.562722 0.311131 0
0.579965 0.317983 0
0.599878 0.328557 0
0.619058 0.338766 0
0.63827 0.347982 0
0.655894 0.356222 0
0.67277 0.363699 0
0.689296 0.371374 0
0.704997 0.378943 0
0.718257 0.386511 0
0.729122 0.394903 0
0.741222 0.402579 0
0.754711 0.410285 0
0.766949 0.421149 0
0.775723 0.431891 0
0.778515 0.435874 0
0.089128 0.277729 0.221576
0.0905013 0.2869 0.239872
0.0982528 0.295354 0.256703
0.106035 0.310018 0.272725
0.119081 0.322286 0.283574
0.143069 0.323491 0.284153
0.198688 0.31191 0.227253
0.227008 0.323033 0.123217
0.290425 0.324315 0.0520943
0.319158 0.335241 0
0.36434 0.334722 0
0.422034 0.330053 0
0.464454 0.328573 0
0.501152 0.325826 0
0.528237 0.326253 0
0.548302 0.330419 0
0.565698 0.336126 0
0.583093 0.343099 0
0.598062 0.35024 0.00106813
0.616114 0.356786 0
0.635203 0.364431 0
0.654627 0.372549 0
0.673182 0.379522 0
0.693446 0.386221 0
0.710979 0.393164 0
0.724941 0.399847 0
0.7346 0.405615 0
0.74641 0.416022 0
0.758404 0.42359 0
0.771649 0.431693 0
0.787961 0.447028 0
0.790066 0.453712 0
0.790234 0.45565 0
0.0931563 0.312245 0.254246
0.0941024 0.320424 0.274556
0.095491 0.333608 0.289281
0.100298 0.345724 0.298238
0.110216 0.355428 0.308736
0.131594 0.361196 0.322042
0.178927 0.356252 0.270405
0.214328 0.359945 0.194614
0.27187 0.360052 0.0975357
0.338491 0.355337 0.0423438
0.360403 0.366186 0
0.409522 0.36965 0
0.461311 0.36878 0
0.50193 0.365301 0
0.535988 0.361089 0
0.558022 0.365957 0
0.576364 0.370153 0.00906386
0.594034 0.373281 0.010071
0.609201 0.378225 0.0211795
0.627619 0.385489 0.0224613
0.647883 0.391531 0.0122225
0.668742 0.396582 0
0.688441 0.401511 0
0.70782 0.407752 0
0.725826 0.41352 0
0.741802 0.419837 0
0.754147 0.429313 0
0.767544 0.437797 0
0.781582 0.447944 0
0.794903 0.459281 0
0.805264 0.469017 0
0.809995 0.477562 0
0.811627 0.480522 0
0.0967117 0.343297 0.278538
0.0979019 0.355352 0.297078
0.100984 0.366262 0.312779
0.104524 0.376455 0.324407
0.110643 0.385183 0.335653
0.124636 0.391653 0.345434
0.165209 0.392218 0.315633
0.218143 0.38967 0.26807
0.243931 0.400916 0.162097
0.324758 0.393042 0.0957504
0.366171 0.395224 0.0511635
0.39855 0.400885 0.0103456
0.452552 0.398657 0
0.50164 0.395285 4.57771e-05
0.538659 0.391974 0.00743114
0.563394 0.3953 0.0282139
0.583474 0.400122 0.0462348
0.600488 0.403983 0.0590982
0.61622 0.405722 0.0763561
0.634226 0.411383 0.0746014
0.655329 0.416938 0.0597696
0.677638 0.422019 0.0385443
0.700694 0.426673 0.0205997
0.723461 0.43183 0
0.741772 0.436835 0
0.756848 0.443214 0
0.771801 0.453025 0
0.784924 0.460868 0
0.798138 0.470939 0
0.810651 0.480644 0
0.820813 0.488701 0
0.826459 0.499382 0.00546273
0.827863 0.502464 0.00881971
0.0999771 0.371023 0.303883
0.101259 0.384665 0.321492
0.105409 0.391882 0.336614
0.110506 0.402945 0.351385
0.11606 0.412436 0.361883
0.124193 0.41883 0.365866
0.154757 0.425727 0.358358
0.204578 0.424811 0.321569
0.256947 0.422675 0.270588
0.297963 0.430762 0.157809
0.382773 0.41886 0.111849
0.399832 0.426551 0.0736858
0.440436 0.429175 0.0402838
0.494438 0.426566 0.0374609
0.542412 0.420874 0.0569619
0.568276 0.423377 0.0729839
0.589242 0.428122 0.0937514
0.606943 0.433173 0.114351
0.623545 0.434897 0.127474
0.639399 0.438087 0.129549
0.66041 0.442283 0.115343
0.685039 0.447089 0.0910353
0.711589 0.451637 0.0613565
0.736858 0.455863 0.0331731
0.75494 0.460761 0.0185245
0.770642 0.46688 0.0071107
0.788525 0.475715 0
0.801419 0.484504 0
0.813077 0.494087 0
0.825086 0.50338 0
0.835523 0.510292 0.010071
0.840696 0.520409 0.0220951
0.842084 0.523003 0.0258335
0.102235 0.393118 0.332448
0.109285 0.406531 0.352651
0.105303 0.412146 0.363684
0.116625 0.426856 0.379065
0.125093 0.438254 0.386725
0.129885 0.44416 0.387427
0.146654 0.456825 0.392447
0.192111 0.457389 0.374548
0.248234 0.452811 0.334768
0.286 0.456428 0.253758
0.356115 0.451942 0.18912
0.42771 0.447425 0.145464
0.439139 0.460029 0.103532
0.481514 0.462181 0.082536
0.548486 0.45182 0.106798
0.573877 0.451743 0.130587
0.595117 0.454551 0.145006
0.614649 0.459327 0.154864
0.62974 0.466255 0.15314
0.644221 0.466819 0.179248
0.665034 0.467994 0.181842
0.69247 0.470741 0.16141
0.722118 0.475242 0.123003
0.744228 0.479057 0.0850843
0.764446 0.483391 0.0505989
0.784649 0.489479 0.0275731
0.80531 0.497459 0.0198672
0.818845 0.507805 0.0118715
0.830228 0.519753 0.0121614
0.840848 0.529732 0.013962
0.850233 0.536339 0.0159152
0.855146 0.543175 0.0374914
0.856382 0.544549 0.0429541
0.107897 0.418082 0.364645
0.117327 0.424735 0.377005
0.116228 0.437217 0.380346
0.127367 0.449424 0.397436
0.137881 0.457633 0.413779
0.145388 0.462837 0.423239
0.158129 0.473854 0.423682
0.191043 0.48101 0.415305
0.237278 0.482444 0.389288
0.294911 0.478767 0.34612
0.333013 0.487816 0.248829
0.410178 0.478614 0.20235
0.459174 0.476905 0.170413
0.484337 0.484062 0.131044
0.530343 0.484947 0.127794
0.571817 0.482155 0.155474
0.59736 0.482124 0.175998
0.617304 0.484962 0.188296
0.639475 0.489967 0.207279
0.656077 0.491936 0.222934
0.675044 0.494255 0.221393
0.698848 0.497398 0.201648
0.725582 0.501442 0.162402
0.750271 0.503746 0.129686
0.774868 0.508049 0.100038
0.79675 0.513985 0.0800488
0.815686 0.522484 0.0700084
0.825162 0.531777 0.056733
0.836896 0.538567 0.0603494
0.850065 0.547005 0.0653697
0.864622 0.560464 0.0690471
0.872206 0.571572 0.0736248
0.873503 0.573587 0.0744488
0.118746 0.43801 0.392935
0.128771 0.448127 0.402945
0.131075 0.457237 0.40914
0.139025 0.468544 0.423789
0.147753 0.478401 0.437598
0.156573 0.485969 0.446296
0.168704 0.49427 0.447547
0.192386 0.504845 0.446632
0.230365 0.510399 0.430793
0.282887 0.510613 0.401877
0.344228 0.506462 0.353201
0.386572 0.512718 0.256901
0.461952 0.503929 0.221057
0.488243 0.509407 0.198459
0.515496 0.514443 0.180941
0.560601 0.514092 0.178363
0.599237 0.511254 0.198901
0.624262 0.51136 0.221256
0.646632 0.513924 0.240223
0.665995 0.516426 0.252262
0.684337 0.519432 0.259098
0.704814 0.52282 0.25095
0.729671 0.527077 0.22359
0.756771 0.529107 0.185367
0.781918 0.532631 0.147875
0.803922 0.538201 0.120714
0.822049 0.545678 0.103777
0.838148 0.555779 0.0843977
0.849683 0.562066 0.0923629
0.860548 0.569909 0.103349
0.872312 0.58085 0.106462
0.882612 0.594553 0.103777
0.884443 0.597208 0.103243
0.132464 0.456992 0.417288
0.141466 0.47187 0.428931
0.146914 0.475471 0.439353
0.153552 0.487449 0.451072
0.159884 0.499367 0.459495
0.168704 0.509926 0.465324
0.182727 0.515831 0.469703
0.200732 0.525979 0.473884
0.232151 0.534127 0.467414
0.27747 0.53756 0.447425
0.337728 0.532403 0.407996
0.373541 0.542168 0.328969
0.442618 0.538872 0.272267
0.506249 0.532723 0.252445
0.520455 0.539956 0.237812
0.551797 0.544244 0.215228
0.595209 0.541192 0.220859
0.629191 0.538766 0.245197
0.6533 0.539437 0.262364
0.675196 0.542229 0.276234
0.694392 0.545022 0.289662
0.713375 0.548241 0.292561
0.734936 0.551461 0.280293
0.761975 0.553872 0.241917
0.787411 0.558099 0.195361
0.810239 0.563195 0.158343
0.829664 0.569589 0.136812
0.851225 0.579629 0.112917
0.86302 0.587839 0.120775
0.871168 0.594858 0.132158
0.878676 0.601877 0.138033
0.890425 0.615946 0.138598
0.891829 0.6177 0.138231
0.146624 0.477729 0.435523
0.15288 0.490364 0.448447
0.161273 0.494697 0.460273
0.172869 0.507332 0.473228
0.179858 0.520958 0.482338
0.187549 0.53254 0.489082
0.20528 0.536843 0.493553
0.221515 0.543542 0.503532
0.247166 0.550958 0.499031
0.284062 0.557244 0.480766
0.334203 0.557809 0.448569
0.393286 0.55877 0.414603
0.426596 0.571054 0.333196
0.497307 0.566354 0.296681
0.54757 0.567086 0.270039
0.552651 0.571298 0.26276
0.585275 0.571115 0.252384
0.62504 0.567926 0.256977
0.65687 0.5673 0.274311
0.683452 0.569909 0.300465
0.706004 0.572702 0.308598
0.724849 0.573526 0.312306
0.741085 0.574411 0.312703
0.764675 0.577127 0.283223
0.79292 0.583719 0.239689
0.820005 0.590387 0.205158
0.842878 0.595758 0.183658
0.856031 0.602533 0.167361
0.871077 0.611429 0.16025
0.882597 0.619715 0.161578
0.890043 0.627451 0.171038
0.8981 0.638025 0.18996
0.899001 0.639292 0.191852
0.162387 0.496666 0.463264
0.168505 0.50634 0.475944
0.17763 0.515831 0.487877
0.188693 0.526604 0.500023
0.199176 0.536095 0.506004
0.211276 0.545129 0.508782
0.226932 0.554833 0.513039
0.243885 0.564187 0.513497
0.270146 0.569543 0.516411
0.303578 0.5738 0.511543
0.342031 0.581415 0.48986
0.398962 0.58146 0.455863
0.430457 0.594018 0.387015
0.489021 0.594965 0.334966
0.540566 0.59115 0.31014
0.571832 0.590188 0.303029
0.578088 0.600473 0.292882
0.608072 0.603632 0.280949
0.656062 0.598688 0.285252
0.687877 0.599084 0.300755
0.715755 0.603021 0.310628
0.738293 0.605005 0.31899
0.75555 0.602655 0.329366
0.777005 0.605631 0.310704
0.802182 0.609659 0.287312
0.827924 0.615976 0.253391
0.851423 0.623026 0.215778
0.865599 0.627268 0.206027
0.879377 0.636667 0.210636
0.890471 0.646387 0.217853
0.899229 0.656062 0.225452
0.90869 0.66537 0.238132
0.909682 0.666453 0.239277
0.176333 0.515984 0.483665
0.184787 0.525139 0.495827
0.196826 0.541665 0.508598
0.205341 0.545449 0.516121
0.217334 0.553475 0.524102
0.232013 0.563943 0.529656
0.246509 0.574182 0.530907
0.268864 0.582208 0.534249
0.294652 0.589609 0.540124
0.324163 0.596155 0.538415
0.35761 0.60235 0.523064
0.407309 0.605417 0.489433
0.451041 0.612345 0.447608
0.483772 0.623377 0.374685
0.537087 0.618189 0.350271
0.57406 0.61825 0.334432
0.598733 0.623041 0.327688
0.604456 0.63386 0.313741
0.646403 0.63093 0.296544
0.682734 0.630808 0.302876
0.72047 0.630076 0.320668
0.745892 0.630152 0.332708
0.766278 0.629801 0.33756
0.78851 0.6336 0.327474
0.814664 0.637461 0.308186
0.84123 0.6421 0.276539
0.86389 0.646387 0.243
0.877668 0.649882 0.239429
0.887938 0.659785 0.251392
0.896513 0.669261 0.26273
0.905333 0.678584 0.272038
0.918395 0.689448 0.280171
0.919234 0.689982 0.280278
0.190585 0.53666 0.503914
0.200977 0.546731 0.513085
0.21677 0.56643 0.526864
0.222934 0.564691 0.531212
0.236744 0.573571 0.542504
0.253498 0.585916 0.550927
0.268986 0.593881 0.547112
0.295705 0.600412 0.558801
0.319432 0.610574 0.564553
0.345235 0.619165 0.5626
0.377264 0.622843 0.551247
0.419333 0.629435 0.520775
0.467857 0.633677 0.491661
0.486442 0.647959 0.42002
0.538918 0.645899 0.385946
0.570962 0.649149 0.362844
0.604959 0.651026 0.349752
0.619364 0.657572 0.338598
0.641749 0.661372 0.318868
0.672892 0.663462 0.316564
0.722515 0.655924 0.328374
0.754314 0.653727 0.341085
0.77557 0.656565 0.339559
0.799771 0.66096 0.332113
0.828794 0.665766 0.310079
0.856199 0.667842 0.285893
0.878065 0.668238 0.266346
0.891295 0.672206 0.265949
0.897139 0.681208 0.283238
0.903258 0.690364 0.29575
0.911833 0.699947 0.303502
0.928191 0.712322 0.310719
0.928634 0.71252 0.310842
0.206043 0.558785 0.5308
0.216052 0.569604 0.537423
0.23508 0.580118 0.548089
0.243885 0.58706 0.561135
0.260899 0.594919 0.567864
0.280934 0.604791 0.568032
0.299702 0.615091 0.562707
0.320195 0.623102 0.571817
0.342107 0.629191 0.581552
0.366629 0.635904 0.585046
0.395575 0.643854 0.579309
0.436164 0.65214 0.555459
0.482551 0.655726 0.522194
0.500572 0.670115 0.454795
0.546914 0.672847 0.410452
0.58526 0.671717 0.391287
0.618921 0.673152 0.374609
0.641321 0.677852 0.364874
0.645197 0.689738 0.353445
0.663218 0.696971 0.334554
0.716533 0.691035 0.321279
0.766903 0.684855 0.32845
0.794583 0.688045 0.327062
0.818021 0.689067 0.321752
0.845838 0.690929 0.30985
0.87042 0.691768 0.297047
0.89015 0.693324 0.286748
0.904814 0.698985 0.276707
0.911452 0.704707 0.308797
0.917632 0.715908 0.309239
0.923552 0.728985 0.299825
0.93579 0.73753 0.313787
0.935714 0.737377 0.313787
0.225025 0.580316 0.557336
0.238041 0.587884 0.563821
0.249363 0.599359 0.567193
0.265949 0.611307 0.577264
0.280995 0.617777 0.586023
0.300053 0.625986 0.589853
0.325185 0.638911 0.588067
0.344411 0.646265 0.596323
0.365698 0.650721 0.604501
0.388739 0.656855 0.609216
0.414832 0.6654 0.607645
0.452842 0.676249 0.593439
0.493736 0.679896 0.561486
0.523323 0.686351 0.516075
0.548745 0.695598 0.439796
0.592706 0.694194 0.408179
0.624537 0.698436 0.390295
0.653513 0.702312 0.38117
0.661616 0.711696 0.372091
0.669551 0.720668 0.348531
0.708125 0.723217 0.325582
0.76791 0.715679 0.311757
0.811795 0.710246 0.307912
0.840574 0.70808 0.303319
0.863035 0.71014 0.292699
0.882963 0.712306 0.285176
0.90016 0.715114 0.282673
0.915908 0.721721 0.286229
0.925689 0.728038 0.313222
0.930861 0.73669 0.322148
0.934997 0.74725 0.328008
0.940093 0.758968 0.344884
0.940108 0.759091 0.345098
0.238132 0.602884 0.579782
0.250996 0.61059 0.586648
0.262654 0.621775 0.589487
0.280507 0.632624 0.597284
0.298146 0.639551 0.60441
0.319692 0.647517 0.607614
0.344762 0.657862 0.605814
0.364767 0.666621 0.614893
0.385428 0.673182 0.623819
0.406317 0.680186 0.629694
0.429709 0.689082 0.632029
0.462684 0.69781 0.625345
0.500496 0.703014 0.599512
0.539376 0.70486 0.569543
0.550439 0.717296 0.497047
0.596292 0.719173 0.438071
0.628321 0.723583 0.414359
0.658747 0.726802 0.399115
0.679942 0.731899 0.384665
0.68101 0.744472 0.354894
0.714809 0.747326 0.324651
0.776165 0.737911 0.300038
0.827909 0.729061 0.288991
0.860136 0.727733 0.278981
0.881743 0.732204 0.264775
0.899306 0.734905 0.263951
0.913298 0.737926 0.271702
0.92874 0.746792 0.287526
0.93756 0.752468 0.318639
0.941955 0.758785 0.338796
0.944869 0.767636 0.352804
0.94638 0.779812 0.36614
0.946365 0.779812 0.366125
0.247074 0.626383 0.599802
0.258625 0.635645 0.606592
0.274098 0.644678 0.611353
0.290578 0.653422 0.620478
0.314382 0.661845 0.624735
0.338277 0.669062 0.623026
0.359533 0.67599 0.61912
0.380133 0.686366 0.629084
0.401862 0.696452 0.640436
0.422583 0.705547 0.648524
0.443137 0.713909 0.651942
0.470344 0.719432 0.654063
0.50454 0.726436 0.637079
0.540429 0.729335 0.61706
0.574929 0.730953 0.586725
0.595468 0.745815 0.48658
0.630945 0.746929 0.451545
0.666316 0.748455 0.423484
0.695491 0.753048 0.396551
0.69424 0.768139 0.358953
0.730724 0.765927 0.317952
0.794919 0.754116 0.289235
0.843153 0.748287 0.268666
0.87718 0.749706 0.248066
0.902693 0.756634 0.233066
0.917937 0.758175 0.23772
0.929 0.762051 0.256748
0.939666 0.772671 0.282017
0.946273 0.77615 0.326085
0.95082 0.782284 0.356207
0.953155 0.790722 0.374365
0.953582 0.799817 0.381689
0.953582 0.799802 0.381582
0.256962 0.645167 0.618006
0.270542 0.655116 0.622965
0.287175 0.667674 0.628183
0.304631 0.679316 0.643656
0.326604 0.687144 0.645594
0.349401 0.695018 0.643503
0.371984 0.704417 0.642405
0.389181 0.712856 0.64622
0.418311 0.719814 0.66099
