presets/H哈苏青.cube
TITLE "XH Copyright"
# XH Copyright
# 5219
# 20250101
LUT_3D_SIZE 33
0 0.00880446 0.0416876
0 0.00926223 0.0382696
0 0.00982681 0.037644
0 0.0135348 0.0403906
0 0.0193942 0.0440223
0 0.0217136 0.0455177
0 0.0228885 0.0402991
0 0.0234836 0.0358892
0.0736095 0.0245212 0.0395361
0.156008 0.0265202 0.0433661
0.207065 0.0303044 0.0460517
0.248631 0.0344244 0.0483711
0.287297 0.0398413 0.0506752
0.318059 0.0480354 0.0531014
0.33962 0.0525673 0.0525673
0.35552 0.0577707 0.0541238
0.36701 0.0671092 0.0556802
0.369482 0.0856641 0.0578317
0.365194 0.104341 0.0599374
0.362875 0.121096 0.061738
0.362982 0.135805 0.0635386
0.364172 0.144335 0.0645151
0.383566 0.159701 0.0682078
0.398215 0.176272 0.0694896
0.409445 0.190509 0.0717174
0.42417 0.203067 0.0735637
0.443488 0.213947 0.0757763
0.463539 0.222736 0.0774548
0.484733 0.232242 0.0794385
0.504463 0.244907 0.081529
0.517983 0.257771 0.0837415
0.532036 0.269139 0.08542
0.542489 0.276371 0.0866407
0 0.00955215 0.0475166
0 0.0144656 0.0407874
0 0.0193332 0.0436561
0 0.0233463 0.0517739
0 0.0281682 0.05832
0 0.033753 0.0541695
0 0.0346075 0.0452888
0.0313573 0.0332494 0.0384985
0.117327 0.0349126 0.0424659
0.181567 0.0373846 0.0457923
0.23183 0.045716 0.0488441
0.274235 0.053254 0.05037
0.312383 0.055787 0.0521401
0.343511 0.058732 0.053666
0.360159 0.0690776 0.0555734
0.372747 0.0768444 0.0569924
0.383398 0.084123 0.0582742
0.392935 0.100099 0.0604562
0.392599 0.119631 0.0626841
0.392111 0.140475 0.0651408
0.394141 0.15436 0.0667582
0.402136 0.162493 0.068513
0.415198 0.180407 0.0709087
0.428748 0.19881 0.0732891
0.445548 0.213413 0.0757763
0.464042 0.221271 0.0773175
0.481926 0.231525 0.0792401
0.499138 0.241428 0.0811017
0.516136 0.251789 0.0828107
0.534585 0.264546 0.0852064
0.548791 0.275471 0.0868391
0.563439 0.287663 0.0890059
0.572442 0.29546 0.0902419
0 0.0171054 0.0535134
0 0.023331 0.0523842
0 0.03093 0.057969
0 0.0355535 0.0662242
0 0.0383001 0.0716869
0 0.0496834 0.0677501
0 0.0508431 0.0584726
0.0638743 0.0495003 0.0487831
0.154421 0.0527657 0.0458076
0.214725 0.0533761 0.0509499
0.26688 0.0606851 0.0512398
0.307164 0.0672465 0.0531777
0.339361 0.0716259 0.0550851
0.364492 0.0745403 0.0593729
0.380423 0.0854353 0.0582742
0.394064 0.0959487 0.0599374
0.406729 0.106279 0.0616922
0.417243 0.120211 0.0637827
0.42121 0.139345 0.0661631
0.422827 0.157382 0.0682078
0.429252 0.168734 0.0699168
0.438499 0.181765 0.0730907
0.449622 0.200977 0.075288
0.463905 0.218631 0.0770733
0.481102 0.232364 0.0793164
0.500099 0.241947 0.0810864
0.517525 0.252552 0.0829633
0.533059 0.262654 0.0849165
0.548898 0.273426 0.0866102
0.566873 0.285389 0.0887312
0.581964 0.297612 0.0906996
0.596078 0.309194 0.0926223
0.603891 0.315633 0.0936599
0 0.0284123 0.0620737
0 0.0337987 0.0679179
0 0.0442969 0.0751202
0 0.0511177 0.0831922
0 0.0532235 0.0875715
0 0.0691081 0.0853742
0.00889601 0.070573 0.0750591
0.0977493 0.0700694 0.0629282
0.190219 0.074052 0.0581979
0.254139 0.0735637 0.0637064
0.304021 0.0758373 0.070222
0.339803 0.0810101 0.0710002
0.36231 0.0885939 0.0674144
0.385718 0.0949111 0.0674144
0.401282 0.103838 0.0636606
0.41709 0.11664 0.0633402
0.432212 0.132021 0.0656901
0.440986 0.144335 0.0675059
0.447959 0.159869 0.0695506
0.454032 0.172671 0.0712596
0.464897 0.183139 0.0729686
0.474098 0.201511 0.076112
0.48719 0.221729 0.0794232
0.500374 0.23711 0.0805371
0.515496 0.250401 0.0825971
0.533349 0.264988 0.0852064
0.549676 0.274876 0.0868086
0.565408 0.285115 0.0886397
0.581872 0.29575 0.0905776
0.598672 0.306172 0.0923781
0.614054 0.320729 0.0946365
0.628092 0.331228 0.0964218
0.635981 0.336294 0.0973068
0 0.0410925 0.078645
0 0.0489662 0.0856489
0 0.0596933 0.0924392
0 0.0705425 0.10013
0 0.0800336 0.106767
0 0.0902419 0.104692
0.0403449 0.0933852 0.090837
0.140688 0.0921492 0.0790875
0.228885 0.0929274 0.0841993
0.294621 0.0936446 0.0863508
0.330251 0.0948806 0.0836652
0.357961 0.100404 0.0834669
0.384268 0.108934 0.0856184
0.411917 0.117556 0.0873274
0.424033 0.128801 0.0817731
0.43624 0.141451 0.0758984
0.448951 0.155627 0.0709087
0.461326 0.171313 0.0714427
0.470512 0.181918 0.0730144
0.484154 0.19089 0.0746166
0.501457 0.203632 0.080827
0.516335 0.22475 0.0798962
0.52459 0.246128 0.0826123
0.53756 0.263355 0.0851911
0.552697 0.276738 0.0871443
0.568338 0.287892 0.0892195
0.582666 0.296086 0.090547
0.59765 0.305791 0.0922866
0.61326 0.316365 0.0941482
0.628168 0.326741 0.0959335
0.641169 0.338216 0.0977798
0.658122 0.350484 0.0999313
0.668635 0.357565 0.101122
0 0.0649424 0.103395
0 0.0751507 0.107164
0 0.0863813 0.11516
0 0.0970169 0.124636
0 0.106813 0.132799
0.0021973 0.11426 0.125963
0.0735637 0.118334 0.113481
0.163165 0.1205 0.0950942
0.241993 0.123888 0.0902419
0.305516 0.122484 0.0937514
0.34551 0.123476 0.0943465
0.373434 0.130083 0.0952316
0.3991 0.140887 0.0961318
0.424186 0.151843 0.0957046
0.440162 0.162097 0.0920882
0.452796 0.1738 0.0876783
0.465126 0.185245 0.0834516
0.480751 0.195087 0.0802472
0.49218 0.200473 0.0823987
0.511238 0.21117 0.088014
0.528374 0.230518 0.0860151
0.541939 0.251255 0.0839094
0.550713 0.271809 0.0865034
0.56318 0.286671 0.0888838
0.577325 0.298085 0.0905318
0.592996 0.308965 0.0924697
0.60914 0.318639 0.0944076
0.624384 0.328725 0.0959793
0.639033 0.33875 0.0977493
0.652491 0.348058 0.0993362
0.668544 0.358679 0.101274
0.683833 0.371679 0.103304
0.691981 0.378882 0.104433
0 0.0980545 0.133928
0 0.109041 0.140764
0 0.119738 0.150256
0 0.13051 0.158846
0 0.141085 0.163195
0.00772107 0.14992 0.155093
0.0917067 0.153048 0.138155
0.189364 0.14966 0.119951
0.251102 0.151965 0.110033
0.307225 0.158526 0.105806
0.351888 0.162188 0.105898
0.382559 0.168933 0.105852
0.409293 0.178119 0.105257
0.433692 0.18793 0.106477
0.453239 0.197299 0.106126
0.467048 0.205371 0.102327
0.482277 0.210529 0.0996109
0.503929 0.216678 0.101106
0.519982 0.223987 0.0999466
0.537057 0.242008 0.095491
0.550301 0.263569 0.0889296
0.561791 0.282429 0.0881819
0.574319 0.299504 0.0905623
0.587884 0.311543 0.092668
0.603235 0.321675 0.0944686
0.61973 0.330983 0.096025
0.636362 0.341863 0.0979629
0.651026 0.351675 0.099855
0.664195 0.36144 0.101305
0.677394 0.372396 0.103105
0.693065 0.384146 0.105241
0.706874 0.396521 0.107012
0.713832 0.402945 0.107805
0 0.138415 0.174578
0 0.148928 0.183566
0 0.159243 0.194156
0 0.169741 0.200214
0 0.181277 0.201053
0 0.193866 0.192233
0.0579995 0.200717 0.169345
0.188907 0.194553 0.0979019
0.257969 0.192462 0.124437
0.32697 0.188403 0.126558
0.363699 0.189868 0.124117
0.393179 0.195422 0.118425
0.420584 0.202045 0.115373
0.444007 0.211429 0.117494
0.466194 0.22118 0.121675
0.487388 0.226596 0.121859
0.509514 0.235279 0.119158
0.52929 0.24889 0.115343
0.542336 0.262852 0.104387
0.556878 0.280476 0.0978408
0.570077 0.298772 0.0935531
0.580667 0.31635 0.0928969
0.597238 0.329168 0.0950027
0.613336 0.339055 0.0968032
0.630045 0.347219 0.098436
0.647974 0.355383 0.0999466
0.663569 0.366186 0.101854
0.676616 0.374823 0.103471
0.689448 0.385748 0.105272
0.702419 0.398749 0.106783
0.714702 0.411948 0.10779
0.729152 0.424445 0.108873
0.736446 0.430472 0.109392
0 0.183017 0.219791
0 0.194156 0.227649
0 0.20206 0.236118
0 0.210559 0.245441
0 0.219547 0.24773
0 0.23267 0.232776
0.0656901 0.232776 0.204349
0.146441 0.242939 0.11548
0.257908 0.239368 0.0944076
0.324361 0.242023 0.119768
0.371618 0.2365 0.119539
0.407156 0.232837 0.116091
0.437736 0.231449 0.118395
0.46331 0.233951 0.125353
0.48893 0.24445 0.12726
0.509896 0.257954 0.124697
0.52668 0.271977 0.120058
0.542184 0.284779 0.115587
0.555825 0.298024 0.107332
0.571023 0.311604 0.100465
0.586236 0.327352 0.0958114
0.601022 0.344656 0.0965286
0.616907 0.356207 0.0979324
0.635752 0.366522 0.0999466
0.652903 0.374731 0.101595
0.667781 0.381643 0.103304
0.682979 0.392279 0.104631
0.697902 0.401892 0.106096
0.711284 0.411948 0.107271
0.723171 0.422721 0.108064
0.736339 0.432258 0.109163
0.748318 0.450828 0.108354
0.753811 0.459785 0.107469
0 0.22356 0.260945
0 0.236957 0.269841
0 0.244877 0.280217
0 0.255909 0.290623
0 0.26717 0.293706
0 0.274434 0.278645
0.0374914 0.280751 0.244358
0.11603 0.287495 0.180987
0.203357 0.293645 0.0801099
0.316457 0.286732 0.0749371
0.372915 0.287251 0.0938888
0.406683 0.284703 0.104784
0.437064 0.282109 0.113817
0.470329 0.282231 0.11902
0.497642 0.29015 0.119158
0.51606 0.300084 0.121721
0.531792 0.311025 0.122866
0.549126 0.322133 0.121675
0.567178 0.332235 0.117586
0.58584 0.346258 0.112551
0.603876 0.360128 0.105241
0.620752 0.373068 0.0971847
0.636622 0.384009 0.0979324
0.654749 0.393713 0.0998856
0.672496 0.402411 0.101869
0.689494 0.41088 0.10367
0.704952 0.421256 0.105119
0.717952 0.430549 0.106126
0.730922 0.439689 0.107042
0.744106 0.449134 0.107774
0.755734 0.458076 0.109117
0.76875 0.474769 0.115282
0.774487 0.481987 0.117693
0 0.271748 0.297688
0 0.284566 0.308385
0 0.292332 0.320104
0 0.306554 0.332647
0 0.319966 0.338506
0 0.322332 0.328115
0.00570687 0.327489 0.289616
0.101564 0.328008 0.236667
0.156634 0.341909 0.139696
0.250629 0.345693 0.0481727
0.364279 0.335607 0.0504463
0.410224 0.332067 0.0746014
0.443992 0.32903 0.0959945
0.477714 0.328069 0.110887
0.504311 0.333059 0.114931
0.524147 0.340063 0.122484
0.542199 0.348409 0.128695
0.561929 0.35819 0.131258
0.581674 0.366751 0.131502
0.601221 0.378729 0.12575
0.620081 0.390539 0.116121
0.637797 0.401282 0.105867
0.654658 0.410788 0.0987259
0.673396 0.419898 0.0977951
0.692256 0.429038 0.100343
0.70988 0.437812 0.102281
0.724224 0.446784 0.103517
0.735759 0.456352 0.107256
0.748806 0.465217 0.109529
0.762737 0.474128 0.108675
0.775555 0.48603 0.11458
0.785336 0.497704 0.127092
0.78883 0.502022 0.131884
0 0.326574 0.330358
0 0.335958 0.343999
0 0.344182 0.355917
0 0.361242 0.371191
0 0.375601 0.381704
0 0.376333 0.379339
0 0.36875 0.337423
0.0762188 0.369024 0.29836
0.164645 0.381247 0.188571
0.236408 0.389471 0.080827
0.328893 0.381537 0.0389715
0.407263 0.37319 0.0597696
0.44741 0.371481 0.082536
0.481132 0.369741 0.103746
0.509804 0.371679 0.116579
0.53463 0.377264 0.130114
0.557504 0.384421 0.140124
0.57879 0.392569 0.146075
0.596368 0.4009 0.148257
0.615076 0.409049 0.141482
0.633722 0.418296 0.131594
0.651759 0.428016 0.119738
0.670359 0.436423 0.110979
0.691829 0.444678 0.104753
0.711543 0.453376 0.103578
0.727657 0.461295 0.106035
0.739269 0.467918 0.110399
0.752071 0.47924 0.118715
0.764813 0.487999 0.120241
0.778561 0.497276 0.119997
0.795316 0.514076 0.128054
0.797467 0.521126 0.137591
0.797681 0.523064 0.140429
0 0.368338 0.365164
0 0.375723 0.379629
0 0.391165 0.394339
0 0.406851 0.405417
0 0.417685 0.414816
0 0.422049 0.421927
0 0.423438 0.386389
0.016907 0.418006 0.347524
0.132509 0.417838 0.259556
0.268757 0.411078 0.136202
0.314717 0.419425 0.0875257
0.389746 0.419425 0.0708324
0.44564 0.416495 0.0854963
0.48539 0.41265 0.107469
0.518532 0.409323 0.128878
0.542992 0.41529 0.151156
0.564401 0.420691 0.161044
0.584985 0.424964 0.161883
0.60473 0.43125 0.168185
0.625834 0.439933 0.168887
0.647608 0.447715 0.162249
0.669398 0.454307 0.151431
0.690669 0.460822 0.144778
0.708721 0.468376 0.131319
0.728161 0.475364 0.125856
0.74696 0.483131 0.127352
0.760113 0.493904 0.131579
0.773678 0.503426 0.131518
0.787213 0.514717 0.131487
0.800504 0.527001 0.134813
0.811704 0.537728 0.141817
0.817365 0.546517 0.152987
0.81912 0.549477 0.156435
0 0.407385 0.394583
0 0.420722 0.41088
0 0.432654 0.424659
0 0.444602 0.435935
0 0.454734 0.446494
0 0.461479 0.453681
0 0.466804 0.432273
0 0.465553 0.398444
0.092607 0.459113 0.338491
0.214267 0.459922 0.206119
0.311589 0.45481 0.133181
0.369574 0.457115 0.0988174
0.433234 0.452216 0.094789
0.485527 0.446677 0.119448
0.523384 0.443046 0.145251
0.549661 0.447486 0.168597
0.572015 0.453742 0.183825
0.592325 0.45864 0.194278
0.613947 0.461219 0.205295
0.634592 0.468208 0.204456
0.656565 0.475364 0.1953
0.679683 0.481926 0.182681
0.703273 0.487831 0.170489
0.725933 0.494636 0.15491
0.745647 0.500755 0.149004
0.762051 0.508431 0.148165
0.775692 0.519448 0.142931
0.787259 0.528466 0.137224
0.801266 0.539422 0.14081
0.81532 0.549767 0.149065
0.827726 0.557992 0.158434
0.833173 0.568597 0.168063
0.834775 0.571878 0.171023
0 0.441306 0.422995
0 0.457832 0.440299
0 0.46482 0.451972
0 0.477165 0.46566
0 0.488685 0.476326
0 0.496696 0.481209
0 0.506584 0.47628
0 0.508721 0.448356
0.0464637 0.500328 0.407095
0.167865 0.499687 0.305592
0.330098 0.482918 0.180621
0.359731 0.489296 0.145174
0.412894 0.489052 0.120272
0.474235 0.484108 0.126925
0.528359 0.476051 0.165866
0.556481 0.479057 0.188785
0.57966 0.484749 0.208759
0.600885 0.490669 0.226352
0.622171 0.492958 0.237919
0.641581 0.496925 0.240146
0.664088 0.502449 0.231846
0.689235 0.508782 0.217288
0.715602 0.514763 0.199115
0.741009 0.520577 0.181613
0.759808 0.526635 0.172839
0.775357 0.533791 0.16643
0.791348 0.543832 0.155367
0.801648 0.553429 0.148592
0.814206 0.563287 0.153948
0.828428 0.572656 0.164263
0.84152 0.579843 0.172732
0.846296 0.589975 0.18201
0.847364 0.592493 0.184268
0 0.467689 0.450843
0 0.482368 0.468757
0 0.488167 0.478599
0 0.50544 0.494087
0 0.519844 0.504662
0 0.527672 0.507515
0 0.544167 0.515373
0 0.546349 0.497765
0 0.539925 0.464118
0.137606 0.529671 0.396323
0.255802 0.526909 0.286931
0.385214 0.513268 0.200916
0.398566 0.527443 0.163333
0.453254 0.526528 0.149752
0.533288 0.512383 0.186252
0.562707 0.511376 0.21529
0.587152 0.514122 0.234974
0.609781 0.519509 0.247364
0.625925 0.527337 0.248341
0.646433 0.527932 0.270359
0.672389 0.529641 0.273823
0.701579 0.533516 0.261311
0.7308 0.539712 0.238315
0.751049 0.544747 0.215824
0.769116 0.55021 0.195666
0.787976 0.557168 0.182193
0.80975 0.566018 0.177859
0.821653 0.576928 0.17467
0.83183 0.588983 0.176715
0.841566 0.5991 0.179065
0.851209 0.605844 0.181079
0.858488 0.612345 0.195193
0.859998 0.613703 0.198322
0 0.496544 0.482444
0 0.502785 0.491447
0 0.520012 0.50106
0 0.533257 0.517021
0 0.540505 0.530098
0 0.545388 0.537621
0 0.55996 0.542184
0 0.56997 0.536034
0 0.5738 0.513313
0.0975204 0.565621 0.472251
0.222538 0.563027 0.377035
0.333852 0.556054 0.260655
0.416236 0.546853 0.216358
0.449348 0.552514 0.183215
0.505547 0.551339 0.184375
0.555978 0.546548 0.215335
0.587015 0.545357 0.241505
0.611215 0.547753 0.259266
0.638346 0.552728 0.28098
0.660044 0.554345 0.297078
0.682918 0.556893 0.299168
0.707485 0.56083 0.28838
0.732952 0.566125 0.265538
0.757321 0.569619 0.246433
0.781369 0.574731 0.228611
0.803235 0.581506 0.216876
0.821836 0.590616 0.211627
0.828138 0.600214 0.205432
0.84097 0.60708 0.208453
0.855436 0.616083 0.212619
0.86894 0.628962 0.216678
0.875166 0.639673 0.221088
0.876661 0.642023 0.222232
0 0.5178 0.508873
0 0.530022 0.519448
0 0.541375 0.528252
0 0.553628 0.542367
0 0.563439 0.554421
0 0.571359 0.562463
0 0.581445 0.56585
0 0.595132 0.567514
0 0.603754 0.555077
0.0589914 0.602625 0.528496
0.194598 0.592844 0.465126
0.288014 0.593683 0.351827
0.401694 0.580255 0.260029
0.4421 0.582589 0.235508
0.4795 0.585428 0.220371
0.536294 0.582544 0.22153
0.584024 0.577691 0.246052
0.616373 0.576318 0.27393
0.644495 0.577981 0.297917
0.669032 0.57998 0.313726
0.691508 0.582635 0.322423
0.714321 0.586343 0.320058
0.739132 0.591546 0.30425
0.765499 0.594537 0.282185
0.789471 0.599298 0.260533
0.810361 0.605676 0.244907
0.827253 0.613474 0.235737
0.840528 0.623804 0.224994
0.85359 0.629999 0.230976
0.866026 0.637552 0.238666
0.877211 0.648234 0.242405
0.88513 0.661631 0.242817
0.886427 0.663767 0.242725
0 0.538994 0.53283
0 0.556603 0.546609
0 0.558923 0.554116
0 0.572274 0.566491
0 0.586694 0.577157
0 0.598962 0.585122
0 0.605219 0.588342
0 0.6168 0.593668
0 0.626917 0.589166
0.0440375 0.631708 0.571939
0.168154 0.621927 0.530221
0.265843 0.62388 0.440085
0.348302 0.622889 0.335668
0.454505 0.608515 0.281987
0.474571 0.614786 0.266346
0.518456 0.615946 0.247242
0.573312 0.610452 0.255238
0.617075 0.606043 0.283162
0.647959 0.604944 0.306294
0.675288 0.606744 0.325597
0.699626 0.608881 0.342153
0.722713 0.611978 0.348409
0.746609 0.615579 0.342565
0.772671 0.618692 0.319005
0.794995 0.623728 0.291371
0.815152 0.629679 0.270344
0.833646 0.636423 0.258564
0.853468 0.646891 0.245762
0.866117 0.65478 0.251865
0.875425 0.661357 0.259785
0.882826 0.66772 0.264179
0.892897 0.680812 0.266896
0.894133 0.682506 0.266667
0 0.563058 0.553048
0 0.577005 0.566934
0 0.579705 0.574792
0 0.593698 0.587503
0 0.6094 0.599054
0 0.622827 0.607752
0 0.626429 0.609583
0 0.632425 0.616281
0 0.641505 0.613642
0.0604257 0.650095 0.60032
0.152834 0.649454 0.573281
0.257649 0.648447 0.519005
0.327108 0.652705 0.432853
0.4168 0.648905 0.336004
0.502266 0.642054 0.292515
0.509331 0.646296 0.285649
0.554833 0.642298 0.278141
0.605615 0.637064 0.285527
0.646067 0.634546 0.307439
0.680003 0.63563 0.338582
0.707835 0.637278 0.353262
0.731151 0.637552 0.36231
0.750774 0.637705 0.365682
0.774456 0.641199 0.347402
0.799817 0.648234 0.320638
0.825544 0.655344 0.300984
0.848081 0.661006 0.290074
0.859495 0.667704 0.28127
0.873976 0.676219 0.278447
0.885405 0.684031 0.280583
0.893294 0.691157 0.287877
0.902296 0.700725 0.300954
0.90338 0.701823 0.302205
0 0.58146 0.577005
0 0.591943 0.589059
0 0.601511 0.599283
0 0.612421 0.6103
0 0.622889 0.616907
0 0.633738 0.621469
0 0.644724 0.62652
0 0.655604 0.628916
0.0423743 0.659998 0.628794
0.107805 0.66424 0.623072
0.165347 0.67274 0.609018
0.263386 0.669642 0.569604
0.326406 0.675486 0.493156
0.389929 0.679454 0.398917
0.476188 0.670237 0.334569
0.527993 0.66453 0.322606
0.534203 0.674754 0.310964
0.576791 0.674678 0.30164
0.638697 0.666941 0.31043
0.678203 0.665446 0.331243
0.711788 0.667918 0.348943
0.738781 0.668727 0.364797
0.760769 0.66537 0.378805
0.783642 0.668574 0.368551
0.809613 0.672663 0.355352
0.834119 0.679133 0.334554
0.855192 0.686351 0.312139
0.868986 0.69044 0.30724
0.883406 0.699351 0.312322
0.89482 0.7084 0.318517
0.903563 0.717113 0.324804
0.912856 0.72578 0.334066
0.913756 0.726772 0.334966
0 0.602838 0.597467
0 0.611612 0.607645
0 0.630014 0.621897
0 0.632837 0.626474
0 0.641215 0.633494
0 0.652567 0.639536
0 0.664149 0.642924
0.039704 0.672602 0.645579
0.0932479 0.678691 0.648051
0.144518 0.685145 0.645853
0.193591 0.692042 0.635798
0.27303 0.692195 0.605341
0.330068 0.697887 0.54638
0.381567 0.70396 0.468193
0.451499 0.700206 0.39202
0.516411 0.694957 0.354864
0.555108 0.696132 0.344656
0.561746 0.706722 0.328588
0.622141 0.699489 0.316732
0.666575 0.697551 0.325887
0.712184 0.694392 0.351858
0.743114 0.693248 0.372305
0.767315 0.691829 0.38439
0.79147 0.695109 0.381781
0.81912 0.698772 0.371756
0.844907 0.703334 0.352346
0.866484 0.707576 0.331655
0.881575 0.711269 0.331441
0.892027 0.720088 0.3411
0.900999 0.728756 0.350439
0.909941 0.737484 0.358343
0.922789 0.748058 0.365484
0.923506 0.748577 0.365576
0 0.625025 0.617594
0 0.635431 0.626215
0 0.657237 0.641901
0 0.653483 0.6421
0 0.661768 0.65066
0.0157321 0.67454 0.658671
0.0369268 0.684123 0.658228
0.0980087 0.687892 0.663066
0.139483 0.697643 0.667536
0.178378 0.706508 0.666835
0.226993 0.710018 0.658
0.286275 0.714992 0.635401
0.337972 0.719844 0.591806
0.385214 0.725521 0.526314
0.442344 0.727337 0.45066
0.493111 0.728649 0.395575
0.552911 0.725139 0.368002
0.575036 0.729686 0.354101
0.60853 0.730144 0.332769
0.649363 0.729702 0.333608
0.710567 0.719661 0.354391
0.748821 0.715709 0.37702
0.772931 0.717586 0.382071
0.799268 0.721096 0.38378
0.829374 0.725307 0.37322
0.857679 0.727321 0.360418
0.880812 0.728054 0.350713
0.894774 0.731472 0.351766
0.901228 0.739849 0.365499
0.907286 0.748287 0.375586
0.915755 0.757122 0.382757
0.931746 0.768887 0.390814
0.93225 0.769116 0.391028
0 0.646952 0.641489
0 0.658976 0.649088
0 0.668925 0.657176
0.0018616 0.674174 0.666392
0.0357519 0.681758 0.671138
0.0683452 0.692271 0.672572
0.0928206 0.704906 0.672038
0.133059 0.711055 0.677348
0.175616 0.715221 0.682292
0.216129 0.720836 0.683955
0.255512 0.72903 0.680842
0.305409 0.736202 0.665019
0.351644 0.740246 0.62475
0.39408 0.747341 0.559075
0.446326 0.752148 0.486427
0.502953 0.750225 0.429969
0.563531 0.746303 0.394034
0.599283 0.747646 0.380911
0.602243 0.759258 0.367498
0.628733 0.764111 0.347341
0.699184 0.754635 0.340276
0.759106 0.745892 0.361303
0.790036 0.747478 0.369253
0.816022 0.74789 0.373907
0.844953 0.749096 0.372839
0.870634 0.749493 0.370047
0.891386 0.751156 0.366522
0.905943 0.756558 0.361334
0.91519 0.761563 0.387381
0.919432 0.772244 0.388357
0.923949 0.784466 0.381125
0.936019 0.792218 0.394049
0.935988 0.792081 0.393973
0 0.66775 0.663813
0 0.675013 0.668864
0.00495918 0.687907 0.674861
0.0351873 0.698985 0.68333
0.0684062 0.704234 0.688792
0.103578 0.712352 0.691859
0.13814 0.726787 0.693309
0.173419 0.732525 0.698192
0.213779 0.735012 0.701869
0.250843 0.739651 0.704219
0.283772 0.748165 0.70399
0.322377 0.758267 0.696178
0.364706 0.761151 0.666133
0.402609 0.766659 0.608621
0.447044 0.771817 0.530175
0.50425 0.772381 0.452842
0.56025 0.772519 0.412634
0.608377 0.771771 0.396994
0.618555 0.780056 0.386069
0.629816 0.787991 0.359777
0.683894 0.786572 0.338384
0.756756 0.776013 0.336172
0.806867 0.768399 0.349935
0.838407 0.765606 0.360143
0.861509 0.76704 0.359045
0.881956 0.768612 0.360037
0.899763 0.771267 0.362997
0.916259 0.777417 0.369619
0.92636 0.783398 0.392142
0.931594 0.791516 0.399969
0.935119 0.801129 0.405478
0.940093 0.81181 0.420966
0.940139 0.811917 0.42118
0 0.690242 0.685145
0.0118257 0.697307 0.690715
0.0262303 0.709392 0.695445
0.0602274 0.719783 0.702251
0.0966812 0.725597 0.706722
0.133516 0.733043 0.708736
0.168597 0.744427 0.708843
0.202991 0.751705 0.715175
0.239353 0.756359 0.72018
0.271748 0.762249 0.724315
0.300298 0.770275 0.726543
0.332265 0.778836 0.723522
0.371038 0.782391 0.70309
0.409262 0.785977 0.662028
0.447761 0.791135 0.595346
0.499886 0.796445 0.497765
0.551354 0.798642 0.443687
0.605386 0.79678 0.415305
0.638621 0.798795 0.398016
0.638758 0.811093 0.364645
0.687694 0.810117 0.334218
0.764584 0.797284 0.320638
0.823545 0.785962 0.332738
0.857939 0.783932 0.339834
0.880125 0.787747 0.335744
0.897612 0.789685 0.34081
0.911849 0.792477 0.352453
0.927321 0.800702 0.369223
0.936858 0.805859 0.397345
0.941894 0.811658 0.415488
0.944762 0.819821 0.429191
0.945968 0.831098 0.440604
0.945953 0.831098 0.440589
0 0.713848 0.706111
0.0162509 0.722927 0.712505
0.0438849 0.732067 0.717235
0.0774395 0.739345 0.723384
0.121401 0.747234 0.725978
0.158145 0.754574 0.724697
0.187411 0.762173 0.722667
0.220676 0.770947 0.729992
0.255818 0.779263 0.73817
0.284581 0.787213 0.744167
0.3093 0.794903 0.747768
0.338827 0.79881 0.748379
0.371542 0.804654 0.737209
0.412284 0.806256 0.715816
0.450446 0.809445 0.66952
0.495933 0.818936 0.568444
0.541115 0.822171 0.494881
0.60528 0.818738 0.441077
0.654536 0.818433 0.408484
0.650874 0.833799 0.366827
0.705104 0.827283 0.325963
0.784924 0.811917 0.310277
0.839384 0.804303 0.313161
0.875273 0.804456 0.311421
0.900908 0.810315 0.306859
0.916884 0.811688 0.318608
0.92781 0.814679 0.33846
0.938003 0.825208 0.360906
0.945434 0.828031 0.403067
0.950439 0.833585 0.432364
0.95285 0.841459 0.44889
0.953338 0.849882 0.4542
0.953323 0.849867 0.454108
0.011368 0.73196 0.723629
0.0345312 0.74229 0.729137
0.0593576 0.755016 0.734966
0.0971389 0.764645 0.746166
0.133516 0.772045 0.74728
0.167315 0.780545 0.746715
0.197681 0.790158 0.747082
0.222202 0.798016 0.750683
0.273075 0.801953 0.758297
