presets/H哈苏浓.cube
TITLE "XH Copyright"
# XH Copyright
# 5219
# 20250101
LUT_3D_SIZE 9
0 0.00115969 0.00138857
0 0.00958267 0
0.138338 0.0124208 0
0.292317 0.0171511 0
0.372671 0.0369879 0
0.36701 0.103502 0.0040589
0.420844 0.156603 0.00846876
0.510277 0.198734 0.0125887
0.579767 0.247196 0.0176547
0.0278477 0.031632 0.041062
0.062974 0.0658579 0.0656748
0.245533 0.0696727 0.0351568
0.392172 0.075761 0.0264439
0.467903 0.118578 0.00621042
0.530739 0.166751 0.0137789
0.591806 0.247059 0.0177615
0.662608 0.292256 0.0226291
0.724117 0.340551 0.0274052
0.0154879 0.158709 0.165927
0.0829938 0.194812 0.198367
0.252216 0.218418 0.0777905
0.454826 0.199771 0.0556649
0.561486 0.242496 0.0534981
0.62948 0.305913 0.0229648
0.703822 0.361425 0.0266117
0.765301 0.404166 0.0308537
0.801205 0.461158 0.0332799
0.00907912 0.332235 0.277134
0.0258793 0.38616 0.332677
0.256733 0.383658 0.204593
0.406165 0.417487 0.113375
0.571923 0.421469 0.108095
0.679545 0.448508 0.0974289
0.765454 0.480674 0.0568093
0.824079 0.52726 0.063508
0.853574 0.568185 0.0912184
0.0197147 0.466011 0.393149
0.0544747 0.517739 0.451835
0.179232 0.551247 0.425376
0.463691 0.534676 0.28777
0.573754 0.562524 0.268147
0.705699 0.574823 0.269261
0.810666 0.596658 0.176562
0.86482 0.634928 0.156039
0.89424 0.67451 0.175097
0.0826123 0.56614 0.509865
0.127977 0.614206 0.559731
0.219684 0.652995 0.572702
0.461067 0.662959 0.465858
0.603372 0.673182 0.412757
0.713314 0.695644 0.399496
0.826612 0.703258 0.349264
0.894682 0.733669 0.29276
0.922988 0.761028 0.32047
0.160311 0.664836 0.615808
0.233494 0.704601 0.647257
0.344564 0.735744 0.665064
0.498985 0.759655 0.616541
0.673198 0.763394 0.518776
0.733913 0.793317 0.473625
0.850568 0.800046 0.408179
0.922393 0.815457 0.411231
0.931762 0.841337 0.452552
0.229358 0.75668 0.707607
0.313664 0.795651 0.738506
0.424186 0.823148 0.740108
0.530465 0.839918 0.758602
0.700008 0.842039 0.674113
0.796216 0.862943 0.50042
0.904906 0.873594 0.366003
0.938933 0.890242 0.47306
0.945693 0.90605 0.567819
0.365866 0.824002 0.78468
0.429908 0.856123 0.807401
0.513542 0.885206 0.803159
0.597787 0.902693 0.83267
0.739025 0.903471 0.779828
0.855497 0.91519 0.613886
0.938766 0.930953 0.455161
0.955947 0.939803 0.608408
0.960922 0.95581 0.703304
0 0.00202945 0.00454719
0.00396735 0.0159762 0.0259403
0.155779 0.0243381 0
0.317235 0.0250858 0
0.391257 0.0474403 0
0.398657 0.116152 0.00483711
0.458518 0.169604 0.00981155
0.549279 0.213489 0.0144503
0.623453 0.256947 0.019379
0.0303044 0.0429389 0.0679789
0.0597848 0.087129 0.100542
0.253437 0.0859388 0.0429389
0.41883 0.0922255 0.0343786
0.48368 0.137987 0.0196231
0.557458 0.186603 0.0234989
0.620096 0.259983 0.0194705
0.691966 0.307897 0.0244755
0.741787 0.351247 0.0285649
0.0205386 0.180545 0.220401
0.0673533 0.225971 0.250492
0.262913 0.241596 0.10811
0.474495 0.228382 0.0753033
0.572702 0.265705 0.0700389
0.64744 0.330175 0.043946
0.714672 0.37911 0.0271763
0.775845 0.428367 0.0354314
0.810849 0.474601 0.0540932
0.00982681 0.35375 0.318288
0.0331426 0.411368 0.380087
0.264027 0.405325 0.260502
0.42002 0.436454 0.151751
0.58851 0.441459 0.141833
0.691112 0.467689 0.131701
0.779461 0.504555 0.0866407
0.836118 0.542306 0.0885786
0.870237 0.58262 0.121416
0.0298772 0.484031 0.419013
0.0575265 0.537697 0.48191
0.191241 0.566583 0.465263
0.486168 0.553735 0.340536
0.589837 0.581811 0.302358
0.714366 0.593896 0.306279
0.823041 0.614206 0.229816
0.882704 0.649363 0.201846
0.909102 0.685191 0.228092
0.0921645 0.585275 0.535622
0.143023 0.63357 0.578393
0.240589 0.671748 0.59971
0.457832 0.68275 0.513588
0.623331 0.689052 0.453452
0.717876 0.709072 0.434928
0.841184 0.716762 0.406943
0.894697 0.751064 0.357183
0.921233 0.774273 0.378759
0.173709 0.678248 0.634653
0.251926 0.724056 0.670207
0.361746 0.754421 0.673838
0.502892 0.775387 0.654673
0.676188 0.78024 0.557015
0.748898 0.801465 0.512398
0.851652 0.815213 0.478569
0.913771 0.831937 0.468666
0.935103 0.85272 0.512352
0.249577 0.773968 0.729442
0.3355 0.807782 0.752041
0.444724 0.833982 0.751522
0.547402 0.850523 0.771557
0.70132 0.85536 0.698116
0.804669 0.871092 0.559762
0.89485 0.88893 0.452888
0.940917 0.898573 0.535714
0.953887 0.912551 0.617166
0.388235 0.839185 0.803708
0.454475 0.867018 0.829252
0.531762 0.89688 0.819013
0.619348 0.910033 0.836835
0.740108 0.915892 0.802945
0.863172 0.921904 0.666972
0.934234 0.938903 0.522454
0.958404 0.953613 0.649973
0.965179 0.960861 0.727596
0 0.00721752 0.0433204
0 0.0292058 0.124636
0.0742962 0.0489204 0.0645151
0.254917 0.0453498 0.0563211
0.378302 0.0700694 0.0395514
0.411536 0.133532 0.0178988
0.516106 0.168093 0.0134127
0.586496 0.216403 0.0300908
0.644221 0.270863 0.0664683
0.0144808 0.065156 0.159701
0.0345006 0.109987 0.215137
0.162814 0.136736 0.164324
0.362142 0.129076 0.135409
0.477913 0.181155 0.112474
0.535149 0.225971 0.0935073
0.637018 0.276371 0.057908
0.681666 0.328893 0.102525
0.722759 0.37911 0.142596
0.00588998 0.201602 0.32221
0.036408 0.257588 0.372061
0.206104 0.266651 0.333822
0.430472 0.281468 0.209171
0.565927 0.295689 0.155352
0.644541 0.355337 0.118578
0.719783 0.400656 0.100359
0.768612 0.447562 0.152178
0.808316 0.495155 0.193927
0.0158236 0.360098 0.426856
0.0420691 0.418616 0.478462
0.193881 0.437873 0.466026
0.416892 0.447013 0.346853
0.591699 0.457237 0.272389
0.692851 0.486931 0.25687
0.785153 0.517708 0.190387
0.839231 0.562493 0.214359
0.867842 0.600549 0.253422
0.052369 0.481987 0.530266
0.0838331 0.538949 0.572976
0.216358 0.571694 0.554604
0.443305 0.578363 0.477546
0.586984 0.596109 0.412406
0.722744 0.610086 0.397162
0.813199 0.634028 0.361563
0.879667 0.666392 0.33904
0.902495 0.69601 0.386511
0.122454 0.590356 0.619547
0.174304 0.63714 0.649363
0.280507 0.678721 0.637644
0.431159 0.699184 0.63418
0.624018 0.705943 0.550118
0.725689 0.717311 0.50605
0.834058 0.732509 0.511574
0.885527 0.762005 0.515709
0.911315 0.790845 0.536278
0.197177 0.690455 0.68751
0.270222 0.730587 0.720272
0.380346 0.768048 0.702617
0.490135 0.792279 0.715358
0.642588 0.802441 0.654978
0.756756 0.809812 0.610819
0.836072 0.826551 0.597452
0.897444 0.845441 0.611505
0.919661 0.867872 0.627817
0.281025 0.784344 0.762783
0.351904 0.815259 0.788312
0.467308 0.847898 0.771374
0.561685 0.867109 0.778317
0.690593 0.874601 0.742641
0.821851 0.873411 0.680903
0.860243 0.899535 0.65185
0.920684 0.91043 0.682185
0.945586 0.9234 0.707805
0.42063 0.84506 0.828092
0.481758 0.877104 0.850614
0.549737 0.903227 0.843397
0.618784 0.92372 0.840482
0.726543 0.930327 0.835477
0.871611 0.926986 0.74789
0.902983 0.948669 0.706279
0.937972 0.96347 0.747982
0.958541 0.975128 0.780026
0 0.0119936 0.113054
0 0.038407 0.246067
0.0385901 0.0706798 0.233005
0.206973 0.0701305 0.191012
0.333074 0.082887 0.201556
0.406958 0.126589 0.184985
0.47567 0.225208 0.120699
0.557641 0.257298 0.121584
0.609598 0.311101 0.169512
0.00813306 0.0772412 0.293935
0.0397192 0.122942 0.330266
0.116091 0.161837 0.337819
0.315709 0.164965 0.292165
0.436774 0.180362 0.306767
0.508217 0.239445 0.291707
0.581628 0.33959 0.221408
0.649058 0.371038 0.232151
0.695399 0.417105 0.274769
0.0144045 0.211383 0.443336
0.0238804 0.27013 0.510826
0.195941 0.289097 0.457374
0.35407 0.317037 0.425071
0.505241 0.333715 0.396658
0.607431 0.413993 0.352239
0.684993 0.430655 0.294759
0.74052 0.477653 0.330419
0.776974 0.524865 0.374899
0.025742 0.361013 0.509712
0.057969 0.418006 0.566506
0.175036 0.455573 0.580865
0.399527 0.459693 0.529961
0.569894 0.484291 0.455344
0.678325 0.50277 0.404135
0.760311 0.543832 0.37882
0.813001 0.589517 0.407202
0.845136 0.6262 0.443992
0.081178 0.484291 0.592111
0.124132 0.541512 0.639811
0.211749 0.591379 0.646067
0.425086 0.591699 0.61387
0.588434 0.60766 0.548791
0.727214 0.623987 0.491005
0.803677 0.653956 0.481163
0.855344 0.683864 0.495384
0.882948 0.714855 0.528664
0.174517 0.586938 0.667536
0.235325 0.632013 0.709163
0.312627 0.683696 0.714382
0.459556 0.705608 0.685893
0.60618 0.72549 0.643214
0.722835 0.734508 0.588479
0.833387 0.74757 0.580652
0.883436 0.773693 0.606287
0.911406 0.794903 0.623468
0.261875 0.688411 0.748653
0.317845 0.730312 0.775158
0.406836 0.774212 0.757382
0.5149 0.803632 0.753658
0.628092 0.817258 0.744457
0.768246 0.818189 0.673152
0.836301 0.837446 0.652399
0.897856 0.85687 0.676616
0.916518 0.87895 0.692851
0.318547 0.787182 0.80119
0.384115 0.823423 0.825818
0.481514 0.8533 0.813169
0.585245 0.873838 0.802441
0.685039 0.884627 0.802945
0.81529 0.886076 0.738857
0.863859 0.905989 0.73637
0.910445 0.923156 0.754589
0.946975 0.930327 0.771496
0.460441 0.845991 0.850355
0.514595 0.879316 0.86772
0.574136 0.908965 0.870283
0.636576 0.932601 0.862333
0.732723 0.937377 0.852781
0.860853 0.943954 0.792248
0.910262 0.954665 0.790234
0.938735 0.971557 0.80853
0.956954 0.979202 0.824537
0 0.0125887 0.285435
0.00292973 0.0341955 0.373205
0.065568 0.0550546 0.368978
0.204929 0.0582284 0.406683
0.342153 0.0713817 0.424887
0.429297 0.122927 0.382788
0.490227 0.191791 0.334981
0.553368 0.265003 0.301915
0.609293 0.364019 0.300893
0.00453193 0.0884108 0.398947
0.0389868 0.126345 0.454994
0.154803 0.148989 0.472114
0.311086 0.157763 0.493141
0.446357 0.16965 0.528984
0.530159 0.233051 0.48159
0.585336 0.313787 0.433997
0.636957 0.381857 0.406561
0.699306 0.475151 0.418311
0.0359045 0.219776 0.522164
0.0438239 0.275441 0.576837
0.206226 0.304479 0.543725
0.340383 0.335012 0.551675
0.492607 0.349584 0.551751
0.59176 0.393515 0.526833
0.660578 0.437919 0.502235
0.739559 0.533028 0.492729
0.775448 0.588235 0.497169
0.0119631 0.36936 0.612772
0.0585031 0.428565 0.66453
0.187304 0.464881 0.659342
0.3991 0.477577 0.617533
0.53051 0.500526 0.593896
0.649729 0.52192 0.57229
0.735409 0.588266 0.554543
0.796185 0.637476 0.556741
0.826001 0.661097 0.571954
0.0970016 0.501701 0.666545
0.143999 0.549523 0.70425
0.231067 0.5944 0.719951
0.420142 0.60679 0.702464
0.58053 0.614511 0.661784
0.710246 0.641733 0.618753
0.786908 0.666209 0.603021
0.845151 0.698528 0.61297
0.870375 0.730282 0.638422
0.202502 0.598657 0.713466
0.262211 0.646708 0.758038
0.335515 0.689967 0.772488
0.466468 0.717861 0.752285
0.600565 0.73521 0.731548
0.728267 0.741787 0.676066
0.829084 0.759014 0.659663
0.882292 0.786999 0.683543
0.905043 0.808835 0.703182
0.306218 0.695674 0.773327
0.362554 0.740093 0.812879
0.429572 0.777386 0.820417
0.525826 0.805478 0.799451
0.642588 0.818311 0.794446
0.765698 0.832944 0.750942
0.829114 0.849805 0.730266
0.903319 0.860517 0.74377
0.933379 0.880964 0.782147
0.383581 0.781796 0.84651
0.441245 0.818158 0.868299
0.506645 0.856306 0.85658
0.604166 0.882094 0.842557
0.705028 0.887098 0.84831
0.806424 0.897688 0.8112
0.878492 0.908354 0.799222
0.910246 0.929885 0.806409
0.958663 0.933165 0.82388
0.512612 0.844495 0.889693
0.561898 0.873518 0.904585
0.607294 0.91078 0.90396
0.658351 0.931334 0.894697
0.763745 0.940459 0.885496
0.858 0.944442 0.852964
0.921218 0.955398 0.848875
0.943465 0.970779 0.862684
0.960784 0.983169 0.87393
0 0.0137636 0.3635
0 0.0432593 0.445289
0.0936751 0.061326 0.437064
0.228641 0.0639811 0.485954
0.339208 0.0755779 0.548104
0.427649 0.117769 0.553643
0.516045 0.180117 0.51986
0.567788 0.260868 0.469795
0.617533 0.328908 0.478874
0.00552377 0.101564 0.47126
0.0429999 0.13753 0.530556
0.187076 0.153903 0.525933
0.333837 0.160555 0.576028
0.448951 0.178195 0.639033
0.531258 0.231281 0.640848
0.609857 0.297093 0.594842
0.651774 0.376211 0.558831
0.695094 0.433448 0.572976
0.0395819 0.246571 0.580896
0.0265965 0.308019 0.64683
0.2168 0.319539 0.617273
0.374533 0.331823 0.637232
0.513542 0.335531 0.676539
0.6177 0.367102 0.686244
0.681743 0.435233 0.64625
0.729351 0.499031 0.624018
0.766934 0.539803 0.641337
0.0154726 0.392386 0.691264
0.0576791 0.449424 0.724636
0.209232 0.479133 0.714321
0.410773 0.486107 0.699245
0.531411 0.508461 0.699199
0.650858 0.53254 0.689342
0.733181 0.565179 0.679377
0.790677 0.607294 0.683955
0.828244 0.642771 0.69575
0.100771 0.514794 0.710491
0.153445 0.563531 0.746685
0.252201 0.60354 0.769924
0.437369 0.616892 0.763333
0.584405 0.630762 0.754955
0.691569 0.655772 0.717617
0.778851 0.674525 0.719997
0.833188 0.706554 0.725399
0.881132 0.760281 0.743145
0.218891 0.616053 0.755428
0.278157 0.65893 0.795132
0.35082 0.699962 0.814862
0.480644 0.73022 0.805966
0.611109 0.741314 0.80766
0.734005 0.751766 0.767452
0.817334 0.774502 0.754376
0.871962 0.804456 0.77116
0.894926 0.822538 0.787701
0.326543 0.704768 0.810101
0.388251 0.747814 0.843336
0.449744 0.78613 0.857298
0.549889 0.810864 0.850919
0.653681 0.828717 0.847166
0.768429 0.837049 0.823713
0.842039 0.853681 0.797848
0.909697 0.870848 0.815015
0.935271 0.884413 0.84184
0.426276 0.788342 0.870451
0.479835 0.823178 0.895567
0.5411 0.857359 0.895537
0.618982 0.880232 0.890867
0.713802 0.893614 0.882277
0.815595 0.89868 0.867536
0.890227 0.910765 0.848478
0.927321 0.929458 0.858503
0.957351 0.941817 0.876081
0.563684 0.843137 0.907958
0.60734 0.875532 0.918471
0.641321 0.908171 0.925887
0.68867 0.934569 0.919081
0.782147 0.940978 0.909056
0.869139 0.949645 0.902419
0.931105 0.959548 0.895674
0.957732 0.97499 0.901823
0.977646 0.983841 0.915099
0 0.0336156 0.384009
0 0.0665293 0.475532
0.115297 0.0728466 0.459815
0.254765 0.0767681 0.508293
0.367102 0.0877699 0.582223
0.442176 0.131853 0.610864
0.525444 0.188418 0.592538
0.590356 0.265965 0.571847
0.630045 0.344335 0.581201
0.0160983 0.128161 0.477668
0.0516365 0.175143 0.528557
0.209247 0.175448 0.560662
0.358511 0.180423 0.59762
0.473564 0.194476 0.664622
0.54992 0.240665 0.689784
0.624842 0.30956 0.677699
0.67039 0.380819 0.654749
0.708141 0.438682 0.64799
0.0362402 0.273091 0.610773
0.0415656 0.332464 0.672221
0.235355 0.332479 0.683406
0.40354 0.340642 0.688441
0.530098 0.350286 0.722393
0.635264 0.372305 0.74905
0.701656 0.427497 0.744137
0.749004 0.493812 0.728969
0.77879 0.551934 0.72076
0.029572 0.412848 0.71313
0.0760662 0.470085 0.739452
0.265873 0.484581 0.723522
0.432578 0.490715 0.766705
0.560937 0.505898 0.779492
0.683223 0.514199 0.799664
0.757977 0.551492 0.792798
0.802426 0.61117 0.765789
0.830884 0.654307 0.769589
0.113573 0.533349 0.748653
0.172747 0.580255 0.784436
0.292256 0.615595 0.796536
0.472145 0.626413 0.785672
0.593088 0.639414 0.813779
0.701793 0.659693 0.791821
0.788525 0.682353 0.792233
0.838911 0.717159 0.795575
0.87187 0.740169 0.813107
0.224048 0.632517 0.794873
0.289326 0.675212 0.833127
0.375372 0.715206 0.835019
0.491859 0.739483 0.845029
0.628229 0.748241 0.847089
0.744869 0.758679 0.830045
0.814939 0.782834 0.814267
0.873152 0.8047 0.831357
0.899123 0.826093 0.847776
0.340902 0.723476 0.841047
0.401434 0.76173 0.872953
0.4757 0.796246 0.881575
0.566491 0.821134 0.880552
0.669886 0.834684 0.882338
0.776532 0.841306 0.869123
0.853742 0.861357 0.849546
0.905394 0.879362 0.862165
0.928252 0.893767 0.876173
0.46511 0.795026 0.884749
0.520943 0.82652 0.908568
0.580392 0.860792 0.91487
0.644648 0.883497 0.912535
0.729946 0.896941 0.907103
0.82829 0.906661 0.904952
0.891814 0.91931 0.892851
0.927687 0.93753 0.894072
0.962737 0.946288 0.910094
0.601801 0.847303 0.915022
0.647013 0.876539 0.933211
0.678462 0.90901 0.937667
0.722072 0.933944 0.936767
0.802518 0.943908 0.931304
0.880827 0.951431 0.929229
0.93695 0.962722 0.925414
0.964675 0.976913 0.933806
0.986114 0.987564 0.940276
0 0.041413 0.435004
0.0142824 0.0729992 0.489281
0.131807 0.0954757 0.47332
0.252689 0.109407 0.524285
0.382422 0.113252 0.585122
0.463142 0.153445 0.623377
0.540566 0.222614 0.610849
0.600702 0.285679 0.624887
0.635599 0.357061 0.638483
0.0285954 0.138964 0.504387
0.0826734 0.180987 0.58883
0.235904 0.19205 0.583505
0.361334 0.215244 0.617197
0.481727 0.232471 0.671244
0.565835 0.27628 0.699763
0.633127 0.338262 0.691218
0.681743 0.402579 0.703716
0.716442 0.457847 0.721691
0.0364538 0.289067 0.615137
0.085069 0.345556 0.654475
0.272572 0.3402 0.718883
0.430076 0.349508 0.736782
0.53933 0.374319 0.760067
0.643091 0.401968 0.776806
0.714351 0.443519 0.786236
0.762692 0.504341 0.78732
0.78381 0.571008 0.777981
0.0608988 0.438544 0.69012
0.119554 0.492622 0.723354
0.300816 0.501183 0.731746
0.446113 0.513024 0.793011
0.574762 0.526436 0.804089
0.694667 0.530861 0.83653
0.781262 0.560098 0.843626
0.816281 0.617975 0.818112
0.840635 0.666026 0.806851
0.145617 0.550393 0.749935
0.215 0.598657 0.780301
0.326085 0.630716 0.808423
0.506188 0.635889 0.798291
0.61207 0.653986 0.840681
0.715221 0.674296 0.819715
0.802609 0.686748 0.837766
0.853758 0.720607 0.838682
0.882155 0.754772 0.853147
0.264836 0.646296 0.799268
0.328298 0.690593 0.835645
0.41149 0.723934 0.855802
0.519814 0.74934 0.872877
0.660365 0.750957 0.858335
0.757977 0.769635 0.86067
0.828931 0.789685 0.85156
0.880644 0.813703 0.865064
0.908034 0.836393 0.875502
0.387732 0.728191 0.854978
0.445945 0.76817 0.880842
0.510857 0.802319 0.896651
0.590387 0.826612 0.905669
0.688746 0.842283 0.913634
0.792935 0.849332 0.893263
0.861433 0.871992 0.884932
0.902419 0.890181 0.896788
0.933944 0.908705 0.909331
0.5196 0.795743 0.893004
0.568414 0.832944 0.905699
0.614649 0.864332 0.922667
0.6813 0.886397 0.926284
0.761044 0.898802 0.931548
0.841154 0.910826 0.92401
0.90164 0.923552 0.913176
0.946334 0.943969 0.925307
0.962112 0.956222 0.922316
0.638712 0.855879 0.907698
0.67715 0.884642 0.928008
0.718502 0.909072 0.935866
0.766049 0.931029 0.945953
0.830564 0.945098 0.949538
0.892775 0.955047 0.946715
0.943557 0.967651 0.952911
0.97644 0.982818 0.956863
0.989715 0.99527 0.959503
0 0.0451972 0.457053
0.0223545 0.0760662 0.500755
0.144488 0.10193 0.494636
0.253803 0.118456 0.529427
0.380682 0.130022 0.592462
0.47129 0.170489 0.640467
0.537026 0.234668 0.610239
0.606439 0.292744 0.639567
0.646052 0.365469 0.657649
0.0354467 0.14757 0.538918
0.0895857 0.181781 0.606928
0.242359 0.201236 0.596323
0.364553 0.228565 0.628916
0.49015 0.243748 0.672419
0.567773 0.283452 0.699321
0.635019 0.350545 0.705074
0.687938 0.403784 0.71751
0.721859 0.467658 0.719051
0.0412146 0.303655 0.62121
0.1037 0.353063 0.651698
0.279973 0.34786 0.725322
0.44329 0.353155 0.740261
0.545342 0.381735 0.774151
0.643076 0.412512 0.783703
0.719951 0.454841 0.796292
0.769863 0.510277 0.796155
0.791318 0.577325 0.773953
0.0748302 0.443946 0.688899
0.133761 0.497536 0.721569
0.316564 0.509285 0.732235
0.461067 0.517815 0.800137
0.585992 0.53138 0.816495
0.697063 0.538003 0.842573
0.77882 0.566171 0.853529
0.8168 0.626978 0.822522
0.848341 0.672923 0.824628
0.160403 0.559304 0.747509
0.220981 0.604135 0.778576
0.341314 0.632776 0.819364
0.516854 0.641062 0.80351
0.619715 0.654307 0.848524
0.71603 0.677302 0.82504
0.808545 0.691463 0.84564
0.857267 0.727718 0.849088
0.891386 0.75581 0.852461
0.278508 0.649073 0.809689
0.337957 0.692073 0.83946
0.419242 0.731456 0.85922
0.51928 0.753307 0.88542
0.667643 0.75436 0.86595
0.764492 0.772931 0.865202
0.838193 0.792569 0.864134
0.884581 0.818082 0.876448
0.9122 0.839048 0.892958
0.403525 0.734462 0.860807
0.456901 0.770733 0.881682
0.523278 0.8056 0.900481
0.595819 0.82858 0.917342
0.692927 0.842466 0.915114
0.802869 0.850309 0.896452
0.862608 0.871687 0.892821
0.90663 0.890944 0.903655
0.932723 0.906065 0.917967
0.531991 0.797833 0.894362
0.584085 0.833921 0.907378
0.623606 0.865309 0.927565
0.689677 0.886381 0.92929
0.769497 0.89752 0.934585
0.846601 0.910689 0.933425
0.906477 0.929519 0.919127
0.944808 0.944533 0.936431
0.969192 0.955962 0.92491
0.641138 0.857618 0.906294
0.683711 0.888029 0.926345
0.729061 0.915434 0.933104
0.780209 0.932845 0.945953
0.835279 0.946075 0.951949
0.898909 0.958495 0.95349
0.945449 0.973571 0.956573
0.977157 0.983078 0.957229
0.991989 0.98854 0.963745
