presets/H哈苏浓.cube
TITLE "XH Copyright"
# XH Copyright
# 5219
# 20250101
LUT_3D_SIZE 5
0 0.00115969 0.00138857
0.138338 0.0124208 0
0.372671 0.0369879 0
0.420844 0.156603 0.00846876
0.579767 0.247196 0.0176547
0.0154879 0.158709 0.165927
0.252216 0.218418 0.0777905
0.561486 0.242496 0.0534981
0.703822 0.361425 0.0266117
0.801205 0.461158 0.0332799
0.0197147 0.466011 0.393149
0.179232 0.551247 0.425376
0.573754 0.562524 0.268147
0.810666 0.596658 0.176562
0.89424 0.67451 0.175097
0.160311 0.664836 0.615808
0.344564 0.735744 0.665064
0.673198 0.763394 0.518776
0.850568 0.800046 0.408179
0.931762 0.841337 0.452552
0.365866 0.824002 0.78468
0.513542 0.885206 0.803159
0.739025 0.903471 0.779828
0.938766 0.930953 0.455161
0.960922 0.95581 0.703304
0 0.00721752 0.0433204
0.0742962 0.0489204 0.0645151
0.378302 0.0700694 0.0395514
0.516106 0.168093 0.0134127
0.644221 0.270863 0.0664683
0.00588998 0.201602 0.32221
0.206104 0.266651 0.333822
0.565927 0.295689 0.155352
0.719783 0.400656 0.100359
0.808316 0.495155 0.193927
0.052369 0.481987 0.530266
0.216358 0.571694 0.554604
0.586984 0.596109 0.412406
0.813199 0.634028 0.361563
0.902495 0.69601 0.386511
0.197177 0.690455 0.68751
0.380346 0.768048 0.702617
0.642588 0.802441 0.654978
0.836072 0.826551 0.597452
0.919661 0.867872 0.627817
0.42063 0.84506 0.828092
0.549737 0.903227 0.843397
0.726543 0.930327 0.835477
0.902983 0.948669 0.706279
0.958541 0.975128 0.780026
0 0.0125887 0.285435
0.065568 0.0550546 0.368978
0.342153 0.0713817 0.424887
0.490227 0.191791 0.334981
0.609293 0.364019 0.300893
0.0359045 0.219776 0.522164
0.206226 0.304479 0.543725
0.492607 0.349584 0.551751
0.660578 0.437919 0.502235
0.775448 0.588235 0.497169
0.0970016 0.501701 0.666545
0.231067 0.5944 0.719951
0.58053 0.614511 0.661784
0.786908 0.666209 0.603021
0.870375 0.730282 0.638422
0.306218 0.695674 0.773327
0.429572 0.777386 0.820417
0.642588 0.818311 0.794446
0.829114 0.849805 0.730266
0.933379 0.880964 0.782147
0.512612 0.844495 0.889693
0.607294 0.91078 0.90396
0.763745 0.940459 0.885496
0.921218 0.955398 0.848875
0.960784 0.983169 0.87393
0 0.0336156 0.384009
0.115297 0.0728466 0.459815
0.367102 0.0877699 0.582223
0.525444 0.188418 0.592538
0.630045 0.344335 0.581201
0.0362402 0.273091 0.610773
0.235355 0.332479 0.683406
0.530098 0.350286 0.722393
0.701656 0.427497 0.744137
0.77879 0.551934 0.72076
0.113573 0.533349 0.748653
0.292256 0.615595 0.796536
0.593088 0.639414 0.813779
0.788525 0.682353 0.792233
0.87187 0.740169 0.813107
0.340902 0.723476 0.841047
0.4757 0.796246 0.881575
0.669886 0.834684 0.882338
0.853742 0.861357 0.849546
0.928252 0.893767 0.876173
0.601801 0.847303 0.915022
0.678462 0.90901 0.937667
0.802518 0.943908 0.931304
0.93695 0.962722 0.925414
0.986114 0.987564 0.940276
0 0.0451972 0.457053
0.144488 0.10193 0.494636
0.380682 0.130022 0.592462
0.537026 0.234668 0.610239
0.646052 0.365469 0.657649
0.0412146 0.303655 0.62121
0.279973 0.34786 0.725322
0.545342 0.381735 0.774151
0.719951 0.454841 0.796292
0.791318 0.577325 0.773953
0.160403 0.559304 0.747509
0.341314 0.632776 0.819364
0.619715 0.654307 0.848524
0.808545 0.691463 0.84564
0.891386 0.75581 0.852461
0.403525 0.734462 0.860807
0.523278 0.8056 0.900481
0.692927 0.842466 0.915114
0.862608 0.871687 0.892821
0.932723 0.906065 0.917967
0.641138 0.857618 0.906294
0.729061 0.915434 0.933104
0.835279 0.946075 0.951949
0.945449 0.973571 0.956573
0.991989 0.98854 0.963745
