presets/H哈苏冷.cube
TITLE "XH Copyright"
# XH Copyright
# 5219
# 20250101
LUT_3D_SIZE 5
0 0 0.0919509
0.124224 0.00782788 0.0878004
0.414771 0.041474 0.0910658
0.446571 0.175921 0.0899367
0.588708 0.264485 0.0910201
0 0.181781 0.248615
0.274907 0.233097 0.147692
0.570108 0.259678 0.12636
0.702022 0.366491 0.0920119
0.803082 0.452323 0.0903944
0 0.514336 0.516899
0 0.588434 0.538491
0.599268 0.54374 0.225162
0.816007 0.569146 0.202899
0.916655 0.63595 0.185672
0 0.678004 0.711254
0.200122 0.738415 0.743175
0.531945 0.77966 0.422446
0.881865 0.763104 0.333181
0.963699 0.806729 0.400305
0.227298 0.820508 0.861723
0.336187 0.897292 0.888838
0.571145 0.920104 0.858778
0.99527 0.911574 0.282506
0.978058 0.947768 0.620233
0 0.00476081 0.13257
0.0196994 0.0517128 0.149493
0.415595 0.0792859 0.12929
0.536431 0.18764 0.0939498
0.646479 0.284306 0.135241
0 0.226307 0.382574
0.173495 0.284657 0.397436
0.565789 0.307027 0.2177
0.712047 0.400519 0.160021
0.794675 0.481605 0.236286
0 0.499641 0.608652
0.114214 0.576135 0.623728
0.582193 0.579339 0.374624
0.794903 0.606973 0.370016
0.891936 0.66273 0.387839
0.0592966 0.68867 0.763775
0.240894 0.768139 0.777722
0.484474 0.80798 0.719036
0.833539 0.800626 0.541009
0.926604 0.842878 0.599405
0.311025 0.835706 0.898878
0.398733 0.910201 0.925856
0.558633 0.950103 0.919432
0.850584 0.962142 0.580148
0.94696 0.977935 0.709102
0 0.00941482 0.357717
0.00500496 0.058854 0.439353
0.375677 0.0788739 0.496513
0.502052 0.206409 0.386892
0.598672 0.367163 0.340017
0 0.248112 0.658137
0.1579 0.318364 0.64332
0.48513 0.353704 0.597574
0.639902 0.432319 0.537682
0.746227 0.566903 0.518944
3.0518e-05 0.505516 0.723995
0.176425 0.583169 0.769345
0.541176 0.596078 0.7084
0.752041 0.640345 0.624613
0.842039 0.701122 0.655238
0.250111 0.676036 0.824216
0.37351 0.755199 0.872831
0.568963 0.801572 0.841688
0.771954 0.839658 0.710674
0.907698 0.864363 0.807355
0.445869 0.82472 0.951736
0.512154 0.904891 0.977081
0.652033 0.947829 0.960861
0.827893 0.968627 0.88574
0.897047 0.99501 0.894484
0 0.0350805 0.458015
0.079881 0.0792554 0.532052
0.397101 0.0977493 0.659236
0.53315 0.200977 0.654658
0.616236 0.346029 0.625711
0 0.301228 0.738506
0.206104 0.341283 0.759838
0.518059 0.351568 0.779995
0.677958 0.418585 0.795865
0.748852 0.530785 0.758343
0.0216068 0.532006 0.811734
0.249866 0.59939 0.854627
0.552834 0.616556 0.871382
0.749767 0.654536 0.835966
0.840604 0.710277 0.855573
0.290394 0.699702 0.899123
0.423011 0.771603 0.942199
0.608804 0.814908 0.940764
0.809506 0.844205 0.895537
0.894499 0.880125 0.925399
0.538628 0.827359 0.981506
0.605005 0.89926 1
0.733501 0.941848 1
0.896895 0.960708 0.985092
0.959747 0.986435 1
0 0.0494392 0.534249
0.119234 0.112413 0.565393
0.403449 0.143023 0.663706
0.537728 0.245151 0.667247
0.629297 0.364355 0.705074
0 0.328634 0.718135
0.263844 0.354131 0.788891
0.52903 0.379583 0.838026
0.692882 0.442084 0.854917
0.759701 0.553079 0.818158
0.0857404 0.553033 0.805508
0.303792 0.613931 0.880385
0.576944 0.62974 0.911635
0.770199 0.662028 0.901122
0.861921 0.725582 0.903792
0.359075 0.709422 0.921828
0.467491 0.781415 0.96556
0.631113 0.823194 0.98323
0.817472 0.855741 0.950317
0.898192 0.893996 0.979126
0.576364 0.839796 0.969512
0.658412 0.907408 1
0.776608 0.94255 1
0.906371 0.972671 1
0.961898 0.988678 1
