presets/H哈苏暖.cube
TITLE "XH Copyright"
# XH Copyright
# 5219
# 20250101
LUT_3D_SIZE 9
0.000350958 0.0304417 0
0.000442512 0.0389563 0
0.108324 0.0327306 0
0.334493 0.0509499 0
0.449088 0.0802167 0
0.51548 0.13402 0
0.528008 0.192737 0
0.566903 0.23415 0
0.630137 0.269337 0
0.00158694 0.0608835 0
0.0402686 0.0990768 0
0.275441 0.104814 0
0.473426 0.134783 0
0.576135 0.187701 0
0.630549 0.237293 0
0.664179 0.277043 0
0.683467 0.311955 0
0.722423 0.341543 0
0.0585641 0.173754 0.119631
0.120974 0.215946 0.149722
0.295674 0.246494 0
0.523812 0.256214 0
0.636606 0.300893 0
0.64567 0.324987 0
0.680766 0.369131 0
0.732799 0.404868 0
0.769085 0.43827 0
0.0706188 0.343557 0.225864
0.151461 0.372229 0.269581
0.237781 0.428229 0
0.423697 0.428611 0
0.56112 0.432303 0
0.645792 0.452094 0.00529488
0.713039 0.48304 0
0.768551 0.514855 0
0.797803 0.544549 0
0.110033 0.466636 0.307927
0.171542 0.500175 0.349691
0.342351 0.51545 0.316732
0.434623 0.551949 0.157107
0.580209 0.552392 0.191333
0.682094 0.55874 0.213581
0.760464 0.580621 0.123033
0.809033 0.612528 0.0558328
0.833799 0.639628 0.0708019
0.193484 0.555169 0.394705
0.258762 0.591882 0.440452
0.384573 0.617502 0.485771
0.444205 0.674449 0.216114
0.575036 0.665949 0.306767
0.695293 0.666468 0.330404
0.794568 0.674922 0.302937
0.837736 0.709972 0.244739
0.863691 0.734524 0.258671
0.305394 0.637613 0.490974
0.394232 0.670344 0.539849
0.487541 0.696162 0.584802
0.540917 0.748272 0.399161
0.578744 0.781048 0.302617
0.706676 0.771496 0.366766
0.80322 0.780972 0.357992
0.853117 0.803464 0.35082
0.876066 0.824186 0.387182
0.404334 0.726818 0.588022
0.498177 0.752529 0.632883
0.575463 0.776699 0.680064
0.642008 0.802075 0.631418
0.620554 0.871351 0.324926
0.729183 0.867887 0.347143
0.820905 0.874922 0.34165
0.874067 0.88455 0.430442
0.893309 0.899901 0.489235
0.495415 0.804913 0.681682
0.57348 0.829374 0.71165
0.641215 0.851682 0.754482
0.710689 0.86714 0.786618
0.680385 0.933028 0.460899
0.776669 0.939055 0.362203
0.850172 0.941711 0.414893
0.891066 0.951522 0.564279
0.904051 0.960052 0.622278
0.000350958 0.0309758 0
0.000457771 0.0399634 0
0.127275 0.0400397 0
0.358999 0.0561532 0
0.471962 0.0961929 0
0.53698 0.150271 0
0.560174 0.206775 0
0.597543 0.247364 0
0.658549 0.282216 0
0.0194553 0.0654002 0.00703441
0.0640726 0.109026 0.0375525
0.292134 0.123186 0
0.501259 0.155779 0
0.596948 0.213321 0
0.649653 0.257389 0
0.673991 0.290974 0
0.702174 0.323079 0
0.73666 0.353719 0
0.0503853 0.201434 0.147829
0.135912 0.239277 0.193423
0.298039 0.26479 0.0257725
0.5337 0.278874 0.000320439
0.631495 0.319905 0
0.65153 0.344228 0
0.687633 0.38558 0
0.74023 0.419959 0
0.770672 0.452918 0
0.0699779 0.364996 0.245136
0.147219 0.393286 0.290608
0.268452 0.429587 0.119463
0.439384 0.441962 0.0602426
0.580606 0.442863 0.0738689
0.658045 0.464897 0.0848859
0.724346 0.495552 0.0065156
0.77496 0.529885 0
0.810788 0.554665 0.00909438
0.117205 0.48098 0.325429
0.18439 0.513817 0.368933
0.348913 0.527947 0.388357
0.454032 0.56141 0.23917
0.600076 0.559442 0.266087
0.69781 0.568551 0.282567
0.774105 0.587884 0.224979
0.826734 0.619425 0.169345
0.853422 0.64538 0.197726
0.19942 0.571527 0.417395
0.275959 0.606302 0.459449
0.40734 0.6224 0.516304
0.498329 0.660853 0.38584
0.571878 0.684962 0.349386
0.713329 0.673609 0.384024
0.794308 0.688029 0.383276
0.84181 0.72015 0.377752
0.861555 0.74519 0.387976
0.307042 0.654902 0.519692
0.41004 0.68455 0.559609
0.497139 0.710353 0.607034
0.576028 0.738949 0.571466
0.577874 0.795926 0.346242
0.69688 0.786892 0.427619
0.798825 0.791836 0.453101
0.850507 0.815976 0.468879
0.870268 0.835599 0.487633
0.40618 0.741238 0.608469
0.514122 0.764614 0.648707
0.585473 0.792996 0.6925
0.638865 0.818296 0.682399
0.621668 0.88098 0.405203
0.689723 0.89482 0.397574
0.808774 0.882383 0.500404
0.873884 0.891905 0.551904
0.896345 0.902464 0.590066
0.509285 0.816052 0.697215
0.587793 0.841657 0.728267
0.651438 0.864942 0.763912
0.717632 0.879927 0.79881
0.760281 0.90721 0.659678
0.733928 0.965484 0.429847
0.819287 0.959411 0.545388
0.88806 0.960983 0.656565
0.900298 0.968505 0.686763
0.000244144 0.0213169 0
0.00531014 0.042359 0.0203555
0.0638895 0.0669871 0
0.323583 0.0730449 0
0.465217 0.111147 0
0.529824 0.179782 0
0.590204 0.224796 0
0.657191 0.2654 0
0.702815 0.302541 0
0 0.0917525 0.0888228
0.0180514 0.140261 0.146136
0.209155 0.151949 0.100511
0.438346 0.163867 0.0667124
0.583108 0.242466 0.0645762
0.643839 0.30367 0.0524147
0.689296 0.326253 0
0.721798 0.353857 0
0.764202 0.402502 0.0230564
0 0.242679 0.215015
0.0436255 0.288762 0.262394
0.266117 0.2795 0.283589
0.521004 0.323751 0.180362
0.66363 0.373953 0.145235
0.684001 0.389822 0.0689708
0.705104 0.408148 0.00311284
0.753048 0.444495 0.0178683
0.805341 0.488121 0.0959793
0.0478523 0.38497 0.284611
0.0968032 0.426764 0.323949
0.324147 0.413153 0.37789
0.459709 0.439033 0.285359
0.609796 0.455192 0.237659
0.700252 0.492699 0.23331
0.752972 0.509728 0.156756
0.806195 0.541283 0.146136
0.844038 0.573465 0.194949
0.107683 0.490822 0.370443
0.181872 0.529442 0.406317
0.383154 0.527581 0.460822
0.463004 0.568414 0.362829
0.604608 0.569116 0.363409
0.706355 0.581781 0.358099
0.782605 0.607904 0.339422
0.846983 0.635248 0.318959
0.861631 0.662333 0.341894
0.211887 0.580224 0.461662
0.299809 0.614343 0.497948
0.440818 0.631128 0.543709
0.525658 0.657145 0.539223
0.589548 0.692882 0.419623
0.712062 0.689006 0.430213
0.800061 0.701335 0.448173
0.841642 0.730037 0.456565
0.870176 0.752331 0.484031
0.318822 0.666972 0.561868
0.423804 0.697459 0.586923
0.518837 0.722194 0.627894
0.592538 0.745373 0.663539
0.615717 0.792767 0.490349
0.690181 0.804074 0.468986
0.802106 0.8038 0.522545
0.860014 0.820615 0.558068
0.885191 0.839902 0.576059
0.410498 0.756207 0.64213
0.518044 0.779385 0.667292
0.601068 0.800519 0.705592
0.663233 0.824033 0.737469
0.72105 0.848753 0.637629
0.708614 0.899168 0.479088
0.811292 0.889677 0.59321
0.876814 0.901732 0.640848
0.899001 0.913512 0.666545
0.520745 0.828214 0.725322
0.599435 0.85449 0.746929
0.664759 0.874022 0.776577
0.729595 0.891859 0.812039
0.789593 0.908446 0.735317
0.757733 0.965209 0.548699
0.800015 0.977829 0.591836
0.869642 0.976852 0.697597
0.903822 0.97557 0.739101
0.00634775 0.0282902 0.0177615
0 0.0584878 0.152865
0.0298161 0.0917372 0.0838636
0.21268 0.0972152 0.0560311
0.362509 0.104234 0.078706
0.452583 0.145113 0.0807355
0.575784 0.270405 0.0565652
0.665904 0.302647 0.00973526
0.713588 0.353216 0.0607767
0 0.112184 0.250095
0 0.162127 0.293492
0.137575 0.189822 0.247196
0.337407 0.192844 0.208942
0.465507 0.205371 0.226963
0.546502 0.258305 0.219181
0.690501 0.393545 0.197284
0.762631 0.426734 0.154391
0.810315 0.479759 0.238926
0 0.271061 0.312749
0 0.316243 0.347814
0.217762 0.305165 0.41944
0.40679 0.320211 0.365011
0.5402 0.343404 0.324407
0.682109 0.446845 0.320119
0.785809 0.500404 0.286259
0.849699 0.544671 0.296345
0.889799 0.589532 0.361105
0.0282597 0.400076 0.330098
0.0746319 0.447883 0.374685
0.239994 0.450065 0.454017
0.458503 0.443656 0.464012
0.618006 0.478508 0.408865
0.749432 0.546105 0.406271
0.832883 0.594324 0.383352
0.892317 0.636774 0.407065
0.931029 0.673228 0.447257
0.108278 0.505913 0.413733
0.165484 0.547265 0.462165
0.339529 0.556527 0.494423
0.512016 0.556115 0.533333
0.61735 0.575967 0.46685
0.72932 0.601205 0.434043
0.804974 0.638209 0.434669
0.871046 0.678325 0.455406
0.905425 0.708171 0.48632
0.210697 0.595315 0.520821
0.288197 0.632578 0.561532
0.439719 0.64622 0.575143
0.565576 0.657649 0.613153
0.590509 0.703822 0.493553
0.719814 0.69778 0.501854
0.803754 0.713497 0.508583
0.851926 0.7402 0.533104
0.877104 0.759228 0.548058
0.321462 0.68014 0.614939
0.418769 0.711376 0.629221
0.527977 0.734707 0.653513
0.615747 0.75462 0.690623
0.6748 0.773999 0.669825
0.707134 0.810468 0.540902
0.808194 0.813977 0.581125
0.860792 0.835477 0.614115
0.89134 0.848936 0.64567
0.407385 0.770871 0.681453
0.519921 0.794385 0.697993
0.608087 0.811734 0.72578
0.681346 0.831556 0.763638
0.730449 0.853269 0.742168
0.738521 0.89836 0.579614
0.794217 0.910689 0.622614
0.891402 0.906798 0.7187
0.916991 0.921431 0.744137
0.522042 0.841779 0.756893
0.604578 0.864546 0.772244
0.673198 0.884001 0.797482
0.74374 0.895537 0.825315
0.793683 0.914641 0.803296
0.796536 0.95491 0.668132
0.82829 0.974197 0.700465
0.884352 0.979324 0.760388
0.924208 0.9738 0.817975
0 0.0355993 0.123613
0 0.0651102 0.280354
0.00903334 0.101335 0.289815
0.196582 0.106142 0.239994
0.373358 0.102983 0.280308
0.444465 0.147433 0.269978
0.503914 0.199802 0.24329
0.593042 0.30692 0.209232
0.691096 0.405661 0.232242
0 0.119234 0.352087
0 0.168872 0.39762
0.134997 0.195026 0.399252
0.331243 0.203708 0.371237
0.471931 0.207568 0.393133
0.540734 0.255329 0.382834
0.591959 0.308537 0.357015
0.672358 0.415564 0.335317
0.753994 0.502098 0.372427
0 0.283207 0.435523
0 0.331548 0.454322
0.211917 0.321523 0.501167
0.385168 0.338537 0.464332
0.512444 0.35465 0.449271
0.599176 0.384497 0.435874
0.665583 0.443809 0.408789
0.774716 0.549325 0.440375
0.83006 0.595544 0.467979
0 0.423209 0.411444
0.0239567 0.468696 0.461219
0.235355 0.461006 0.534081
0.434775 0.457969 0.571542
0.567742 0.476829 0.512612
0.662303 0.506264 0.481514
0.774243 0.59295 0.497734
0.853895 0.645014 0.520775
0.894652 0.677211 0.543938
0.0908827 0.527779 0.46862
0.137636 0.568994 0.529229
0.306462 0.577325 0.561044
0.474144 0.577111 0.619608
0.612879 0.584176 0.585855
0.736828 0.621103 0.552941
0.840696 0.679255 0.561852
0.90605 0.724651 0.580331
0.926833 0.749386 0.603113
0.207324 0.611002 0.577722
0.26807 0.649134 0.624979
0.406302 0.668894 0.62742
0.54049 0.678386 0.648432
0.652247 0.686152 0.666499
0.734325 0.703136 0.586069
0.814206 0.724483 0.584024
0.878172 0.764172 0.624216
0.915923 0.794827 0.661036
0.32813 0.692851 0.664027
0.39408 0.731762 0.689937
0.512474 0.752956 0.692592
0.613291 0.766476 0.716625
0.70312 0.7776 0.741405
0.733791 0.812482 0.636271
0.818112 0.819699 0.667384
0.883162 0.833341 0.708782
0.912413 0.852323 0.752163
0.409644 0.782223 0.733303
0.501869 0.80827 0.742092
0.608972 0.829267 0.757
0.68397 0.842725 0.78677
0.759884 0.853086 0.810956
0.803113 0.877409 0.751949
0.817624 0.910933 0.709712
0.905943 0.908125 0.797543
0.937591 0.910613 0.826108
0.519814 0.852262 0.80676
0.598566 0.87715 0.809812
0.671641 0.895338 0.823011
0.748196 0.904112 0.845258
0.82771 0.911482 0.870573
0.872618 0.927749 0.847669
0.88043 0.958587 0.82388
0.927138 0.965423 0.86331
0.921996 0.980453 0.858137
0 0.0353857 0.29482
0 0.0651102 0.386221
0.0530556 0.0899214 0.394934
0.211521 0.0978256 0.407156
0.371954 0.0999466 0.448173
0.462776 0.135286 0.437949
0.520729 0.194919 0.404318
0.569482 0.256291 0.367712
0.607858 0.305699 0.350637
0 0.129625 0.42974
0.0296178 0.169177 0.477882
0.187228 0.186297 0.477882
0.339818 0.199649 0.492744
0.472267 0.205798 0.535607
0.554192 0.244678 0.525856
0.60766 0.30573 0.48191
0.648142 0.359777 0.454704
0.681086 0.405097 0.441978
0 0.29723 0.536736
0 0.344762 0.54374
0.24213 0.328008 0.579339
0.385962 0.349157 0.556176
0.510094 0.364508 0.561837
0.600137 0.391226 0.549706
0.661845 0.428351 0.521553
0.709575 0.47126 0.511559
0.745647 0.513726 0.511269
0 0.444526 0.510094
0.00164797 0.486656 0.564095
0.25536 0.46981 0.621241
0.439185 0.470192 0.649226
0.558602 0.49221 0.601129
0.648249 0.513939 0.576059
0.715923 0.535149 0.573327
0.771145 0.5785 0.576211
0.805508 0.623056 0.581247
0.0657816 0.546365 0.531365
0.120943 0.586755 0.600916
0.292988 0.593103 0.647425
0.482399 0.586175 0.706798
0.613489 0.592935 0.688197
0.697002 0.614435 0.644617
0.767376 0.640406 0.638651
0.825452 0.691279 0.641566
0.849577 0.716045 0.660197
0.20415 0.626932 0.621698
0.269596 0.665354 0.675975
0.392554 0.687816 0.688151
0.518578 0.700603 0.725505
0.638987 0.70013 0.749172
0.741009 0.710994 0.709178
0.813077 0.730648 0.698726
0.860914 0.760891 0.714916
0.881834 0.77966 0.738964
0.335912 0.710414 0.701686
0.393744 0.74757 0.730373
0.491295 0.766873 0.747143
0.588373 0.784848 0.767819
0.680873 0.79321 0.790127
0.779232 0.80058 0.779751
0.842908 0.821378 0.76318
0.902647 0.84564 0.796994
0.916518 0.852979 0.828672
0.418799 0.794766 0.779599
0.492821 0.825391 0.797742
0.578134 0.842756 0.806104
0.667109 0.859617 0.818952
0.752102 0.866377 0.843641
0.835157 0.873579 0.848707
0.854383 0.903181 0.813016
0.919585 0.910613 0.869322
0.94313 0.920104 0.895445
0.527321 0.859861 0.858747
0.595529 0.88719 0.850645
0.663478 0.909056 0.856611
0.742916 0.916564 0.876356
0.82414 0.922667 0.897505
0.893462 0.926955 0.911467
0.924834 0.94548 0.923247
0.949432 0.964508 0.938277
0.963424 0.964614 0.956741
0 0.041886 0.390188
0 0.0716716 0.451774
0.0893416 0.094316 0.44152
0.243565 0.0984665 0.473823
0.373281 0.107073 0.542657
0.458091 0.141543 0.561898
0.532006 0.188281 0.541634
0.5879 0.251896 0.490288
0.620188 0.307179 0.465064
0 0.145373 0.494682
0.0384985 0.182757 0.550698
0.223606 0.18996 0.524727
0.364553 0.203784 0.563592
0.480293 0.212589 0.630884
0.556939 0.246738 0.65391
0.617517 0.297032 0.617075
0.659251 0.358221 0.563333
0.688777 0.404746 0.551247
0 0.319463 0.600671
0 0.368261 0.585397
0.262806 0.336461 0.639261
0.414221 0.349218 0.631479
0.529854 0.357031 0.673472
0.617273 0.375494 0.69688
0.677607 0.421775 0.655726
0.716731 0.475196 0.61825
0.752712 0.508202 0.618158
0 0.464668 0.580972
0.00442512 0.500832 0.624018
0.278706 0.478691 0.689784
0.46305 0.475212 0.725246
0.564446 0.495628 0.70985
0.653971 0.514717 0.698848
0.724086 0.539879 0.684382
0.770275 0.574655 0.683101
0.804105 0.601846 0.695613
0.05832 0.562768 0.595224
0.130526 0.599527 0.652415
0.310979 0.600473 0.723262
0.502831 0.591165 0.776196
0.613596 0.606561 0.780072
0.697154 0.624338 0.729122
0.764858 0.647181 0.72929
0.815839 0.672587 0.747738
0.843809 0.694469 0.766049
0.210346 0.644587 0.675166
0.27509 0.678386 0.723552
0.388617 0.700557 0.751247
0.518486 0.705837 0.791241
0.64947 0.706554 0.823636
0.743832 0.717418 0.791867
0.802869 0.744793 0.785183
0.854948 0.772824 0.802243
0.880705 0.798535 0.82121
0.32813 0.725231 0.754498
0.39411 0.757977 0.782055
0.487694 0.782559 0.798276
0.57998 0.798428 0.819516
0.672251 0.806149 0.848646
0.783459 0.810636 0.846281
0.843015 0.830915 0.83415
0.895888 0.848493 0.862547
0.911528 0.869413 0.883818
0.429343 0.803403 0.819287
0.506859 0.8309 0.826108
0.57969 0.856641 0.84622
0.651392 0.871565 0.865934
0.73904 0.876219 0.890227
0.826154 0.88603 0.892805
0.882429 0.899702 0.901381
0.927993 0.915709 0.921813
0.945541 0.921996 0.941009
0.555535 0.86334 0.886473
0.604776 0.895537 0.8822
0.662287 0.915099 0.888777
0.737011 0.927306 0.906249
0.812528 0.931991 0.936324
0.881743 0.938415 0.93959
0.929458 0.950317 0.970153
0.954437 0.968246 0.982269
0.965652 0.973434 0.994034
0 0.0550851 0.418479
0 0.0913252 0.477653
0.115007 0.105684 0.469963
0.275532 0.10959 0.502724
0.396063 0.115389 0.580484
0.469123 0.152651 0.617868
0.535851 0.198535 0.622095
0.60061 0.252033 0.58703
0.634592 0.306859 0.559197
0 0.172457 0.529397
0.0269627 0.210666 0.582223
0.248585 0.205478 0.553399
0.389395 0.216846 0.591394
0.496178 0.226871 0.666804
0.567636 0.259617 0.710231
0.624369 0.305821 0.706355
0.672862 0.358755 0.665568
0.702327 0.407126 0.64863
0 0.348989 0.6224
0 0.387884 0.623926
0.29192 0.343221 0.690867
0.437339 0.357168 0.68896
0.545861 0.36437 0.735744
0.635187 0.378759 0.770413
0.692912 0.418006 0.764309
0.7355 0.467948 0.736263
0.759823 0.510658 0.716274
0 0.4813 0.612329
0.0452277 0.509712 0.652323
0.311345 0.485969 0.747051
0.486076 0.478691 0.78294
0.585199 0.494377 0.801511
0.675288 0.504768 0.818936
0.742473 0.528252 0.816464
0.783536 0.578317 0.776074
0.809445 0.609323 0.772168
0.068574 0.57847 0.642893
0.166751 0.606104 0.686824
0.345449 0.606989 0.778531
0.524239 0.596292 0.834791
0.621454 0.612558 0.839277
0.705562 0.630716 0.805661
0.775051 0.651606 0.806806
0.822675 0.681971 0.816922
0.849256 0.703853 0.830274
0.211978 0.658488 0.713787
0.295247 0.690761 0.746441
0.407553 0.709255 0.796414
0.535515 0.713237 0.871107
0.661662 0.713512 0.887877
0.751507 0.729213 0.846845
0.807736 0.753384 0.840131
0.8589 0.777722 0.861662
0.881544 0.798215 0.877821
0.336843 0.738979 0.784649
0.409674 0.771649 0.809857
0.494575 0.794202 0.842603
0.58291 0.809644 0.8654
0.685679 0.811215 0.916289
0.793133 0.818189 0.889982
0.849638 0.841245 0.887907
0.891386 0.863142 0.912886
0.91458 0.879561 0.931853
0.45594 0.809018 0.861723
0.518441 0.841337 0.86743
0.591104 0.862287 0.87808
0.661677 0.876829 0.903349
0.7514 0.8804 0.938506
0.836988 0.888579 0.941649
0.891493 0.906401 0.94786
0.92961 0.923827 0.968688
0.946242 0.933974 0.973709
0.578058 0.866743 0.904097
0.624155 0.896376 0.903914
0.680735 0.91751 0.915755
0.74905 0.929961 0.933608
0.823163 0.934905 0.968673
0.887739 0.942718 0.985992
0.937575 0.953002 0.996597
0.967132 0.968673 0.999619
0.971069 0.976013 0.999634
0 0.0747234 0.438117
0 0.11545 0.502068
0.139315 0.11812 0.48574
0.290394 0.129473 0.517464
0.409934 0.134463 0.592493
0.492088 0.167559 0.648829
0.550072 0.213336 0.654429
0.611734 0.269032 0.626535
0.639231 0.322118 0.606424
0 0.201129 0.538735
0.0448615 0.230961 0.60174
0.27219 0.222492 0.575708
0.405188 0.237629 0.612833
0.507332 0.248096 0.680629
0.582361 0.275273 0.735958
0.636591 0.322835 0.732982
0.683406 0.373205 0.710185
0.709728 0.417121 0.706905
0 0.364614 0.60441
0.016495 0.394812 0.662287
0.324727 0.350072 0.73463
0.460441 0.360769 0.742077
0.559976 0.377295 0.782132
0.645731 0.394888 0.810636
0.703807 0.428183 0.815045
0.750088 0.472435 0.811856
0.773556 0.515312 0.797253
0 0.495552 0.591424
0.0874037 0.51696 0.678477
0.347189 0.489174 0.786648
0.497505 0.49308 0.82002
0.596887 0.507897 0.833844
0.684916 0.513237 0.86688
0.755398 0.53373 0.878569
0.790494 0.582727 0.841642
0.821866 0.617182 0.825254
0.101579 0.591394 0.650813
0.205631 0.612696 0.721202
0.378882 0.611734 0.81857
0.541787 0.607034 0.86804
0.635065 0.62089 0.870558
0.718044 0.643458 0.846189
0.786664 0.656275 0.8589
0.834913 0.687007 0.861875
0.857404 0.71313 0.874174
0.241459 0.669322 0.739467
0.32665 0.69778 0.783444
0.434302 0.714763 0.837812
0.56022 0.718868 0.907851
0.678279 0.719158 0.924178
0.762219 0.739498 0.880201
0.822049 0.760479 0.883146
0.865675 0.786557 0.902693
0.886854 0.806912 0.913741
0.368292 0.745663 0.821515
0.438315 0.777523 0.839857
0.512184 0.800992 0.875578
0.59997 0.813962 0.914
0.708339 0.812955 0.954681
0.802747 0.828367 0.923674
0.855253 0.850187 0.926101
0.893202 0.870497 0.948898
0.916579 0.887678 0.962982
0.497353 0.815061 0.875425
0.544594 0.844877 0.888808
0.609033 0.867872 0.906294
0.682658 0.879759 0.943954
0.770138 0.883741 0.971527
0.854017 0.893202 0.966552
0.896712 0.912993 0.971939
0.940047 0.930495 0.992493
0.950149 0.940734 0.977127
0.609018 0.871214 0.912612
0.654765 0.899901 0.919814
0.708995 0.918502 0.930129
0.772625 0.932433 0.948684
0.839948 0.938888 0.974197
0.897185 0.951263 0.989136
0.943099 0.961486 0.998016
0.97409 0.972686 0.999847
0.976211 0.977188 0.999832
