presets/H哈苏.cube
TITLE "XH Copyright"
# XH Copyright
# 5219
# 20250101
LUT_3D_SIZE 33
0.0396582 0.0396582 0.0466163
0.0399023 0.0399176 0.0414588
0.040116 0.0399939 0.0403296
0.041062 0.0437018 0.0425422
0.0409247 0.0487984 0.0446937
0.0634012 0.0513924 0.0488746
0.0970474 0.0527504 0.0450904
0.139361 0.052781 0.042649
0.187304 0.0516213 0.043473
0.238682 0.0515602 0.044419
0.272297 0.0539254 0.0451972
0.300999 0.0568246 0.0459144
0.328908 0.0612802 0.0467231
0.352117 0.0683452 0.0475929
0.370138 0.0718242 0.0481422
0.385519 0.0766613 0.0487373
0.396338 0.0854047 0.0495003
0.397955 0.103334 0.0506905
0.392676 0.121523 0.0517739
0.389502 0.137804 0.0527657
0.388815 0.151965 0.0536812
0.389593 0.160235 0.0542306
0.407752 0.174731 0.0568399
0.421332 0.190494 0.0568246
0.431403 0.203937 0.0578927
0.445396 0.215869 0.0589303
0.463676 0.22594 0.0599527
0.483009 0.234195 0.060853
0.503136 0.242893 0.0618143
0.522057 0.25478 0.0629587
0.534524 0.266758 0.0639811
0.547936 0.27747 0.0649271
0.557748 0.284245 0.065568
0.0400549 0.0407416 0.0551156
0.043473 0.0445411 0.0429541
0.0484627 0.0489052 0.0452888
0.0523232 0.0532387 0.0560006
0.0565499 0.0580301 0.0637522
0.0753338 0.0626535 0.0572366
0.110933 0.0629129 0.048127
0.160906 0.061265 0.0435798
0.214679 0.0607614 0.0445411
0.255055 0.061326 0.0453346
0.289021 0.0683146 0.0464027
0.31931 0.0740673 0.0473335
0.348013 0.075761 0.0479744
0.373678 0.0778821 0.0485847
0.389471 0.0874495 0.0495003
0.401419 0.0946975 0.0502022
0.411521 0.101549 0.0508431
0.420172 0.116854 0.0520027
0.418738 0.135882 0.0532235
0.417212 0.155856 0.05449
0.41854 0.169375 0.0553902
0.425971 0.177096 0.0565957
0.437812 0.194186 0.0578164
0.450126 0.211734 0.0587625
0.465675 0.225422 0.0599527
0.483635 0.232776 0.0607767
0.500511 0.242283 0.0617227
0.516777 0.251438 0.0626383
0.533165 0.261189 0.0635843
0.550362 0.272923 0.064683
0.563958 0.283238 0.0656291
0.577523 0.29453 0.0666209
0.585931 0.301839 0.0672618
0.0458381 0.0482338 0.0610361
0.0506142 0.0532692 0.0567025
0.0549172 0.0601511 0.0615702
0.0602426 0.0654612 0.0725567
0.0714885 0.0683909 0.0806439
0.0926986 0.0775006 0.0712139
0.130159 0.0776837 0.0612192
0.181216 0.076173 0.0528725
0.237598 0.0768292 0.0460365
0.277455 0.0758526 0.0497749
0.313893 0.0816052 0.0480201
0.343801 0.0870069 0.0486
0.368841 0.0904555 0.0492866
0.3935 0.0927138 0.053254
0.40853 0.102861 0.0508736
0.421515 0.11281 0.0517739
0.433234 0.122621 0.0526436
0.442893 0.135714 0.0536812
0.445747 0.154223 0.0549325
0.44654 0.171695 0.0560922
0.452171 0.182528 0.0569009
0.460548 0.194812 0.0593271
0.470344 0.213214 0.0601205
0.483528 0.229999 0.0605936
0.499687 0.243091 0.0617685
0.517784 0.252018 0.0626993
0.534493 0.26186 0.0636606
0.54902 0.271199 0.0645457
0.564172 0.281315 0.065507
0.581048 0.292287 0.0665446
0.59527 0.303838 0.0675669
0.608499 0.314519 0.0685283
0.615839 0.320577 0.0690623
0.0591135 0.0586709 0.0695506
0.0609293 0.0642405 0.0759747
0.063508 0.073579 0.0815595
0.071107 0.0801251 0.090837
0.0872969 0.0823529 0.0980697
0.112612 0.0953384 0.0894789
0.151446 0.0957504 0.0778363
0.202274 0.0948959 0.0662394
0.260624 0.0964218 0.0573434
0.30457 0.0942855 0.0618448
0.340993 0.0950484 0.067277
0.368887 0.099382 0.0667735
0.390463 0.106279 0.0614176
0.413275 0.111788 0.0604257
0.428046 0.120134 0.055024
0.442954 0.132342 0.0534676
0.457053 0.146975 0.0546883
0.464958 0.158618 0.0555886
0.470878 0.173678 0.0566873
0.476265 0.185824 0.0575875
0.486275 0.195697 0.0584268
0.494301 0.213321 0.060441
0.506188 0.232563 0.0624399
0.518486 0.247272 0.0623941
0.532525 0.259937 0.0634928
0.549172 0.27335 0.0646982
0.564828 0.282658 0.0655985
0.57966 0.292058 0.0664988
0.595178 0.302007 0.0674449
0.611109 0.311666 0.0683909
0.625483 0.325353 0.0695659
0.638697 0.334997 0.0704356
0.646204 0.339757 0.0708934
0.0739757 0.0712444 0.0893568
0.0758373 0.0785534 0.0960403
0.0831922 0.088304 0.101518
0.0946975 0.0980697 0.10869
0.10959 0.106798 0.115541
0.130114 0.11487 0.109178
0.1738 0.115618 0.091722
0.228916 0.11519 0.0818189
0.286534 0.113481 0.0843977
0.333532 0.112551 0.0847028
0.360876 0.112871 0.0805219
0.385672 0.117556 0.0790112
0.411093 0.125399 0.0802777
0.43769 0.133074 0.080766
0.448905 0.14374 0.0731518
0.460441 0.155932 0.0655222
0.472114 0.169329 0.0583047
0.483421 0.18436 0.0576333
0.491875 0.194369 0.0584421
0.504799 0.202716 0.0592355
0.52108 0.214786 0.0648661
0.534508 0.234928 0.0619059
0.541619 0.25539 0.0633707
0.553246 0.271763 0.0646677
0.567605 0.284337 0.0657664
0.582162 0.294652 0.0667124
0.596002 0.302419 0.0674907
0.610162 0.31133 0.0683452
0.624887 0.321035 0.0692607
0.638972 0.330816 0.0701762
0.651179 0.341405 0.071107
0.667048 0.35259 0.0721294
0.677012 0.359106 0.072755
0.070985 0.0936446 0.113619
0.0813001 0.10248 0.115084
0.0919203 0.112474 0.122255
0.104479 0.122408 0.132387
0.121889 0.131624 0.141421
0.149233 0.136843 0.130404
0.194415 0.138628 0.114412
0.242664 0.141863 0.0972457
0.295064 0.143084 0.0888075
0.341207 0.140124 0.090959
0.372229 0.140108 0.0903487
0.399145 0.145876 0.0900435
0.423972 0.155871 0.0895552
0.447929 0.166079 0.0876783
0.46305 0.175708 0.0823529
0.474922 0.186709 0.076112
0.48629 0.197665 0.0700847
0.501244 0.206989 0.0655985
0.51223 0.212009 0.0673228
0.530312 0.22179 0.0722515
0.546181 0.240192 0.0683299
0.558267 0.260029 0.0639963
0.565957 0.279789 0.0654307
0.57731 0.293614 0.0665599
0.590692 0.304402 0.0675212
0.605585 0.314366 0.068452
0.620706 0.323278 0.0693217
0.635309 0.332753 0.0702373
0.649119 0.341939 0.0710918
0.661692 0.3505 0.0719005
0.676768 0.360281 0.0728313
0.691203 0.372229 0.0738842
0.698787 0.378897 0.074464
0.0717937 0.123934 0.141497
0.0838178 0.133577 0.147234
0.0955062 0.143557 0.157229
0.109743 0.153353 0.165805
0.128588 0.1626 0.168856
0.159167 0.168322 0.154849
0.209857 0.169833 0.135576
0.259205 0.169055 0.122652
0.301076 0.169848 0.109148
0.341497 0.174868 0.101991
0.37641 0.177401 0.100649
0.40618 0.183276 0.0990005
0.432044 0.191745 0.0971847
0.455375 0.20061 0.0971389
0.473945 0.209277 0.0956436
0.487312 0.217044 0.0905165
0.501732 0.221592 0.0862745
0.522591 0.227131 0.0869001
0.538277 0.234073 0.0848859
0.554055 0.251179 0.0780499
0.565911 0.271824 0.0686046
0.576364 0.289647 0.0662852
0.587747 0.305791 0.0675517
0.60029 0.31696 0.0685283
0.614771 0.326253 0.0694133
0.63061 0.334966 0.0702831
0.646265 0.3449 0.0712291
0.659968 0.353902 0.0720836
0.672633 0.363043 0.0729229
0.684947 0.373037 0.0738079
0.699413 0.383734 0.0747845
0.712489 0.395071 0.0757763
0.718853 0.400992 0.0762951
0.0696574 0.1608 0.179889
0.0795148 0.17055 0.189044
0.0946822 0.18024 0.201099
0.110124 0.189654 0.206485
0.129534 0.198947 0.203342
0.163043 0.206546 0.186053
0.203952 0.210346 0.154238
0.257862 0.209522 0.133516
0.304875 0.208927 0.12314
0.355764 0.20325 0.122896
0.386603 0.203861 0.119066
0.41529 0.208637 0.111467
0.441779 0.214481 0.106584
0.464378 0.223194 0.107881
0.485542 0.232059 0.111208
0.505989 0.236912 0.110414
0.527245 0.244923 0.106218
0.545815 0.257786 0.100404
0.558083 0.271153 0.0866407
0.57142 0.287694 0.0773022
0.583429 0.305058 0.0709087
0.593027 0.321599 0.0686809
0.608606 0.333639 0.0697642
0.623819 0.342657 0.0706493
0.639689 0.350057 0.0714427
0.657099 0.357595 0.0722667
0.671778 0.367422 0.0731975
0.683833 0.375357 0.0739452
0.695888 0.385275 0.074815
0.707683 0.397284 0.0758373
0.718196 0.409262 0.0768139
0.731182 0.420783 0.077821
0.737728 0.426352 0.0783093
0.0602426 0.201434 0.221897
0.0683909 0.21117 0.228458
0.089189 0.219196 0.239765
0.1084 0.227726 0.251774
0.12932 0.235309 0.252674
0.160845 0.242008 0.225208
0.212009 0.23946 0.187625
0.254475 0.245304 0.15436
0.299016 0.252491 0.135058
0.349386 0.255802 0.120104
0.391928 0.248936 0.110246
0.426871 0.244556 0.105653
0.457038 0.242634 0.1075
0.481895 0.244495 0.114672
0.506676 0.254185 0.115526
0.526329 0.266773 0.110948
0.542168 0.279896 0.104112
0.556939 0.292012 0.0979324
0.569421 0.304494 0.0870069
0.583719 0.317388 0.0779278
0.597681 0.332021 0.0709392
0.611002 0.348272 0.0707561
0.625727 0.359091 0.0717632
0.643442 0.368429 0.0727092
0.660227 0.375937 0.073518
0.674388 0.381949 0.0741894
0.688563 0.391745 0.0751049
0.70248 0.40032 0.0759289
0.714565 0.4094 0.0767529
0.7252 0.419425 0.0776074
0.737209 0.428016 0.0784009
0.745998 0.445258 0.0796979
0.749645 0.453666 0.0803082
0.0584421 0.238575 0.260884
0.066743 0.250126 0.267247
0.0820783 0.258305 0.28069
0.0962387 0.268406 0.291798
0.115892 0.277699 0.2925
0.151232 0.280491 0.269444
0.207324 0.280552 0.218814
0.252964 0.283162 0.186481
0.285176 0.291859 0.15198
0.336919 0.295964 0.129549
0.380118 0.298375 0.109819
0.417975 0.295354 0.101381
0.452323 0.291844 0.101305
0.486488 0.291005 0.104051
0.512795 0.297948 0.102831
0.530266 0.306996 0.104417
0.545251 0.317311 0.104616
0.561593 0.32752 0.101869
0.578882 0.337011 0.0961624
0.595987 0.34995 0.0893873
0.611917 0.363088 0.0814527
0.626383 0.375189 0.0731212
0.641062 0.385306 0.0737621
0.658213 0.393896 0.0746471
0.675456 0.401617 0.0754864
0.691844 0.409216 0.0762951
0.705928 0.418555 0.0771801
0.717845 0.426902 0.0779583
0.729549 0.435157 0.0787213
0.741772 0.443854 0.07953
0.75227 0.451972 0.0809339
0.762844 0.467323 0.089128
0.767163 0.473823 0.0922255
0.0562448 0.279561 0.287251
0.062974 0.290883 0.296849
0.0739452 0.299046 0.311696
0.0841993 0.311894 0.323583
0.101549 0.322896 0.326772
0.136187 0.323354 0.314168
0.199008 0.320775 0.259281
0.251942 0.320348 0.220371
0.284062 0.327291 0.188907
0.315053 0.338445 0.146288
0.370245 0.339666 0.126864
0.407843 0.339574 0.115023
0.445579 0.337316 0.108049
0.484565 0.335592 0.105104
0.512673 0.339544 0.102937
0.53283 0.345602 0.107836
0.550759 0.353033 0.112367
0.56997 0.361929 0.113771
0.588907 0.369589 0.112535
0.606806 0.380743 0.106233
0.623255 0.391592 0.096376
0.638773 0.40145 0.0860761
0.653986 0.410285 0.0786908
0.671748 0.418326 0.0764935
0.690089 0.426307 0.0773785
0.70721 0.434256 0.078233
0.720546 0.442283 0.0790112
0.730877 0.450919 0.082948
0.742977 0.458854 0.0849317
0.755703 0.466865 0.0839094
0.767056 0.477836 0.0906539
0.775891 0.488243 0.104067
0.77908 0.492287 0.109148
0.0563363 0.3234 0.303349
0.0569162 0.33283 0.318761
0.0652171 0.341421 0.333181
0.0737163 0.356451 0.34725
0.0885939 0.36878 0.356435
0.117876 0.369757 0.356527
0.186328 0.357519 0.306462
0.243687 0.357885 0.262562
0.297734 0.361578 0.223972
0.32221 0.372305 0.180102
0.358175 0.374151 0.150576
0.404135 0.373907 0.142184
0.440452 0.375433 0.135027
0.476204 0.374868 0.128008
0.508003 0.376532 0.1243
0.535073 0.381125 0.128038
0.559274 0.387091 0.132372
0.58117 0.394202 0.135286
0.598184 0.401541 0.135836
0.615732 0.408804 0.12781
0.632349 0.417258 0.117205
0.648112 0.426139 0.105608
0.6654 0.433814 0.0960861
0.686015 0.441184 0.0879072
0.704997 0.448829 0.0848707
0.720638 0.455802 0.0858473
0.731853 0.461707 0.0892653
0.743862 0.472007 0.0981003
0.755596 0.479866 0.0995041
0.76791 0.488258 0.0993362
0.782452 0.503532 0.108965
0.783932 0.510018 0.119997
0.783795 0.511757 0.123354
0.0583352 0.358755 0.331151
0.0588846 0.367071 0.348791
0.0596933 0.38056 0.361913
0.064332 0.393072 0.369726
0.075288 0.402792 0.378851
0.100359 0.40824 0.390234
0.158511 0.402899 0.34403
0.223697 0.398322 0.297002
0.28896 0.394202 0.256245
0.342947 0.39321 0.226352
0.361501 0.403769 0.197711
0.399756 0.409827 0.183474
0.439994 0.412451 0.17673
0.474372 0.412116 0.168078
0.50898 0.410483 0.15993
0.535851 0.416052 0.167803
0.558831 0.420676 0.169009
0.580392 0.424292 0.163439
0.601022 0.429603 0.164904
0.621698 0.437171 0.162799
0.642695 0.444007 0.15375
0.663569 0.449943 0.14052
0.68426 0.455634 0.131075
0.700755 0.462669 0.117296
0.719432 0.468879 0.10959
0.737972 0.475639 0.108721
0.749859 0.485267 0.113436
0.761944 0.493889 0.113634
0.773739 0.504356 0.114748
0.785275 0.515389 0.119234
0.795407 0.525246 0.127245
0.800198 0.533227 0.139467
0.801678 0.535805 0.143236
0.0601358 0.390707 0.352407
0.0608835 0.402975 0.368948
0.0637217 0.414008 0.382849
0.0669413 0.424369 0.39295
0.0733959 0.433494 0.403128
0.0899519 0.440192 0.411902
0.138872 0.440223 0.384131
0.203372 0.43682 0.341131
0.272114 0.432212 0.2981
0.338811 0.427649 0.26389
0.371679 0.431769 0.239948
0.396979 0.438758 0.217945
0.437079 0.439994 0.209277
0.475685 0.440406 0.20647
0.510033 0.439963 0.200412
0.537102 0.444816 0.204974
0.560571 0.450538 0.208698
0.582193 0.454887 0.209583
0.606531 0.456855 0.210071
0.627115 0.462943 0.20528
0.648173 0.469276 0.193561
0.670298 0.47512 0.17792
0.693492 0.480415 0.162737
0.714687 0.486473 0.145144
0.733974 0.491966 0.13669
0.749798 0.498772 0.134234
0.761028 0.508827 0.130877
0.770504 0.517128 0.126757
0.783017 0.52697 0.130724
0.796628 0.536339 0.138506
0.808957 0.543572 0.146395
0.812894 0.553201 0.158572
0.813855 0.556176 0.162051
0.0617533 0.41886 0.374807
0.0625925 0.433295 0.390616
0.0669566 0.440696 0.404135
0.0721904 0.452155 0.417685
0.0778363 0.462058 0.427085
0.0874037 0.468605 0.430655
0.123659 0.47512 0.422843
0.183749 0.473289 0.388312
0.252842 0.468681 0.346075
0.324529 0.462989 0.305516
0.389685 0.456092 0.280949
0.403159 0.463828 0.260777
0.433143 0.46836 0.243473
0.473014 0.469612 0.240925
0.514427 0.468055 0.242374
0.54078 0.472358 0.244877
0.564309 0.478035 0.250278
0.586557 0.48365 0.255772
0.609995 0.485649 0.254551
0.63032 0.489113 0.249989
0.652674 0.493935 0.237293
0.676966 0.499519 0.219028
0.702174 0.504845 0.197375
0.726848 0.510109 0.176791
0.744701 0.515343 0.16556
0.759045 0.521813 0.15848
0.772671 0.531228 0.149355
0.780499 0.540093 0.145357
0.791928 0.548928 0.150866
0.805966 0.557168 0.15938
0.819211 0.56347 0.165667
0.822538 0.572686 0.177493
0.823438 0.575143 0.180652
0.0631113 0.442023 0.400336
0.0703899 0.455985 0.418875
0.0655985 0.46186 0.428962
0.0773938 0.476936 0.443061
0.0875715 0.488746 0.451164
0.0923323 0.494545 0.451392
0.111604 0.507485 0.456077
0.166552 0.507195 0.436774
0.234348 0.501427 0.399191
0.307179 0.4934 0.354284
0.375662 0.486641 0.33051
0.428107 0.486046 0.307652
0.438056 0.497993 0.286305
0.469291 0.502235 0.276509
0.522026 0.498024 0.283406
0.546715 0.499825 0.289723
0.569543 0.503746 0.291814
0.591791 0.509194 0.291783
0.607065 0.516625 0.290211
0.630335 0.517174 0.294347
0.658564 0.518532 0.285573
0.688243 0.521782 0.265675
0.71603 0.527276 0.238895
0.734508 0.531929 0.215488
0.750652 0.537011 0.195132
0.768002 0.543297 0.180774
0.788891 0.55111 0.173922
0.798535 0.561318 0.173465
0.80647 0.572244 0.178546
0.814511 0.581384 0.183124
0.823377 0.587503 0.185061
0.831052 0.593286 0.19762
0.832715 0.5944 0.200336
0.0680705 0.467964 0.429816
0.0787518 0.474723 0.441016
0.0763714 0.487694 0.44448
0.0891737 0.500298 0.461769
0.101198 0.508415 0.477897
0.110094 0.513603 0.48719
0.124773 0.524437 0.487327
0.163714 0.530648 0.47776
0.218799 0.531167 0.449607
0.286671 0.526543 0.408331
0.363317 0.519936 0.370855
0.421195 0.514717 0.346136
0.456565 0.515633 0.329061
0.475502 0.523125 0.308629
0.510384 0.526894 0.308293
0.544884 0.527733 0.318975
0.569543 0.529671 0.323873
0.591272 0.533425 0.325322
0.617823 0.538949 0.328695
0.641093 0.540902 0.328649
0.665217 0.543252 0.320043
0.689815 0.546761 0.302907
0.713939 0.551537 0.277394
0.737606 0.554696 0.253635
0.760708 0.559228 0.23267
0.781506 0.565286 0.218341
0.79884 0.573404 0.212161
0.802289 0.582345 0.210697
0.814801 0.588464 0.212131
0.828565 0.59646 0.215381
0.840177 0.608301 0.221347
0.844465 0.618021 0.229496
0.84538 0.620127 0.231357
0.0795911 0.488273 0.457435
0.090837 0.49897 0.467277
0.0931411 0.508293 0.47364
0.102052 0.519539 0.48809
0.111788 0.529076 0.50135
0.121996 0.536309 0.509712
0.136126 0.544106 0.510689
0.164019 0.554055 0.508843
0.209125 0.558511 0.49192
0.270985 0.557458 0.461067
0.345876 0.550317 0.418509
0.409827 0.54461 0.38468
0.463478 0.540551 0.364752
0.483467 0.546563 0.353521
0.504448 0.552499 0.345281
0.539025 0.555047 0.344518
0.57142 0.55552 0.351385
0.596841 0.557473 0.357336
0.622309 0.560922 0.360098
0.646937 0.563684 0.358343
0.670436 0.566415 0.353872
0.693645 0.569879 0.34287
0.717815 0.574517 0.322774
0.743465 0.577264 0.295842
0.765988 0.581353 0.271077
0.785443 0.587121 0.253681
0.800855 0.594293 0.244465
0.811383 0.603845 0.237446
0.824613 0.609354 0.240452
0.836973 0.616053 0.246174
0.846571 0.625666 0.251499
0.851438 0.637827 0.25771
0.85243 0.639933 0.258839
0.0946975 0.507958 0.481865
0.104585 0.522683 0.492943
0.111177 0.526268 0.50341
0.118334 0.537774 0.514458
0.125475 0.549676 0.522622
0.135454 0.559594 0.528069
0.151873 0.564981 0.531685
0.172869 0.574243 0.53521
0.209796 0.581079 0.527871
0.262882 0.583352 0.506798
0.330526 0.577401 0.46566
0.398352 0.573983 0.426108
0.455802 0.570703 0.402167
0.501534 0.568658 0.392081
0.513191 0.575494 0.384955
0.537316 0.580728 0.37351
0.570901 0.581064 0.376211
0.601205 0.581659 0.38468
0.625834 0.583581 0.387304
0.650843 0.586908 0.387366
0.675166 0.589837 0.386236
0.699092 0.592813 0.37998
0.723171 0.596017 0.366033
0.748318 0.598932 0.337926
0.768566 0.603586 0.310201
0.786816 0.609064 0.289021
0.803815 0.615198 0.275959
0.82121 0.624628 0.264393
0.833463 0.631678 0.268788
0.842618 0.637598 0.275441
0.849424 0.643381 0.28014
0.85713 0.655283 0.287144
0.858015 0.656916 0.287816
0.110567 0.528481 0.499489
0.117479 0.540856 0.51223
0.127169 0.544732 0.523262
0.140322 0.557046 0.535317
0.147997 0.570001 0.543954
0.156664 0.58085 0.549889
0.177386 0.584344 0.553277
0.196796 0.59028 0.56202
0.226627 0.596582 0.557092
0.269169 0.601328 0.538735
0.32491 0.600992 0.506188
0.390036 0.600122 0.472084
0.449729 0.598138 0.445609
0.500893 0.597055 0.425742
0.538552 0.600107 0.411231
0.543252 0.603983 0.408118
0.567681 0.60528 0.402838
0.599313 0.605386 0.404456
0.627619 0.607126 0.409674
0.6551 0.611109 0.417731
0.680552 0.614267 0.414099
0.703853 0.615488 0.407034
0.724559 0.616037 0.398535
0.747127 0.619196 0.375601
0.770321 0.625803 0.348852
0.794293 0.632273 0.326818
0.816236 0.637354 0.311681
0.825833 0.643427 0.304555
0.839109 0.651194 0.301869
0.849577 0.658244 0.303914
0.857023 0.664683 0.31075
0.865538 0.673213 0.323491
0.866575 0.674159 0.324697
0.128252 0.546563 0.525734
0.13547 0.556207 0.538079
0.145739 0.565103 0.54873
0.158373 0.575051 0.559853
0.17055 0.583749 0.565133
0.184207 0.59202 0.567147
0.202274 0.600793 0.570672
0.221561 0.608911 0.570413
0.252064 0.612955 0.571923
0.290547 0.616114 0.566598
0.331716 0.622049 0.545281
0.391608 0.621271 0.510826
0.449805 0.620874 0.478935
0.499596 0.620569 0.454826
0.537682 0.619715 0.440879
0.56141 0.620752 0.437949
0.567483 0.629282 0.433387
0.591089 0.633356 0.428229
0.628946 0.632502 0.429526
0.656916 0.634943 0.434134
0.683833 0.63978 0.434272
0.708202 0.642313 0.43151
0.730648 0.64062 0.425498
0.75259 0.643656 0.40856
0.77792 0.647578 0.388449
0.800687 0.653483 0.366018
0.819409 0.66009 0.344488
0.832776 0.66389 0.33695
0.846525 0.67187 0.34023
0.857053 0.679973 0.346197
0.865003 0.687938 0.353445
0.873808 0.695811 0.362463
0.874586 0.696666 0.363424
0.144259 0.565286 0.545098
0.153811 0.573816 0.555962
0.167178 0.589212 0.567559
0.17702 0.592477 0.573999
0.19118 0.599756 0.581003
0.207828 0.609079 0.585657
0.224292 0.617853 0.586099
0.249989 0.624765 0.588479
0.279377 0.630411 0.59266
0.311452 0.635538 0.590204
0.347082 0.640345 0.575082
0.398428 0.641901 0.542489
0.451926 0.643259 0.511879
0.500542 0.643381 0.488396
0.540017 0.641718 0.473381
0.567849 0.643671 0.464118
0.587732 0.648646 0.461845
0.593759 0.657252 0.45449
0.626017 0.657221 0.44535
0.654994 0.659388 0.448951
0.68719 0.661326 0.454398
0.712154 0.662867 0.454185
0.734264 0.66334 0.448341
0.757107 0.667079 0.436118
0.783734 0.670924 0.41709
0.808255 0.675258 0.39321
0.82829 0.679316 0.370352
0.843381 0.68249 0.365026
0.853452 0.690654 0.373861
0.861692 0.698451 0.382849
0.870024 0.706249 0.390875
0.881788 0.715709 0.397726
0.882399 0.716167 0.397864
0.160204 0.58471 0.563424
0.171786 0.593835 0.571527
0.189593 0.611734 0.58352
0.197024 0.609918 0.587259
0.212802 0.617731 0.596872
0.231815 0.628412 0.60383
0.249271 0.635126 0.600076
0.27982 0.639857 0.609232
0.305455 0.648264 0.613519
0.332616 0.654902 0.610773
0.366598 0.657465 0.599588
0.408835 0.662425 0.570901
0.456992 0.664637 0.543465
0.504326 0.664714 0.520729
0.546441 0.664027 0.504021
0.571008 0.667964 0.490333
0.597665 0.671153 0.483375
0.609888 0.676966 0.477562
0.627314 0.680598 0.465141
0.651743 0.683986 0.465583
0.690684 0.681285 0.470817
0.718944 0.681666 0.471748
0.739055 0.685054 0.465354
0.762478 0.689448 0.455512
0.790219 0.69424 0.435431
0.81738 0.696574 0.412604
0.840375 0.697612 0.393347
0.854551 0.700832 0.389471
0.860746 0.708339 0.402487
0.866194 0.715892 0.413397
0.873793 0.723812 0.421134
0.888609 0.73434 0.427482
0.889082 0.734539 0.427543
0.177523 0.604898 0.587503
0.18851 0.61474 0.593225
0.210361 0.623758 0.602045
0.220386 0.629633 0.613581
0.239887 0.63621 0.618738
0.262592 0.644083 0.617975
0.283299 0.652842 0.612802
0.305486 0.659022 0.620005
0.328496 0.663722 0.627726
0.354284 0.668879 0.630121
0.384039 0.675151 0.62388
0.423484 0.681483 0.601205
0.46833 0.683879 0.570047
0.514275 0.684825 0.543526
0.557015 0.685634 0.526268
0.586069 0.686534 0.515221
0.612253 0.68925 0.505516
0.630488 0.693965 0.500969
0.634974 0.703273 0.49543
0.650004 0.709606 0.484642
0.690196 0.707988 0.476768
0.730297 0.706355 0.47657
0.754788 0.710307 0.471412
0.776501 0.712352 0.462181
0.802823 0.714916 0.446891
0.827573 0.716289 0.431067
0.848188 0.718227 0.418433
0.861616 0.723095 0.411185
0.87248 0.727687 0.428107
0.874754 0.737179 0.435248
0.8766 0.747951 0.438651
0.888731 0.755184 0.447166
0.888731 0.755062 0.447044
0.198474 0.624048 0.610437
0.213367 0.630518 0.615915
0.22623 0.640436 0.618601
0.244312 0.650172 0.627024
0.26157 0.655421 0.63418
0.282826 0.662257 0.636957
0.309682 0.672755 0.634409
0.330068 0.678538 0.641016
0.352407 0.681788 0.647684
0.375982 0.686381 0.651316
0.401617 0.693156 0.648463
0.437736 0.701518 0.63418
0.476951 0.704082 0.604517
0.519173 0.704479 0.575006
0.561959 0.703777 0.549889
0.595636 0.70457 0.531182
0.620996 0.709499 0.521614
0.644053 0.713893 0.517754
0.651576 0.721355 0.513558
0.658824 0.728496 0.499367
0.688701 0.732311 0.485573
0.733837 0.729778 0.476081
0.769741 0.728115 0.465873
0.795666 0.728099 0.45594
0.816434 0.730632 0.444205
0.835706 0.732982 0.434699
0.853178 0.735927 0.429114
0.869108 0.74168 0.429374
0.880323 0.74725 0.443702
0.884627 0.754406 0.452903
0.8869 0.763027 0.462715
0.891463 0.772457 0.479255
0.891493 0.772564 0.479484
0.212741 0.643854 0.630411
0.227176 0.650187 0.636149
0.239979 0.659464 0.638025
0.260288 0.668528 0.644511
0.280018 0.673899 0.650416
0.302998 0.680064 0.652155
0.329503 0.688502 0.649485
0.349996 0.695338 0.656901
0.371466 0.700496 0.664057
0.392493 0.70605 0.669001
0.414649 0.712947 0.669978
0.445991 0.719921 0.662867
0.481849 0.723629 0.637766
0.520897 0.72459 0.610666
0.56228 0.723827 0.584298
0.603128 0.724498 0.555871
0.628153 0.729305 0.54255
0.652186 0.733242 0.534646
0.669139 0.738201 0.527138
0.671412 0.747509 0.508858
0.697581 0.751186 0.489815
0.743435 0.747158 0.473472
0.78436 0.743252 0.459571
0.812436 0.74403 0.447135
0.831678 0.748531 0.436057
0.847974 0.751171 0.431708
0.861921 0.754345 0.433845
0.876875 0.762081 0.443015
0.887388 0.76704 0.460655
0.892866 0.772366 0.474693
0.89543 0.779614 0.489158
0.895918 0.789364 0.505699
0.895903 0.789364 0.505699
0.221485 0.664073 0.648142
0.234333 0.671839 0.654017
0.251759 0.679271 0.657771
0.270191 0.686183 0.665141
0.296254 0.692866 0.667918
0.321691 0.698344 0.665354
0.344152 0.703578 0.660945
0.364996 0.711849 0.669017
0.386709 0.71989 0.678416
0.4065 0.727245 0.684718
0.426108 0.733898 0.687373
0.451774 0.737957 0.688136
0.484077 0.743191 0.671519
0.519249 0.745144 0.652201
0.558679 0.744884 0.627741
0.607156 0.745693 0.591424
0.634409 0.748058 0.571344
0.661875 0.75079 0.555352
0.684886 0.755505 0.540108
0.685603 0.766644 0.516899
0.712673 0.766262 0.489509
0.760311 0.760418 0.469551
0.798215 0.758694 0.452277
