presets/H哈苏暖.cube
TITLE "XH Copyright"
# XH Copyright
# 5219
# 20250101
LUT_3D_SIZE 5
0.000350958 0.0304417 0
0.108324 0.0327306 0
0.449088 0.0802167 0
0.528008 0.192737 0
0.630137 0.269337 0
0.0585641 0.173754 0.119631
0.295674 0.246494 0
0.636606 0.300893 0
0.680766 0.369131 0
0.769085 0.43827 0
0.110033 0.466636 0.307927
0.342351 0.51545 0.316732
0.580209 0.552392 0.191333
0.760464 0.580621 0.123033
0.833799 0.639628 0.0708019
0.305394 0.637613 0.490974
0.487541 0.696162 0.584802
0.578744 0.781048 0.302617
0.80322 0.780972 0.357992
0.876066 0.824186 0.387182
0.495415 0.804913 0.681682
0.641215 0.851682 0.754482
0.680385 0.933028 0.460899
0.850172 0.941711 0.414893
0.904051 0.960052 0.622278
0.000244144 0.0213169 0
0.0638895 0.0669871 0
0.465217 0.111147 0
0.590204 0.224796 0
0.702815 0.302541 0
0 0.242679 0.215015
0.266117 0.2795 0.283589
0.66363 0.373953 0.145235
0.705104 0.408148 0.00311284
0.805341 0.488121 0.0959793
0.107683 0.490822 0.370443
0.383154 0.527581 0.460822
0.604608 0.569116 0.363409
0.782605 0.607904 0.339422
0.861631 0.662333 0.341894
0.318822 0.666972 0.561868
0.518837 0.722194 0.627894
0.615717 0.792767 0.490349
0.802106 0.8038 0.522545
0.885191 0.839902 0.576059
0.520745 0.828214 0.725322
0.664759 0.874022 0.776577
0.789593 0.908446 0.735317
0.800015 0.977829 0.591836
0.903822 0.97557 0.739101
0 0.0355993 0.123613
0.00903334 0.101335 0.289815
0.373358 0.102983 0.280308
0.503914 0.199802 0.24329
0.691096 0.405661 0.232242
0 0.283207 0.435523
0.211917 0.321523 0.501167
0.512444 0.35465 0.449271
0.665583 0.443809 0.408789
0.83006 0.595544 0.467979
0.0908827 0.527779 0.46862
0.306462 0.577325 0.561044
0.612879 0.584176 0.585855
0.840696 0.679255 0.561852
0.926833 0.749386 0.603113
0.32813 0.692851 0.664027
0.512474 0.752956 0.692592
0.70312 0.7776 0.741405
0.818112 0.819699 0.667384
0.912413 0.852323 0.752163
0.519814 0.852262 0.80676
0.671641 0.895338 0.823011
0.82771 0.911482 0.870573
0.88043 0.958587 0.82388
0.921996 0.980453 0.858137
0 0.041886 0.390188
0.0893416 0.094316 0.44152
0.373281 0.107073 0.542657
0.532006 0.188281 0.541634
0.620188 0.307179 0.465064
0 0.319463 0.600671
0.262806 0.336461 0.639261
0.529854 0.357031 0.673472
0.677607 0.421775 0.655726
0.752712 0.508202 0.618158
0.05832 0.562768 0.595224
0.310979 0.600473 0.723262
0.613596 0.606561 0.780072
0.764858 0.647181 0.72929
0.843809 0.694469 0.766049
0.32813 0.725231 0.754498
0.487694 0.782559 0.798276
0.672251 0.806149 0.848646
0.843015 0.830915 0.83415
0.911528 0.869413 0.883818
0.555535 0.86334 0.886473
0.662287 0.915099 0.888777
0.812528 0.931991 0.936324
0.929458 0.950317 0.970153
0.965652 0.973434 0.994034
0 0.0747234 0.438117
0.139315 0.11812 0.48574
0.409934 0.134463 0.592493
0.550072 0.213336 0.654429
0.639231 0.322118 0.606424
0 0.364614 0.60441
0.324727 0.350072 0.73463
0.559976 0.377295 0.782132
0.703807 0.428183 0.815045
0.773556 0.515312 0.797253
0.101579 0.591394 0.650813
0.378882 0.611734 0.81857
0.635065 0.62089 0.870558
0.786664 0.656275 0.8589
0.857404 0.71313 0.874174
0.368292 0.745663 0.821515
0.512184 0.800992 0.875578
0.708339 0.812955 0.954681
0.855253 0.850187 0.926101
0.916579 0.887678 0.962982
0.609018 0.871214 0.912612
0.708995 0.918502 0.930129
0.839948 0.938888 0.974197
0.943099 0.961486 0.998016
0.976211 0.977188 0.999832
