presets/H哈苏冷.cube
TITLE "XH Copyright"
# XH Copyright
# 5219
# 20250101
LUT_3D_SIZE 9
0 0 0.0919509
0 0.00802625 0.0898756
0.124224 0.00782788 0.0878004
0.331121 0.0154879 0.090013
0.414771 0.041474 0.0910658
0.400305 0.117601 0.0893721
0.446571 0.175921 0.0899367
0.527794 0.218723 0.0905013
0.588708 0.264485 0.0910201
0 0.0319829 0.128084
0 0.0716106 0.149706
0.266148 0.0756085 0.121065
0.428809 0.0863203 0.116472
0.496803 0.135607 0.0917067
0.550912 0.186236 0.0944381
0.600412 0.264439 0.0911574
0.664973 0.304997 0.0917372
0.722942 0.347005 0.0920424
0 0.181781 0.248615
0.00701915 0.218067 0.272206
0.274907 0.233097 0.147692
0.472786 0.219028 0.132403
0.570108 0.259678 0.12636
0.631968 0.317876 0.0928206
0.702022 0.366491 0.0920119
0.76321 0.403189 0.0925002
0.803082 0.452323 0.0903944
0 0.382589 0.391608
0 0.432837 0.443946
0.132876 0.424186 0.270787
0.456352 0.416617 0.0851606
0.587015 0.417533 0.160708
0.679927 0.442542 0.153185
0.769574 0.469444 0.110307
0.832273 0.508202 0.109789
0.864088 0.542794 0.130648
0 0.514336 0.516899
0 0.556405 0.568414
0 0.588434 0.538491
0.403326 0.552941 0.197726
0.599268 0.54374 0.225162
0.70425 0.552666 0.282719
0.816007 0.569146 0.202899
0.880552 0.601038 0.17702
0.916655 0.63595 0.185672
0 0.59556 0.619364
0 0.634958 0.661219
0.037232 0.668986 0.667369
0.296956 0.680873 0.524849
0.521096 0.679911 0.295705
0.724346 0.664958 0.33817
0.833753 0.66772 0.328786
0.915969 0.693721 0.272511
0.946899 0.720821 0.293446
0 0.678004 0.711254
0.0645914 0.711574 0.734447
0.200122 0.738415 0.743175
0.324392 0.769436 0.701869
0.531945 0.77966 0.422446
0.679347 0.78996 0.314275
0.881865 0.763104 0.333181
0.952575 0.77821 0.364294
0.963699 0.806729 0.400305
0.0457771 0.761761 0.797131
0.147662 0.79823 0.822339
0.255909 0.830076 0.822629
0.374365 0.844663 0.833509
0.526146 0.856321 0.718868
0.733654 0.870527 0.300465
0.96614 0.840955 0.219287
0.986679 0.860777 0.37734
0.979782 0.882765 0.49041
0.227298 0.820508 0.861723
0.289219 0.855665 0.885847
0.336187 0.897292 0.888838
0.442451 0.912062 0.913893
0.571145 0.920104 0.858778
0.782803 0.931563 0.442771
0.99527 0.911574 0.282506
0.989883 0.92462 0.50341
0.978058 0.947768 0.620233
0 0 0.095079
0 0.0142824 0.116121
0.148653 0.0217288 0.0880598
0.358785 0.0255894 0.0903792
0.431968 0.0540475 0.09131
0.429694 0.132128 0.0894331
0.481361 0.189548 0.0902876
0.563302 0.232883 0.0908675
0.629618 0.272908 0.0912184
0 0.0451514 0.154116
0 0.0966049 0.182864
0.273823 0.0944686 0.127687
0.452689 0.105257 0.123156
0.509422 0.156374 0.102876
0.573907 0.206043 0.102205
0.626139 0.275807 0.0912184
0.693004 0.318441 0.0920119
0.740627 0.356252 0.0922103
0 0.204517 0.293812
0 0.251545 0.320256
0.286152 0.255756 0.169665
0.488106 0.246525 0.148943
0.578012 0.28101 0.140505
0.64686 0.339529 0.11136
0.713008 0.382162 0.0921645
0.774029 0.424308 0.0966812
0.810742 0.463569 0.109606
0 0.399329 0.424552
0 0.449775 0.482994
0.151797 0.436439 0.344594
0.460731 0.435294 0.117113
0.597803 0.435691 0.190753
0.687282 0.459632 0.184024
0.781598 0.489967 0.136065
0.841382 0.520912 0.133013
0.876631 0.555581 0.158724
0 0.52755 0.538674
0 0.572091 0.595468
0 0.595407 0.568353
0.415946 0.569345 0.263127
0.609751 0.56173 0.253132
0.710262 0.570092 0.312078
0.821561 0.585595 0.248844
0.891356 0.614939 0.219455
0.922545 0.647318 0.234821
0 0.610742 0.641703
0 0.651804 0.678096
0.0720531 0.68278 0.688701
0.301396 0.694041 0.595376
0.53373 0.69427 0.354086
0.722988 0.679438 0.37232
0.838743 0.68249 0.395895
0.910445 0.712642 0.330404
0.939132 0.736065 0.350011
0 0.68838 0.726558
0.0894484 0.728298 0.754681
0.20444 0.759396 0.754421
0.331319 0.784161 0.734676
0.51014 0.799619 0.502434
0.696681 0.795819 0.372732
0.873045 0.781765 0.410742
0.939773 0.797665 0.420996
0.958892 0.821576 0.46978
0.0744793 0.776547 0.816083
0.174655 0.809201 0.834363
0.277134 0.841184 0.833326
0.39202 0.855604 0.846448
0.528313 0.869017 0.757885
0.714763 0.885695 0.386099
0.937179 0.864988 0.300526
0.978851 0.873075 0.452857
0.980072 0.891539 0.556237
0.254612 0.834913 0.879973
0.326513 0.864027 0.905257
0.358373 0.908995 0.905226
0.461021 0.921492 0.919112
0.569802 0.934768 0.884764
0.767193 0.944076 0.526314
0.975341 0.925444 0.356069
0.984848 0.943816 0.541238
0.977996 0.954131 0.653315
0 0.00476081 0.13257
0 0.028809 0.212741
0.0196994 0.0517128 0.149493
0.280171 0.0473182 0.142748
0.415595 0.0792859 0.12929
0.439475 0.150927 0.101167
0.536431 0.18764 0.0939498
0.597803 0.23473 0.105272
0.646479 0.284306 0.135241
0 0.0714733 0.259449
0 0.124575 0.309941
0.140642 0.150759 0.237613
0.389487 0.143526 0.213718
0.495552 0.19881 0.187778
0.545235 0.243137 0.165927
0.639261 0.289754 0.126818
0.677256 0.336187 0.165576
0.713909 0.380133 0.199237
0 0.226307 0.382574
0 0.283009 0.432334
0.173495 0.284657 0.397436
0.436912 0.294972 0.266896
0.565789 0.307027 0.2177
0.638331 0.360998 0.180423
0.712047 0.400519 0.160021
0.757031 0.440787 0.203784
0.794675 0.481605 0.236286
0 0.386999 0.50219
0 0.44007 0.553445
0.135943 0.445472 0.519661
0.379919 0.458579 0.347326
0.578958 0.452674 0.310445
0.673274 0.478126 0.295079
0.771008 0.502724 0.233204
0.826932 0.540505 0.248447
0.85626 0.573724 0.27805
0 0.499641 0.608652
0 0.551385 0.651621
0.114214 0.576135 0.623728
0.352987 0.582925 0.543069
0.582193 0.579339 0.374624
0.703136 0.587274 0.408942
0.794903 0.606973 0.370016
0.869612 0.63444 0.344427
0.891936 0.66273 0.387839
0 0.595728 0.694636
0.0496529 0.637079 0.721798
0.16025 0.677836 0.710094
0.328832 0.694911 0.696849
0.498482 0.709804 0.555459
0.717662 0.688685 0.466758
0.815869 0.701503 0.514733
0.872801 0.730327 0.516457
0.903288 0.759594 0.532296
0.0592966 0.68867 0.763775
0.152605 0.723079 0.790066
0.240894 0.768139 0.777722
0.35169 0.791974 0.785138
0.484474 0.80798 0.719036
0.650629 0.81529 0.52903
0.833539 0.800626 0.541009
0.899641 0.818143 0.587274
0.926604 0.842878 0.599405
0.139925 0.778958 0.84033
0.22295 0.808835 0.862898
0.304997 0.853895 0.851972
0.390051 0.877531 0.858106
0.516167 0.888563 0.820981
0.71104 0.887037 0.599832
0.822538 0.899168 0.530999
0.928267 0.894881 0.619501
0.955215 0.908263 0.663523
0.311025 0.835706 0.898878
0.365362 0.871687 0.925109
0.398733 0.910201 0.925856
0.442832 0.941268 0.929152
0.558633 0.950103 0.919432
0.745007 0.95227 0.688853
0.850584 0.962142 0.580148
0.920302 0.967315 0.655528
0.94696 0.977935 0.709102
0 0.00900282 0.199451
0 0.0394141 0.320531
0 0.0770123 0.305623
0.212741 0.0740826 0.26566
0.364767 0.0910964 0.276555
0.432303 0.140688 0.258137
0.487892 0.242374 0.191699
0.562325 0.271733 0.189441
0.605768 0.320134 0.228855
0 0.0853132 0.386282
0 0.138582 0.441245
0.0658274 0.179095 0.403464
0.331853 0.17995 0.349691
0.452842 0.195743 0.361593
0.513741 0.252857 0.341604
0.57528 0.346075 0.272297
0.63772 0.373404 0.27921
0.679988 0.414237 0.312749
0 0.238102 0.524086
0 0.295537 0.578866
0.143206 0.305913 0.552453
0.35491 0.327276 0.471092
0.500282 0.3402 0.43772
0.592309 0.412802 0.384665
0.667918 0.426963 0.329763
0.720058 0.467536 0.356603
0.754131 0.509041 0.395087
0 0.382177 0.573236
0 0.432227 0.62678
0.119371 0.459022 0.629175
0.378744 0.458381 0.587777
0.549264 0.477455 0.488685
0.653666 0.492302 0.431113
0.73518 0.527092 0.399252
0.788495 0.566735 0.423438
0.821515 0.599466 0.457984
0 0.493324 0.653742
0.0260777 0.543221 0.698787
0.137972 0.585397 0.699916
0.399634 0.57792 0.649866
0.542123 0.593484 0.58497
0.694163 0.602106 0.51342
0.773587 0.628016 0.498207
0.829648 0.654932 0.508965
0.859205 0.684489 0.540307
0.090547 0.582269 0.723598
0.169451 0.619806 0.760754
0.24892 0.668193 0.765621
0.398718 0.689128 0.732067
0.502861 0.717174 0.694942
0.691524 0.711498 0.558145
0.806577 0.718639 0.591134
0.858106 0.745357 0.617426
0.889204 0.767437 0.6336
0.188739 0.67245 0.803388
0.247929 0.711635 0.829831
0.318471 0.760632 0.8168
0.405478 0.795361 0.815015
0.504158 0.813779 0.804211
0.64744 0.822492 0.656046
0.821729 0.816068 0.602808
0.890394 0.83331 0.664561
0.913512 0.857725 0.675608
0.217716 0.772412 0.867292
0.285634 0.809842 0.893111
0.360052 0.848508 0.884337
0.436042 0.879072 0.877455
0.537057 0.892851 0.874922
0.674739 0.901503 0.748104
0.765454 0.920043 0.673472
0.890318 0.917082 0.702403
0.943511 0.918608 0.752438
0.373358 0.831525 0.915099
0.413397 0.870527 0.938155
0.448936 0.910109 0.948501
0.477485 0.947112 0.949615
0.575479 0.955428 0.936217
0.711879 0.970123 0.816571
0.8038 0.978943 0.741283
0.881575 0.98558 0.755032
0.924559 0.986206 0.785733
0 0.00941482 0.357717
0 0.0352178 0.446204
0.00500496 0.058854 0.439353
0.212284 0.0614481 0.477043
0.375677 0.0788739 0.496513
0.453132 0.136004 0.44622
0.502052 0.206409 0.386892
0.553689 0.276265 0.347921
0.598672 0.367163 0.340017
0 0.0991073 0.494896
0 0.142229 0.551659
0.12665 0.164187 0.537163
0.326467 0.172 0.556771
0.461173 0.183658 0.591836
0.533059 0.244923 0.534096
0.577569 0.319905 0.476173
0.622522 0.382025 0.442084
0.676692 0.466117 0.446632
0 0.248112 0.658137
0 0.301976 0.681743
0.1579 0.318364 0.64332
0.336553 0.343008 0.601297
0.48513 0.353704 0.597574
0.576333 0.392721 0.567849
0.639902 0.432319 0.537682
0.712779 0.516915 0.52018
0.746227 0.566903 0.518944
0 0.389105 0.678569
0 0.44007 0.727123
0.133974 0.46595 0.71075
0.370291 0.473823 0.694499
0.508629 0.491966 0.631464
0.621317 0.509346 0.605051
0.703441 0.568063 0.580896
0.764599 0.612329 0.577142
0.796323 0.633799 0.590646
3.0518e-05 0.505516 0.723995
0.0624857 0.546075 0.759106
0.176425 0.583169 0.769345
0.393576 0.590646 0.743481
0.541176 0.596078 0.7084
0.672679 0.619333 0.645975
0.752041 0.640345 0.624613
0.815091 0.669871 0.630823
0.842039 0.701122 0.655238
0.135378 0.588846 0.765087
0.207828 0.630106 0.808499
0.288441 0.669764 0.821057
0.422538 0.695567 0.793484
0.550622 0.712383 0.766583
0.675212 0.718791 0.709041
0.792737 0.732525 0.678996
0.851652 0.760845 0.701137
0.877089 0.784024 0.720974
0.250111 0.676036 0.824216
0.308736 0.717464 0.865507
0.37351 0.755199 0.872831
0.452018 0.787655 0.851392
0.568963 0.801572 0.841688
0.665339 0.826001 0.801205
0.771954 0.839658 0.710674
0.880369 0.84036 0.758556
0.907698 0.864363 0.807355
0.322576 0.75903 0.904082
0.378653 0.796613 0.92845
0.419455 0.842588 0.920851
0.491722 0.878416 0.911254
0.610941 0.881743 0.90988
0.689418 0.902693 0.874342
0.785412 0.914595 0.815641
0.861738 0.930449 0.789548
0.943694 0.922957 0.840742
0.445869 0.82472 0.951736
0.487831 0.857862 0.970382
0.512154 0.904891 0.977081
0.542931 0.934722 0.973739
0.652033 0.947829 0.960861
0.742901 0.956756 0.9243
0.827893 0.968627 0.88574
0.861891 0.984573 0.891096
0.897047 0.99501 0.894484
0 0.0115206 0.438209
0 0.0469062 0.521828
0.0482948 0.065919 0.509575
0.242634 0.0688182 0.55967
0.371405 0.0839246 0.624735
0.451286 0.130266 0.624949
0.526284 0.193484 0.580179
0.565621 0.270588 0.518288
0.606653 0.332753 0.521141
0 0.114824 0.57377
0 0.154986 0.625284
0.171572 0.168917 0.592081
0.350973 0.174762 0.642573
0.461311 0.191455 0.706142
0.532219 0.241718 0.700084
0.600504 0.302388 0.643793
0.635431 0.375311 0.600443
0.673472 0.426566 0.609979
0 0.275227 0.723278
0 0.333471 0.746593
0.175631 0.330922 0.709728
0.372595 0.338628 0.69041
0.504311 0.338933 0.729961
0.600977 0.366186 0.736934
0.659129 0.427924 0.687785
0.70248 0.485283 0.658
0.738491 0.520974 0.672557
0 0.409491 0.762097
0 0.458518 0.792905
0.155779 0.478187 0.775326
0.388876 0.479393 0.767758
0.507393 0.497902 0.74406
0.619959 0.517815 0.729
0.700725 0.545541 0.71397
0.758694 0.582818 0.714153
0.797971 0.61503 0.723613
0.0053254 0.516381 0.770336
0.075288 0.55729 0.804822
0.202914 0.589761 0.824674
0.404379 0.599252 0.817365
0.544717 0.609476 0.808331
0.650721 0.632319 0.752865
0.740871 0.648081 0.751888
0.799405 0.678019 0.754162
0.85153 0.731807 0.770977
0.156893 0.60296 0.808743
0.22739 0.640192 0.849836
0.306203 0.677363 0.868559
0.437537 0.705867 0.853544
0.561715 0.716793 0.854292
0.683787 0.72726 0.809461
0.775845 0.749355 0.785122
0.837186 0.780301 0.801984
0.862455 0.799573 0.819577
0.276799 0.682597 0.863355
0.339895 0.723323 0.899367
0.397528 0.762081 0.913222
0.490867 0.7888 0.903838
0.592065 0.809094 0.8972
0.713649 0.818524 0.86569
0.795239 0.836118 0.836744
0.875975 0.854322 0.849958
0.90483 0.869169 0.882063
0.373922 0.763943 0.929778
0.421164 0.800259 0.958297
0.471321 0.839185 0.958633
0.541527 0.867369 0.954376
0.637552 0.884367 0.943069
0.753841 0.88957 0.920317
0.827848 0.905974 0.899077
0.88629 0.922652 0.907057
0.928038 0.935332 0.9187
0.501198 0.822431 0.972274
0.53782 0.859617 0.985245
0.561379 0.898939 0.997009
0.594385 0.933776 0.994888
0.698116 0.941741 0.979507
0.801663 0.95053 0.966369
0.868284 0.962997 0.956863
0.907912 0.977661 0.964599
0.941466 0.984527 0.978515
0 0.0350805 0.458015
0 0.0744335 0.554284
0.079881 0.0792554 0.532052
0.273625 0.0836042 0.581949
0.397101 0.0977493 0.659236
0.462379 0.144762 0.68307
0.53315 0.200977 0.654658
0.58529 0.274022 0.622843
0.616236 0.346029 0.625711
0 0.145449 0.606027
0 0.196567 0.665415
0.198688 0.191028 0.625696
0.37435 0.19472 0.662608
0.482078 0.206867 0.731075
0.548028 0.249622 0.752041
0.612787 0.312642 0.73077
0.652155 0.377935 0.700389
0.685298 0.430091 0.688334
0 0.301228 0.738506
0 0.354971 0.770153
0.206104 0.341283 0.759838
0.399298 0.345556 0.744854
0.518059 0.351568 0.779995
0.616388 0.369604 0.807355
0.677958 0.418585 0.795865
0.721355 0.478126 0.772
0.748852 0.530785 0.758343
0 0.426795 0.784329
0 0.475959 0.807065
0.207233 0.483345 0.8112
0.413382 0.482246 0.825406
0.533776 0.493599 0.836027
0.651118 0.497932 0.857008
0.725338 0.529961 0.843717
0.76994 0.584955 0.8065
0.799298 0.625238 0.807828
0.0216068 0.532006 0.811734
0.099382 0.570932 0.846906
0.249866 0.59939 0.854627
0.423331 0.608789 0.865019
0.552834 0.616556 0.871382
0.659678 0.634653 0.839521
0.749767 0.654536 0.835966
0.804044 0.687892 0.836408
0.840604 0.710277 0.855573
0.161532 0.616999 0.853391
0.237964 0.654383 0.894408
0.331395 0.691325 0.891814
0.446281 0.714305 0.901244
0.572045 0.723781 0.91075
0.695994 0.733318 0.879896
0.771298 0.757916 0.856916
0.837278 0.779934 0.875242
0.866117 0.803037 0.89398
0.290394 0.699702 0.899123
0.352224 0.736431 0.934722
0.423011 0.771603 0.942199
0.507301 0.799023 0.938872
0.608804 0.814908 0.940764
0.721752 0.822599 0.923125
0.809506 0.844205 0.895537
0.868482 0.864012 0.908766
0.894499 0.880125 0.925399
0.412665 0.770275 0.946288
0.462425 0.80354 0.97409
0.513878 0.842435 0.980621
0.573465 0.869734 0.978073
0.661814 0.886275 0.970062
0.773373 0.896986 0.964202
0.847623 0.910811 0.946014
0.894011 0.9299 0.947097
0.931426 0.940475 0.965957
0.538628 0.827359 0.981506
0.579843 0.860609 1
0.605005 0.89926 1
0.642954 0.930236 1
0.733501 0.941848 1
0.829358 0.94873 0.993088
0.896895 0.960708 0.985092
0.93344 0.975235 0.995163
0.959747 0.986435 1
0 0.0446784 0.510872
0 0.082063 0.565835
0.101091 0.105058 0.544015
0.265553 0.120165 0.594919
0.407645 0.125399 0.658503
0.478828 0.166674 0.692775
0.542641 0.23357 0.669276
0.592386 0.291661 0.6766
0.619989 0.356985 0.685344
0 0.157427 0.626642
0.00729381 0.200824 0.68101
0.230884 0.207706 0.64773
0.37203 0.229023 0.679194
0.484611 0.24329 0.733654
0.558892 0.282643 0.759167
0.61799 0.338979 0.743648
0.660868 0.396979 0.752468
0.690761 0.446418 0.767681
0 0.315496 0.723369
0 0.364858 0.751842
0.255833 0.347265 0.781888
0.422782 0.352285 0.798093
0.524361 0.373007 0.821912
0.621286 0.396201 0.837797
0.688212 0.43212 0.843885
0.733593 0.486152 0.839048
0.751873 0.547433 0.823545
0 0.448951 0.754528
0.0346532 0.494148 0.7841
0.243595 0.498054 0.826383
0.423346 0.501854 0.857191
0.544533 0.51165 0.863966
0.660212 0.512169 0.901122
0.748012 0.535912 0.904784
0.783734 0.589731 0.868757
0.808911 0.635782 0.852049
0.0660716 0.545739 0.810132
0.154299 0.585962 0.838636
0.286992 0.612329 0.867079
0.449027 0.617029 0.894331
0.56965 0.629694 0.902281
0.671687 0.648173 0.872572
0.764126 0.657679 0.891646
0.820264 0.69012 0.889433
0.850889 0.724849 0.905318
0.212711 0.628519 0.856092
0.28127 0.668132 0.895247
0.369223 0.699092 0.916991
0.471565 0.723552 0.935851
0.592416 0.727337 0.947997
0.708553 0.744213 0.917784
0.786236 0.764431 0.903548
0.844907 0.789517 0.917693
0.87538 0.814206 0.928923
0.342702 0.703487 0.915419
0.397879 0.742641 0.943786
0.456092 0.777813 0.960708
0.530037 0.804685 0.971084
0.626642 0.823041 0.981338
0.736126 0.831632 0.958007
0.816129 0.856214 0.940139
0.863401 0.876295 0.953338
0.899306 0.897231 0.967483
0.465476 0.771069 0.957061
0.507744 0.811246 0.970184
0.548684 0.846601 0.990158
0.61323 0.872847 0.993912
0.697429 0.887724 1
0.787778 0.90135 0.988998
0.858915 0.91548 0.972213
0.910933 0.938186 0.986068
0.930617 0.95169 0.98175
0.574304 0.83772 0.971557
0.60914 0.870741 0.997406
0.648936 0.89955 1
0.697887 0.925505 1
0.771023 0.941543 1
0.844266 0.952285 1
0.904738 0.965805 1
0.945724 0.981826 1
0.9617 0.995575 1
0 0.0494392 0.534249
0 0.0854047 0.576745
0.119234 0.112413 0.565393
0.265217 0.129976 0.598978
0.403449 0.143023 0.663706
0.48394 0.183459 0.708568
0.537728 0.245151 0.667247
0.597162 0.297932 0.691218
0.629297 0.364355 0.705074
0 0.166522 0.657496
0.0206149 0.201221 0.690898
0.237629 0.2168 0.660227
0.37348 0.24181 0.690211
0.491325 0.253819 0.733501
0.560006 0.289296 0.757992
0.618845 0.350103 0.758312
0.666697 0.397665 0.767727
0.695354 0.455375 0.763806
0 0.328634 0.718135
0 0.370596 0.750027
0.263844 0.354131 0.788891
0.435157 0.355505 0.801511
0.52903 0.379583 0.838026
0.620249 0.405768 0.84538
0.692882 0.442084 0.854917
0.74052 0.491127 0.849073
0.759701 0.553079 0.818158
0 0.452811 0.751598
0.0546426 0.497948 0.780697
0.261875 0.505211 0.826444
0.437781 0.505852 0.862608
0.554711 0.51574 0.878981
0.661906 0.518578 0.908171
0.744732 0.541497 0.916976
0.783749 0.598352 0.87396
0.817029 0.641978 0.873701
0.0857404 0.553033 0.805508
0.161715 0.591104 0.836149
0.303792 0.613931 0.880385
0.45864 0.621561 0.901884
0.576944 0.62974 0.911635
0.672297 0.65095 0.879255
0.770199 0.662028 0.901122
0.823667 0.697246 0.901946
0.861921 0.725582 0.903792
0.228702 0.630289 0.867948
0.292073 0.669322 0.899992
0.376593 0.706355 0.920302
0.470039 0.727413 0.951492
0.599069 0.73048 0.960601
0.715236 0.747524 0.923552
0.796582 0.767163 0.918883
0.848859 0.794079 0.931945
0.879896 0.816907 0.951431
0.359075 0.709422 0.921828
0.408133 0.74522 0.944564
0.467491 0.781415 0.96556
0.534951 0.806561 0.98613
0.631113 0.823194 0.98323
0.742947 0.833051 0.970184
0.817472 0.855741 0.950317
0.868315 0.876997 0.962203
0.898192 0.893996 0.979126
0.476951 0.773404 0.958633
0.522972 0.81239 0.972473
0.557717 0.847669 0.997391
0.622278 0.872816 0.998917
0.70695 0.886198 1
0.794156 0.900908 1
0.863905 0.92224 0.979324
0.908461 0.938842 1
0.937835 0.951659 0.984268
0.576364 0.839796 0.969512
0.615488 0.87483 0.994018
0.658412 0.907408 1
0.71371 0.927642 1
0.776608 0.94255 1
0.851423 0.956069 1
0.906371 0.972671 1
0.946532 0.982116 1
0.961898 0.988678 1
