presets/H哈苏浓.cube
TITLE "XH Copyright"
# XH Copyright
# 5219
# 20250101
LUT_3D_SIZE 33
0 0.00115969 0.00138857
0 0.00135805 0
0 0.00143435 0
0 0.00471504 0
0 0.00958267 0
0.017319 0.0122225 0.00335698
0.0500038 0.0135958 0.000183108
0.0908675 0.0137484 0
0.138338 0.0124208 0
0.191623 0.0113832 0
0.228138 0.0126802 0
0.260441 0.014313 0
0.292317 0.0171511 0
0.319814 0.0228122 0
0.341131 0.0251621 0
0.359411 0.0290379 0
0.372671 0.0369879 0
0.375372 0.0543832 0
0.369924 0.0728161 0.00108339
0.367025 0.0890516 0.00262455
0.36701 0.103502 0.0040589
0.368322 0.11191 0.00476081
0.391089 0.126268 0.00675975
0.408209 0.142458 0.00726329
0.420844 0.156603 0.00846876
0.438499 0.169497 0.00975052
0.461173 0.180179 0.0106508
0.485283 0.189242 0.0116732
0.510277 0.198734 0.0125887
0.534432 0.212451 0.0142672
0.550164 0.226352 0.0153964
0.567529 0.239094 0.0168002
0.579767 0.247196 0.0176547
0 0.0018616 0.0089723
0 0.00537118 0
0.00239567 0.00994888 0
0.00650034 0.014023 0.00982681
0.0107881 0.0187381 0.0171206
0.0291142 0.0232547 0.0113832
0.0636454 0.0235599 0.00303655
0.112093 0.0216983 0
0.16643 0.0208438 0
0.209323 0.0204471 0
0.246952 0.0258793 0
0.281636 0.0299077 0
0.31519 0.0301366 0
0.345449 0.030869 0
0.364736 0.039292 0
0.379187 0.0457923 0
0.391379 0.052018 0
0.40238 0.0667124 0
0.401724 0.0858167 0.00166323
0.401053 0.106264 0.00375372
0.403525 0.120226 0.00514229
0.412955 0.128084 0.00601205
0.428046 0.145998 0.00753796
0.444068 0.164721 0.00929274
0.463478 0.179599 0.0106661
0.486 0.187564 0.0115358
0.507118 0.198245 0.012665
0.527565 0.208499 0.0136416
0.548592 0.219821 0.0150607
0.570031 0.23357 0.0163729
0.587366 0.245991 0.0177462
0.604196 0.259541 0.0189059
0.614725 0.268467 0.0197147
6.10361e-05 0.00929274 0.0144656
0.00514229 0.0139773 0.0102235
0.00914015 0.0206455 0.0151217
0.0150301 0.0259251 0.0248417
0.0255131 0.028748 0.0330968
0.0460975 0.0375525 0.0244602
0.0823072 0.037644 0.0153353
0.132601 0.0359808 0.00761425
0.191043 0.0357824 0.000808728
0.234073 0.033463 0.0027924
0.275807 0.0375677 0
0.310506 0.0412146 0
0.3402 0.0432746 0
0.369451 0.0442512 0.00117494
0.387976 0.0534524 0
0.403906 0.0627756 0
0.418036 0.0719158 0.000106813
0.430488 0.0848249 0.00137331
0.435203 0.103593 0.00332647
0.437171 0.121767 0.00511177
0.444755 0.133089 0.00637827
0.455467 0.145998 0.00849927
0.46865 0.165866 0.0099031
0.485542 0.18439 0.0111391
0.506065 0.199069 0.0126192
0.528862 0.209201 0.0137179
0.550149 0.220661 0.0151827
0.568246 0.231479 0.0161746
0.587427 0.243656 0.0174868
0.608591 0.256748 0.0188602
0.626368 0.271046 0.0202487
0.642603 0.284062 0.0214542
0.651591 0.291569 0.0221561
0.013138 0.0192874 0.0226139
0.0153048 0.0248569 0.027924
0.0179294 0.033814 0.0338445
0.0257115 0.0400854 0.0419165
0.04094 0.0422522 0.0492714
0.0657816 0.0546731 0.0416114
0.103532 0.0550698 0.0308385
0.15436 0.0539254 0.0199741
0.216266 0.0540017 0.0106661
0.265446 0.0503243 0.0133822
0.307774 0.0493629 0.0167849
0.340612 0.052079 0.0150759
0.366644 0.0577707 0.009308
0.394018 0.0621653 0.00761425
0.412055 0.0697948 0.00230411
0.430335 0.0813001 0.0010071
0.448035 0.0956588 0.00233463
0.458351 0.107546 0.00352483
0.466468 0.123095 0.00515755
0.47396 0.135973 0.0065919
0.486915 0.146441 0.00775158
0.497917 0.165591 0.00999466
0.513527 0.186892 0.0125429
0.52961 0.203586 0.0133516
0.547524 0.218372 0.0147707
0.568536 0.234119 0.0163729
0.588312 0.245319 0.0176242
0.606851 0.256443 0.0187839
0.626184 0.268757 0.0201114
0.645548 0.280552 0.0212406
0.663401 0.297765 0.0229191
0.67921 0.309651 0.0240482
0.688136 0.315953 0.0247501
0.0278477 0.031632 0.041062
0.0298466 0.0386816 0.0472267
0.037583 0.047837 0.0509346
0.0484779 0.0573739 0.0587167
0.062974 0.0658579 0.0656748
0.0828717 0.0734874 0.0597543
0.125994 0.0740826 0.0437934
0.182788 0.0730449 0.0341955
0.245533 0.0696727 0.0351568
0.299565 0.0668803 0.0335851
0.331746 0.0658274 0.0285649
0.361471 0.069276 0.0262303
0.392172 0.075761 0.0264439
0.424384 0.0824903 0.0263066
0.438285 0.0929885 0.0193179
0.452873 0.104906 0.0124971
0.467903 0.118578 0.00621042
0.482643 0.134188 0.00642405
0.493507 0.144839 0.00753796
0.509621 0.153521 0.00834669
0.530739 0.166751 0.0137789
0.548363 0.189151 0.012253
0.55845 0.212863 0.0146029
0.573663 0.232136 0.0163272
0.591806 0.247059 0.0177615
0.610086 0.259709 0.019089
0.627268 0.269261 0.0201877
0.644434 0.280095 0.0211643
0.662608 0.292256 0.0226291
0.679591 0.304662 0.0239109
0.693828 0.317876 0.0249027
0.712688 0.332219 0.0265202
0.724117 0.340551 0.0274052
0.0252995 0.0531014 0.063386
0.0354772 0.0616312 0.0649729
0.0460822 0.0713207 0.0717632
0.0581674 0.080827 0.081178
0.0753948 0.0899062 0.0898299
0.102174 0.0948959 0.0795911
0.147326 0.096437 0.0648814
0.198306 0.0989548 0.0486
0.256367 0.0985428 0.0395972
0.309834 0.093843 0.0397955
0.346746 0.0923934 0.0380255
0.37937 0.0971237 0.0369726
0.409491 0.106386 0.0359655
0.438697 0.116091 0.0339361
0.457572 0.12578 0.0291752
0.472724 0.137148 0.0235752
0.487114 0.148547 0.0182803
0.505989 0.158465 0.0143435
0.519722 0.16376 0.0161135
0.542809 0.174609 0.0210727
0.563348 0.195117 0.0181277
0.579126 0.218219 0.0152895
0.589654 0.241764 0.0174105
0.603922 0.258381 0.0188296
0.620737 0.271717 0.0201877
0.638926 0.283848 0.0213169
0.65745 0.295064 0.0225528
0.67512 0.307088 0.0238346
0.691417 0.318486 0.0249027
0.706249 0.329412 0.0260929
0.723827 0.342061 0.0274357
0.7402 0.357122 0.0287022
0.748699 0.36556 0.0293584
0.0267185 0.0823072 0.0894179
0.0383917 0.0916609 0.0949264
0.0498817 0.101381 0.104189
0.0639963 0.11107 0.112642
0.0823072 0.12018 0.115663
0.112627 0.126024 0.10277
0.163928 0.127306 0.0845655
0.216999 0.125795 0.0720684
0.264179 0.125475 0.0586709
0.311711 0.129107 0.0508736
0.353674 0.130541 0.0486915
0.390112 0.135729 0.0466163
0.421561 0.143877 0.0444648
0.450401 0.153002 0.0444953
0.473198 0.161913 0.0430915
0.490043 0.170153 0.0385901
0.507836 0.174899 0.0344091
0.533837 0.180819 0.0351263
0.553597 0.18851 0.0336156
0.573892 0.208118 0.027924
0.589456 0.232349 0.0200046
0.602823 0.253742 0.0185397
0.617288 0.273381 0.0202029
0.632486 0.287068 0.02121
0.650278 0.298741 0.022446
0.669627 0.309712 0.0237736
0.688151 0.322179 0.024918
0.704326 0.333715 0.0260929
0.71899 0.345388 0.0272221
0.732921 0.357977 0.0282597
0.749249 0.371786 0.0294957
0.763592 0.386053 0.0305486
0.770504 0.3935 0.0310826
0.0250248 0.118181 0.125475
0.0345769 0.127947 0.134401
0.0492256 0.137606 0.146014
0.0645304 0.147234 0.151781
0.0834821 0.156786 0.148669
0.117006 0.164996 0.132525
0.153338 0.170581 0.101183
0.213718 0.168811 0.080766
0.269902 0.166369 0.0720531
0.330587 0.158724 0.0709239
0.367727 0.158434 0.0665446
0.402731 0.162783 0.0589303
0.434958 0.168612 0.0541695
0.462791 0.177752 0.055314
0.489479 0.187427 0.0588235
0.514473 0.192508 0.0578317
0.541039 0.201511 0.0542611
0.56463 0.216144 0.0493019
0.580255 0.23183 0.0369726
0.596979 0.251514 0.0285496
0.612146 0.27248 0.0230106
0.623667 0.292851 0.0212558
0.642725 0.307729 0.0224765
0.661234 0.319173 0.0236667
0.680369 0.328603 0.0248417
0.700938 0.338369 0.026215
0.717739 0.350729 0.0272068
0.731517 0.360922 0.0282292
0.745251 0.373602 0.0293126
0.758007 0.388708 0.0301518
0.769436 0.404105 0.0312047
0.783398 0.418799 0.0321355
0.790433 0.42591 0.0327153
0.0154879 0.158709 0.165927
0.0235294 0.168719 0.172641
0.0436561 0.177157 0.184192
0.062623 0.186481 0.197131
0.0829938 0.194812 0.198367
0.114916 0.202579 0.170809
0.167758 0.200305 0.13434
0.201404 0.210666 0.0982528
0.252216 0.218418 0.0777905
0.320287 0.218326 0.066453
0.375372 0.208423 0.0588235
0.418143 0.202487 0.0544289
0.454826 0.199771 0.0556649
0.485405 0.201648 0.0623026
0.516899 0.21268 0.0635843
0.541482 0.227207 0.0595712
0.561486 0.242496 0.0534981
0.580026 0.257099 0.0483253
0.595392 0.271916 0.037995
0.612757 0.2878 0.0296178
0.62948 0.305913 0.0229648
0.645365 0.326238 0.0231022
0.662821 0.339773 0.0240177
0.683909 0.351781 0.0253452
0.703822 0.361425 0.0266117
0.720348 0.369131 0.0276951
0.736217 0.38143 0.0286107
0.751949 0.392432 0.0298009
0.765301 0.404166 0.0308537
0.776501 0.416953 0.0315557
0.789639 0.428092 0.0326085
0.798169 0.450248 0.0332341
0.801205 0.461158 0.0332799
0.0131075 0.196979 0.204959
0.0209049 0.209323 0.211261
0.0358892 0.218494 0.226093
0.0498817 0.229999 0.238468
0.0691234 0.240742 0.239506
0.104814 0.244923 0.215793
0.163149 0.246098 0.164797
0.21207 0.249668 0.133394
0.233494 0.264103 0.0965133
0.286671 0.271305 0.0690623
0.344579 0.271977 0.0502937
0.401358 0.264271 0.0466926
0.448692 0.258244 0.0496376
0.492546 0.256458 0.0532387
0.525307 0.264439 0.0523995
0.547341 0.275502 0.0542
0.565774 0.287999 0.0543374
0.586267 0.300603 0.0519265
0.607446 0.312459 0.0466621
0.62771 0.328511 0.040116
0.646036 0.344976 0.0322728
0.662074 0.360616 0.0237888
0.679225 0.37319 0.0246433
0.699428 0.384222 0.0259403
0.719738 0.394034 0.0272984
0.738262 0.40354 0.0284428
0.754009 0.415671 0.029572
0.767315 0.426474 0.0305791
0.780102 0.437263 0.0316472
0.79353 0.448615 0.03299
0.804669 0.459007 0.0340429
0.815473 0.479118 0.0417182
0.819974 0.487633 0.0446479
0.0093843 0.241306 0.231632
0.0159457 0.253803 0.241764
0.0265354 0.263432 0.258488
0.036408 0.278309 0.271672
0.0535439 0.291936 0.275883
0.0886854 0.293843 0.263264
0.154391 0.29276 0.205905
0.212543 0.293141 0.166781
0.247974 0.301534 0.135561
0.269444 0.31931 0.0918746
0.32047 0.325826 0.0656748
0.367483 0.32546 0.0516823
0.424735 0.31899 0.0476844
0.483192 0.313207 0.049958
0.521172 0.317006 0.0496681
0.547829 0.324163 0.0553292
0.571206 0.333227 0.0602731
0.59527 0.344015 0.0619669
0.618631 0.353643 0.0610666
0.63946 0.367605 0.054612
0.657908 0.381552 0.0449531
0.674846 0.394293 0.0344091
0.691402 0.405325 0.0269474
0.712062 0.415579 0.0256657
0.733776 0.425757 0.0273594
0.753368 0.43595 0.0289311
0.768154 0.446265 0.0300603
0.779873 0.457465 0.0339513
0.793133 0.467933 0.0362249
0.806668 0.478553 0.0357519
0.818692 0.49276 0.0421759
0.828916 0.50634 0.0556039
0.832166 0.511513 0.0603037
0.0080415 0.290608 0.247028
0.00836194 0.301564 0.264118
0.0165255 0.312001 0.280629
0.0247654 0.330144 0.296681
0.039704 0.345571 0.307942
0.069398 0.348287 0.309804
0.140734 0.336477 0.256184
0.203616 0.338491 0.210437
0.266117 0.343343 0.170809
0.291829 0.357092 0.127077
0.314473 0.365591 0.0940566
0.360754 0.369039 0.0797436
0.405447 0.371237 0.0701762
0.457389 0.368017 0.0646372
0.505302 0.367086 0.0642405
0.544488 0.370871 0.0704662
0.578042 0.37731 0.0764782
0.606882 0.385672 0.0804456
0.627817 0.394491 0.0812238
0.648554 0.403571 0.0734417
0.666896 0.414435 0.0629129
0.683833 0.425956 0.0512856
0.703151 0.435889 0.0421454
0.726635 0.44506 0.0349584
0.748577 0.454978 0.0328374
0.766598 0.464027 0.0347753
0.779736 0.471595 0.0388647
0.793271 0.484993 0.0478981
0.80592 0.495262 0.0496834
0.818875 0.506294 0.0497139
0.833967 0.526345 0.0588693
0.835767 0.534752 0.0694591
0.835569 0.536889 0.0725109
0.00907912 0.332235 0.277134
0.00935378 0.342138 0.297276
0.00999466 0.35845 0.312261
0.0145571 0.374014 0.321675
0.0258793 0.38616 0.332677
0.0515755 0.394354 0.347768
0.11162 0.390692 0.29723
0.181765 0.387579 0.246906
0.256733 0.383658 0.204593
0.319982 0.383169 0.173693
0.33547 0.397848 0.143984
0.364309 0.411261 0.125216
0.406165 0.417487 0.113375
0.447761 0.417517 0.101778
0.497246 0.41323 0.0945144
0.538827 0.417563 0.104891
0.571923 0.421469 0.108095
0.600885 0.424918 0.103899
0.62858 0.430732 0.106844
0.654521 0.439918 0.10576
0.679545 0.448508 0.0974289
0.703609 0.456062 0.0851453
0.727398 0.463416 0.0768902
0.744625 0.472801 0.0635843
0.765454 0.480674 0.0568093
0.786648 0.489509 0.0572061
0.799512 0.502235 0.06215
0.812375 0.513634 0.0625925
0.824079 0.52726 0.063508
0.835737 0.54197 0.0677195
0.846769 0.554788 0.0758679
0.851972 0.564889 0.087541
0.853574 0.568185 0.0912184
0.0105287 0.370642 0.301091
0.0112917 0.385733 0.320287
0.013962 0.39939 0.336751
0.017319 0.412146 0.34876
0.0244297 0.423651 0.361532
0.0416876 0.432914 0.373144
0.0921035 0.435721 0.343572
0.160464 0.434485 0.296818
0.23798 0.430472 0.250019
0.317983 0.42533 0.213565
0.357061 0.430655 0.188586
0.378164 0.442206 0.164538
0.40882 0.449897 0.149996
0.450919 0.452415 0.141939
0.494987 0.451637 0.133547
0.534112 0.455665 0.138659
0.568841 0.461006 0.144411
0.600214 0.464881 0.147341
0.635523 0.465446 0.151003
0.661051 0.472908 0.147005
0.685924 0.480919 0.135775
0.711269 0.488487 0.120684
0.737804 0.495338 0.106645
0.760525 0.503517 0.0899825
0.781949 0.510781 0.0827344
0.799176 0.519478 0.081117
0.810025 0.532906 0.0774701
0.818799 0.543999 0.0730602
0.831907 0.557015 0.0772869
0.846708 0.568978 0.08542
0.860639 0.578302 0.0941787
0.86479 0.59057 0.105714
0.865461 0.594568 0.108827
0.0122835 0.40502 0.327276
0.0134737 0.422843 0.345907
0.0178073 0.432212 0.362478
0.0236515 0.446525 0.378698
0.0298009 0.459129 0.390341
0.0398108 0.467735 0.395315
0.0769055 0.477836 0.388312
0.140063 0.47866 0.3514
0.216785 0.475319 0.304967
0.301793 0.469139 0.259998
0.381842 0.460563 0.232929
0.396307 0.470451 0.21088
0.419028 0.480323 0.190234
0.452247 0.486961 0.181186
0.500572 0.486549 0.177401
0.535882 0.491325 0.179156
0.570153 0.496986 0.185763
0.603235 0.502312 0.193744
0.637797 0.502831 0.195605
0.664714 0.506371 0.192477
0.691814 0.512291 0.180026
0.719326 0.519738 0.161349
0.747478 0.526802 0.140246
0.774258 0.533913 0.120623
0.793225 0.541054 0.110018
0.808118 0.549691 0.103502
0.820706 0.562081 0.0940871
0.827008 0.573953 0.0893263
0.839353 0.585428 0.0950027
0.85536 0.595956 0.104555
0.870436 0.603922 0.112016
0.873381 0.615671 0.12311
0.874189 0.618509 0.126085
0.0141756 0.4336 0.357565
0.0220035 0.451225 0.380255
0.0167849 0.458152 0.39173
0.0295109 0.477394 0.409125
0.0402838 0.492775 0.419425
0.045182 0.50013 0.420005
0.0651408 0.517143 0.426963
0.122362 0.519707 0.407919
0.196277 0.515175 0.366674
0.281239 0.506432 0.315694
0.365225 0.498253 0.288731
0.428305 0.497734 0.262867
0.438849 0.512871 0.238865
0.462333 0.522957 0.225345
0.513039 0.523232 0.224445
0.544518 0.525551 0.229007
0.575128 0.52987 0.230777
0.606226 0.535653 0.23151
0.625193 0.544549 0.229572
0.661646 0.542931 0.238529
0.699702 0.543267 0.232044
0.734951 0.547372 0.211856
0.765148 0.555016 0.18381
0.783597 0.561608 0.159182
0.799115 0.568734 0.138155
0.816312 0.577356 0.124117
0.838636 0.587716 0.118547
0.847318 0.600977 0.117418
0.854261 0.615122 0.121538
0.861952 0.626856 0.125933
0.870787 0.634684 0.127947
0.880369 0.641489 0.141634
0.88249 0.642878 0.144472
0.0197147 0.466011 0.393149
0.0308232 0.474815 0.406882
0.0286107 0.490654 0.410727
0.0422065 0.507073 0.43212
0.0544747 0.517739 0.451835
0.0637064 0.52459 0.463172
0.0789807 0.538811 0.464454
0.119509 0.548318 0.455451
0.179232 0.551247 0.425376
0.257389 0.547082 0.378927
0.350454 0.539086 0.335698
0.422248 0.532845 0.307439
0.463691 0.534676 0.28777
0.479927 0.545861 0.263218
0.506691 0.55613 0.258305
0.54342 0.559701 0.2654
0.573754 0.562524 0.268147
0.60174 0.566995 0.268742
0.639307 0.572503 0.273777
0.673457 0.572976 0.276677
0.705699 0.574823 0.269261
0.735042 0.57911 0.251362
0.76083 0.585855 0.223087
0.786496 0.590311 0.197955
0.810666 0.596658 0.176562
0.832135 0.604913 0.162341
0.849973 0.615595 0.156542
0.85127 0.627253 0.15378
0.86482 0.634928 0.156039
0.879499 0.644999 0.160067
0.890288 0.659739 0.165728
0.893538 0.671824 0.173251
0.89424 0.67451 0.175097
0.0320134 0.491691 0.426154
0.0438087 0.505638 0.438758
0.0462043 0.517128 0.446143
0.0556191 0.531533 0.463874
0.0657359 0.543847 0.480339
0.0762341 0.553307 0.490669
0.0908217 0.563455 0.492561
0.120333 0.577325 0.49247
0.169009 0.584619 0.4748
0.239475 0.585107 0.440955
0.329824 0.576761 0.392081
0.408759 0.569696 0.35259
0.475044 0.56495 0.329885
0.498085 0.572732 0.316609
0.517372 0.58204 0.306004
0.54342 0.590814 0.300374
0.577478 0.59379 0.303243
0.608759 0.596536 0.307576
0.642344 0.600259 0.309987
0.676799 0.602228 0.309499
0.709484 0.604089 0.307256
0.738415 0.607904 0.296101
0.765515 0.614084 0.273655
0.793179 0.618143 0.243809
0.816648 0.624247 0.217166
0.835904 0.632212 0.198413
0.851011 0.641581 0.188632
0.859327 0.653971 0.179995
0.874037 0.66067 0.18439
0.887861 0.668605 0.191409
0.897108 0.680461 0.196979
0.899718 0.695628 0.201999
0.90016 0.698116 0.202701
0.047776 0.516762 0.455894
0.05832 0.535653 0.469932
0.0649882 0.540337 0.482444
0.0723583 0.554711 0.495964
0.0800488 0.569772 0.506279
0.0905318 0.58265 0.513451
0.107912 0.590127 0.519005
0.130236 0.602457 0.524285
0.170459 0.61236 0.517861
0.230945 0.61677 0.495109
0.311894 0.610147 0.447929
0.395651 0.606027 0.402213
0.466331 0.60177 0.374121
0.522362 0.599527 0.36257
0.535546 0.608362 0.354253
0.556085 0.617533 0.339269
0.582055 0.623117 0.336858
0.615061 0.625559 0.342367
0.645045 0.628183 0.342992
0.677775 0.631601 0.342763
0.71136 0.633738 0.343359
0.742901 0.636225 0.338659
0.771984 0.64004 0.324407
0.798947 0.64448 0.291875
0.818433 0.651331 0.259358
0.835538 0.659083 0.235019
0.852476 0.667124 0.220798
0.868589 0.679454 0.207767
0.881682 0.687907 0.213275
0.891951 0.694667 0.221317
0.898909 0.701411 0.226566
0.905119 0.715694 0.233356
0.905547 0.717617 0.233585
0.0644541 0.543023 0.477974
0.0715038 0.558495 0.493141
0.0816205 0.563958 0.50721
0.0956588 0.579751 0.522347
0.103746 0.596033 0.532998
0.113329 0.609918 0.540932
0.135332 0.615244 0.546258
0.156619 0.623484 0.557946
0.189807 0.632105 0.553613
0.239063 0.639094 0.533501
0.305928 0.638956 0.495933
0.386526 0.637964 0.456519
0.460075 0.635508 0.426123
0.522881 0.633982 0.402747
0.56759 0.638224 0.385794
0.572763 0.64329 0.382315
0.591318 0.648356 0.3738
0.616739 0.652903 0.370352
0.647593 0.656443 0.37232
0.68127 0.661295 0.379858
0.713207 0.66453 0.37499
0.744152 0.664912 0.368765
0.771069 0.6645 0.361166
0.79588 0.668849 0.334615
0.818555 0.677958 0.302312
0.842588 0.686687 0.276936
0.865568 0.693172 0.26067
0.873869 0.70103 0.251972
0.886915 0.710384 0.248783
0.897353 0.7187 0.251377
0.90518 0.725948 0.259419
0.914519 0.735363 0.274769
0.915618 0.736477 0.276005
0.0826123 0.56614 0.509865
0.090425 0.578424 0.525383
0.101472 0.590021 0.538613
0.114794 0.602808 0.552605
0.127977 0.614206 0.559731
0.142962 0.625071 0.56321
0.163058 0.636332 0.568551
0.184878 0.647059 0.569589
0.219684 0.652995 0.572702
0.265003 0.657252 0.567407
0.315465 0.66479 0.543252
0.389334 0.663493 0.502831
0.461067 0.662959 0.465858
0.522667 0.662379 0.43769
0.569314 0.661219 0.421286
0.596017 0.662989 0.417914
0.603372 0.673182 0.412757
0.622477 0.680995 0.404837
0.652216 0.685252 0.399847
0.682383 0.689418 0.401572
0.713314 0.695644 0.399496
0.742947 0.698299 0.395529
0.773327 0.694667 0.390555
0.798459 0.698436 0.371695
0.826612 0.703258 0.349264
0.849088 0.711208 0.322545
0.866239 0.720104 0.296239
0.880171 0.724575 0.28809
0.894682 0.733669 0.29276
0.905348 0.74287 0.300038
0.912993 0.751568 0.308278
0.922179 0.760052 0.319295
0.922988 0.761028 0.32047
0.0998856 0.590127 0.53434
0.110216 0.601205 0.547814
0.124788 0.620752 0.562707
0.13521 0.625284 0.570825
0.150835 0.634928 0.580118
0.169543 0.646769 0.586755
0.188464 0.658106 0.588464
0.218006 0.667201 0.592325
0.252598 0.674601 0.59826
0.291447 0.681086 0.596201
0.335363 0.686641 0.579217
0.399008 0.68835 0.541299
0.464668 0.689555 0.505226
0.524727 0.689387 0.477791
0.573007 0.687129 0.459876
0.607065 0.689219 0.449104
0.628672 0.695705 0.446464
0.635874 0.705989 0.438163
0.658091 0.711116 0.423819
0.682948 0.716564 0.423468
0.716808 0.720134 0.425254
0.745571 0.722194 0.422889
0.772366 0.722393 0.415946
0.79881 0.726452 0.402029
0.828855 0.73077 0.380865
0.85417 0.736416 0.352743
0.873655 0.741878 0.325719
0.890532 0.745434 0.321004
0.901152 0.754116 0.331594
0.909895 0.762493 0.34284
0.918334 0.770916 0.352605
0.930053 0.781231 0.360967
0.930648 0.78175 0.361105
0.117144 0.61474 0.557015
0.129854 0.626612 0.567712
0.149966 0.649424 0.583535
0.157839 0.647395 0.587976
0.175463 0.657588 0.600397
0.197543 0.671275 0.60972
0.217655 0.679667 0.606287
0.253849 0.686015 0.618158
0.284932 0.696208 0.623789
0.318578 0.704219 0.6215
0.360586 0.707134 0.608682
0.413062 0.712398 0.575631
0.472374 0.714733 0.543633
0.530495 0.714443 0.516762
0.582055 0.713207 0.496971
0.612177 0.717464 0.480842
0.643732 0.72108 0.472633
0.656855 0.728069 0.465904
0.671214 0.733989 0.450568
0.688487 0.741344 0.448081
0.722164 0.742092 0.447211
0.752483 0.743297 0.444739
0.774197 0.747478 0.435706
0.799893 0.752667 0.423362
0.829969 0.758343 0.399786
0.859617 0.761074 0.373663
0.885359 0.762234 0.352758
0.901076 0.765454 0.349264
0.907881 0.773251 0.365286
0.913298 0.781231 0.378393
0.920714 0.7897 0.38761
0.93579 0.800885 0.395636
0.936355 0.801053 0.395789
0.136507 0.64065 0.587243
0.148882 0.652903 0.594751
0.173358 0.664881 0.606592
0.184741 0.672511 0.620844
0.20705 0.680842 0.627482
0.233753 0.690944 0.627863
0.2589 0.701686 0.623041
0.28571 0.709087 0.631785
0.314199 0.714687 0.641245
0.346288 0.720714 0.644587
0.383093 0.727657 0.637537
0.432273 0.734676 0.612009
0.48716 0.736873 0.575525
0.543557 0.737285 0.544121
0.595804 0.737606 0.523674
0.630777 0.738247 0.510399
0.661875 0.741054 0.499107
0.680781 0.746975 0.49369
0.686534 0.757244 0.487511
0.699855 0.765484 0.474311
0.725597 0.77026 0.458701
0.763134 0.771069 0.451774
0.788327 0.77615 0.443046
0.811383 0.779034 0.431159
0.839902 0.782025 0.41236
0.867506 0.783246 0.394385
0.890379 0.785031 0.380652
0.904128 0.790692 0.37258
0.918791 0.793988 0.395544
0.9187 0.8047 0.402396
0.916594 0.817044 0.403983
0.929976 0.823896 0.415045
0.930022 0.823758 0.414939
0.160311 0.664836 0.615808
0.177066 0.67332 0.623178
0.192004 0.685527 0.627131
0.21323 0.697917 0.638148
0.233494 0.704601 0.647257
0.258793 0.712795 0.651194
0.291936 0.725444 0.649256
0.317143 0.732036 0.657221
0.344564 0.735744 0.665064
0.374136 0.740841 0.669367
0.406226 0.748394 0.666712
0.450874 0.757351 0.650752
0.498985 0.759655 0.616541
0.550805 0.759304 0.58201
0.60264 0.757839 0.552163
0.642939 0.758236 0.529809
0.673198 0.763394 0.518776
0.698268 0.768551 0.514122
0.706447 0.776837 0.509316
0.713481 0.785031 0.492592
0.733913 0.793317 0.473625
0.767071 0.796262 0.454108
0.801785 0.796292 0.436515
0.828977 0.797009 0.422934
0.850568 0.800046 0.408179
0.871366 0.802487 0.396872
0.890837 0.805173 0.39118
0.908461 0.810803 0.392508
0.922393 0.815457 0.411231
0.926329 0.822782 0.421927
0.927077 0.831952 0.432593
0.931716 0.841245 0.452277
0.931762 0.841337 0.452552
0.177295 0.68925 0.640345
0.193713 0.697398 0.647929
0.209155 0.708858 0.651194
0.233051 0.719951 0.659693
0.256641 0.726589 0.667155
0.284581 0.734051 0.669825
0.31725 0.743694 0.667323
0.342962 0.751537 0.67628
0.369818 0.757244 0.684688
0.396094 0.763317 0.690471
0.423438 0.770611 0.691585
0.462165 0.777996 0.683879
0.506127 0.781308 0.65568
0.553964 0.78143 0.624201
0.603998 0.779828 0.593286
0.65272 0.779919 0.559655
0.6822 0.784863 0.543877
0.709499 0.788937 0.534676
0.726467 0.794873 0.525795
0.729259 0.804944 0.504616
0.747509 0.812268 0.480247
0.777356 0.814725 0.452171
0.814984 0.813153 0.42884
0.843107 0.815137 0.411688
0.862257 0.820401 0.397574
0.879347 0.823133 0.39205
0.894972 0.825925 0.39472
0.911711 0.83328 0.406531
0.925612 0.836866 0.429389
0.932754 0.841367 0.446769
0.935195 0.848386 0.463874
0.934478 0.858259 0.482963
0.934462 0.858259 0.482963
0.188602 0.71397 0.662242
0.203784 0.723598 0.669841
0.224002 0.732586 0.675029
0.246113 0.741054 0.68426
0.277729 0.749081 0.688396
0.308644 0.755123 0.685847
0.336553 0.760952 0.681376
0.362875 0.770245 0.690913
0.389975 0.778866 0.701595
0.414908 0.786786 0.708766
0.43917 0.793866 0.71191
0.470359 0.797711 0.712581
0.509987 0.802487 0.694087
0.552895 0.803662 0.672145
0.600458 0.802335 0.643946
0.658183 0.802274 0.601572
0.689815 0.80444 0.577981
0.721004 0.807095 0.559091
0.744121 0.812772 0.541421
0.745861 0.824582 0.51458
0.76257 0.828504 0.47982
0.793118 0.829374 0.44683
0.827451 0.83032 0.42063
0.854551 0.834699 0.397559
0.875639 0.842039 0.383047
0.891234 0.844236 0.383169
