presets/H哈苏.cube
TITLE "XH Copyright"
# XH Copyright
# 5219
# 20250101
LUT_3D_SIZE 5
0.0396582 0.0396582 0.0466163
0.187304 0.0516213 0.043473
0.396338 0.0854047 0.0495003
0.431403 0.203937 0.0578927
0.557748 0.284245 0.065568
0.0602426 0.201434 0.221897
0.299016 0.252491 0.135058
0.542168 0.279896 0.104112
0.660227 0.375937 0.073518
0.749645 0.453666 0.0803082
0.0680705 0.467964 0.429816
0.218799 0.531167 0.449607
0.569543 0.529671 0.323873
0.760708 0.559228 0.23267
0.84538 0.620127 0.231357
0.198474 0.624048 0.610437
0.352407 0.681788 0.647684
0.620996 0.709499 0.521614
0.816434 0.730632 0.444205
0.891493 0.772564 0.479484
0.364187 0.759976 0.754314
0.48249 0.821805 0.771511
0.676158 0.847623 0.753475
0.916915 0.857527 0.48455
0.923278 0.893568 0.692653
0.0405737 0.046128 0.0922103
0.121675 0.0892805 0.114199
0.399786 0.119005 0.0940871
0.509041 0.215808 0.0641794
0.608804 0.302998 0.116274
0.0525673 0.243458 0.366186
0.239796 0.298161 0.383261
0.542473 0.322362 0.207843
0.671641 0.406836 0.150851
0.747936 0.480537 0.240467
0.0997787 0.479103 0.544381
0.251728 0.546761 0.558129
0.569665 0.560311 0.440528
0.753307 0.59292 0.390631
0.839765 0.643992 0.409201
0.230686 0.644129 0.671519
0.379614 0.710155 0.68011
0.594171 0.7458 0.638071
0.792172 0.762371 0.598306
0.872526 0.804639 0.62446
0.407614 0.780331 0.797162
0.512139 0.841047 0.813382
0.66424 0.874922 0.809628
0.851026 0.890745 0.68603
0.914519 0.916518 0.760922
0.0424353 0.0523384 0.333333
0.116381 0.0974441 0.404837
0.372076 0.120241 0.454597
0.484977 0.234165 0.372656
0.575616 0.376867 0.340215
0.0551003 0.264179 0.59353
0.234485 0.32903 0.586419
0.481697 0.364691 0.553048
0.617044 0.436545 0.509438
0.715328 0.557198 0.503441
0.143084 0.492683 0.659571
0.263813 0.564034 0.702815
0.544228 0.580606 0.657252
0.725551 0.622782 0.593439
0.805997 0.678203 0.622782
0.322866 0.646616 0.74966
0.419303 0.718273 0.793408
0.594217 0.760906 0.768673
0.77409 0.790738 0.709606
0.87219 0.824796 0.758236
0.48397 0.781628 0.863478
0.560327 0.850523 0.879225
0.698787 0.886351 0.863081
0.856458 0.903075 0.824277
0.905272 0.929061 0.852705
0.0441901 0.0755322 0.418494
0.168078 0.11696 0.482383
0.393515 0.138094 0.589197
0.515221 0.23125 0.592004
0.593484 0.360204 0.576761
0.0579843 0.311376 0.662242
0.268925 0.350561 0.683513
0.512306 0.364309 0.7028
0.652369 0.426276 0.720638
0.718639 0.52668 0.696529
0.15848 0.517342 0.734691
0.314366 0.579965 0.774868
0.557656 0.599832 0.79205
0.727245 0.636423 0.766812
0.808087 0.687495 0.786633
0.349477 0.669612 0.816373
0.456336 0.735424 0.856504
0.617151 0.776837 0.859892
0.789319 0.805676 0.826169
0.864454 0.839017 0.853498
0.558282 0.786831 0.892973
0.622049 0.851286 0.918181
0.736263 0.89044 0.913069
0.872221 0.910674 0.906249
0.927092 0.934661 0.924331
0.0452583 0.0885786 0.481682
0.196323 0.146746 0.511589
0.401404 0.178012 0.595346
0.52166 0.270222 0.604883
0.606653 0.376974 0.642969
0.0756085 0.33579 0.646967
0.309499 0.362692 0.708064
0.523842 0.389487 0.751842
0.667201 0.447639 0.770336
0.729915 0.54667 0.746777
0.20209 0.536767 0.731243
0.353582 0.593698 0.797055
0.5794 0.612085 0.825864
0.746059 0.643763 0.820783
0.827741 0.701564 0.827054
0.4 0.679423 0.83653
0.494804 0.744945 0.876905
0.637003 0.784619 0.895201
0.797589 0.816342 0.871885
0.869062 0.851713 0.898253
0.591272 0.798291 0.884169
0.667445 0.859403 0.914305
0.768505 0.892882 0.935699
0.880735 0.921675 0.939925
0.929137 0.936767 0.948119
