presets/H哈苏暖.cube
TITLE "XH Copyright"
# XH Copyright
# 5219
# 20250101
LUT_3D_SIZE 33
0.000350958 0.0304417 0
0.000350958 0.031342 0
0.000366217 0.0319982 0
0.000396735 0.0346532 0
0.000442512 0.0389563 0
0.000488289 0.0431983 0
0.0125582 0.0380407 0
0.0518044 0.0347753 0
0.108324 0.0327306 0
0.177172 0.0324559 0
0.24445 0.0376287 0
0.295445 0.0437629 0
0.334493 0.0509499 0
0.368948 0.0575723 0
0.401068 0.0637217 0
0.42768 0.0715038 0
0.449088 0.0802167 0
0.46772 0.0891432 0
0.484688 0.0992294 0
0.501305 0.113787 0
0.51548 0.13402 0
0.520104 0.15433 0
0.517769 0.171084 0
0.517784 0.1823 0
0.528008 0.192737 0
0.541039 0.203998 0
0.549279 0.21442 0
0.555947 0.224125 0
0.566903 0.23415 0
0.583169 0.244114 0
0.602106 0.254383 0
0.620737 0.264302 0
0.630137 0.269337 0
0.000350958 0.0304723 0
0.000411994 0.0357977 0
0.000457771 0.0398718 0
0.000503548 0.0437324 0
0.000534066 0.0473335 0
0.00210575 0.0501106 0
0.0247196 0.0508431 0
0.08336 0.0453498 0
0.147982 0.0427863 0
0.224521 0.0459449 0
0.283909 0.0534371 0
0.330983 0.0616312 0
0.370825 0.0694591 0
0.405921 0.0763714 0
0.435401 0.0823987 0
0.459892 0.0901961 0
0.481254 0.101503 0
0.500374 0.11281 0
0.518364 0.1252 0
0.536477 0.141176 0
0.549966 0.159762 0
0.55407 0.177768 0
0.554406 0.191669 0
0.56141 0.202487 0
0.572641 0.214282 0
0.578805 0.224933 0
0.58262 0.234668 0
0.589151 0.244388 0
0.600229 0.254047 0
0.614694 0.263493 0
0.6309 0.273213 0
0.647013 0.282597 0
0.654292 0.286793 0
0.000427253 0.0382544 0
0.000503548 0.0446021 0
0.000579843 0.0509499 0
0.00062562 0.0552987 0
0.00241093 0.0585336 0
0.0251926 0.062089 0.000534066
0.0561227 0.0651408 0
0.119402 0.0603647 0
0.187671 0.0594186 0
0.266941 0.0663157 0
0.324269 0.0740063 0
0.370489 0.0802319 0
0.408576 0.086717 0
0.439475 0.0940261 0
0.467643 0.102892 0
0.4934 0.112459 0
0.515694 0.12462 0
0.535195 0.138445 0
0.553185 0.154208 0
0.568811 0.170489 0
0.579492 0.186313 0
0.585397 0.200092 0
0.593057 0.211475 0
0.605554 0.223758 0
0.613657 0.236988 0
0.614389 0.246601 0
0.616007 0.25536 0
0.621897 0.264668 0
0.630732 0.273854 0
0.641733 0.28275 0
0.656001 0.291981 0
0.671641 0.300816 0
0.678645 0.304601 0
0.000564584 0.0495613 0
0.00062562 0.0545663 0
0.00103761 0.0608072 0
0.00640879 0.0676127 0
0.0225528 0.0734722 0
0.0417639 0.082948 0
0.0938582 0.0818494 0
0.157931 0.0786603 0
0.229038 0.0802472 0
0.308263 0.0904555 0
0.367132 0.0967727 0
0.407568 0.0997635 0
0.439765 0.104997 0
0.470542 0.114916 0
0.500343 0.126818 0
0.526329 0.138582 0
0.547997 0.152132 0
0.566644 0.167636 0
0.582116 0.184085 0
0.594202 0.199512 0
0.603677 0.211856 0
0.615213 0.22237 0
0.63093 0.233616 0
0.644434 0.247044 0
0.646769 0.258412 0
0.645548 0.266819 0
0.647242 0.275029 0
0.652216 0.283955 0
0.659525 0.292973 0
0.671458 0.301747 0
0.685298 0.310155 0
0.697688 0.318776 0
0.702708 0.322515 0
0.00158694 0.0608835 0
0.0108492 0.0665141 0
0.0197757 0.076936 0
0.0299687 0.0886702 9.15541e-05
0.0402686 0.0990768 0
0.0646677 0.108003 0
0.125536 0.103197 0
0.197452 0.0991379 0
0.275441 0.104814 0
0.351736 0.117342 0
0.407446 0.123766 0
0.44181 0.127764 0
0.473426 0.134783 0
0.504891 0.145571 0
0.533837 0.159075 0
0.55697 0.173114 0
0.576135 0.187701 0
0.593317 0.202701 0
0.606928 0.216983 0
0.617197 0.227924 0
0.630549 0.237293 0
0.648325 0.248173 0
0.663371 0.259983 0
0.668223 0.269932 0
0.664179 0.277043 0
0.661891 0.284703 0
0.664912 0.293278 0
0.672618 0.302663 0
0.683467 0.311955 0
0.695903 0.320531 0
0.707866 0.329 0
0.718456 0.337972 0
0.722423 0.341543 0
0.0220951 0.0745251 0.000610361
0.03299 0.0847334 0.00886549
0.0450904 0.0968185 0.01738
0.0542458 0.110338 0.0187686
0.0528267 0.128847 0
0.0874952 0.135637 0
0.153933 0.129335 0
0.222171 0.127047 0
0.297246 0.132738 0
0.371695 0.146883 0
0.431418 0.158663 0
0.472389 0.165545 0
0.506859 0.174563 0
0.537087 0.186847 0
0.561898 0.200626 0
0.58143 0.213474 0
0.598535 0.226169 0
0.614389 0.238056 0
0.628916 0.247669 0
0.644312 0.255619 0
0.662333 0.265187 0
0.67512 0.27512 0
0.677211 0.282383 0
0.67158 0.287221 0
0.667353 0.293996 0
0.669505 0.303243 0
0.677485 0.313298 0
0.688823 0.323079 0
0.701518 0.332326 0
0.71371 0.340963 0
0.724437 0.349523 0
0.734173 0.358373 0
0.737804 0.361807 0
0.0302892 0.103777 0.0355993
0.0438544 0.115358 0.0461738
0.0579385 0.127199 0.0559396
0.0748455 0.13843 0.063447
0.0915084 0.150973 0.051957
0.0922866 0.173053 0
0.179706 0.160464 0.00810254
0.249012 0.156741 0.000671397
0.314931 0.1608 0
0.378576 0.173724 0
0.435721 0.188983 0
0.483253 0.201938 0
0.521828 0.21326 0
0.552651 0.225452 0
0.577462 0.237385 0
0.597955 0.247913 0
0.616678 0.257206 0
0.635706 0.266194 0
0.654627 0.275303 0
0.671244 0.28455 0
0.679484 0.291127 0
0.676402 0.294209 0
0.668208 0.297383 0
0.663493 0.304677 0
0.66656 0.314961 0
0.676509 0.326207 0
0.689326 0.336889 0
0.70193 0.34667 0
0.714137 0.355734 0
0.725811 0.364309 0
0.735943 0.37232 0
0.745815 0.381476 0
0.749065 0.384527 0
0.0476997 0.134905 0.0866865
0.0600748 0.146792 0.0976272
0.0726635 0.159426 0.108309
0.085481 0.171969 0.113573
0.10753 0.182971 0.0944991
0.111238 0.203189 0.0376135
0.171908 0.205493 0.00851453
0.247562 0.199588 0
0.313848 0.196857 0
0.383719 0.2009 0
0.447517 0.214832 0
0.493263 0.227726 0
0.528954 0.238773 0
0.562188 0.250965 0
0.591669 0.263279 0
0.617548 0.273732 0
0.640574 0.283314 0
0.659327 0.292699 0
0.67071 0.300649 0
0.670756 0.304067 0
0.664134 0.30518 0
0.659632 0.309819 0
0.658045 0.318486 0
0.66125 0.329702 0
0.670726 0.341604 0
0.68481 0.352331 0
0.699794 0.362066 0
0.712245 0.371084 0
0.723384 0.37937 0
0.734218 0.387915 0
0.745052 0.39765 0
0.755886 0.407843 0
0.759243 0.410986 0
0.0585641 0.173754 0.119631
0.0714885 0.184466 0.130892
0.0869917 0.19588 0.14374
0.10695 0.205509 0.156558
0.120974 0.215946 0.149722
0.149828 0.227115 0.0965744
0.159991 0.252628 0
0.230442 0.248478 0
0.295674 0.246494 0
0.356298 0.244312 0
0.412589 0.241093 0
0.46833 0.243534 0
0.523812 0.256214 0
0.56846 0.271809 0
0.59913 0.284138 0
0.620508 0.293217 0
0.636606 0.300893 0
0.646311 0.306798 0
0.648463 0.311437 0
0.645747 0.316854 0
0.64567 0.324987 0
0.651148 0.335103 0
0.658763 0.346624 0
0.668345 0.358175 0
0.680766 0.369131 0
0.695003 0.378515 0
0.70898 0.387411 0
0.720913 0.395987 0
0.732799 0.404868 0
0.744762 0.414176 0
0.756252 0.424506 0
0.7664 0.43534 0
0.769085 0.43827 0
0.0597391 0.217044 0.149844
0.0713054 0.227939 0.160861
0.0871595 0.239475 0.17406
0.112078 0.246937 0.185794
0.14287 0.249668 0.194186
0.165835 0.264408 0.128405
0.15375 0.296101 0.018967
0.219745 0.293873 0.00515755
0.267567 0.299367 0
0.326513 0.299229 0
0.385046 0.293706 0
0.438865 0.290196 0
0.486183 0.289876 0
0.525567 0.2925 0
0.555932 0.299168 0
0.578775 0.307713 0
0.598474 0.316274 0
0.613733 0.324742 0
0.623529 0.333669 0
0.630732 0.343679 0
0.63946 0.354376 0
0.650996 0.365362 0
0.664347 0.376257 0
0.678203 0.386694 0
0.692134 0.396155 0
0.705684 0.404852 0
0.718456 0.413458 0
0.730709 0.422751 0
0.743038 0.432471 0
0.755673 0.442329 0
0.766537 0.452506 0
0.775051 0.46273 0
0.777081 0.465263 0
0.0612955 0.259998 0.178058
0.071046 0.273396 0.191089
0.0859693 0.283757 0.203525
0.11284 0.289357 0.213657
0.152407 0.290379 0.223285
0.173922 0.301305 0.191485
0.192599 0.31989 0.099382
0.195727 0.346334 0
0.248478 0.346395 0
0.295018 0.350576 0
0.351186 0.349355 0
0.407721 0.3458 0
0.459281 0.341955 0
0.5019 0.339681 0
0.53312 0.341848 0
0.556664 0.348043 0
0.57734 0.354528 0
0.595117 0.361227 0
0.610834 0.368551 0
0.62562 0.377142 0
0.640131 0.386877 0
0.655161 0.396704 0
0.67126 0.40676 0
0.687266 0.415854 0
0.702327 0.423926 0
0.716426 0.43209 0
0.72929 0.440528 0
0.740948 0.449836 0
0.751873 0.460548 0
0.76289 0.470832 0
0.773068 0.480659 0
0.782406 0.490425 0
0.784451 0.492607 0
0.0626841 0.303349 0.203235
0.0722667 0.315892 0.215473
0.0880751 0.325383 0.227146
0.113298 0.331548 0.237903
0.154269 0.332235 0.247898
0.182727 0.337438 0.237079
0.219638 0.350423 0.14139
0.191592 0.386282 0.0117952
0.242283 0.387869 0
0.272862 0.395071 0
0.314946 0.399725 0
0.374258 0.397055 0
0.43032 0.392432 0
0.477638 0.387869 0
0.514321 0.387701 0
0.54139 0.392523 0
0.563348 0.398718 0
0.584436 0.402258 0
0.604837 0.406027 0
0.623606 0.412406 0
0.641123 0.420523 0
0.658564 0.429465 0
0.67631 0.43798 0
0.693523 0.445563 0
0.709865 0.453193 0
0.724804 0.460533 0
0.738354 0.468376 0
0.750057 0.477531 0
0.760281 0.488045 0
0.770336 0.497658 0
0.780377 0.507607 0
0.789776 0.517494 0
0.791501 0.519173 0
0.0706188 0.343557 0.225864
0.0768902 0.355001 0.235904
0.0918441 0.364263 0.247227
0.112108 0.371344 0.258778
0.151461 0.372229 0.269581
0.194522 0.372 0.273884
0.231098 0.380484 0.217334
0.232593 0.405173 0.102678
0.237781 0.428229 0
0.281559 0.428702 0
0.313603 0.435233 0
0.369757 0.432334 0
0.423697 0.428611 0
0.46894 0.426398 0
0.506325 0.42681 0
0.535775 0.429313 0
0.56112 0.432303 0
0.58616 0.43473 0.0075227
0.609003 0.437583 0.0150759
0.628183 0.443595 0.0132906
0.645792 0.452094 0.00529488
0.663615 0.460441 0
0.681025 0.467704 0
0.697093 0.475502 0
0.713039 0.48304 0
0.729381 0.490257 0
0.744793 0.497414 0
0.757656 0.505867 0
0.768551 0.514855 0
0.779049 0.523201 0
0.788418 0.532509 0
0.796597 0.543008 0
0.797803 0.544549 0
0.0802167 0.379232 0.246342
0.0848707 0.390173 0.255894
0.0965438 0.399664 0.266941
0.113787 0.407126 0.278386
0.150881 0.408484 0.289708
0.201572 0.406439 0.302129
0.226932 0.416114 0.267597
0.26743 0.427955 0.166598
0.23946 0.463264 0.0350195
0.29073 0.463004 0.0201724
0.325673 0.464607 0.0260014
0.369924 0.464332 0.0222019
0.426246 0.459815 0.0250248
0.471656 0.458137 0.0290684
0.505684 0.459785 0.0333257
0.534432 0.462394 0.0387274
0.562478 0.464393 0.047715
0.591211 0.465965 0.0612345
0.616495 0.46746 0.0702983
0.637079 0.472816 0.0696727
0.655482 0.480095 0.0606241
0.673579 0.487098 0.0458534
0.691005 0.493965 0.0256809
0.707027 0.501671 0.00172427
0.722866 0.510216 0
0.738323 0.518334 0
0.751995 0.526253 0
0.76379 0.535119 0
0.774899 0.542489 0
0.785412 0.548943 0
0.795483 0.557351 0
0.804746 0.567926 0
0.805905 0.569192 0
0.0882887 0.411597 0.266972
0.0939651 0.422415 0.276509
0.104845 0.432135 0.28716
0.121828 0.438849 0.297826
0.155764 0.441459 0.310094
0.204898 0.440085 0.324605
0.234852 0.446632 0.314946
0.285542 0.452064 0.256962
0.28072 0.479789 0.134661
0.284794 0.500496 0.0402991
0.336248 0.494774 0.0617838
0.376776 0.493904 0.0691691
0.430243 0.490166 0.0713817
0.475227 0.488777 0.0788586
0.506523 0.491234 0.0851453
0.536614 0.493187 0.0912032
0.567498 0.494652 0.101823
0.598291 0.495567 0.115663
0.62501 0.496864 0.125978
0.646677 0.501122 0.126268
0.666178 0.506706 0.118029
0.684565 0.512261 0.102312
0.702358 0.518822 0.0781415
0.719509 0.526574 0.0488289
0.736034 0.534829 0.021561
0.750011 0.543328 0
0.761578 0.552789 0
0.771954 0.562173 0
0.783825 0.568307 0
0.79556 0.573983 0
0.805768 0.582483 0
0.81471 0.592615 0
0.815717 0.59382 0
0.0978256 0.441184 0.287556
0.105379 0.45124 0.296788
0.115587 0.459892 0.306416
0.132235 0.466926 0.317174
0.162188 0.471733 0.329732
0.206531 0.473152 0.344656
0.248295 0.47602 0.35314
0.28014 0.485451 0.312963
0.327153 0.492653 0.228458
0.299565 0.525017 0.106661
0.345006 0.525078 0.0899672
0.390356 0.521752 0.112139
0.429603 0.522698 0.114702
0.465248 0.524559 0.119722
0.500557 0.525216 0.126024
0.539437 0.523888 0.137057
0.574777 0.523705 0.150378
0.605463 0.524636 0.163622
0.630808 0.526375 0.173846
0.653773 0.529717 0.177768
0.675715 0.533028 0.173877
0.696696 0.536889 0.160647
0.716487 0.54287 0.134554
0.733791 0.550256 0.1019
0.74786 0.558373 0.0695354
0.759319 0.567864 0.0392309
0.769802 0.577478 0.0137179
0.782498 0.585611 0
0.79585 0.591959 0.00271611
0.806882 0.598901 0.0113832
0.816098 0.607431 0.0184634
0.824521 0.616922 0.0252995
0.825086 0.617517 0.0256352
0.110033 0.466636 0.307927
0.117983 0.475868 0.316182
0.128038 0.484459 0.325292
0.144213 0.492927 0.336431
0.171542 0.500175 0.349691
0.211795 0.50396 0.365042
0.25716 0.504982 0.379797
0.286397 0.513313 0.365179
0.342351 0.51545 0.316732
0.34139 0.540032 0.200214
0.347677 0.558343 0.120745
0.404166 0.550988 0.147356
0.434623 0.551949 0.157107
0.463355 0.554025 0.158785
0.502251 0.554101 0.16527
0.544579 0.552865 0.177996
0.580209 0.552392 0.191333
0.607874 0.553231 0.202976
0.631128 0.554711 0.211917
0.656199 0.556634 0.215839
0.682094 0.55874 0.213581
0.706554 0.56231 0.203296
0.727825 0.567819 0.184054
0.745434 0.573831 0.155383
0.760464 0.580621 0.123033
0.77438 0.588632 0.0944839
0.787442 0.59704 0.0716259
0.799374 0.604715 0.0551766
0.809033 0.612528 0.0558328
0.819165 0.620676 0.0599222
0.827726 0.62945 0.0649271
0.83357 0.639246 0.0706951
0.833799 0.639628 0.0708019
0.123491 0.489982 0.327413
0.13312 0.499855 0.336645
0.145541 0.509972 0.346578
0.163058 0.519234 0.358251
0.188602 0.525734 0.371405
0.223728 0.528832 0.385336
0.266926 0.530449 0.401022
0.304219 0.536431 0.406378
0.340688 0.545968 0.370581
0.39675 0.548989 0.313832
0.368734 0.581613 0.190509
0.405066 0.583307 0.166537
0.44593 0.57821 0.192309
0.472419 0.579644 0.199268
0.508782 0.580758 0.20557
0.550439 0.57995 0.216648
0.584634 0.580056 0.228748
0.611337 0.580606 0.239857
0.636042 0.581491 0.248783
0.661753 0.583032 0.252461
0.687709 0.585519 0.251072
0.712077 0.588998 0.243519
0.734234 0.593256 0.228611
0.753323 0.597879 0.203098
0.771191 0.603143 0.17525
0.788098 0.609491 0.150317
0.802182 0.616434 0.128588
0.812802 0.624292 0.111543
0.820172 0.634379 0.104295
0.829923 0.642817 0.107774
0.837705 0.651942 0.114031
0.842741 0.66247 0.120638
0.842756 0.662516 0.120653
0.143328 0.512306 0.348699
0.155016 0.52221 0.358495
0.167987 0.532876 0.368795
0.184878 0.542382 0.380621
0.207919 0.549187 0.393576
0.239063 0.553689 0.407233
0.279088 0.55639 0.4224
0.319997 0.560403 0.435248
0.347845 0.57203 0.415427
0.407385 0.572839 0.378195
0.401648 0.597635 0.264729
0.398962 0.61706 0.182406
0.450843 0.608972 0.209125
0.48423 0.607065 0.233051
0.516457 0.607431 0.244373
0.554345 0.606607 0.252262
0.586801 0.607019 0.261723
0.616297 0.607172 0.273625
0.642618 0.608164 0.282383
0.666758 0.610117 0.28574
0.691112 0.612833 0.285237
0.715267 0.615732 0.279667
0.738582 0.618051 0.267002
0.759686 0.622629 0.245533
0.779812 0.626825 0.222126
0.797574 0.631464 0.199786
0.811872 0.637613 0.17879
0.822492 0.646479 0.162051
0.830182 0.657084 0.153521
0.838544 0.666484 0.157214
0.845502 0.676417 0.163317
0.851301 0.686351 0.168734
0.851301 0.686351 0.168734
0.167895 0.534218 0.371618
0.180652 0.544076 0.381735
0.192538 0.553994 0.391516
0.208911 0.56347 0.40325
0.230686 0.571633 0.416632
0.258869 0.577539 0.430396
0.295766 0.581353 0.445197
0.33669 0.584939 0.460197
0.364416 0.594598 0.45417
0.405539 0.601221 0.415717
0.451911 0.604578 0.365499
0.414771 0.639796 0.234394
0.44741 0.64268 0.212955
0.493248 0.635569 0.250935
0.522103 0.634943 0.270008
0.553841 0.633844 0.281147
0.587121 0.63328 0.290105
0.612589 0.636118 0.296757
0.636835 0.638743 0.301595
0.664424 0.639689 0.306783
0.693904 0.639338 0.310353
0.721996 0.639475 0.308904
0.74696 0.641169 0.30045
0.76759 0.646738 0.281117
0.78703 0.650782 0.26389
0.80383 0.655848 0.245029
0.817182 0.663096 0.223789
0.827497 0.672312 0.209293
0.83624 0.682719 0.206226
0.844434 0.692439 0.205783
0.85153 0.702464 0.208362
0.857786 0.711681 0.21413
0.857786 0.711681 0.21413
0.193484 0.555169 0.394705
0.205768 0.56492 0.404791
0.21915 0.574762 0.414969
0.237049 0.584039 0.426917
0.258762 0.591882 0.440452
0.285557 0.598291 0.454322
0.319524 0.603845 0.469078
0.356542 0.608911 0.483894
0.384573 0.617502 0.485771
0.408988 0.627832 0.449973
0.466972 0.625544 0.418753
0.442084 0.656977 0.290059
0.444205 0.674449 0.216114
0.49427 0.666209 0.249226
0.525216 0.663706 0.277836
0.548318 0.664897 0.293309
0.575036 0.665949 0.306767
0.598337 0.669734 0.312078
0.629679 0.669367 0.315953
0.663783 0.667582 0.324117
0.695293 0.666468 0.330404
0.72369 0.666712 0.331273
0.750317 0.667781 0.326574
0.774395 0.670924 0.316075
0.794568 0.674922 0.302937
0.809705 0.680949 0.283589
0.820661 0.689265 0.260761
0.829145 0.699809 0.247379
0.837736 0.709972 0.244739
0.847364 0.718303 0.246571
0.856458 0.727047 0.251881
0.863722 0.7346 0.258854
0.863691 0.734524 0.258671
0.219471 0.575601 0.417777
0.232807 0.584894 0.428107
0.248585 0.594156 0.439109
0.268772 0.603326 0.451606
0.291752 0.611673 0.464942
0.318349 0.618433 0.478737
0.349111 0.624079 0.493187
0.381567 0.629389 0.507469
0.409384 0.63621 0.513771
0.425803 0.647517 0.484474
0.477989 0.648051 0.450538
0.481849 0.66836 0.356909
0.45034 0.700542 0.241245
0.49015 0.698344 0.242512
0.527047 0.693431 0.276463
0.545602 0.696941 0.291203
0.562875 0.701198 0.301305
0.5879 0.702632 0.316304
0.623652 0.69894 0.328588
0.661433 0.696437 0.337057
0.69543 0.695094 0.344656
0.725856 0.694026 0.347494
0.754345 0.693675 0.34696
0.779828 0.695262 0.343053
0.799008 0.700053 0.330907
0.814527 0.706371 0.313329
0.826963 0.714382 0.295064
0.835798 0.723918 0.283253
0.844129 0.733196 0.280812
0.853712 0.741497 0.285969
0.863554 0.749081 0.295171
0.871077 0.755352 0.305226
0.871077 0.755352 0.305226
0.246998 0.595819 0.441917
0.263142 0.604929 0.452461
0.281849 0.614298 0.464103
0.302922 0.623194 0.47657
0.32694 0.631449 0.49012
0.352743 0.637964 0.504051
0.380667 0.643229 0.517998
0.409598 0.648295 0.531243
0.435019 0.654795 0.537621
0.448371 0.66743 0.512856
0.49192 0.67068 0.47863
0.52311 0.678447 0.430274
0.471763 0.720226 0.286427
0.483619 0.731075 0.241108
0.527382 0.724178 0.27332
0.552422 0.724437 0.295628
0.563851 0.730678 0.298314
0.582681 0.733242 0.30901
0.615427 0.730541 0.331151
0.65864 0.725917 0.346761
0.699107 0.721431 0.35552
0.732601 0.718883 0.361288
0.75938 0.718379 0.363363
0.781262 0.720851 0.35906
0.799161 0.72726 0.34609
0.817334 0.732937 0.333303
0.834287 0.738262 0.322896
0.844495 0.745525 0.313756
0.852003 0.754986 0.312963
0.860502 0.763729 0.319768
0.86981 0.771206 0.332265
0.875578 0.77734 0.34461
0.875578 0.777249 0.344472
0.275914 0.616159 0.466621
0.296269 0.626047 0.477882
0.316793 0.635569 0.489586
0.337972 0.643763 0.501945
0.361959 0.650904 0.515602
0.386664 0.657115 0.529519
0.412863 0.662562 0.543145
0.439124 0.667094 0.554894
0.4607 0.674983 0.559747
0.471397 0.68835 0.537743
0.508659 0.693507 0.505776
0.550561 0.695903 0.478935
0.502632 0.736095 0.338033
0.488792 0.757443 0.261524
0.521767 0.75642 0.264103
0.556191 0.751965 0.293065
0.571374 0.755749 0.30071
0.583307 0.761471 0.302647
0.615442 0.75903 0.330816
0.663035 0.750347 0.356817
0.705058 0.74583 0.363775
0.732677 0.746685 0.367132
0.756039 0.748165 0.369009
0.778546 0.750683 0.365362
0.800046 0.75462 0.355642
0.81944 0.758846 0.344656
0.834531 0.764355 0.334249
0.842161 0.771496 0.326696
0.849027 0.780636 0.328695
0.858854 0.789197 0.339651
0.869886 0.795758 0.355596
0.877943 0.799893 0.37026
0.877943 0.799985 0.370336
0.305394 0.637613 0.490974
0.326894 0.647227 0.502464
0.349248 0.656397 0.514748
0.371542 0.664027 0.52723
0.394232 0.670344 0.539849
0.41854 0.6766 0.553445
0.443656 0.682307 0.566873
0.468025 0.687541 0.578882
0.487541 0.696162 0.584802
0.496849 0.709499 0.567163
0.526711 0.71664 0.534829
0.568887 0.718212 0.510018
0.540917 0.748272 0.399161
0.503914 0.778134 0.291279
0.517159 0.785901 0.261677
0.556222 0.780331 0.285649
0.578744 0.781048 0.302617
0.591806 0.786297 0.305669
0.621347 0.784298 0.330449
0.666667 0.775296 0.360861
0.706676 0.771496 0.366766
0.732952 0.773968 0.367803
0.756085 0.776623 0.3682
0.78088 0.778439 0.364828
0.80322 0.780972 0.357992
0.820676 0.784955 0.349783
0.833936 0.790082 0.343282
0.844434 0.796216 0.342824
0.853117 0.803464 0.35082
0.861692 0.811658 0.362676
0.869688 0.819287 0.375921
0.876066 0.824186 0.387182
0.876066 0.824186 0.387182
0.332464 0.660029 0.515648
0.355047 0.668696 0.527611
0.378958 0.676738 0.539544
0.400961 0.684092 0.551553
0.423041 0.690822 0.564034
0.447227 0.697108 0.577432
0.470649 0.702876 0.590265
0.492103 0.708583 0.601984
0.512413 0.715648 0.61062
0.522927 0.727123 0.600778
0.541939 0.737209 0.567437
0.582422 0.739574 0.537957
0.582864 0.755856 0.469856
0.525307 0.795148 0.327504
0.5243 0.809018 0.277913
0.555825 0.808301 0.281239
0.588525 0.805127 0.30634
0.59794 0.81236 0.301137
0.621378 0.81265 0.31487
0.666743 0.802548 0.353628
0.710842 0.796048 0.367666
0.743053 0.796002 0.367544
0.763867 0.800702 0.363561
0.786648 0.803586 0.359243
0.805829 0.806592 0.35523
0.821714 0.810208 0.352773
0.836225 0.814206 0.35433
0.849561 0.818998 0.361379
0.85922 0.824933 0.372503
0.865873 0.832898 0.385428
0.871946 0.840665 0.398489
0.876631 0.845884 0.408011
0.876631 0.845808 0.407935
0.357961 0.683055 0.540978
0.382223 0.690562 0.553048
0.406516 0.696925 0.563668
0.428229 0.704463 0.575463
0.450858 0.711696 0.588296
0.473381 0.717632 0.600809
0.494789 0.723262 0.613062
0.514916 0.728985 0.624842
0.535607 0.73518 0.636042
0.550927 0.743633 0.636194
0.558297 0.756405 0.605539
0.59234 0.759854 0.570932
0.618662 0.764828 0.535271
0.558831 0.806241 0.384619
0.540078 0.828397 0.306905
0.561807 0.832761 0.28603
0.599771 0.827909 0.309499
0.601175 0.838193 0.291722
0.624659 0.838041 0.303746
0.673442 0.826383 0.349386
0.717983 0.819165 0.365713
0.750957 0.819379 0.360861
0.770993 0.8262 0.352575
0.789456 0.828656 0.348882
0.807706 0.830961 0.34995
0.824964 0.833555 0.355383
0.84036 0.836637 0.364187
0.852918 0.840925 0.375891
0.862531 0.846662 0.390738
0.870985 0.852277 0.409262
0.87863 0.858457 0.42681
0.883986 0.863432 0.437583
0.88397 0.863371 0.437476
0.382361 0.705394 0.565133
0.407858 0.711818 0.576806
0.432425 0.716762 0.586847
0.454902 0.724926 0.598917
0.476783 0.732174 0.611353
0.497856 0.738216 0.623652
0.517998 0.743847 0.635966
0.537011 0.749706 0.648035
0.556527 0.756573 0.659892
