presets/H哈苏青.cube
TITLE "XH Copyright"
# XH Copyright
# 5219
# 20250101
LUT_3D_SIZE 9
0 0.00880446 0.0416876
0 0.0193942 0.0440223
0.0736095 0.0245212 0.0395361
0.287297 0.0398413 0.0506752
0.36701 0.0671092 0.0556802
0.362982 0.135805 0.0635386
0.409445 0.190509 0.0717174
0.484733 0.232242 0.0794385
0.542489 0.276371 0.0866407
0 0.0410925 0.078645
0 0.0800336 0.106767
0.228885 0.0929274 0.0841993
0.384268 0.108934 0.0856184
0.448951 0.155627 0.0709087
0.501457 0.203632 0.080827
0.552697 0.276738 0.0871443
0.61326 0.316365 0.0941482
0.668635 0.357565 0.101122
0 0.183017 0.219791
0 0.219547 0.24773
0.257908 0.239368 0.0944076
0.437736 0.231449 0.118395
0.52668 0.271977 0.120058
0.586236 0.327352 0.0958114
0.652903 0.374731 0.101595
0.711284 0.411948 0.107271
0.753811 0.459785 0.107469
0 0.368338 0.365164
0 0.417685 0.414816
0.132509 0.417838 0.259556
0.44564 0.416495 0.0854963
0.564401 0.420691 0.161044
0.647608 0.447715 0.162249
0.728161 0.475364 0.125856
0.787213 0.514717 0.131487
0.81912 0.549477 0.156435
0 0.496544 0.482444
0 0.540505 0.530098
0 0.5738 0.513313
0.416236 0.546853 0.216358
0.587015 0.545357 0.241505
0.682918 0.556893 0.299168
0.781369 0.574731 0.228611
0.84097 0.60708 0.208453
0.876661 0.642023 0.222232
0 0.58146 0.577005
0 0.622889 0.616907
0.0423743 0.659998 0.628794
0.326406 0.675486 0.493156
0.534203 0.674754 0.310964
0.711788 0.667918 0.348943
0.809613 0.672663 0.355352
0.883406 0.699351 0.312322
0.913756 0.726772 0.334966
0 0.66775 0.663813
0.0684062 0.704234 0.688792
0.213779 0.735012 0.701869
0.364706 0.761151 0.666133
0.56025 0.772519 0.412634
0.683894 0.786572 0.338384
0.861509 0.76704 0.359045
0.92636 0.783398 0.392142
0.940139 0.811917 0.42118
0.0513771 0.753506 0.744762
0.162066 0.793149 0.771923
0.281147 0.82649 0.778439
0.391165 0.843809 0.792538
0.540825 0.858274 0.658045
0.739864 0.865705 0.334676
0.940597 0.843381 0.278202
0.964538 0.86537 0.402792
0.96286 0.887892 0.490913
0.241856 0.818479 0.808087
0.305592 0.855589 0.833646
0.358465 0.895369 0.842466
0.449439 0.914656 0.867674
0.588479 0.920882 0.801236
0.792599 0.928222 0.45124
0.974105 0.91368 0.330648
0.975341 0.929473 0.502922
0.968017 0.953353 0.594842
0 0.0099031 0.0444648
0 0.0239719 0.0653239
0.100526 0.0383154 0.0422217
0.315465 0.0502174 0.0532387
0.383017 0.0791943 0.0575418
0.390219 0.150011 0.0662394
0.44097 0.204105 0.0744182
0.517082 0.246403 0.0823987
0.579156 0.285695 0.08925
0 0.0529183 0.103044
0 0.102953 0.141024
0.238621 0.110597 0.0928206
0.407126 0.127153 0.0948501
0.462303 0.175113 0.0842603
0.523644 0.222644 0.0908522
0.576486 0.288045 0.0894331
0.639109 0.329778 0.096788
0.684672 0.366613 0.102632
0 0.202609 0.261494
0 0.249195 0.29305
0.269017 0.262074 0.121065
0.454246 0.257481 0.137774
0.535988 0.292195 0.136187
0.601617 0.348104 0.116381
0.665385 0.389822 0.102434
0.72433 0.432151 0.111666
0.76199 0.471397 0.128344
0 0.384771 0.395071
0 0.436179 0.448859
0.15407 0.430701 0.331258
0.451789 0.435004 0.121477
0.575982 0.439094 0.193576
0.656016 0.46482 0.194965
0.741009 0.496086 0.153887
0.796902 0.527993 0.156359
0.831571 0.562707 0.186694
0 0.510765 0.502083
0 0.556741 0.554025
0.000534066 0.583993 0.538979
0.430335 0.564111 0.274449
0.598459 0.563485 0.269261
0.690425 0.574426 0.327749
0.788128 0.591608 0.277089
0.852201 0.621515 0.253285
0.883207 0.654002 0.273671
0 0.59736 0.597208
0 0.64036 0.63299
0.0779583 0.675319 0.648539
0.331655 0.688777 0.559625
0.548547 0.689815 0.357107
0.712169 0.682628 0.37554
0.817243 0.687907 0.409323
0.881575 0.718364 0.364034
0.909743 0.742092 0.382528
0 0.67863 0.677714
0.0952926 0.721859 0.707622
0.224048 0.75523 0.713817
0.370657 0.775921 0.700954
0.541558 0.793774 0.47039
0.700893 0.793698 0.384833
0.856825 0.786206 0.418723
0.918654 0.802853 0.435065
0.939208 0.8271 0.475364
0.0821393 0.769238 0.762554
0.190204 0.805158 0.783612
0.3028 0.838071 0.78909
0.406653 0.855451 0.804852
0.542641 0.871138 0.696254
0.727321 0.880796 0.401892
0.918502 0.867216 0.339467
0.960479 0.877958 0.461646
0.965988 0.897444 0.543252
0.270375 0.833844 0.82533
0.341222 0.865049 0.851026
0.376791 0.908324 0.857816
0.468437 0.923903 0.873533
0.592416 0.933333 0.8336
0.78381 0.940551 0.51603
0.958724 0.92784 0.387152
0.972763 0.948577 0.533303
0.969436 0.960235 0.6215
0 0.0135653 0.0754864
0 0.0365148 0.154147
0 0.0610361 0.100206
0.241047 0.0680705 0.103593
0.372366 0.102281 0.0970321
0.400961 0.167727 0.0797131
0.489067 0.204395 0.0799115
0.547631 0.249546 0.0978561
0.596155 0.297642 0.134035
0 0.0764324 0.204334
0 0.126726 0.25745
0.108507 0.158129 0.201144
0.359075 0.161456 0.186877
0.456306 0.214801 0.170581
0.504005 0.256611 0.155795
0.58996 0.302129 0.125933
0.62887 0.347143 0.169848
0.666362 0.39028 0.208499
0 0.220661 0.334554
0 0.275654 0.382193
0.160372 0.284703 0.358389
0.417319 0.302617 0.256138
0.529839 0.317266 0.213886
0.598032 0.369299 0.185794
0.666133 0.408957 0.172717
0.710735 0.449973 0.221118
0.748882 0.490974 0.258625
0 0.374762 0.454093
0 0.428321 0.502419
0.123888 0.441032 0.481544
0.389136 0.457618 0.33019
0.561822 0.456855 0.313985
0.645685 0.48426 0.30782
0.733089 0.509911 0.253849
0.786221 0.548379 0.275166
0.816083 0.581811 0.307637
0 0.487282 0.55462
0 0.539818 0.596857
0.106874 0.57142 0.583581
0.367712 0.581537 0.513497
0.577264 0.581689 0.367224
0.688228 0.591943 0.408759
0.768841 0.613199 0.388769
0.836347 0.641733 0.372869
0.859953 0.670207 0.412268
0 0.585504 0.637858
0.0446632 0.628855 0.666926
0.163577 0.674464 0.667201
0.336843 0.695918 0.662776
0.513344 0.710597 0.50518
0.710185 0.692821 0.449882
0.802472 0.706905 0.503105
0.855161 0.73637 0.510903
0.88571 0.765774 0.526116
0.0580911 0.680842 0.708003
0.159747 0.718227 0.735607
0.255543 0.766171 0.734462
0.365682 0.791714 0.746395
0.499184 0.809293 0.664195
0.669841 0.812406 0.503395
0.825132 0.8056 0.519066
0.889235 0.824048 0.561044
0.915465 0.849012 0.572686
0.149905 0.77351 0.782879
0.2374 0.806226 0.806989
0.326101 0.852216 0.806455
0.411734 0.875303 0.816571
0.538079 0.887572 0.767666
0.732067 0.884657 0.563912
0.824796 0.900008 0.519356
0.919203 0.900893 0.5888
0.946365 0.915084 0.624903
0.328099 0.835538 0.84097
0.377234 0.873777 0.868513
0.407004 0.912779 0.875669
0.458351 0.941253 0.883299
0.579675 0.948318 0.875822
0.772442 0.949996 0.633158
0.857649 0.962158 0.562783
0.91931 0.971084 0.624155
0.9449 0.983017 0.667567
0 0.0184482 0.139483
0 0.048188 0.256901
0 0.0846113 0.249668
0.177569 0.0921187 0.223407
0.331899 0.113832 0.241032
0.396841 0.161013 0.231449
0.454688 0.254444 0.179294
0.522377 0.284108 0.182315
0.566217 0.331029 0.22739
0 0.0909895 0.316915
0 0.141817 0.366857
0.0364538 0.183902 0.347295
0.310674 0.195056 0.315435
0.422477 0.213901 0.331426
0.481361 0.267903 0.322316
0.543389 0.35494 0.271107
0.601053 0.382818 0.282582
0.643061 0.423926 0.319554
0 0.231968 0.440497
0 0.286641 0.49044
0.1337 0.305684 0.480659
0.350805 0.332891 0.428244
0.48069 0.349569 0.408515
0.567956 0.420706 0.378485
0.634119 0.436027 0.33576
0.684611 0.477211 0.365362
0.719768 0.518563 0.402319
0 0.36968 0.504204
0 0.420356 0.553628
0.120638 0.451774 0.560922
0.390036 0.459968 0.534676
0.539345 0.48275 0.464668
0.630884 0.499733 0.424964
0.705348 0.535378 0.406821
0.756603 0.575555 0.431861
0.789609 0.60856 0.463737
0 0.481727 0.586618
0.0215915 0.532738 0.630365
0.141054 0.578744 0.641535
0.411597 0.578714 0.604974
0.533501 0.601495 0.530648
0.683192 0.607141 0.49691
0.753628 0.634455 0.493248
0.804868 0.662333 0.507927
0.834745 0.692317 0.536782
0.0922866 0.573587 0.657145
0.181918 0.61294 0.692424
0.263676 0.664836 0.708141
0.398184 0.693278 0.691325
0.511208 0.718288 0.659449
0.68983 0.715618 0.523461
0.79823 0.72401 0.564218
0.845869 0.751492 0.594659
0.875639 0.773922 0.611475
0.205035 0.666072 0.735164
0.268605 0.706996 0.763165
0.329915 0.761379 0.765911
0.405585 0.799573 0.772457
0.509194 0.81593 0.768154
0.667994 0.823072 0.591363
0.815854 0.821271 0.568124
0.883848 0.839887 0.620539
0.906538 0.864561 0.630854
0.235096 0.7682 0.803418
0.305379 0.807843 0.831098
0.368872 0.85095 0.833432
0.443778 0.881148 0.834134
0.549096 0.893355 0.834852
0.688182 0.905715 0.668254
0.785687 0.919188 0.624689
0.888701 0.922423 0.656291
0.937774 0.92636 0.694575
0.392737 0.831846 0.853101
0.424216 0.873137 0.879164
0.449577 0.915236 0.895216
0.482719 0.950408 0.901732
0.587869 0.956191 0.892714
0.722454 0.975998 0.72932
0.827985 0.978241 0.679393
0.8925 0.987991 0.700389
0.928389 0.991211 0.726909
0 0.0213321 0.286
0 0.0466621 0.358923
0 0.0721752 0.36022
0.179812 0.0839704 0.398871
0.345083 0.106889 0.422705
0.417639 0.16083 0.391882
0.466743 0.225772 0.354894
0.518761 0.290929 0.331685
0.567468 0.37673 0.335882
0 0.105119 0.403235
0 0.147189 0.454108
0.10161 0.175113 0.453254
0.308583 0.190814 0.47776
0.432502 0.206943 0.511421
0.500435 0.26424 0.474952
0.546334 0.334096 0.438895
0.591836 0.393133 0.420645
0.648234 0.475715 0.434989
0 0.243229 0.54641
0 0.294362 0.571847
0.152468 0.319158 0.553948
0.337346 0.348959 0.531304
0.471641 0.364263 0.534478
0.554772 0.403769 0.518532
0.614115 0.443412 0.50161
0.686336 0.526909 0.49868
0.721584 0.575662 0.505196
0 0.375418 0.58024
0 0.427359 0.626154
0.143877 0.459022 0.621851
0.385595 0.476081 0.619623
0.507973 0.497368 0.577081
0.607828 0.517479 0.56231
0.68513 0.576379 0.551904
0.743374 0.620768 0.556313
0.773526 0.642557 0.57026
0 0.493629 0.639017
0.0685588 0.535805 0.673609
0.194369 0.575784 0.689235
0.420691 0.589471 0.672206
0.549325 0.599344 0.649943
0.665324 0.625299 0.607645
0.736522 0.647822 0.596246
0.794827 0.678416 0.60647
0.822202 0.709651 0.629892
0.147585 0.580713 0.687938
0.231357 0.623209 0.728069
0.317037 0.664866 0.746273
0.442206 0.695476 0.734386
0.545419 0.718288 0.722744
0.67071 0.727932 0.631785
0.788434 0.737942 0.638895
0.840711 0.767483 0.668559
0.865995 0.790875 0.686854
0.275364 0.670588 0.750423
0.340383 0.713191 0.78941
0.402411 0.753231 0.804532
0.45623 0.791501 0.799558
0.552895 0.810636 0.798413
0.658946 0.834302 0.738369
0.780484 0.843168 0.651881
0.878874 0.84715 0.695354
0.907774 0.871061 0.741848
0.35613 0.754665 0.826612
0.412161 0.794049 0.853193
0.432746 0.844572 0.860731
0.4851 0.885237 0.862593
0.590997 0.892103 0.865446
0.688777 0.909056 0.813901
0.799298 0.919982 0.722652
0.870085 0.934844 0.722972
0.940902 0.931716 0.76347
0.47451 0.823529 0.876905
0.509453 0.858442 0.899001
0.51516 0.910033 0.916808
0.533486 0.942779 0.921294
0.635645 0.957229 0.915938
0.738994 0.965179 0.853254
0.834119 0.977569 0.780163
0.87602 0.990951 0.78764
0.913268 0.999893 0.799649
0 0.0244755 0.349691
0 0.0581674 0.418738
0.00901808 0.0817121 0.418006
0.213718 0.0933089 0.465705
0.344045 0.113252 0.523537
0.418372 0.158312 0.531182
0.489815 0.217731 0.505165
0.53135 0.288853 0.466468
0.573938 0.347677 0.476555
0 0.120638 0.466651
0 0.160479 0.51342
0.150622 0.182254 0.498634
0.334279 0.195575 0.546258
0.435264 0.215702 0.601633
0.502235 0.263935 0.604593
0.567376 0.321263 0.569284
0.60499 0.389731 0.544213
0.643885 0.440223 0.558648
0 0.269078 0.60032
0 0.323278 0.624811
0.173571 0.332677 0.607996
0.372976 0.347539 0.601678
0.488853 0.353109 0.637201
0.576272 0.38201 0.649042
0.632898 0.442283 0.619135
0.676783 0.498238 0.603967
0.712215 0.533806 0.620203
0 0.395468 0.645747
0 0.445426 0.677928
0.169558 0.472648 0.674846
0.404776 0.483146 0.678523
0.509483 0.504738 0.665858
0.609613 0.527443 0.660334
0.682719 0.556664 0.654002
0.73756 0.594308 0.660365
0.77554 0.626657 0.67274
0.00872816 0.504219 0.673976
0.0878462 0.546899 0.708217
0.230213 0.582727 0.729503
0.432547 0.599191 0.73106
0.555581 0.61384 0.729641
0.649653 0.638514 0.692546
0.729961 0.656733 0.696559
0.784375 0.687465 0.703593
0.835767 0.741192 0.723827
0.176196 0.594583 0.721492
0.25745 0.633066 0.758724
0.342489 0.67219 0.780499
0.468391 0.704204 0.776303
0.582879 0.717891 0.778576
0.689738 0.731472 0.748745
0.772656 0.755413 0.734066
0.829206 0.787533 0.75317
0.853727 0.807141 0.770153
0.30988 0.677012 0.778912
0.37821 0.718791 0.813474
0.433814 0.759091 0.833234
0.513069 0.788998 0.834363
0.600275 0.812696 0.835828
0.69395 0.828962 0.819409
0.779141 0.849241 0.754376
0.877516 0.861082 0.777951
0.902556 0.87599 0.82118
0.413733 0.760082 0.844923
0.458625 0.79736 0.873976
0.49633 0.838987 0.885786
0.549752 0.871107 0.891661
0.624628 0.893446 0.890196
0.72517 0.902358 0.877699
0.8103 0.919905 0.813153
0.888991 0.932113 0.805951
0.927565 0.944717 0.827573
0.532876 0.821164 0.88893
0.561349 0.860136 0.908675
0.573434 0.90219 0.928893
0.585885 0.941985 0.93785
0.672343 0.954284 0.930846
0.775967 0.962707 0.921431
0.847105 0.977813 0.873014
0.899382 0.991455 0.853635
0.937636 0.996796 0.868788
0 0.0463111 0.367605
0 0.0836957 0.447303
0.0435645 0.0957504 0.4383
0.24712 0.108598 0.48629
0.368505 0.127337 0.552682
0.430747 0.172763 0.578439
0.498085 0.226169 0.564782
0.550652 0.294316 0.54934
0.585443 0.362112 0.560296
0 0.149035 0.494896
0 0.198337 0.548714
0.181872 0.203937 0.528389
0.359136 0.215045 0.565057
0.455512 0.230915 0.623484
0.517586 0.27248 0.646494
0.580453 0.332555 0.638773
0.621363 0.394354 0.623377
0.656046 0.445167 0.620813
0 0.293309 0.61503
0 0.344625 0.646281
0.207874 0.34432 0.649683
0.398383 0.355795 0.645945
0.503136 0.366094 0.678187
0.591119 0.386923 0.704799
0.649943 0.43563 0.703517
0.694224 0.49369 0.693065
0.723812 0.544991 0.688884
0 0.413382 0.665797
0 0.463371 0.692164
0.225254 0.480446 0.705394
0.427283 0.487694 0.724559
0.533669 0.502907 0.738354
0.636545 0.511543 0.759243
0.704585 0.54464 0.754788
0.749096 0.598169 0.733455
0.779187 0.637781 0.739895
0.0306401 0.519997 0.70692
0.118441 0.561028 0.741085
0.282368 0.593683 0.754345
0.451011 0.609689 0.770108
0.564675 0.621805 0.780194
0.659022 0.642466 0.7608
0.739803 0.664515 0.763561
0.790829 0.698344 0.769497
0.825544 0.721355 0.787991
0.186389 0.60827 0.756268
0.273457 0.647181 0.793469
0.371054 0.68661 0.799908
0.482155 0.712337 0.811734
0.593973 0.725826 0.82356
0.702541 0.738735 0.804608
0.770474 0.764584 0.791928
0.83061 0.788281 0.810925
0.858778 0.811643 0.829099
0.328237 0.693996 0.807721
0.395377 0.731655 0.841016
0.461524 0.768673 0.85481
0.535851 0.798321 0.859846
0.630106 0.816175 0.863462
0.732769 0.826383 0.851698
0.796811 0.85333 0.841825
0.867536 0.871794 0.833967
0.894652 0.887129 0.855283
0.452811 0.766995 0.85742
0.499763 0.80116 0.884733
0.542336 0.84181 0.900526
0.589471 0.871931 0.907179
0.662913 0.892164 0.907256
0.762142 0.906172 0.905745
0.823697 0.923003 0.895399
0.866392 0.94583 0.870222
0.925093 0.951415 0.876173
0.569314 0.826658 0.895582
0.606867 0.86099 0.919615
0.61976 0.902083 0.9364
0.640726 0.937133 0.947463
0.714031 0.953124 0.945663
0.800565 0.962295 0.942946
0.866423 0.975631 0.926986
0.903044 0.991974 0.918929
0.939406 1 0.910964
0 0.0559701 0.410086
0 0.0917525 0.458076
0.068864 0.120302 0.45127
0.242756 0.141787 0.499641
0.381018 0.153033 0.555749
0.447944 0.193606 0.589242
0.510033 0.256336 0.579934
0.559716 0.311589 0.593484
0.59089 0.373281 0.608148
0 0.160922 0.513252
0 0.205219 0.564172
0.217426 0.220676 0.548669
0.360769 0.246342 0.581537
0.461585 0.26421 0.629435
0.530968 0.303395 0.656062
0.588083 0.357336 0.651804
0.632013 0.413642 0.666499
0.664073 0.462318 0.685054
0 0.306874 0.605402
0 0.356237 0.635843
0.259892 0.352331 0.669657
0.420645 0.363912 0.689281
0.511635 0.387106 0.713542
0.598718 0.412879 0.731868
0.661402 0.449607 0.742977
0.706889 0.502846 0.746731
0.729244 0.561975 0.741863
0 0.436179 0.647883
0.0429694 0.483207 0.679301
0.264561 0.49633 0.720623
0.438834 0.507256 0.752026
0.545708 0.521157 0.762875
0.646937 0.526116 0.795743
0.726146 0.551995 0.804089
0.762646 0.604196 0.783261
0.78938 0.648936 0.776013
0.0782025 0.534951 0.70898
0.177996 0.577646 0.738582
0.322133 0.608118 0.766827
0.474922 0.61915 0.794888
0.581292 0.635447 0.806531
0.671763 0.65626 0.788632
0.753628 0.668956 0.80798
0.806027 0.701915 0.81146
0.836927 0.736446 0.829007
0.242939 0.621271 0.760525
0.320027 0.662333 0.79736
0.412299 0.695262 0.819608
0.506874 0.722377 0.83978
0.613123 0.730541 0.853925
0.715328 0.750179 0.836011
0.785107 0.772091 0.829801
0.83917 0.798352 0.845624
0.868681 0.823194 0.858122
0.385336 0.699016 0.819684
0.44152 0.738903 0.848569
0.495216 0.775265 0.868772
0.562997 0.803586 0.881971
0.652583 0.824002 0.892836
0.749722 0.835447 0.878233
0.819883 0.861952 0.871168
0.863218 0.883162 0.884978
0.895567 0.905379 0.896986
0.503792 0.768734 0.864012
0.540627 0.809918 0.883848
0.576989 0.846296 0.907286
0.632654 0.874739 0.917388
0.712016 0.890974 0.923995
0.790799 0.907393 0.919615
0.842344 0.926162 0.914656
0.893431 0.950057 0.919554
0.912795 0.965576 0.896559
0.598917 0.838224 0.891951
0.630335 0.87219 0.918151
0.660899 0.903166 0.93373
0.701457 0.931228 0.950042
0.76466 0.949844 0.956329
0.824887 0.963973 0.955261
0.885481 0.977462 0.961791
0.923751 0.995315 0.956542
0.935027 1 0.949538
0 0.0604868 0.42887
0 0.0955062 0.46743
0.088777 0.127901 0.469306
0.243488 0.150744 0.504005
0.378927 0.168795 0.561151
0.453895 0.209155 0.603174
0.506966 0.266758 0.5794
0.564492 0.317845 0.605814
0.6 0.38085 0.624781
0 0.170443 0.53904
0 0.206546 0.572808
0.225544 0.229404 0.559701
0.363455 0.25803 0.591134
0.468513 0.274144 0.630671
0.532494 0.30959 0.655741
0.590448 0.36791 0.664622
0.637537 0.41471 0.678782
0.669108 0.471092 0.683482
0 0.319371 0.60293
0 0.362768 0.636088
0.268849 0.359091 0.675914
0.431647 0.367208 0.692699
0.516655 0.393713 0.727031
0.599283 0.422019 0.738918
0.666636 0.459541 0.752712
0.713512 0.508064 0.755184
0.736767 0.567498 0.738598
0 0.440635 0.646769
0.0643168 0.487694 0.677867
0.283925 0.503746 0.722026
0.451789 0.511711 0.757168
0.554986 0.525567 0.774914
0.649393 0.532647 0.802213
0.724117 0.557412 0.814252
0.763943 0.612757 0.788296
0.797498 0.655512 0.793683
0.0997177 0.542962 0.707637
0.185733 0.58265 0.737835
0.339391 0.610224 0.77818
0.483742 0.623758 0.801526
0.587808 0.635889 0.814023
0.672557 0.659098 0.794049
0.759518 0.673411 0.816037
0.810056 0.709026 0.822385
0.846601 0.737499 0.82829
0.261814 0.623407 0.769314
0.331563 0.663584 0.80087
0.419959 0.702617 0.823453
0.506355 0.726207 0.852567
0.619074 0.733883 0.864302
0.721477 0.753719 0.840955
0.794568 0.77525 0.84239
0.84332 0.803052 0.857542
0.873259 0.826291 0.876234
0.40264 0.705364 0.825574
0.451133 0.741665 0.849638
0.506081 0.779004 0.872663
0.569635 0.805463 0.892821
0.65684 0.824292 0.894224
0.756115 0.837217 0.888075
0.823026 0.861295 0.877791
0.870069 0.883574 0.890837
0.898344 0.901137 0.906981
0.514565 0.771282 0.865736
0.55555 0.811383 0.885512
0.586938 0.847349 0.911437
0.642725 0.874495 0.919509
0.723293 0.889189 0.925322
0.803052 0.905791 0.925917
0.846876 0.933089 0.921462
0.896666 0.94873 0.937118
0.926436 0.963943 0.896056
0.599817 0.840482 0.89134
0.634058 0.876768 0.918029
0.664759 0.912261 0.934737
0.715541 0.933806 0.950164
0.771389 0.950637 0.958114
0.835599 0.966995 0.961181
0.885496 0.98471 0.967224
0.924681 0.995605 0.956786
0.941146 1 0.956817
