presets/N 5207.cube
TITLE "N 5207.psd"
#LUMIXPHOTOSTYLE NAT
LUT_3D_SIZE 33
0.0530400000 0.0735170000 0.1037600000
0.0743710000 0.0748900000 0.1036990000
0.0952760000 0.0820010000 0.1058350000
0.1255190000 0.0871280000 0.1068730000
0.1701970000 0.0912780000 0.1067500000
0.2312930000 0.0935970000 0.1064150000
0.2911070000 0.0964970000 0.1066890000
0.3470760000 0.0993650000 0.1065370000
0.4025570000 0.1023860000 0.1072080000
0.4602050000 0.1053160000 0.1069030000
0.5140380000 0.1082150000 0.1057130000
0.5738830000 0.1117250000 0.1054380000
0.6258240000 0.1142580000 0.1039730000
0.6778260000 0.1157840000 0.1036680000
0.7183530000 0.1181030000 0.1027530000
0.7545170000 0.1207580000 0.1025700000
0.7836910000 0.1228940000 0.1038510000
0.8051450000 0.1252750000 0.1046450000
0.8248290000 0.1287840000 0.1074830000
0.8415220000 0.1315310000 0.1098330000
0.8539120000 0.1341250000 0.1119080000
0.8673710000 0.1372070000 0.1147770000
0.8773190000 0.1400150000 0.1170960000
0.8871150000 0.1427610000 0.1202090000
0.8970030000 0.1458440000 0.1242680000
0.9054570000 0.1488950000 0.1271060000
0.9125980000 0.1515810000 0.1291500000
0.9189760000 0.1543580000 0.1308290000
0.9243160000 0.1570130000 0.1324160000
0.9297180000 0.1601260000 0.1334530000
0.9344480000 0.1633610000 0.1346440000
0.9394530000 0.1669010000 0.1362920000
0.9434510000 0.1704410000 0.1376650000
0.0610960000 0.0900270000 0.1077880000
0.0748290000 0.0863650000 0.1052550000
0.0947570000 0.0920100000 0.1070250000
0.1237180000 0.0985410000 0.1066590000
0.1679990000 0.1032410000 0.1057130000
0.2221980000 0.1050420000 0.1048890000
0.2807010000 0.1067200000 0.1051330000
0.3389890000 0.1086730000 0.1050110000
0.3942260000 0.1110840000 0.1054690000
0.4504090000 0.1138000000 0.1046450000
0.5032350000 0.1160890000 0.1041260000
0.5627750000 0.1186220000 0.1031800000
0.6158140000 0.1199040000 0.1020810000
0.6637880000 0.1217350000 0.1011960000
0.7108760000 0.1240840000 0.0995790000
0.7468870000 0.1244510000 0.0997920000
0.7777400000 0.1275330000 0.0998230000
0.8002320000 0.1291500000 0.1008300000
0.8204350000 0.1315920000 0.1020510000
0.8361210000 0.1343690000 0.1038820000
0.8510740000 0.1364140000 0.1065980000
0.8656310000 0.1395260000 0.1095280000
0.8770140000 0.1419980000 0.1123350000
0.8869630000 0.1450500000 0.1145630000
0.8977050000 0.1482540000 0.1184080000
0.9067380000 0.1508180000 0.1225890000
0.9144290000 0.1537480000 0.1248170000
0.9211430000 0.1571960000 0.1264040000
0.9270020000 0.1604610000 0.1274410000
0.9324340000 0.1636350000 0.1284480000
0.9369810000 0.1669010000 0.1292720000
0.9411620000 0.1712040000 0.1310120000
0.9451900000 0.1759340000 0.1328120000
0.0718380000 0.1172490000 0.1161500000
0.0787960000 0.1105960000 0.1110230000
0.0937190000 0.1126100000 0.1098630000
0.1221620000 0.1181340000 0.1090090000
0.1654970000 0.1238400000 0.1073610000
0.2188720000 0.1274110000 0.1068730000
0.2769170000 0.1294560000 0.1069950000
0.3336790000 0.1309510000 0.1076050000
0.3880920000 0.1316830000 0.1073610000
0.4485780000 0.1328120000 0.1059880000
0.5033570000 0.1352540000 0.1057430000
0.5613710000 0.1363530000 0.1043400000
0.6151120000 0.1375120000 0.1026610000
0.6627200000 0.1379390000 0.1008610000
0.7058720000 0.1381840000 0.0997620000
0.7448120000 0.1369930000 0.0977780000
0.7726140000 0.1397710000 0.0976260000
0.7973330000 0.1399840000 0.0978090000
0.8165590000 0.1409910000 0.0982060000
0.8340150000 0.1435850000 0.0995180000
0.8506770000 0.1452640000 0.1018070000
0.8640440000 0.1467900000 0.1040340000
0.8786930000 0.1481930000 0.1078190000
0.8894350000 0.1507570000 0.1100770000
0.8991390000 0.1542970000 0.1130680000
0.9093930000 0.1574710000 0.1157840000
0.9176940000 0.1611940000 0.1184390000
0.9241940000 0.1644900000 0.1203610000
0.9299320000 0.1678770000 0.1220400000
0.9354250000 0.1716920000 0.1237490000
0.9401550000 0.1757810000 0.1251530000
0.9441830000 0.1799320000 0.1271670000
0.9480900000 0.1842350000 0.1291500000
0.0788570000 0.1589050000 0.1259770000
0.0811770000 0.1474300000 0.1184690000
0.0924990000 0.1443480000 0.1142580000
0.1207580000 0.1487120000 0.1120910000
0.1571960000 0.1532290000 0.1104130000
0.2099300000 0.1590580000 0.1098940000
0.2666020000 0.1621090000 0.1099240000
0.3225400000 0.1646730000 0.1101070000
0.3808590000 0.1668090000 0.1096190000
0.4382020000 0.1677250000 0.1093750000
0.4936830000 0.1685490000 0.1091310000
0.5578000000 0.1677550000 0.1068420000
0.6100160000 0.1671750000 0.1057430000
0.6646120000 0.1661380000 0.1029660000
0.7063600000 0.1662600000 0.1012880000
0.7411190000 0.1653440000 0.0996090000
0.7682500000 0.1658020000 0.0989990000
0.7940980000 0.1638490000 0.0985410000
0.8145750000 0.1635130000 0.0984800000
0.8332520000 0.1658020000 0.0998230000
0.8488160000 0.1674190000 0.1013490000
0.8645630000 0.1676030000 0.1028140000
0.8772580000 0.1685790000 0.1041260000
0.8911740000 0.1707760000 0.1062320000
0.9023740000 0.1734310000 0.1084900000
0.9116210000 0.1752620000 0.1103820000
0.9211430000 0.1785580000 0.1131900000
0.9287410000 0.1813660000 0.1153560000
0.9346310000 0.1842040000 0.1172490000
0.9398500000 0.1875000000 0.1189880000
0.9441220000 0.1914370000 0.1206970000
0.9477840000 0.1959840000 0.1229250000
0.9514470000 0.2019960000 0.1252440000
0.0846860000 0.2164920000 0.1341860000
0.0842590000 0.1971130000 0.1260990000
0.0916140000 0.1827390000 0.1186520000
0.1169740000 0.1847530000 0.1142580000
0.1521300000 0.1905820000 0.1126100000
0.2029420000 0.1969600000 0.1122740000
0.2562260000 0.2026980000 0.1126400000
0.3126220000 0.2061460000 0.1126710000
0.3626710000 0.2081910000 0.1125180000
0.4179690000 0.2097170000 0.1122130000
0.4757080000 0.2097170000 0.1108400000
0.5303340000 0.2081910000 0.1093750000
0.5914000000 0.2055970000 0.1074220000
0.6446530000 0.2029110000 0.1051030000
0.6892400000 0.2017520000 0.1031800000
0.7287600000 0.2012330000 0.1025390000
0.7570500000 0.2005620000 0.1014400000
0.7835390000 0.2007750000 0.1009220000
0.8061220000 0.2026980000 0.1017460000
0.8253780000 0.2041930000 0.1026000000
0.8435360000 0.2068480000 0.1039730000
0.8611150000 0.2085880000 0.1051640000
0.8762820000 0.2100520000 0.1061400000
0.8896480000 0.2110290000 0.1073000000
0.9038090000 0.2120060000 0.1088560000
0.9143680000 0.2137150000 0.1101680000
0.9229130000 0.2159730000 0.1115720000
0.9298100000 0.2180480000 0.1130980000
0.9361880000 0.2200320000 0.1147770000
0.9426270000 0.2222290000 0.1163020000
0.9472660000 0.2254940000 0.1179200000
0.9509890000 0.2285460000 0.1199340000
0.9542540000 0.2323610000 0.1225280000
0.0923770000 0.2799380000 0.1427310000
0.0907590000 0.2603760000 0.1326600000
0.0933530000 0.2390750000 0.1221010000
0.1128850000 0.2315980000 0.1159360000
0.1488340000 0.2345890000 0.1149600000
0.1938480000 0.2398380000 0.1154170000
0.2498780000 0.2464900000 0.1158450000
0.3036500000 0.2502140000 0.1155090000
0.3526310000 0.2550350000 0.1156920000
0.4023440000 0.2574460000 0.1144710000
0.4558410000 0.2578430000 0.1132510000
0.5078740000 0.2567440000 0.1114810000
0.5638120000 0.2551570000 0.1099850000
0.6154170000 0.2523500000 0.1077270000
0.6652530000 0.2499080000 0.1057130000
0.7034910000 0.2481990000 0.1046750000
0.7345890000 0.2457890000 0.1040950000
0.7619320000 0.2461240000 0.1052550000
0.7855220000 0.2475590000 0.1057430000
0.8085020000 0.2493900000 0.1065370000
0.8288570000 0.2514950000 0.1076050000
0.8485720000 0.2529300000 0.1086120000
0.8659360000 0.2539060000 0.1088870000
0.8834530000 0.2551570000 0.1093440000
0.8963620000 0.2564090000 0.1101070000
0.9096070000 0.2574160000 0.1106260000
0.9199220000 0.2593080000 0.1116330000
0.9277040000 0.2608030000 0.1127320000
0.9344480000 0.2624820000 0.1141050000
0.9401250000 0.2651060000 0.1158750000
0.9452820000 0.2677310000 0.1177370000
0.9500120000 0.2701110000 0.1197810000
0.9537050000 0.2729800000 0.1220700000
0.1013490000 0.3302610000 0.1555790000
0.0997620000 0.3200990000 0.1460880000
0.0990600000 0.3023680000 0.1311040000
0.1099850000 0.2834780000 0.1184390000
0.1423650000 0.2843320000 0.1173400000
0.1913760000 0.2866520000 0.1192930000
0.2426150000 0.2900090000 0.1200560000
0.2972720000 0.2948000000 0.1198730000
0.3442080000 0.2997740000 0.1195070000
0.3962400000 0.3045040000 0.1185610000
0.4436650000 0.3067630000 0.1176450000
0.4981990000 0.3071900000 0.1154480000
0.5508420000 0.3072810000 0.1139220000
0.6044010000 0.3061830000 0.1116940000
0.6490480000 0.3045960000 0.1102600000
0.6903380000 0.3018800000 0.1093750000
0.7219540000 0.3006900000 0.1100160000
0.7484130000 0.2989200000 0.1110530000
0.7716370000 0.2995000000 0.1119690000
0.7930910000 0.3007810000 0.1123960000
0.8146670000 0.2977290000 0.1124270000
0.8335270000 0.2984310000 0.1123350000
0.8532710000 0.2974550000 0.1117550000
0.8701480000 0.2983700000 0.1117860000
0.8881840000 0.2990420000 0.1116030000
0.9003300000 0.3010560000 0.1124270000
0.9113770000 0.3031310000 0.1135250000
0.9223020000 0.3046880000 0.1144100000
0.9312440000 0.3066410000 0.1159970000
0.9373780000 0.3089600000 0.1177370000
0.9426570000 0.3110660000 0.1196900000
0.9469600000 0.3132930000 0.1218260000
0.9507450000 0.3156130000 0.1239320000
0.1105650000 0.3755490000 0.1771550000
0.1091610000 0.3683470000 0.1658020000
0.1071780000 0.3557740000 0.1483760000
0.1112980000 0.3384400000 0.1262510000
0.1372070000 0.3334350000 0.1198730000
0.1804810000 0.3345030000 0.1236880000
0.2375790000 0.3350520000 0.1256710000
0.2888490000 0.3383480000 0.1255490000
0.3414920000 0.3419490000 0.1245420000
0.3922120000 0.3479920000 0.1246640000
0.4455870000 0.3523250000 0.1240230000
0.4951170000 0.3552860000 0.1234130000
0.5527950000 0.3573610000 0.1204530000
0.6004640000 0.3575740000 0.1186220000
0.6486510000 0.3559880000 0.1171260000
0.6854250000 0.3559270000 0.1171880000
0.7171940000 0.3533940000 0.1172490000
0.7426450000 0.3534550000 0.1180110000
0.7666320000 0.3498840000 0.1188960000
0.7895200000 0.3495790000 0.1197510000
0.8088990000 0.3499450000 0.1197810000
0.8303530000 0.3504640000 0.1188960000
0.8502810000 0.3479310000 0.1181340000
0.8677670000 0.3497010000 0.1178890000
0.8826600000 0.3489380000 0.1170650000
0.8972170000 0.3485110000 0.1165770000
0.9095460000 0.3498540000 0.1169740000
0.9185180000 0.3510440000 0.1175230000
0.9258120000 0.3529970000 0.1193240000
0.9322200000 0.3552250000 0.1213070000
0.9384770000 0.3575130000 0.1234130000
0.9431150000 0.3600770000 0.1257020000
0.9473270000 0.3627620000 0.1278690000
0.1190800000 0.4148860000 0.2019650000
0.1185000000 0.4114990000 0.1937560000
0.1165160000 0.4028930000 0.1727290000
0.1162410000 0.3907170000 0.1434020000
0.1306150000 0.3811340000 0.1268620000
0.1712340000 0.3800350000 0.1281130000
0.2289730000 0.3793330000 0.1321110000
0.2834170000 0.3808290000 0.1330870000
0.3359380000 0.3850100000 0.1330570000
0.3951720000 0.3912350000 0.1333010000
0.4465640000 0.3966980000 0.1335750000
0.5044250000 0.4018250000 0.1323850000
0.5593870000 0.4050900000 0.1298520000
0.6091000000 0.4069520000 0.1278080000
0.6545100000 0.4082340000 0.1266480000
0.6908260000 0.4056700000 0.1266480000
0.7208560000 0.4066470000 0.1270450000
0.7467960000 0.4049380000 0.1275630000
0.7711180000 0.4053650000 0.1286320000
0.7926030000 0.4044190000 0.1283570000
0.8141780000 0.4021910000 0.1272280000
0.8325500000 0.4024050000 0.1271060000
0.8536380000 0.4036250000 0.1266480000
0.8701170000 0.4050290000 0.1263730000
0.8875730000 0.4033510000 0.1246950000
0.8988340000 0.4047550000 0.1244200000
0.9089050000 0.4024960000 0.1243590000
0.9196470000 0.4037480000 0.1243900000
0.9270320000 0.4064030000 0.1258540000
0.9330750000 0.4091490000 0.1275330000
0.9374390000 0.4117740000 0.1294560000
0.9414370000 0.4145810000 0.1321410000
0.9453740000 0.4174190000 0.1346740000
0.1264950000 0.4488220000 0.2230830000
0.1261290000 0.4467770000 0.2175600000
0.1249690000 0.4413760000 0.2012330000
0.1242070000 0.4349980000 0.1691280000
0.1297300000 0.4277950000 0.1392820000
0.1614380000 0.4244380000 0.1346130000
0.2154240000 0.4234010000 0.1398620000
0.2747190000 0.4248960000 0.1423340000
0.3350220000 0.4283750000 0.1429140000
0.3938290000 0.4338380000 0.1433110000
0.4538270000 0.4399110000 0.1436460000
0.5149540000 0.4439390000 0.1427310000
0.5679320000 0.4483340000 0.1415710000
0.6204830000 0.4522400000 0.1406860000
0.6619260000 0.4515380000 0.1387940000
0.6956790000 0.4544070000 0.1390990000
0.7236630000 0.4567260000 0.1397710000
0.7498170000 0.4545900000 0.1394350000
0.7752380000 0.4557190000 0.1396180000
0.7991940000 0.4576720000 0.1392210000
0.8180850000 0.4562990000 0.1394350000
0.8407590000 0.4562380000 0.1392820000
0.8590390000 0.4581600000 0.1388850000
0.8786620000 0.4594120000 0.1380920000
0.8926090000 0.4612120000 0.1367490000
0.9038390000 0.4598690000 0.1351930000
0.9152220000 0.4620360000 0.1350710000
0.9233400000 0.4633790000 0.1343990000
0.9298400000 0.4664610000 0.1368100000
0.9360660000 0.4692080000 0.1392820000
0.9407650000 0.4721070000 0.1424260000
0.9448850000 0.4752500000 0.1457520000
0.9489440000 0.4785160000 0.1493840000
0.1345830000 0.4786990000 0.2433470000
0.1343080000 0.4776610000 0.2413640000
0.1334230000 0.4739690000 0.2288510000
0.1328120000 0.4703370000 0.1998900000
0.1346440000 0.4678040000 0.1615300000
0.1528020000 0.4656070000 0.1430050000
0.2015690000 0.4646300000 0.1460270000
0.2636720000 0.4646300000 0.1510010000
0.3270570000 0.4686280000 0.1528930000
0.3907470000 0.4735110000 0.1533200000
0.4551390000 0.4752500000 0.1535950000
0.5161130000 0.4809880000 0.1542660000
0.5742190000 0.4847110000 0.1532900000
0.6233220000 0.4889530000 0.1522520000
0.6653140000 0.4916080000 0.1507570000
0.6974490000 0.4938350000 0.1502380000
0.7262270000 0.4983220000 0.1508180000
0.7517400000 0.5009460000 0.1512450000
0.7758180000 0.5006710000 0.1510310000
0.7987670000 0.5040590000 0.1510930000
0.8204650000 0.5048220000 0.1518860000
0.8419490000 0.5063170000 0.1525570000
0.8639830000 0.5097350000 0.1512450000
0.8796390000 0.5126650000 0.1508180000
0.8936460000 0.5144960000 0.1479190000
0.9086000000 0.5159910000 0.1472780000
0.9182740000 0.5184630000 0.1478880000
0.9259640000 0.5221560000 0.1491700000
0.9323730000 0.5260010000 0.1514890000
0.9384160000 0.5296940000 0.1541440000
0.9433590000 0.5329590000 0.1577450000
0.9477840000 0.5362850000 0.1618350000
0.9519350000 0.5394290000 0.1664730000
0.1433720000 0.5050660000 0.2661130000
0.1432800000 0.5046690000 0.2646180000
0.1424870000 0.5017090000 0.2555240000
0.1427310000 0.5001830000 0.2297360000
0.1430970000 0.5005190000 0.1915280000
0.1514890000 0.5027470000 0.1570130000
0.1907960000 0.5024720000 0.1529850000
0.2515560000 0.5023190000 0.1584780000
0.3165890000 0.5046080000 0.1604610000
0.3816830000 0.5087590000 0.1611330000
0.4460450000 0.5103760000 0.1621090000
0.5111080000 0.5146180000 0.1636660000
0.5700680000 0.5167240000 0.1634520000
0.6227420000 0.5219420000 0.1628110000
0.6627200000 0.5271610000 0.1627810000
0.6953430000 0.5296630000 0.1620180000
0.7226560000 0.5348210000 0.1625370000
0.7479250000 0.5364690000 0.1625370000
0.7713930000 0.5397340000 0.1632080000
0.7936100000 0.5438230000 0.1638180000
0.8181760000 0.5454710000 0.1630860000
0.8372500000 0.5472410000 0.1627810000
0.8588870000 0.5520320000 0.1621090000
0.8755190000 0.5557250000 0.1625370000
0.8901670000 0.5567930000 0.1609190000
0.9049070000 0.5620730000 0.1605830000
0.9158020000 0.5652160000 0.1610720000
0.9236760000 0.5690920000 0.1623230000
0.9304500000 0.5730900000 0.1643980000
0.9362790000 0.5769650000 0.1664730000
0.9409790000 0.5803220000 0.1697080000
0.9452210000 0.5835880000 0.1737370000
0.9494020000 0.5869140000 0.1785280000
0.1516110000 0.5270690000 0.2790830000
0.1515810000 0.5270390000 0.2789610000
0.1513060000 0.5249940000 0.2717590000
0.1517030000 0.5249330000 0.2529300000
0.1533510000 0.5287480000 0.2193910000
0.1577450000 0.5351560000 0.1795960000
0.1825260000 0.5399170000 0.1628720000
0.2384640000 0.5373540000 0.1643980000
0.3066410000 0.5406800000 0.1683040000
0.3734740000 0.5453190000 0.1677250000
0.4373470000 0.5474550000 0.1690980000
0.5005800000 0.5462040000 0.1712340000
0.5639040000 0.5494690000 0.1729430000
0.6146550000 0.5546260000 0.1738590000
0.6612240000 0.5578920000 0.1730960000
0.6932370000 0.5637210000 0.1741030000
0.7203980000 0.5689090000 0.1741940000
0.7457580000 0.5715330000 0.1738280000
0.7683410000 0.5764160000 0.1761470000
0.7898560000 0.5794070000 0.1761470000
0.8131710000 0.5812990000 0.1763310000
0.8322140000 0.5857540000 0.1776430000
0.8534850000 0.5909120000 0.1778260000
0.8707890000 0.5908510000 0.1759340000
0.8885500000 0.5950320000 0.1732180000
0.9005430000 0.5992130000 0.1727290000
0.9101870000 0.6027220000 0.1717830000
0.9181210000 0.6064760000 0.1729740000
0.9266660000 0.6101070000 0.1742250000
0.9335330000 0.6140440000 0.1771240000
0.9383850000 0.6166990000 0.1808780000
0.9425960000 0.6188050000 0.1852720000
0.9464110000 0.6228940000 0.1907960000
0.1597900000 0.5466000000 0.2945560000
0.1597900000 0.5466310000 0.2945560000
0.1596370000 0.5459290000 0.2900090000
0.1617430000 0.5480040000 0.2746890000
0.1654050000 0.5549320000 0.2456670000
0.1683350000 0.5629880000 0.2049260000
0.1832580000 0.5722960000 0.1761470000
0.2312010000 0.5757140000 0.1709900000
0.2983700000 0.5789490000 0.1736450000
0.3664250000 0.5832820000 0.1739200000
0.4299930000 0.5821230000 0.1752320000
0.4929200000 0.5834350000 0.1782840000
0.5554500000 0.5852660000 0.1818850000
0.6077880000 0.5860600000 0.1838380000
0.6567380000 0.5910640000 0.1831050000
0.6914980000 0.5960390000 0.1844790000
0.7206120000 0.6009520000 0.1859440000
0.7460020000 0.6076050000 0.1883850000
0.7691650000 0.6101990000 0.1889950000
0.7899780000 0.6146240000 0.1909790000
0.8121030000 0.6204220000 0.1940310000
0.8336490000 0.6215520000 0.1936950000
0.8515620000 0.6259160000 0.1941830000
0.8674320000 0.6299740000 0.1923830000
0.8856200000 0.6349180000 0.1905820000
0.8974000000 0.6390380000 0.1906740000
0.9074710000 0.6403200000 0.1901550000
0.9154970000 0.6415410000 0.1900940000
0.9238280000 0.6457520000 0.1915890000
0.9310610000 0.6488340000 0.1943050000
0.9360960000 0.6513060000 0.1984860000
0.9401860000 0.6542360000 0.2032780000
0.9439390000 0.6575320000 0.2089840000
0.1686100000 0.5652470000 0.3110050000
0.1686100000 0.5652770000 0.3110050000
0.1692200000 0.5658260000 0.3069460000
0.1698910000 0.5660710000 0.2933350000
0.1761780000 0.5761110000 0.2667240000
0.1816410000 0.5883790000 0.2278140000
0.1928410000 0.6013790000 0.1945190000
0.2285160000 0.6118770000 0.1810910000
0.2904360000 0.6150820000 0.1795960000
0.3592220000 0.6170040000 0.1796570000
0.4284060000 0.6206970000 0.1825560000
0.4909970000 0.6221620000 0.1859740000
0.5518490000 0.6183470000 0.1886290000
0.6042180000 0.6211240000 0.1922300000
0.6555480000 0.6223140000 0.1941530000
0.6918330000 0.6297610000 0.1976320000
0.7224120000 0.6376340000 0.2016910000
0.7477420000 0.6398620000 0.2032470000
0.7724610000 0.6471250000 0.2064820000
0.7936400000 0.6515810000 0.2096250000
0.8147280000 0.6564940000 0.2117920000
0.8366390000 0.6614690000 0.2133790000
0.8535460000 0.6668090000 0.2154850000
0.8696900000 0.6703190000 0.2152100000
0.8863530000 0.6711430000 0.2111820000
0.8976750000 0.6745610000 0.2088930000
0.9096070000 0.6782840000 0.2081300000
0.9192500000 0.6819150000 0.2090450000
0.9259640000 0.6849670000 0.2118530000
0.9321290000 0.6884770000 0.2161250000
0.9369510000 0.6910710000 0.2208250000
0.9417420000 0.6935730000 0.2255550000
0.9463810000 0.6961980000 0.2311100000
0.1758120000 0.5801090000 0.3276670000
0.1758120000 0.5801090000 0.3276670000
0.1765140000 0.5809330000 0.3258670000
0.1787410000 0.5841370000 0.3160100000
0.1878660000 0.5978390000 0.2893370000
0.1963200000 0.6108090000 0.2517090000
0.2065730000 0.6251220000 0.2136540000
0.2338260000 0.6390080000 0.1951600000
0.2864070000 0.6494750000 0.1889950000
0.3564450000 0.6544190000 0.1876220000
0.4249270000 0.6546630000 0.1901550000
0.4931640000 0.6569520000 0.1942440000
0.5528870000 0.6578980000 0.1972960000
0.6064150000 0.6549680000 0.2015990000
0.6528630000 0.6595460000 0.2069400000
0.6937870000 0.6634220000 0.2102360000
0.7258910000 0.6695860000 0.2134700000
0.7508850000 0.6764830000 0.2196660000
0.7767640000 0.6794430000 0.2230220000
0.8001100000 0.6867370000 0.2279970000
0.8209530000 0.6936650000 0.2332460000
0.8424380000 0.6987920000 0.2361760000
0.8602290000 0.7012630000 0.2346800000
0.8778690000 0.7068180000 0.2347720000
0.8912660000 0.7116700000 0.2343140000
0.9036560000 0.7154240000 0.2345580000
0.9155580000 0.7197270000 0.2356260000
0.9241640000 0.7232670000 0.2374880000
0.9306340000 0.7262880000 0.2411500000
0.9374080000 0.7275700000 0.2442020000
0.9426270000 0.7294920000 0.2477720000
0.9467470000 0.7327580000 0.2530210000
0.9507450000 0.7362060000 0.2585750000
0.1834720000 0.5944820000 0.3426820000
0.1834720000 0.5944820000 0.3426820000
0.1839290000 0.5950620000 0.3415530000
0.1882930000 0.6013180000 0.3320920000
0.1983640000 0.6153260000 0.3100890000
0.2099910000 0.6310730000 0.2736820000
0.2223820000 0.6467900000 0.2385250000
0.2449650000 0.6633000000 0.2119450000
0.2915040000 0.6787410000 0.2016910000
0.3541870000 0.6885070000 0.1984250000
0.4219670000 0.6900020000 0.2002560000
0.4943540000 0.6902770000 0.2035220000
0.5572510000 0.6917110000 0.2085270000
0.6139220000 0.6915590000 0.2144780000
0.6600340000 0.6929020000 0.2190250000
0.6969600000 0.6986080000 0.2243040000
0.7289120000 0.7028810000 0.2301030000
0.7565610000 0.7070920000 0.2356260000
0.7830510000 0.7144470000 0.2426150000
0.8083190000 0.7211910000 0.2486270000
0.8303530000 0.7249450000 0.2503660000
0.8510740000 0.7321170000 0.2552800000
0.8708500000 0.7388920000 0.2578120000
0.8862300000 0.7446590000 0.2600400000
0.9013980000 0.7460330000 0.2580870000
0.9129640000 0.7491460000 0.2590030000
0.9225160000 0.7529910000 0.2613220000
0.9322200000 0.7571110000 0.2635190000
0.9387510000 0.7592160000 0.2668760000
0.9446110000 0.7620540000 0.2714840000
0.9483340000 0.7641300000 0.2757870000
0.9517820000 0.7662050000 0.2803340000
0.9552920000 0.7681880000 0.2846070000
0.1921690000 0.6084290000 0.3570560000
0.1921690000 0.6084290000 0.3570560000
0.1924740000 0.6088260000 0.3567200000
0.1977540000 0.6162110000 0.3489990000
0.2090450000 0.6321110000 0.3279110000
0.2222900000 0.6477970000 0.2917180000
0.2362370000 0.6637880000 0.2575380000
0.2594300000 0.6859130000 0.2328190000
0.2960210000 0.7042240000 0.2175900000
0.3568420000 0.7178040000 0.2119450000
0.4252930000 0.7233580000 0.2137150000
0.4967960000 0.7208250000 0.2150880000
0.5639340000 0.7225950000 0.2223510000
0.6213070000 0.7250670000 0.2304080000
0.6678160000 0.7238770000 0.2328800000
0.7050170000 0.7291560000 0.2401730000
0.7373350000 0.7346500000 0.2477110000
0.7653200000 0.7374880000 0.2527160000
0.7909850000 0.7427370000 0.2596740000
0.8157960000 0.7498470000 0.2669070000
0.8413700000 0.7573550000 0.2719420000
0.8609010000 0.7613530000 0.2759700000
0.8789670000 0.7668150000 0.2784420000
0.8946230000 0.7725830000 0.2809750000
0.9090880000 0.7783200000 0.2818910000
0.9191590000 0.7825320000 0.2848210000
0.9296570000 0.7863460000 0.2872310000
0.9378050000 0.7898250000 0.2914730000
0.9433590000 0.7928160000 0.2969360000
0.9491270000 0.7955020000 0.3009340000
0.9534000000 0.7976680000 0.3043820000
0.9570010000 0.7993770000 0.3074650000
0.9603270000 0.8009950000 0.3101810000
0.2014770000 0.6222530000 0.3706670000
0.2014770000 0.6222530000 0.3706670000
0.2014770000 0.6222530000 0.3706670000
0.2068480000 0.6298520000 0.3623350000
0.2189640000 0.6466980000 0.3404540000
0.2334290000 0.6621400000 0.3081670000
0.2498470000 0.6791990000 0.2758180000
0.2729800000 0.7045290000 0.2540890000
0.3057560000 0.7257390000 0.2392880000
0.3582460000 0.7433470000 0.2294010000
0.4240720000 0.7499390000 0.2291560000
0.4968260000 0.7517090000 0.2304380000
0.5650630000 0.7500310000 0.2361450000
0.6264650000 0.7527470000 0.2434080000
0.6756590000 0.7566220000 0.2502140000
0.7137150000 0.7568660000 0.2557680000
0.7455140000 0.7618100000 0.2624210000
0.7742920000 0.7671810000 0.2702330000
0.8000790000 0.7687990000 0.2745360000
