presets/N 5207.cube
TITLE "N 5207.psd"
#LUMIXPHOTOSTYLE NAT
LUT_3D_SIZE 5
0.0530400000 0.0735170000 0.1037600000
0.4025570000 0.1023860000 0.1072080000
0.7836910000 0.1228940000 0.1038510000
0.8970030000 0.1458440000 0.1242680000
0.9434510000 0.1704410000 0.1376650000
0.1190800000 0.4148860000 0.2019650000
0.3359380000 0.3850100000 0.1330570000
0.7208560000 0.4066470000 0.1270450000
0.8875730000 0.4033510000 0.1246950000
0.9453740000 0.4174190000 0.1346740000
0.1834720000 0.5944820000 0.3426820000
0.2915040000 0.6787410000 0.2016910000
0.7289120000 0.7028810000 0.2301030000
0.9013980000 0.7460330000 0.2580870000
0.9552920000 0.7681880000 0.2846070000
0.2480770000 0.6835940000 0.4053650000
0.3711240000 0.8120120000 0.3522950000
0.7870480000 0.8987430000 0.3166200000
0.9574890000 0.9396060000 0.4073180000
0.9891050000 0.9541630000 0.4562680000
0.2997440000 0.7341310000 0.4248960000
0.4475400000 0.8622740000 0.3939820000
0.8289180000 0.9573670000 0.3871770000
0.9699100000 0.9835210000 0.4923710000
0.9875790000 0.9940190000 0.5274050000
0.1029360000 0.0833440000 0.3333130000
0.3627930000 0.1017460000 0.2997740000
0.7301940000 0.1340640000 0.2979430000
0.8807980000 0.1703800000 0.3007810000
0.9503170000 0.2118230000 0.3098140000
0.0977480000 0.3205870000 0.3933110000
0.3022770000 0.3276670000 0.3291020000
0.6578060000 0.3569030000 0.3281560000
0.8581240000 0.3864440000 0.3160710000
0.9573060000 0.4305420000 0.3259890000
0.1628720000 0.5598140000 0.4551700000
0.3048100000 0.6311040000 0.3923340000
0.6918640000 0.6739200000 0.4018860000
0.8920290000 0.7225950000 0.4236450000
0.9640500000 0.7604980000 0.4233700000
0.2582700000 0.6961670000 0.4671020000
0.3700260000 0.8081050000 0.4618840000
0.7568050000 0.9053040000 0.4463200000
0.9625850000 0.9468080000 0.5118100000
0.9962770000 0.9571840000 0.5274050000
0.3393250000 0.7792050000 0.5109250000
0.4228520000 0.8522030000 0.4677730000
0.7619320000 0.9665830000 0.4214780000
0.9714050000 0.9968570000 0.5336300000
0.9995420000 1.0000000000 0.5758060000
0.1630860000 0.1075740000 0.5097350000
0.3357540000 0.1126400000 0.4625240000
0.6928100000 0.1333010000 0.4587100000
0.8791200000 0.1730960000 0.4530330000
0.9534000000 0.2436830000 0.4808040000
0.1231080000 0.2811580000 0.5576780000
0.2232970000 0.3087460000 0.5244450000
0.6407780000 0.3335880000 0.5044860000
0.8671880000 0.3560180000 0.5060420000
0.9686580000 0.4084780000 0.5344850000
0.1499020000 0.5587460000 0.6926570000
0.2206120000 0.6120610000 0.6730960000
0.6922300000 0.6681820000 0.6523440000
0.9053340000 0.7004700000 0.6492610000
0.9803160000 0.7258910000 0.6297000000
0.2534180000 0.6986080000 0.6315920000
0.3315730000 0.7810360000 0.6824040000
0.7241210000 0.8726200000 0.6936650000
0.9454650000 0.9202880000 0.7416080000
0.9949040000 0.9331670000 0.7050170000
0.3391420000 0.7890320000 0.6633300000
0.3983460000 0.8379520000 0.6571660000
0.6549680000 0.9425050000 0.6189270000
0.9328920000 0.9984740000 0.6931150000
1.0000000000 1.0000000000 0.7238160000
0.2098690000 0.1351320000 0.6030580000
0.3342900000 0.1305850000 0.5560910000
0.6235960000 0.1526490000 0.5613400000
0.8545840000 0.2130430000 0.5840150000
0.9619750000 0.2934570000 0.6334840000
0.1900940000 0.3268130000 0.7231450000
0.2376400000 0.2929990000 0.6840520000
0.6605530000 0.3022460000 0.6544190000
0.8923340000 0.3364560000 0.6594540000
0.9829410000 0.3846130000 0.6793520000
0.1481320000 0.5717160000 0.8504940000
0.2395020000 0.6019290000 0.8385620000
0.7336120000 0.6635740000 0.7922670000
0.9204710000 0.6963500000 0.7901310000
0.9860530000 0.6871030000 0.7622990000
0.2381590000 0.7059940000 0.7702640000
0.3064580000 0.7781680000 0.8540040000
0.7232360000 0.8708800000 0.8927000000
0.9431150000 0.9078370000 0.9020690000
0.9968260000 0.8920290000 0.8478700000
0.3179930000 0.7799680000 0.7652890000
0.3470150000 0.8064580000 0.7761840000
0.5345460000 0.9137570000 0.8193050000
0.8899840000 0.9702150000 0.8532710000
1.0000000000 0.9924930000 0.9069210000
0.2300720000 0.1551210000 0.6535640000
0.3266600000 0.1513980000 0.6165770000
0.6080930000 0.1742250000 0.6244510000
0.8500980000 0.2420350000 0.6687010000
0.9714970000 0.3461300000 0.7236330000
0.1725160000 0.2772830000 0.7900700000
0.2096860000 0.2094730000 0.7450260000
0.6199950000 0.2264400000 0.7117000000
0.8840330000 0.3088680000 0.7296750000
0.9923710000 0.4074710000 0.7607730000
0.1461790000 0.5782170000 0.9312440000
0.2039180000 0.5919190000 0.9412230000
0.6135860000 0.6176760000 0.8911130000
0.9111940000 0.6133120000 0.8691100000
0.9993290000 0.6278080000 0.8405760000
0.2347720000 0.7117920000 0.8611150000
0.2727660000 0.7517700000 0.9185180000
0.5250550000 0.8078920000 0.9642940000
0.8608400000 0.8304750000 0.9437260000
0.9922180000 0.8509520000 0.9233090000
0.3079830000 0.7785030000 0.8491820000
0.3249820000 0.7960510000 0.8676760000
0.4995730000 0.8951720000 0.9443660000
0.9122310000 0.9617000000 0.9761960000
1.0000000000 0.9950870000 0.9981690000
