presets/S1 5207.cube
TITLE "S1 5207.psd"
#LUMIXPHOTOSTYLE NAT
LUT_3D_SIZE 33
0.0000000000 0.0039980000 0.0164490000
0.0185850000 0.0162960000 0.0249330000
0.0648190000 0.0265810000 0.0319210000
0.1260380000 0.0323490000 0.0297240000
0.1942140000 0.0338130000 0.0251460000
0.2609860000 0.0339970000 0.0213320000
0.3154910000 0.0373840000 0.0191960000
0.3678590000 0.0405880000 0.0151060000
0.4175720000 0.0459590000 0.0153200000
0.4672240000 0.0493470000 0.0129090000
0.5138240000 0.0537110000 0.0083310000
0.5618900000 0.0582280000 0.0060120000
0.6031190000 0.0625920000 0.0018920000
0.6444400000 0.0653080000 0.0000000000
0.6776120000 0.0696410000 0.0000000000
0.7082820000 0.0736390000 0.0000000000
0.7351380000 0.0765990000 0.0000000000
0.7593990000 0.0805360000 0.0000000000
0.7792660000 0.0843510000 0.0057370000
0.7978210000 0.0887760000 0.0112000000
0.8114930000 0.0926510000 0.0168150000
0.8260500000 0.0966190000 0.0240780000
0.8374630000 0.1006160000 0.0283810000
0.8477170000 0.1041260000 0.0345460000
0.8566590000 0.1079710000 0.0428470000
0.8661190000 0.1126710000 0.0482180000
0.8744510000 0.1170960000 0.0513310000
0.8821720000 0.1214900000 0.0538940000
0.8881530000 0.1249390000 0.0577090000
0.8944090000 0.1289060000 0.0610050000
0.9006650000 0.1333620000 0.0629580000
0.9073180000 0.1379700000 0.0650940000
0.9133000000 0.1424560000 0.0665280000
0.0037230000 0.0427860000 0.0366520000
0.0226140000 0.0400700000 0.0336300000
0.0649110000 0.0485530000 0.0354610000
0.1265260000 0.0572510000 0.0304870000
0.1959230000 0.0600280000 0.0247500000
0.2572020000 0.0601810000 0.0205690000
0.3121030000 0.0609130000 0.0168460000
0.3644410000 0.0628660000 0.0133970000
0.4136960000 0.0651250000 0.0115660000
0.4620060000 0.0680850000 0.0061340000
0.5082090000 0.0709840000 0.0026550000
0.5560910000 0.0728150000 0.0000000000
0.5975950000 0.0749510000 0.0000000000
0.6358030000 0.0771480000 0.0000000000
0.6734620000 0.0803530000 0.0000000000
0.7055360000 0.0811460000 0.0000000000
0.7351380000 0.0847470000 0.0000000000
0.7593380000 0.0874330000 0.0000000000
0.7811890000 0.0906680000 0.0000000000
0.7979130000 0.0942990000 0.0000000000
0.8142700000 0.0979000000 0.0031430000
0.8294680000 0.1016850000 0.0097660000
0.8419800000 0.1053470000 0.0153500000
0.8525700000 0.1097110000 0.0191040000
0.8632510000 0.1142270000 0.0263060000
0.8716740000 0.1173100000 0.0361630000
0.8796390000 0.1211550000 0.0408630000
0.8876340000 0.1257930000 0.0446470000
0.8947450000 0.1302190000 0.0478210000
0.9017330000 0.1347050000 0.0504150000
0.9079280000 0.1390690000 0.0521850000
0.9134830000 0.1439210000 0.0545960000
0.9187320000 0.1488040000 0.0572810000
0.0108640000 0.0934450000 0.0588990000
0.0272520000 0.0849300000 0.0480350000
0.0670170000 0.0892640000 0.0436710000
0.1268310000 0.0963440000 0.0370180000
0.1981810000 0.1010130000 0.0285950000
0.2602840000 0.1022340000 0.0239560000
0.3163150000 0.1024780000 0.0206600000
0.3670350000 0.1022030000 0.0180360000
0.4155880000 0.1022030000 0.0143430000
0.4678040000 0.1020510000 0.0078740000
0.5155940000 0.1032100000 0.0027770000
0.5625310000 0.1039730000 0.0000000000
0.6040340000 0.1058960000 0.0000000000
0.6416630000 0.1066590000 0.0000000000
0.6764530000 0.1061710000 0.0000000000
0.7102970000 0.1044310000 0.0000000000
0.7380070000 0.1065370000 0.0000000000
0.7641300000 0.1055300000 0.0000000000
0.7851260000 0.1068120000 0.0000000000
0.8047180000 0.1109310000 0.0000000000
0.8218080000 0.1128230000 0.0000000000
0.8358760000 0.1148990000 0.0000000000
0.8500370000 0.1164860000 0.0006100000
0.8612060000 0.1199950000 0.0038450000
0.8708800000 0.1237180000 0.0125730000
0.8811340000 0.1275940000 0.0190430000
0.8900150000 0.1322020000 0.0261540000
0.8976750000 0.1369630000 0.0308840000
0.9046020000 0.1416020000 0.0344540000
0.9108890000 0.1460880000 0.0386350000
0.9166260000 0.1513980000 0.0415950000
0.9219060000 0.1564940000 0.0448610000
0.9270320000 0.1617130000 0.0476990000
0.0189210000 0.1537480000 0.0866700000
0.0305790000 0.1426090000 0.0673520000
0.0663760000 0.1412660000 0.0553590000
0.1285100000 0.1441960000 0.0462040000
0.1915890000 0.1476140000 0.0383000000
0.2582090000 0.1518550000 0.0322880000
0.3145450000 0.1521000000 0.0282290000
0.3679200000 0.1530460000 0.0254210000
0.4227600000 0.1543880000 0.0198970000
0.4726560000 0.1537480000 0.0149230000
0.5208130000 0.1530460000 0.0104370000
0.5720520000 0.1524350000 0.0027770000
0.6135560000 0.1532290000 0.0000000000
0.6562500000 0.1532590000 0.0000000000
0.6922610000 0.1535950000 0.0000000000
0.7243350000 0.1512150000 0.0000000000
0.7526550000 0.1525270000 0.0000000000
0.7770390000 0.1492310000 0.0000000000
0.7980650000 0.1476140000 0.0000000000
0.8179320000 0.1486510000 0.0000000000
0.8334350000 0.1509700000 0.0000000000
0.8497310000 0.1505740000 0.0000000000
0.8625180000 0.1510930000 0.0000000000
0.8762820000 0.1519780000 0.0000000000
0.8866880000 0.1544190000 0.0000000000
0.8955690000 0.1562190000 0.0042720000
0.9043880000 0.1596370000 0.0105590000
0.9125060000 0.1625060000 0.0156560000
0.9185790000 0.1653440000 0.0202030000
0.9244080000 0.1691590000 0.0246580000
0.9292600000 0.1733400000 0.0289310000
0.9338070000 0.1781310000 0.0338130000
0.9385070000 0.1839290000 0.0385130000
0.0321040000 0.2118530000 0.1187130000
0.0344540000 0.1965330000 0.0955810000
0.0610050000 0.1867980000 0.0725710000
0.1191710000 0.1879880000 0.0599980000
0.1854550000 0.1933290000 0.0510250000
0.2522580000 0.1968990000 0.0436400000
0.3077390000 0.2000730000 0.0406190000
0.3645020000 0.2020570000 0.0357060000
0.4139710000 0.2042540000 0.0310670000
0.4641110000 0.2053830000 0.0267640000
0.5174870000 0.2057190000 0.0208740000
0.5632930000 0.2064820000 0.0140080000
0.6129150000 0.2072450000 0.0075380000
0.6560060000 0.2076420000 0.0028990000
0.6968690000 0.2106020000 0.0000000000
0.7325130000 0.2114870000 0.0000000000
0.7636410000 0.2111210000 0.0000000000
0.7913210000 0.2117610000 0.0000000000
0.8141480000 0.2118530000 0.0000000000
0.8330080000 0.2129820000 0.0000000000
0.8511350000 0.2145080000 0.0000000000
0.8670040000 0.2157590000 0.0000000000
0.8821410000 0.2169800000 0.0000000000
0.8931880000 0.2159420000 0.0000610000
0.9053340000 0.2135310000 0.0016780000
0.9149480000 0.2153930000 0.0038450000
0.9223020000 0.2168880000 0.0077820000
0.9289860000 0.2183530000 0.0113530000
0.9353940000 0.2195430000 0.0148930000
0.9416500000 0.2206420000 0.0183720000
0.9461360000 0.2229610000 0.0227360000
0.9497380000 0.2254640000 0.0276490000
0.9531250000 0.2280580000 0.0331730000
0.0480040000 0.2660830000 0.1520690000
0.0469360000 0.2507320000 0.1265560000
0.0586550000 0.2364500000 0.0975040000
0.1070860000 0.2327270000 0.0775150000
0.1751710000 0.2314760000 0.0662230000
0.2370910000 0.2368770000 0.0591130000
0.2990720000 0.2439270000 0.0548400000
0.3564150000 0.2468260000 0.0488590000
0.4061280000 0.2525630000 0.0440980000
0.4543760000 0.2562260000 0.0382690000
0.5043950000 0.2584230000 0.0337830000
0.5521550000 0.2605590000 0.0270390000
0.5974730000 0.2621770000 0.0227970000
0.6427610000 0.2647400000 0.0170290000
0.6844180000 0.2670290000 0.0136720000
0.7231450000 0.2702030000 0.0101320000
0.7558590000 0.2730100000 0.0083310000
0.7845150000 0.2745970000 0.0109560000
0.8096010000 0.2776180000 0.0111690000
0.8324280000 0.2798770000 0.0137330000
0.8516540000 0.2812500000 0.0152590000
0.8701170000 0.2821350000 0.0163570000
0.8856200000 0.2826840000 0.0161740000
0.9012150000 0.2835080000 0.0163570000
0.9118960000 0.2837220000 0.0170290000
0.9246220000 0.2839970000 0.0166020000
0.9335020000 0.2861330000 0.0183410000
0.9403690000 0.2866820000 0.0204770000
0.9463200000 0.2868650000 0.0231320000
0.9513550000 0.2879030000 0.0263670000
0.9561460000 0.2893070000 0.0302730000
0.9601140000 0.2897640000 0.0347290000
0.9633480000 0.2910770000 0.0395200000
0.0660100000 0.3163760000 0.1848140000
0.0641170000 0.3059390000 0.1663210000
0.0667420000 0.2908630000 0.1351010000
0.0976870000 0.2763060000 0.1010440000
0.1611630000 0.2756350000 0.0850220000
0.2314760000 0.2786870000 0.0755310000
0.2907100000 0.2846980000 0.0686040000
0.3487240000 0.2909550000 0.0636290000
0.3985900000 0.2969670000 0.0591130000
0.4509580000 0.3039250000 0.0532840000
0.4952700000 0.3089600000 0.0478520000
0.5435490000 0.3136600000 0.0415040000
0.5873720000 0.3175960000 0.0387570000
0.6302490000 0.3213500000 0.0344540000
0.6702270000 0.3250120000 0.0316470000
0.7106020000 0.3285220000 0.0291140000
0.7423710000 0.3312380000 0.0300290000
0.7712100000 0.3319400000 0.0319210000
0.7966920000 0.3334960000 0.0337520000
0.8191530000 0.3375550000 0.0348510000
0.8427120000 0.3374020000 0.0344540000
0.8600770000 0.3381350000 0.0354310000
0.8798220000 0.3400270000 0.0342710000
0.8948060000 0.3415530000 0.0341490000
0.9099120000 0.3434450000 0.0332340000
0.9210210000 0.3453670000 0.0328370000
0.9306950000 0.3477480000 0.0333860000
0.9410710000 0.3490600000 0.0337220000
0.9485470000 0.3499760000 0.0357970000
0.9535220000 0.3512880000 0.0389400000
0.9579470000 0.3518070000 0.0425420000
0.9617310000 0.3524480000 0.0463870000
0.9648740000 0.3530880000 0.0504460000
0.0858150000 0.3634340000 0.2171940000
0.0829770000 0.3546140000 0.2008970000
0.0813290000 0.3411560000 0.1732180000
0.0973210000 0.3260800000 0.1308290000
0.1520080000 0.3202210000 0.1051030000
0.2185970000 0.3213810000 0.0948490000
0.2847290000 0.3263240000 0.0863950000
0.3397830000 0.3329770000 0.0800780000
0.3970640000 0.3399350000 0.0733030000
0.4462280000 0.3489990000 0.0685120000
0.4962770000 0.3572080000 0.0644530000
0.5395200000 0.3633730000 0.0621950000
0.5865480000 0.3712160000 0.0572510000
0.6244810000 0.3761290000 0.0557560000
0.6676640000 0.3818970000 0.0528870000
0.7019650000 0.3861390000 0.0524600000
0.7346500000 0.3854680000 0.0509950000
0.7637020000 0.3891300000 0.0520940000
0.7905270000 0.3894350000 0.0542600000
0.8149410000 0.3914180000 0.0562130000
0.8352050000 0.3924870000 0.0558170000
0.8556520000 0.3956600000 0.0540160000
0.8748170000 0.3943790000 0.0518800000
0.8899840000 0.3962100000 0.0506900000
0.9035340000 0.3985290000 0.0491640000
0.9178770000 0.3997800000 0.0465090000
0.9286500000 0.4020390000 0.0459900000
0.9371950000 0.4037170000 0.0458370000
0.9440310000 0.4052730000 0.0479130000
0.9502560000 0.4065550000 0.0509950000
0.9557500000 0.4075620000 0.0544130000
0.9600830000 0.4085080000 0.0582280000
0.9637450000 0.4094540000 0.0621950000
0.1053160000 0.4048770000 0.2485050000
0.1032710000 0.4000550000 0.2376400000
0.1006160000 0.3903810000 0.2120670000
0.1053770000 0.3769230000 0.1701050000
0.1403810000 0.3657230000 0.1307680000
0.2060550000 0.3635860000 0.1143490000
0.2762150000 0.3676450000 0.1054080000
0.3345950000 0.3736570000 0.0986940000
0.3890690000 0.3819270000 0.0932920000
0.4461980000 0.3918760000 0.0883480000
0.4935610000 0.4012450000 0.0853270000
0.5449220000 0.4122310000 0.0821840000
0.5886230000 0.4203800000 0.0786130000
0.6318360000 0.4295040000 0.0758670000
0.6713870000 0.4378050000 0.0746770000
0.7053220000 0.4391480000 0.0726010000
0.7401120000 0.4448240000 0.0725710000
0.7689510000 0.4476010000 0.0747990000
0.7954100000 0.4502560000 0.0771790000
0.8180240000 0.4493100000 0.0765990000
0.8404850000 0.4507750000 0.0750730000
0.8580020000 0.4524840000 0.0747070000
0.8771670000 0.4535830000 0.0729060000
0.8915410000 0.4571530000 0.0712590000
0.9078370000 0.4565430000 0.0663760000
0.9192810000 0.4574890000 0.0633540000
0.9288020000 0.4578550000 0.0621640000
0.9390870000 0.4597470000 0.0606690000
0.9464420000 0.4621890000 0.0620120000
0.9518740000 0.4647830000 0.0641480000
0.9562380000 0.4667360000 0.0665890000
0.9599910000 0.4682310000 0.0704960000
0.9635620000 0.4696040000 0.0744020000
0.1228940000 0.4398800000 0.2723080000
0.1217040000 0.4372860000 0.2671810000
0.1194460000 0.4307560000 0.2475590000
0.1206970000 0.4232180000 0.2102660000
0.1384280000 0.4104310000 0.1631770000
0.1935120000 0.4060360000 0.1377260000
0.2644960000 0.4093020000 0.1264650000
0.3289180000 0.4161070000 0.1191710000
0.3891600000 0.4248350000 0.1133120000
0.4431760000 0.4341430000 0.1092530000
0.4970700000 0.4447940000 0.1058650000
0.5466920000 0.4527890000 0.1022640000
0.5917660000 0.4639280000 0.1012270000
0.6358950000 0.4750060000 0.1008910000
0.6748660000 0.4822690000 0.0988160000
0.7094120000 0.4902040000 0.0991520000
0.7422790000 0.4960330000 0.0990910000
0.7722780000 0.4981690000 0.0984500000
0.8006900000 0.5029300000 0.0985110000
0.8267820000 0.5077510000 0.0977780000
0.8458250000 0.5076290000 0.0975340000
0.8669430000 0.5088200000 0.0958860000
0.8841250000 0.5118410000 0.0949100000
0.9012450000 0.5134890000 0.0912480000
0.9146120000 0.5173950000 0.0882570000
0.9259640000 0.5160830000 0.0836490000
0.9376830000 0.5192260000 0.0813900000
0.9463200000 0.5235290000 0.0781250000
0.9525150000 0.5260010000 0.0804750000
0.9582820000 0.5281980000 0.0834050000
0.9627380000 0.5298770000 0.0871890000
0.9668270000 0.5313110000 0.0912480000
0.9708250000 0.5327150000 0.0955510000
0.1384580000 0.4686580000 0.2942200000
0.1376340000 0.4672550000 0.2922970000
0.1365970000 0.4644780000 0.2783510000
0.1358950000 0.4588930000 0.2478640000
0.1443480000 0.4520260000 0.1992490000
0.1812130000 0.4473880000 0.1631770000
0.2500310000 0.4489440000 0.1472170000
0.3218690000 0.4548950000 0.1394040000
0.3847350000 0.4631350000 0.1337890000
0.4420780000 0.4720150000 0.1293640000
0.4948120000 0.4794310000 0.1254880000
0.5445250000 0.4898990000 0.1230770000
0.5924990000 0.5002140000 0.1212770000
0.6358950000 0.5113830000 0.1204830000
0.6755070000 0.5185850000 0.1182250000
0.7105100000 0.5271000000 0.1179200000
0.7459410000 0.5362850000 0.1183170000
0.7756040000 0.5410160000 0.1180420000
0.8029790000 0.5454410000 0.1175840000
0.8280940000 0.5515140000 0.1169430000
0.8501590000 0.5535580000 0.1166080000
0.8698120000 0.5560610000 0.1159060000
0.8909910000 0.5617980000 0.1142580000
0.9054260000 0.5654300000 0.1118470000
0.9198300000 0.5687560000 0.1049190000
0.9338070000 0.5722960000 0.1021120000
0.9431460000 0.5762940000 0.1019900000
0.9520570000 0.5805970000 0.1018370000
0.9591980000 0.5840150000 0.1037900000
0.9659420000 0.5863340000 0.1064150000
0.9707340000 0.5881350000 0.1102910000
0.9750060000 0.5899050000 0.1145020000
0.9786990000 0.5917360000 0.1191710000
0.1520690000 0.4906010000 0.3149410000
0.1516420000 0.4898680000 0.3121640000
0.1503600000 0.4877620000 0.3028870000
0.1508480000 0.4867860000 0.2778630000
0.1562810000 0.4857790000 0.2358090000
0.1778870000 0.4817200000 0.1904600000
0.2370300000 0.4844360000 0.1679690000
0.3087770000 0.4902340000 0.1605830000
0.3754880000 0.4977110000 0.1532590000
0.4340520000 0.5051270000 0.1477970000
0.4890750000 0.5109860000 0.1426090000
0.5411380000 0.5202640000 0.1397090000
0.5877380000 0.5292360000 0.1376950000
0.6328120000 0.5396420000 0.1368100000
0.6728820000 0.5482480000 0.1359250000
0.7093510000 0.5565800000 0.1348880000
0.7420650000 0.5657040000 0.1351320000
0.7720950000 0.5714110000 0.1346440000
0.7996220000 0.5775450000 0.1341250000
0.8244630000 0.5840450000 0.1336980000
0.8501890000 0.5873410000 0.1318360000
0.8684080000 0.5928340000 0.1290590000
0.8895260000 0.5994870000 0.1272280000
0.9042360000 0.6025700000 0.1264650000
0.9181820000 0.6062320000 0.1240840000
0.9331670000 0.6123350000 0.1218570000
0.9434200000 0.6171880000 0.1215210000
0.9522710000 0.6217960000 0.1217650000
0.9596860000 0.6257320000 0.1233830000
0.9666440000 0.6288150000 0.1253360000
0.9714660000 0.6311950000 0.1286930000
0.9756470000 0.6333920000 0.1327510000
0.9795230000 0.6353450000 0.1373600000
0.1633000000 0.5060730000 0.3264470000
0.1630250000 0.5057070000 0.3253780000
0.1627200000 0.5051880000 0.3176570000
0.1636350000 0.5061650000 0.3002930000
0.1687320000 0.5092770000 0.2651980000
0.1833500000 0.5117800000 0.2195740000
0.2240300000 0.5157470000 0.1896670000
0.2954710000 0.5209660000 0.1773990000
0.3661500000 0.5285030000 0.1729430000
0.4278870000 0.5350650000 0.1651310000
0.4820250000 0.5394900000 0.1590580000
0.5320740000 0.5462040000 0.1554870000
0.5816650000 0.5555110000 0.1531680000
0.6251830000 0.5641170000 0.1517330000
0.6688540000 0.5725400000 0.1504210000
0.7060850000 0.5828860000 0.1508180000
0.7394710000 0.5920720000 0.1502990000
0.7705080000 0.5991210000 0.1474610000
0.7967830000 0.6067500000 0.1491700000
0.8216860000 0.6114200000 0.1476750000
0.8465580000 0.6175840000 0.1461180000
0.8666690000 0.6242370000 0.1448360000
0.8861080000 0.6291810000 0.1439210000
0.9012760000 0.6317440000 0.1426090000
0.9190060000 0.6384280000 0.1394040000
0.9307860000 0.6438900000 0.1380310000
0.9408570000 0.6492920000 0.1349180000
0.9501650000 0.6526790000 0.1342470000
0.9591060000 0.6565250000 0.1346440000
0.9657290000 0.6604310000 0.1376650000
0.9698790000 0.6614990000 0.1408690000
0.9736630000 0.6623540000 0.1445310000
0.9768680000 0.6644590000 0.1494140000
0.1739200000 0.5191960000 0.3393860000
0.1738280000 0.5191350000 0.3390500000
0.1738280000 0.5191960000 0.3334350000
0.1754760000 0.5211490000 0.3187560000
0.1813050000 0.5275570000 0.2891850000
0.1917720000 0.5334470000 0.2472230000
0.2229920000 0.5415950000 0.2105710000
0.2835390000 0.5505980000 0.1950680000
0.3536990000 0.5590820000 0.1899720000
0.4183960000 0.5640260000 0.1817320000
0.4727780000 0.5664980000 0.1754760000
0.5225830000 0.5732730000 0.1719060000
0.5725710000 0.5816650000 0.1690060000
0.6172790000 0.5878600000 0.1662600000
0.6654360000 0.6000670000 0.1636050000
0.7050170000 0.6081850000 0.1618040000
0.7394710000 0.6179200000 0.1621090000
0.7698970000 0.6279910000 0.1629330000
0.7972720000 0.6341550000 0.1617130000
0.8214110000 0.6414790000 0.1623230000
0.8450320000 0.6490780000 0.1637570000
0.8670650000 0.6523440000 0.1614990000
0.8845520000 0.6583860000 0.1610720000
0.9005130000 0.6645810000 0.1583860000
0.9179380000 0.6710510000 0.1557920000
0.9292600000 0.6760560000 0.1549070000
0.9407960000 0.6778870000 0.1518860000
0.9486080000 0.6803590000 0.1516110000
0.9577030000 0.6845700000 0.1518860000
0.9642030000 0.6879880000 0.1547850000
0.9685670000 0.6900940000 0.1583860000
0.9722600000 0.6918030000 0.1622620000
0.9754030000 0.6936040000 0.1673890000
0.1829220000 0.5298160000 0.3511660000
0.1829220000 0.5298160000 0.3511960000
0.1830140000 0.5299990000 0.3465270000
0.1845400000 0.5320430000 0.3339840000
0.1918030000 0.5408630000 0.3073730000
0.2048340000 0.5530700000 0.2709350000
0.2278440000 0.5659480000 0.2351070000
0.2752990000 0.5791630000 0.2148130000
0.3418880000 0.5870360000 0.2059940000
0.4082640000 0.5937810000 0.1990050000
0.4669490000 0.5984500000 0.1938780000
0.5161440000 0.6031800000 0.1895140000
0.5663150000 0.6080020000 0.1846620000
0.6117860000 0.6176450000 0.1804500000
0.6614990000 0.6252440000 0.1774600000
0.7022710000 0.6365970000 0.1786500000
0.7388000000 0.6479190000 0.1804200000
0.7705690000 0.6543880000 0.1793520000
0.7984010000 0.6643680000 0.1808780000
0.8232730000 0.6715390000 0.1809080000
0.8458860000 0.6779480000 0.1806950000
0.8686520000 0.6863100000 0.1808170000
0.8855900000 0.6925960000 0.1824340000
0.9023130000 0.6969910000 0.1807860000
0.9187320000 0.7006840000 0.1765750000
0.9308780000 0.7062680000 0.1741940000
0.9433590000 0.7117610000 0.1718750000
0.9521480000 0.7159730000 0.1716920000
0.9589540000 0.7193300000 0.1735230000
0.9647830000 0.7224430000 0.1768490000
0.9694210000 0.7247620000 0.1804200000
0.9738770000 0.7266240000 0.1839600000
0.9780270000 0.7284240000 0.1889650000
0.1903990000 0.5387880000 0.3641660000
0.1903990000 0.5387880000 0.3641660000
0.1906430000 0.5390320000 0.3618770000
0.1938780000 0.5430600000 0.3502200000
0.2036740000 0.5554200000 0.3256230000
0.2168580000 0.5689700000 0.2899170000
0.2388920000 0.5870060000 0.2550050000
0.2771300000 0.6038210000 0.2335510000
0.3345030000 0.6193240000 0.2250060000
0.4037780000 0.6262510000 0.2165220000
0.4607240000 0.6289060000 0.2116700000
0.5141300000 0.6341250000 0.2073970000
0.5636290000 0.6419370000 0.2019650000
0.6100160000 0.6463010000 0.1972050000
0.6544800000 0.6565250000 0.1968990000
0.6997680000 0.6635130000 0.1951600000
0.7389530000 0.6756900000 0.1958310000
0.7707820000 0.6863400000 0.1985780000
0.8000790000 0.6923520000 0.1990970000
0.8275150000 0.7029110000 0.2012630000
0.8495480000 0.7116390000 0.2041630000
0.8713680000 0.7180480000 0.2053830000
0.8907470000 0.7229920000 0.2042540000
0.9084170000 0.7306820000 0.2023620000
0.9223630000 0.7372440000 0.2008360000
0.9353330000 0.7428590000 0.1997680000
0.9471440000 0.7478030000 0.1992190000
0.9552920000 0.7516170000 0.2001950000
0.9621580000 0.7546690000 0.2022400000
0.9689940000 0.7557070000 0.2031860000
0.9740600000 0.7574160000 0.2052000000
0.9777830000 0.7601010000 0.2099300000
0.9809570000 0.7627260000 0.2153320000
0.1975100000 0.5476380000 0.3743590000
0.1975100000 0.5476380000 0.3743590000
0.1985170000 0.5490110000 0.3722840000
0.2035220000 0.5552980000 0.3619080000
0.2140200000 0.5681760000 0.3417360000
0.2304080000 0.5861820000 0.3096620000
0.2517700000 0.6068120000 0.2775880000
0.2829280000 0.6275020000 0.2533260000
0.3352050000 0.6481630000 0.2432560000
0.3980100000 0.6618960000 0.2364500000
0.4576110000 0.6617430000 0.2297360000
0.5145870000 0.6666260000 0.2254640000
0.5651250000 0.6736150000 0.2206730000
0.6127010000 0.6793520000 0.2171940000
0.6571040000 0.6870420000 0.2155150000
0.6993410000 0.6976620000 0.2144780000
0.7374270000 0.7057500000 0.2155460000
0.7722780000 0.7146910000 0.2177430000
0.8025820000 0.7250670000 0.2215270000
0.8315730000 0.7343140000 0.2248840000
0.8554080000 0.7406920000 0.2248230000
0.8761600000 0.7492680000 0.2270810000
0.8973390000 0.7579040000 0.2284240000
0.9129640000 0.7648320000 0.2298280000
0.9295650000 0.7677610000 0.2252200000
0.9411620000 0.7730410000 0.2256160000
0.9506840000 0.7775570000 0.2269290000
0.9612430000 0.7824100000 0.2266850000
0.9677430000 0.7854610000 0.2294620000
0.9733280000 0.7881470000 0.2325440000
0.9775390000 0.7901610000 0.2356570000
0.9811710000 0.7918400000 0.2389830000
0.9845280000 0.7935490000 0.2423100000
0.2054440000 0.5585020000 0.3840330000
0.2054440000 0.5585020000 0.3840330000
0.2065120000 0.5598750000 0.3828120000
0.2128300000 0.5675350000 0.3735660000
0.2250670000 0.5819400000 0.3534850000
0.2428280000 0.6017460000 0.3253170000
0.2648620000 0.6248780000 0.2950740000
0.2954100000 0.6513060000 0.2730410000
0.3390810000 0.6763920000 0.2623900000
0.3976750000 0.6932370000 0.2551880000
0.4590150000 0.7009280000 0.2514650000
0.5179140000 0.7007140000 0.2425840000
0.5701900000 0.7069700000 0.2398680000
0.6167600000 0.7142640000 0.2385560000
0.6621700000 0.7185970000 0.2327880000
0.7035830000 0.7279360000 0.2344970000
0.7424930000 0.7377320000 0.2376100000
0.7769170000 0.7438660000 0.2388920000
0.8074040000 0.7527470000 0.2420350000
0.8349300000 0.7620540000 0.2460330000
0.8613590000 0.7712100000 0.2481690000
0.8818970000 0.7759700000 0.2484440000
0.9009700000 0.7837220000 0.2507930000
0.9182740000 0.7911380000 0.2516170000
0.9331670000 0.7978820000 0.2507020000
0.9449160000 0.8032230000 0.2512820000
0.9558110000 0.8078920000 0.2528990000
0.9637450000 0.8114010000 0.2550960000
0.9694210000 0.8141480000 0.2585450000
0.9756470000 0.8167720000 0.2605590000
0.9802550000 0.8194890000 0.2633060000
0.9839480000 0.8212280000 0.2654720000
0.9875790000 0.8227840000 0.2675480000
0.2138370000 0.5701290000 0.3925170000
0.2138370000 0.5701290000 0.3925170000
0.2144170000 0.5708620000 0.3918150000
0.2225340000 0.5804750000 0.3818050000
0.2361150000 0.5957340000 0.3630980000
0.2544560000 0.6161500000 0.3381040000
0.2778630000 0.6430660000 0.3115540000
0.3080750000 0.6754460000 0.2950740000
0.3485110000 0.7020870000 0.2836910000
0.4013670000 0.7227780000 0.2748410000
0.4619750000 0.7325740000 0.2698360000
0.5205990000 0.7367860000 0.2624820000
0.5723880000 0.7387700000 0.2584840000
0.6208500000 0.7452700000 0.2569890000
0.6702580000 0.7539980000 0.2554630000
0.7119750000 0.7576290000 0.2541810000
0.7494810000 0.7661440000 0.2570190000
0.7836910000 0.7746890000 0.2599790000
0.8138730000 0.7787780000 0.2606510000
