presets/S1 5207.cube
TITLE "S1 5207.psd"
#LUMIXPHOTOSTYLE NAT
LUT_3D_SIZE 5
0.0000000000 0.0039980000 0.0164490000
0.4175720000 0.0459590000 0.0153200000
0.7351380000 0.0765990000 0.0000000000
0.8566590000 0.1079710000 0.0428470000
0.9133000000 0.1424560000 0.0665280000
0.1053160000 0.4048770000 0.2485050000
0.3890690000 0.3819270000 0.0932920000
0.7401120000 0.4448240000 0.0725710000
0.9078370000 0.4565430000 0.0663760000
0.9635620000 0.4696040000 0.0744020000
0.1975100000 0.5476380000 0.3743590000
0.3352050000 0.6481630000 0.2432560000
0.7374270000 0.7057500000 0.2155460000
0.9295650000 0.7677610000 0.2252200000
0.9845280000 0.7935490000 0.2423100000
0.2627560000 0.6336060000 0.4211120000
0.4124760000 0.8007200000 0.3917850000
0.7895510000 0.8917240000 0.3313900000
0.9681700000 0.9308170000 0.3749690000
0.9997860000 0.9409790000 0.4137880000
0.3202510000 0.7073670000 0.4476930000
0.4694210000 0.8431400000 0.4312440000
0.8258670000 0.9371950000 0.4006040000
0.9664000000 0.9599300000 0.4679870000
0.9846500000 0.9686890000 0.5054320000
0.0692440000 0.0345460000 0.2493900000
0.3356930000 0.0464780000 0.2149960000
0.6227720000 0.0926820000 0.2262880000
0.8118290000 0.1546940000 0.2464900000
0.9061280000 0.1996460000 0.2619930000
0.0527340000 0.3020940000 0.4024050000
0.2941590000 0.2934570000 0.2942500000
0.6013490000 0.3324580000 0.2837520000
0.8268740000 0.3709410000 0.2763670000
0.9362490000 0.4120180000 0.2831730000
0.1728520000 0.5325320000 0.4712830000
0.3046260000 0.5787660000 0.3924260000
0.6430360000 0.6389160000 0.3715520000
0.8846130000 0.7062680000 0.3816220000
0.9745180000 0.7525630000 0.3702700000
0.2719420000 0.6509400000 0.4768680000
0.3924260000 0.7916260000 0.4898380000
0.7305300000 0.8813780000 0.4518740000
0.9601750000 0.9256290000 0.4751590000
1.0000000000 0.9374080000 0.4828490000
0.3630680000 0.7655940000 0.5335690000
0.4345400000 0.8265080000 0.4985960000
0.7435000000 0.9399720000 0.4525450000
0.9633480000 0.9690550000 0.5177920000
0.9942930000 0.9768370000 0.5594480000
0.1564640000 0.0679020000 0.3956910000
0.3073730000 0.0704350000 0.3474120000
0.5820310000 0.1025700000 0.3568120000
0.7935180000 0.1638180000 0.3814700000
0.9102480000 0.2439580000 0.4330750000
0.0968020000 0.2648620000 0.5495910000
0.2162480000 0.2767940000 0.4935910000
0.5705570000 0.3124080000 0.4607240000
0.8264470000 0.3546140000 0.4818420000
0.9366760000 0.4118960000 0.5164790000
0.1506960000 0.5302730000 0.7005000000
0.2299500000 0.5635070000 0.6742860000
0.6270140000 0.6235960000 0.6436160000
0.8822630000 0.6788940000 0.6459050000
0.9732360000 0.7043460000 0.6156620000
0.2644960000 0.6615910000 0.6587220000
0.3450010000 0.7563480000 0.7243650000
0.6729130000 0.8439330000 0.7248540000
0.9325260000 0.8988040000 0.7553710000
0.9946290000 0.9087220000 0.6969300000
0.3560790000 0.7657470000 0.7036740000
0.4135740000 0.8132320000 0.6925660000
0.5950010000 0.8992000000 0.6757810000
0.9034730000 0.9614870000 0.7085270000
0.9964600000 0.9792180000 0.7388000000
0.2091370000 0.0993040000 0.5031740000
0.3125920000 0.0996700000 0.4472350000
0.5477290000 0.1227720000 0.4646610000
0.7915040000 0.2029110000 0.5331420000
0.9207460000 0.2998960000 0.6196290000
0.1709290000 0.2696530000 0.6972960000
0.2145390000 0.2372740000 0.6467290000
0.5909420000 0.2775270000 0.6293950000
0.8459470000 0.3349000000 0.6596070000
0.9421390000 0.3901370000 0.6853640000
0.1503600000 0.5316470000 0.8706670000
0.2488710000 0.5484920000 0.8540340000
0.6638180000 0.6185300000 0.8283390000
0.8873600000 0.6694030000 0.8300780000
0.9611510000 0.6622310000 0.7896120000
0.2565310000 0.6734620000 0.8213810000
0.3334960000 0.7595210000 0.9087220000
0.6748050000 0.8437190000 0.9277040000
0.9124450000 0.8786010000 0.9168700000
0.9845280000 0.8660890000 0.8610840000
0.3396000000 0.7603450000 0.8305360000
0.3710330000 0.7882390000 0.8406980000
0.5154110000 0.8780520000 0.8705750000
0.8493650000 0.9347840000 0.8795170000
0.9849240000 0.9577330000 0.9156190000
0.2250980000 0.1187740000 0.5652160000
0.3073730000 0.1190490000 0.5238340000
0.5428470000 0.1520390000 0.5564270000
0.8060300000 0.2366330000 0.6552120000
0.9372560000 0.3526610000 0.7435300000
0.1295170000 0.2151490000 0.7727360000
0.1926570000 0.1673280000 0.7082820000
0.5662540000 0.2093810000 0.6861570000
0.8476260000 0.3042600000 0.7448120000
0.9537050000 0.4095460000 0.7881770000
0.1383970000 0.5386050000 0.9494020000
0.2078250000 0.5374450000 0.9504390000
0.5556340000 0.5572200000 0.9101870000
0.8589480000 0.5802920000 0.8923650000
0.9640500000 0.6076350000 0.8707280000
0.2567750000 0.6857600000 0.9092100000
0.2924800000 0.7289430000 0.9612430000
0.4995120000 0.7770080000 0.9859010000
0.8149720000 0.7983700000 0.9589540000
0.9703060000 0.8300480000 0.9374080000
0.3302920000 0.7593690000 0.9023740000
0.3538820000 0.7835390000 0.9234920000
0.5008850000 0.8668210000 0.9799190000
0.8768310000 0.9249880000 0.9869690000
0.9969790000 0.9623720000 1.0000000000
