presets/S2 5207.cube
TITLE "S2 5207.psd"
#LUMIXPHOTOSTYLE NAT
LUT_3D_SIZE 5
0.0048520000 0.0000000000 0.0043640000
0.3165890000 0.0249330000 0.0099490000
0.6069030000 0.0147710000 0.0000000000
0.7500310000 0.0231020000 0.0000000000
0.8398130000 0.0606380000 0.0000000000
0.0048830000 0.2860410000 0.1219180000
0.3379820000 0.3616940000 0.0724180000
0.6292420000 0.3827820000 0.0389710000
0.7981260000 0.3789060000 0.0498050000
0.8438720000 0.3939210000 0.0796510000
0.0330510000 0.4161680000 0.2319640000
0.3313900000 0.5896300000 0.1632690000
0.6721500000 0.6807560000 0.1465450000
0.8355410000 0.7327270000 0.1625060000
0.8844910000 0.7394100000 0.2038880000
0.0756840000 0.4802550000 0.2880860000
0.4018250000 0.6859130000 0.2319030000
0.6853030000 0.8004150000 0.2539670000
0.8370360000 0.8631290000 0.3023380000
0.9174500000 0.8955690000 0.3526000000
0.1596370000 0.5524290000 0.2918090000
0.4866030000 0.7434390000 0.2828060000
0.6966550000 0.8257750000 0.3330080000
0.8109740000 0.8654170000 0.4190060000
0.8379520000 0.8723450000 0.4610600000
0.0190430000 0.0000000000 0.1862490000
0.2490840000 0.0294490000 0.1665950000
0.5299070000 0.0597530000 0.1628420000
0.7267150000 0.0958860000 0.1656190000
0.8358150000 0.1622010000 0.1910710000
0.0209660000 0.2115780000 0.3363040000
0.2933960000 0.3139340000 0.3031010000
0.5674740000 0.3527530000 0.2774350000
0.7590030000 0.3722530000 0.2501530000
0.8520810000 0.4015500000 0.2309270000
0.0438540000 0.3881840000 0.3755800000
0.3257140000 0.5304570000 0.3901060000
0.6246340000 0.6334840000 0.3799130000
0.8130490000 0.6861570000 0.3607180000
0.8885800000 0.7171330000 0.3353270000
0.1142580000 0.5063480000 0.3725590000
0.3401490000 0.6674800000 0.3461610000
0.6621700000 0.8001400000 0.3640140000
0.8750310000 0.8829650000 0.4096070000
0.9420470000 0.8985600000 0.4371030000
0.2199400000 0.6029660000 0.3656920000
0.4156190000 0.7326660000 0.3348690000
0.6671750000 0.8283690000 0.3771670000
0.8105770000 0.8660890000 0.4653630000
0.8444520000 0.8781430000 0.5086980000
0.0124820000 0.0000000000 0.3172910000
0.1609190000 0.0086980000 0.2690730000
0.4797360000 0.0414430000 0.2712100000
0.7448730000 0.0903930000 0.2822570000
0.8401790000 0.1861270000 0.3284610000
0.0682680000 0.2244570000 0.5049440000
0.2024230000 0.2758480000 0.4796450000
0.5406490000 0.3418580000 0.4470210000
0.7584840000 0.3488160000 0.4215390000
0.8576050000 0.3948670000 0.4354550000
0.0670170000 0.4030760000 0.6264950000
0.2727360000 0.5100100000 0.6308900000
0.6263730000 0.6149290000 0.6187440000
0.8183590000 0.6694340000 0.6246950000
0.8789370000 0.6832890000 0.5966190000
0.1544490000 0.5278020000 0.5987240000
0.3472290000 0.6477360000 0.6505130000
0.6682740000 0.7714540000 0.6833190000
0.8439940000 0.8469540000 0.7349240000
0.9000240000 0.8536070000 0.6788640000
0.2793580000 0.6386110000 0.6132810000
0.3723140000 0.7012630000 0.5884090000
0.6017150000 0.7892760000 0.5868840000
0.7817690000 0.8548280000 0.6383670000
0.8609620000 0.8841250000 0.6709290000
0.0086060000 0.0000000000 0.4344790000
0.1216430000 0.0044860000 0.3563540000
0.4095460000 0.0048520000 0.3417360000
0.7253110000 0.0986330000 0.4117740000
0.8674620000 0.2724910000 0.5008540000
0.1284180000 0.2694090000 0.6523740000
0.1920470000 0.2702940000 0.6199950000
0.5509950000 0.3018800000 0.5638120000
0.7771300000 0.3254700000 0.5444340000
0.8659360000 0.3761900000 0.5685120000
0.1118770000 0.4393620000 0.8361510000
0.2720030000 0.4930110000 0.7894290000
0.6488950000 0.6097410000 0.7871700000
0.8367310000 0.6800230000 0.7918700000
0.8832400000 0.6610410000 0.7352290000
0.1822510000 0.5444340000 0.7914730000
0.3909910000 0.6703490000 0.8533020000
0.7024230000 0.7876280000 0.8755190000
0.8606260000 0.8501280000 0.8874510000
0.9195860000 0.8381040000 0.8389590000
0.3002320000 0.6406250000 0.7898860000
0.3661500000 0.6930540000 0.8019410000
0.5879820000 0.7802730000 0.7987060000
0.7889400000 0.8560180000 0.8231810000
0.9290160000 0.9282840000 0.8827210000
0.0061040000 0.0000000000 0.4963680000
0.0886230000 0.0021970000 0.4335630000
0.4049070000 0.0056150000 0.4332890000
0.7619630000 0.1261600000 0.5036620000
0.8933110000 0.3431700000 0.6288150000
0.1435240000 0.2841490000 0.7545470000
0.1203920000 0.1689760000 0.7081600000
0.4979250000 0.1727290000 0.6204530000
0.8171390000 0.3245850000 0.6683650000
0.9020690000 0.4148860000 0.7014770000
0.1423340000 0.4541020000 0.8772890000
0.2443540000 0.4899290000 0.8647770000
0.5497440000 0.5660710000 0.8580020000
0.8060300000 0.6072390000 0.8406980000
0.9044190000 0.6187440000 0.8157650000
0.2048950000 0.5467830000 0.8485410000
0.3535770000 0.6398930000 0.9146730000
0.6093440000 0.7334900000 0.9392400000
0.7847900000 0.7785640000 0.9263920000
0.9222110000 0.8233950000 0.9183040000
0.3272090000 0.6580510000 0.8808290000
0.4201970000 0.7288510000 0.9373470000
0.6513060000 0.8143310000 0.9671020000
0.8410640000 0.8788150000 0.9717100000
0.9664310000 0.9590150000 0.9986270000
