presets/S2 5207.cube
TITLE "S2 5207.psd"
#LUMIXPHOTOSTYLE NAT
LUT_3D_SIZE 33
0.0048520000 0.0000000000 0.0043640000
0.0188900000 0.0000000000 0.0064090000
0.0455320000 0.0028380000 0.0199890000
0.0698850000 0.0191650000 0.0258480000
0.1188050000 0.0274960000 0.0267030000
0.1768490000 0.0283810000 0.0234380000
0.2203980000 0.0252380000 0.0173030000
0.2653200000 0.0237120000 0.0134580000
0.3165890000 0.0249330000 0.0099490000
0.3650210000 0.0262450000 0.0079040000
0.4068600000 0.0258790000 0.0035710000
0.4507750000 0.0229190000 0.0000000000
0.4894710000 0.0204770000 0.0000000000
0.5268860000 0.0170290000 0.0000000000
0.5572200000 0.0161130000 0.0000000000
0.5849000000 0.0154720000 0.0000000000
0.6069030000 0.0147710000 0.0000000000
0.6246340000 0.0150450000 0.0000000000
0.6424560000 0.0151060000 0.0000000000
0.6611630000 0.0151060000 0.0000000000
0.6791690000 0.0165710000 0.0000000000
0.6988530000 0.0167240000 0.0000000000
0.7156070000 0.0185240000 0.0000000000
0.7337650000 0.0216060000 0.0000000000
0.7500310000 0.0231020000 0.0000000000
0.7659300000 0.0275270000 0.0000000000
0.7803960000 0.0315250000 0.0000000000
0.7921750000 0.0359190000 0.0000000000
0.8028870000 0.0406490000 0.0000000000
0.8129880000 0.0443730000 0.0000000000
0.8224180000 0.0486450000 0.0000000000
0.8311460000 0.0545040000 0.0000000000
0.8398130000 0.0606380000 0.0000000000
0.0236510000 0.0096130000 0.0250240000
0.0298460000 0.0084530000 0.0251160000
0.0490720000 0.0225220000 0.0331730000
0.0794980000 0.0355830000 0.0361940000
0.1300960000 0.0438540000 0.0366820000
0.1845400000 0.0457760000 0.0327150000
0.2280270000 0.0450130000 0.0266110000
0.2774960000 0.0443120000 0.0219420000
0.3271180000 0.0448610000 0.0169680000
0.3739320000 0.0445250000 0.0119320000
0.4126590000 0.0431820000 0.0061950000
0.4547420000 0.0413820000 0.0000000000
0.4901730000 0.0372920000 0.0000000000
0.5232850000 0.0337830000 0.0000000000
0.5551150000 0.0334170000 0.0000000000
0.5818180000 0.0299380000 0.0000000000
0.6051940000 0.0299380000 0.0000000000
0.6230470000 0.0285640000 0.0000000000
0.6423030000 0.0290830000 0.0000000000
0.6589660000 0.0292970000 0.0000000000
0.6795350000 0.0288390000 0.0000000000
0.7001950000 0.0288700000 0.0000000000
0.7207640000 0.0296330000 0.0000000000
0.7380070000 0.0318300000 0.0000000000
0.7566220000 0.0351260000 0.0000000000
0.7724910000 0.0368960000 0.0000000000
0.7868040000 0.0399170000 0.0000000000
0.7992860000 0.0445250000 0.0000000000
0.8097230000 0.0488590000 0.0000000000
0.8199770000 0.0532530000 0.0000000000
0.8291930000 0.0574040000 0.0000000000
0.8371890000 0.0631710000 0.0000000000
0.8430480000 0.0710140000 0.0000000000
0.0360410000 0.0377500000 0.0470890000
0.0419010000 0.0393980000 0.0476070000
0.0576480000 0.0501400000 0.0482480000
0.0948790000 0.0683290000 0.0517880000
0.1467900000 0.0803830000 0.0491330000
0.1983030000 0.0841670000 0.0444340000
0.2459110000 0.0858150000 0.0399480000
0.2955320000 0.0874940000 0.0350040000
0.3414310000 0.0840760000 0.0278020000
0.3901060000 0.0775150000 0.0165710000
0.4304500000 0.0744930000 0.0093380000
0.4696040000 0.0718380000 0.0017700000
0.5045470000 0.0700990000 0.0000000000
0.5350650000 0.0682680000 0.0000000000
0.5633240000 0.0662540000 0.0000000000
0.5874630000 0.0627140000 0.0000000000
0.6090090000 0.0625920000 0.0000000000
0.6291810000 0.0575560000 0.0000000000
0.6483150000 0.0541380000 0.0000000000
0.6699830000 0.0538640000 0.0000000000
0.6922610000 0.0533140000 0.0000000000
0.7116700000 0.0512700000 0.0000000000
0.7341000000 0.0476070000 0.0000000000
0.7529300000 0.0479740000 0.0000000000
0.7691650000 0.0501710000 0.0000000000
0.7836300000 0.0533750000 0.0000000000
0.7978210000 0.0575560000 0.0000000000
0.8088380000 0.0617370000 0.0000000000
0.8183900000 0.0658870000 0.0000000000
0.8271480000 0.0705870000 0.0000000000
0.8345340000 0.0760190000 0.0000000000
0.8410030000 0.0823060000 0.0000000000
0.8464360000 0.0897830000 0.0000000000
0.0346070000 0.0748290000 0.0600890000
0.0411070000 0.0796200000 0.0606080000
0.0564880000 0.0923460000 0.0599670000
0.0922240000 0.1095580000 0.0591130000
0.1394960000 0.1246340000 0.0553590000
0.1893010000 0.1267400000 0.0463260000
0.2366940000 0.1289670000 0.0404660000
0.2845760000 0.1304930000 0.0373540000
0.3389890000 0.1279910000 0.0296330000
0.3894040000 0.1240540000 0.0212400000
0.4290470000 0.1200260000 0.0154720000
0.4698490000 0.1187440000 0.0108030000
0.5022890000 0.1145020000 0.0070800000
0.5332950000 0.1123050000 0.0021970000
0.5588680000 0.1134640000 0.0000000000
0.5888980000 0.1088870000 0.0000000000
0.6156310000 0.1065980000 0.0000000000
0.6437380000 0.1002200000 0.0000000000
0.6692200000 0.0966490000 0.0000000000
0.6947940000 0.0943600000 0.0000000000
0.7150270000 0.0942990000 0.0000000000
0.7358700000 0.0912170000 0.0000000000
0.7528080000 0.0891720000 0.0000000000
0.7692870000 0.0884700000 0.0000000000
0.7824100000 0.0896910000 0.0000000000
0.7936100000 0.0910640000 0.0000000000
0.8047180000 0.0939940000 0.0000000000
0.8150020000 0.0969540000 0.0000000000
0.8234560000 0.0999760000 0.0000000000
0.8312990000 0.1035460000 0.0000000000
0.8381650000 0.1074520000 0.0000000000
0.8450930000 0.1128540000 0.0000000000
0.8505250000 0.1202390000 0.0000000000
0.0248110000 0.1263120000 0.0704650000
0.0305790000 0.1280820000 0.0698850000
0.0476990000 0.1403500000 0.0690000000
0.0834660000 0.1573180000 0.0672000000
0.1306760000 0.1701050000 0.0627440000
0.1849060000 0.1752320000 0.0547180000
0.2344970000 0.1755980000 0.0459590000
0.2821660000 0.1768490000 0.0388180000
0.3411870000 0.1793520000 0.0349730000
0.3944700000 0.1801150000 0.0309450000
0.4380490000 0.1777040000 0.0249940000
0.4753420000 0.1759640000 0.0210880000
0.5104370000 0.1735840000 0.0166930000
0.5370790000 0.1702270000 0.0107120000
0.5646360000 0.1685490000 0.0056460000
0.5947270000 0.1648250000 0.0000000000
0.6227720000 0.1600340000 0.0000000000
0.6532590000 0.1562500000 0.0000000000
0.6792910000 0.1529850000 0.0000000000
0.7037960000 0.1510010000 0.0000000000
0.7259520000 0.1493840000 0.0000000000
0.7440490000 0.1485900000 0.0000000000
0.7608950000 0.1474300000 0.0000000000
0.7745360000 0.1463930000 0.0000000000
0.7867430000 0.1463620000 0.0000000000
0.7978520000 0.1480100000 0.0000000000
0.8070070000 0.1497500000 0.0000000000
0.8156130000 0.1521910000 0.0000000000
0.8242190000 0.1551510000 0.0000000000
0.8327330000 0.1581730000 0.0000000000
0.8396300000 0.1623540000 0.0006710000
0.8452150000 0.1672360000 0.0075680000
0.8504330000 0.1723940000 0.0144960000
0.0147090000 0.1787110000 0.0816960000
0.0222470000 0.1790160000 0.0812380000
0.0371700000 0.1876830000 0.0801700000
0.0702510000 0.2013850000 0.0777890000
0.1202390000 0.2099610000 0.0730900000
0.1727910000 0.2178960000 0.0668640000
0.2320860000 0.2260740000 0.0571900000
0.2943420000 0.2273560000 0.0466610000
0.3522950000 0.2311100000 0.0403440000
0.3984990000 0.2336730000 0.0353090000
0.4432680000 0.2346190000 0.0306700000
0.4824220000 0.2328490000 0.0253600000
0.5152890000 0.2302860000 0.0218810000
0.5458680000 0.2269900000 0.0172420000
0.5791020000 0.2243040000 0.0135190000
0.6116330000 0.2218020000 0.0082700000
0.6393740000 0.2163090000 0.0046080000
0.6652530000 0.2140200000 0.0034180000
0.6889650000 0.2135310000 0.0029600000
0.7094420000 0.2124630000 0.0021670000
0.7271420000 0.2110600000 0.0026250000
0.7459720000 0.2097780000 0.0025020000
0.7608030000 0.2091670000 0.0032650000
0.7769470000 0.2082820000 0.0044860000
0.7891240000 0.2085270000 0.0061040000
0.8006590000 0.2099610000 0.0100400000
0.8110960000 0.2118840000 0.0141910000
0.8186950000 0.2151180000 0.0191650000
0.8249820000 0.2195740000 0.0245970000
0.8309630000 0.2240910000 0.0300290000
0.8370360000 0.2281490000 0.0353090000
0.8423770000 0.2320860000 0.0402220000
0.8471680000 0.2362980000 0.0449830000
0.0093380000 0.2198180000 0.0966800000
0.0159000000 0.2210690000 0.0956120000
0.0299990000 0.2265010000 0.0941470000
0.0602720000 0.2377930000 0.0895690000
0.1049190000 0.2498780000 0.0845640000
0.1661070000 0.2582090000 0.0777890000
0.2245180000 0.2700200000 0.0698850000
0.2986760000 0.2728270000 0.0563960000
0.3553770000 0.2756650000 0.0466310000
0.4000240000 0.2784120000 0.0392460000
0.4385990000 0.2803340000 0.0346980000
0.4770810000 0.2822880000 0.0310060000
0.5079650000 0.2837830000 0.0280150000
0.5425720000 0.2831730000 0.0249940000
0.5774230000 0.2813110000 0.0226440000
0.6114500000 0.2799990000 0.0201720000
0.6432500000 0.2776180000 0.0184630000
0.6692500000 0.2774050000 0.0199890000
0.6928410000 0.2773440000 0.0213620000
0.7125850000 0.2798460000 0.0220340000
0.7347720000 0.2782290000 0.0226440000
0.7511900000 0.2759400000 0.0235600000
0.7713620000 0.2739260000 0.0255430000
0.7855830000 0.2730100000 0.0278630000
0.8018490000 0.2732240000 0.0303650000
0.8101810000 0.2764590000 0.0343020000
0.8179320000 0.2799070000 0.0379940000
0.8250730000 0.2840580000 0.0423280000
0.8311160000 0.2889710000 0.0475770000
0.8361510000 0.2932130000 0.0520020000
0.8407590000 0.2968140000 0.0560610000
0.8449400000 0.2998350000 0.0598140000
0.8489690000 0.3027950000 0.0634160000
0.0066530000 0.2528380000 0.1100160000
0.0108030000 0.2541500000 0.1078490000
0.0215760000 0.2598270000 0.1059570000
0.0485840000 0.2707210000 0.1021420000
0.0929260000 0.2848510000 0.0964660000
0.1496890000 0.2966920000 0.0915830000
0.2135930000 0.3071290000 0.0830080000
0.2873540000 0.3167110000 0.0702210000
0.3497010000 0.3179630000 0.0571290000
0.3955690000 0.3233030000 0.0491940000
0.4358220000 0.3267820000 0.0434570000
0.4665220000 0.3286440000 0.0403440000
0.4985050000 0.3317260000 0.0366820000
0.5291750000 0.3339840000 0.0332950000
0.5674740000 0.3335270000 0.0303960000
0.6014710000 0.3340450000 0.0290830000
0.6297610000 0.3308110000 0.0279850000
0.6565860000 0.3306580000 0.0281980000
0.6839900000 0.3289490000 0.0290530000
0.7094420000 0.3295290000 0.0307920000
0.7314150000 0.3305970000 0.0327760000
0.7531740000 0.3311160000 0.0344540000
0.7709960000 0.3295900000 0.0353700000
0.7862850000 0.3294680000 0.0371400000
0.7983700000 0.3308110000 0.0393680000
0.8087460000 0.3311160000 0.0428160000
0.8183590000 0.3337710000 0.0468140000
0.8247070000 0.3366090000 0.0510560000
0.8306270000 0.3399960000 0.0559080000
0.8365170000 0.3435670000 0.0607910000
0.8421020000 0.3464660000 0.0653380000
0.8468630000 0.3489690000 0.0692750000
0.8513490000 0.3514400000 0.0730900000
0.0048830000 0.2860410000 0.1219180000
0.0061950000 0.2866210000 0.1193850000
0.0141600000 0.2908940000 0.1169130000
0.0373540000 0.3012080000 0.1137700000
0.0794980000 0.3184510000 0.1101990000
0.1346440000 0.3342900000 0.1065980000
0.2017520000 0.3462220000 0.0982670000
0.2783200000 0.3570560000 0.0855710000
0.3379820000 0.3616940000 0.0724180000
0.3891910000 0.3667600000 0.0621950000
0.4290470000 0.3724370000 0.0564880000
0.4638060000 0.3773800000 0.0519410000
0.4982910000 0.3805240000 0.0471800000
0.5340880000 0.3826900000 0.0429990000
0.5686040000 0.3845210000 0.0411990000
0.5986330000 0.3825070000 0.0392460000
0.6292420000 0.3827820000 0.0389710000
0.6546940000 0.3808590000 0.0385740000
0.6799320000 0.3813780000 0.0401920000
0.7029720000 0.3795780000 0.0410770000
0.7281190000 0.3794250000 0.0419620000
0.7473750000 0.3773500000 0.0432130000
0.7688290000 0.3780210000 0.0450440000
0.7835080000 0.3794560000 0.0477600000
0.7981260000 0.3789060000 0.0498050000
0.8061830000 0.3792420000 0.0525820000
0.8146360000 0.3792110000 0.0554500000
0.8218380000 0.3810420000 0.0601200000
0.8274230000 0.3837590000 0.0649410000
0.8318180000 0.3867490000 0.0690000000
0.8356320000 0.3890080000 0.0723270000
0.8393550000 0.3914180000 0.0756840000
0.8438720000 0.3939210000 0.0796510000
0.0027160000 0.3215940000 0.1329650000
0.0019230000 0.3202820000 0.1303710000
0.0088200000 0.3230290000 0.1281130000
0.0282900000 0.3357540000 0.1261600000
0.0675960000 0.3519900000 0.1230470000
0.1212460000 0.3691710000 0.1205140000
0.1924740000 0.3826600000 0.1145940000
0.2695010000 0.3955380000 0.1032100000
0.3312070000 0.4053040000 0.0905760000
0.3811040000 0.4121700000 0.0793460000
0.4237980000 0.4179690000 0.0713200000
0.4657290000 0.4216920000 0.0648500000
0.5053710000 0.4284360000 0.0603640000
0.5453190000 0.4336550000 0.0573120000
0.5766600000 0.4328920000 0.0546570000
0.6063840000 0.4362490000 0.0532530000
0.6351320000 0.4383850000 0.0526120000
0.6614690000 0.4365840000 0.0527340000
0.6882930000 0.4356990000 0.0535580000
0.7130740000 0.4372250000 0.0551760000
0.7344670000 0.4354550000 0.0551150000
0.7567440000 0.4338680000 0.0559390000
0.7732540000 0.4327700000 0.0582280000
0.7890620000 0.4329830000 0.0607910000
0.8005070000 0.4339600000 0.0629580000
0.8080140000 0.4298400000 0.0650940000
0.8160710000 0.4320070000 0.0686950000
0.8200990000 0.4331050000 0.0711060000
0.8251650000 0.4356080000 0.0756230000
0.8303530000 0.4385680000 0.0801700000
0.8347470000 0.4407960000 0.0840760000
0.8390500000 0.4428100000 0.0879210000
0.8436280000 0.4449770000 0.0918880000
0.0029600000 0.3517760000 0.1470640000
0.0012820000 0.3512880000 0.1445010000
0.0043030000 0.3545530000 0.1423030000
0.0176390000 0.3644710000 0.1381530000
0.0546880000 0.3824770000 0.1341860000
0.1131290000 0.4010010000 0.1321720000
0.1871640000 0.4158020000 0.1279910000
0.2633360000 0.4302670000 0.1202700000
0.3242190000 0.4421390000 0.1098330000
0.3777470000 0.4522710000 0.0984500000
0.4255680000 0.4570620000 0.0864260000
0.4678960000 0.4643860000 0.0805050000
0.5125430000 0.4708860000 0.0753780000
0.5536190000 0.4781490000 0.0703430000
0.5863040000 0.4804380000 0.0666500000
0.6164250000 0.4826970000 0.0645750000
0.6451110000 0.4861150000 0.0643310000
0.6704710000 0.4868470000 0.0653080000
0.6981200000 0.4857480000 0.0671080000
0.7246090000 0.4875790000 0.0702510000
0.7467960000 0.4873050000 0.0717470000
0.7660220000 0.4855350000 0.0731200000
0.7852170000 0.4875490000 0.0751040000
0.7969670000 0.4890750000 0.0771180000
0.8060000000 0.4869380000 0.0760800000
0.8153990000 0.4869380000 0.0794980000
0.8224790000 0.4884030000 0.0830380000
0.8289790000 0.4899290000 0.0865780000
0.8349910000 0.4921880000 0.0912170000
0.8411870000 0.4942020000 0.0961300000
0.8458860000 0.4957580000 0.0997010000
0.8505250000 0.4973750000 0.1033020000
0.8546140000 0.4993290000 0.1072080000
0.0077210000 0.3724980000 0.1636050000
0.0057370000 0.3728330000 0.1593930000
0.0044560000 0.3764650000 0.1548160000
0.0114140000 0.3878170000 0.1490170000
0.0400090000 0.4058230000 0.1437070000
0.1053160000 0.4264830000 0.1407470000
0.1829220000 0.4450680000 0.1382450000
0.2648930000 0.4627690000 0.1328120000
0.3266300000 0.4752500000 0.1243900000
0.3780210000 0.4862370000 0.1148680000
0.4235230000 0.4923400000 0.1037900000
0.4725040000 0.5010680000 0.0948790000
0.5203550000 0.5058590000 0.0875240000
0.5613710000 0.5118100000 0.0826420000
0.5956120000 0.5170900000 0.0791020000
0.6249390000 0.5205080000 0.0771180000
0.6518250000 0.5254820000 0.0775760000
0.6772160000 0.5269170000 0.0777890000
0.7052610000 0.5282590000 0.0797420000
0.7311710000 0.5309140000 0.0825810000
0.7561040000 0.5280460000 0.0846250000
0.7720340000 0.5302120000 0.0872800000
0.7902830000 0.5329590000 0.0895690000
0.8023380000 0.5328370000 0.0907290000
0.8130800000 0.5327150000 0.0922850000
0.8239140000 0.5346980000 0.0961000000
0.8315730000 0.5369260000 0.0996700000
0.8385310000 0.5387270000 0.1031490000
0.8447880000 0.5407410000 0.1067810000
0.8506470000 0.5427860000 0.1114810000
0.8555910000 0.5444950000 0.1152040000
0.8596800000 0.5463560000 0.1186830000
0.8633730000 0.5486760000 0.1237180000
0.0116880000 0.3876340000 0.1754460000
0.0101930000 0.3885800000 0.1721800000
0.0075680000 0.3918150000 0.1676330000
0.0094910000 0.4027400000 0.1593930000
0.0309140000 0.4222410000 0.1514890000
0.0896910000 0.4453430000 0.1466370000
0.1763610000 0.4697270000 0.1440120000
0.2593690000 0.4867250000 0.1422730000
0.3247680000 0.5001830000 0.1373290000
0.3790890000 0.5130000000 0.1267090000
0.4258730000 0.5220950000 0.1169430000
0.4755860000 0.5310670000 0.1078190000
0.5255130000 0.5375370000 0.1003110000
0.5650020000 0.5421750000 0.0962220000
0.6021420000 0.5489500000 0.0926820000
0.6330570000 0.5579220000 0.0910950000
0.6610410000 0.5640870000 0.0892640000
0.6863400000 0.5664670000 0.0882870000
0.7135010000 0.5706790000 0.0908510000
0.7357180000 0.5702210000 0.0924380000
0.7595830000 0.5722050000 0.0955200000
0.7764890000 0.5753480000 0.0981450000
0.7920230000 0.5760800000 0.1021120000
0.8052060000 0.5757450000 0.1044620000
0.8193050000 0.5778810000 0.1080020000
0.8275450000 0.5797730000 0.1116330000
0.8343200000 0.5813900000 0.1138610000
0.8419190000 0.5803530000 0.1163330000
0.8487850000 0.5813600000 0.1206360000
0.8544310000 0.5842900000 0.1254880000
0.8591000000 0.5847470000 0.1289670000
0.8630980000 0.5852660000 0.1328120000
0.8666080000 0.5877990000 0.1381530000
0.0178220000 0.3980410000 0.1896360000
0.0167240000 0.3990480000 0.1865540000
0.0145260000 0.4029540000 0.1812740000
0.0143130000 0.4146420000 0.1706850000
0.0253600000 0.4365540000 0.1580200000
0.0813600000 0.4613040000 0.1506960000
0.1665950000 0.4870300000 0.1487730000
0.2565000000 0.5090640000 0.1479800000
0.3269040000 0.5244140000 0.1448970000
0.3830260000 0.5368040000 0.1355900000
0.4279170000 0.5481870000 0.1281430000
0.4755860000 0.5617980000 0.1211550000
0.5254820000 0.5707400000 0.1144710000
0.5669560000 0.5747680000 0.1098330000
0.6080630000 0.5852050000 0.1056820000
0.6404420000 0.5907900000 0.1015620000
0.6704100000 0.5997010000 0.1009520000
0.6980290000 0.6071470000 0.1013790000
0.7226870000 0.6081540000 0.1016850000
0.7431340000 0.6123350000 0.1038820000
0.7625120000 0.6167600000 0.1068120000
0.7799380000 0.6148990000 0.1094670000
0.7940670000 0.6189880000 0.1143800000
0.8072810000 0.6224980000 0.1168520000
0.8212890000 0.6250920000 0.1217960000
0.8303220000 0.6259770000 0.1262210000
0.8388370000 0.6223140000 0.1294860000
0.8451230000 0.6226810000 0.1335750000
0.8526920000 0.6236570000 0.1378480000
0.8583370000 0.6254580000 0.1426090000
0.8628540000 0.6269530000 0.1469730000
0.8660580000 0.6278990000 0.1517640000
0.8695680000 0.6293330000 0.1573490000
0.0237430000 0.4060670000 0.2034910000
0.0228580000 0.4076540000 0.1995850000
0.0211490000 0.4099430000 0.1940000000
0.0195920000 0.4223940000 0.1811830000
0.0278630000 0.4464420000 0.1648860000
0.0748600000 0.4743040000 0.1556400000
0.1609190000 0.5034790000 0.1529540000
0.2549440000 0.5291750000 0.1531070000
0.3275760000 0.5468440000 0.1491700000
0.3847960000 0.5627750000 0.1439820000
0.4319150000 0.5771480000 0.1389470000
0.4786380000 0.5885010000 0.1327210000
0.5256350000 0.6008610000 0.1287230000
0.5686650000 0.6104740000 0.1237490000
0.6098630000 0.6160580000 0.1193240000
0.6437990000 0.6246950000 0.1178890000
0.6765140000 0.6340030000 0.1175840000
0.7056270000 0.6381230000 0.1158450000
0.7300110000 0.6450200000 0.1173710000
0.7503360000 0.6488040000 0.1181640000
0.7674560000 0.6529850000 0.1200870000
0.7842410000 0.6577150000 0.1229860000
0.7981870000 0.6625370000 0.1268920000
0.8111570000 0.6642460000 0.1312560000
0.8240660000 0.6646120000 0.1353150000
0.8337710000 0.6670230000 0.1403200000
0.8428650000 0.6686400000 0.1458440000
0.8494570000 0.6694340000 0.1502690000
0.8561100000 0.6701350000 0.1548160000
0.8622440000 0.6713870000 0.1598820000
0.8663640000 0.6723330000 0.1643680000
0.8691410000 0.6720580000 0.1696470000
0.8724980000 0.6716310000 0.1760860000
0.0298460000 0.4107970000 0.2192080000
0.0295720000 0.4121090000 0.2167050000
0.0280460000 0.4168700000 0.2095340000
0.0250240000 0.4297490000 0.1932680000
0.0327150000 0.4534000000 0.1747440000
0.0778500000 0.4862060000 0.1621400000
0.1565860000 0.5159910000 0.1578670000
0.2510680000 0.5463260000 0.1574400000
0.3263240000 0.5707700000 0.1541140000
0.3862920000 0.5849000000 0.1515500000
0.4361270000 0.6004030000 0.1499330000
0.4854740000 0.6149900000 0.1476440000
0.5278320000 0.6263120000 0.1419370000
0.5680240000 0.6351010000 0.1393430000
0.6054990000 0.6446840000 0.1381530000
0.6428530000 0.6502690000 0.1343080000
0.6755370000 0.6585690000 0.1327210000
0.7045900000 0.6668400000 0.1325380000
0.7308650000 0.6725460000 0.1327510000
0.7535400000 0.6824340000 0.1348270000
0.7711790000 0.6897280000 0.1372680000
0.7885440000 0.6934510000 0.1384890000
0.8051760000 0.6969600000 0.1420290000
0.8187260000 0.7018740000 0.1452940000
0.8298030000 0.7051090000 0.1487730000
0.8411870000 0.7073360000 0.1544490000
0.8500060000 0.7072450000 0.1594540000
0.8561400000 0.7079770000 0.1644900000
0.8627010000 0.7089230000 0.1701050000
0.8685910000 0.7083740000 0.1750180000
0.8718260000 0.7074280000 0.1796880000
0.8745420000 0.7073970000 0.1849060000
0.8772890000 0.7077640000 0.1902470000
0.0330510000 0.4161680000 0.2319640000
0.0328670000 0.4187930000 0.2285770000
0.0315550000 0.4241640000 0.2215270000
0.0301210000 0.4374690000 0.2044370000
0.0424500000 0.4631040000 0.1854550000
0.0861510000 0.4983220000 0.1725460000
0.1595150000 0.5310060000 0.1643680000
0.2548520000 0.5639040000 0.1632690000
0.3313900000 0.5896300000 0.1632690000
0.3876040000 0.6078490000 0.1619570000
0.4409180000 0.6212160000 0.1605830000
0.4922790000 0.6355290000 0.1579590000
0.5319210000 0.6470030000 0.1547240000
0.5679630000 0.6548460000 0.1519780000
0.6028440000 0.6658020000 0.1520080000
0.6365970000 0.6741030000 0.1495670000
0.6721500000 0.6807560000 0.1465450000
0.7016600000 0.6883850000 0.1470950000
0.7267150000 0.6966550000 0.1487120000
0.7525630000 0.7070310000 0.1493530000
0.7728580000 0.7146610000 0.1510310000
0.7894290000 0.7224430000 0.1533510000
0.8073730000 0.7279660000 0.1557920000
0.8217470000 0.7331540000 0.1593930000
0.8355410000 0.7327270000 0.1625060000
0.8453980000 0.7352600000 0.1670230000
0.8538820000 0.7372130000 0.1726380000
0.8622130000 0.7377010000 0.1782840000
0.8685300000 0.7391050000 0.1837460000
0.8740840000 0.7400210000 0.1891480000
0.8779600000 0.7397770000 0.1941830000
0.8812560000 0.7394710000 0.1990660000
0.8844910000 0.7394100000 0.2038880000
0.0363460000 0.4220890000 0.2431950000
0.0360720000 0.4248050000 0.2396850000
0.0355830000 0.4315490000 0.2313540000
0.0371700000 0.4453430000 0.2160340000
0.0533750000 0.4726260000 0.1976320000
0.0970150000 0.5097050000 0.1834110000
0.1713560000 0.5458070000 0.1738590000
0.2584230000 0.5788570000 0.1709900000
0.3320620000 0.6054990000 0.1717530000
0.3896480000 0.6246030000 0.1699520000
0.4443660000 0.6412960000 0.1697390000
0.4961850000 0.6530460000 0.1655270000
0.5328670000 0.6634830000 0.1647950000
0.5658870000 0.6737670000 0.1650390000
0.5982060000 0.6819760000 0.1620480000
0.6295170000 0.6912840000 0.1618960000
0.6639710000 0.7007750000 0.1614690000
0.6989140000 0.7085270000 0.1601260000
0.7238460000 0.7168270000 0.1614690000
0.7465210000 0.7274170000 0.1637270000
0.7711790000 0.7389220000 0.1649480000
0.7898560000 0.7455140000 0.1656800000
0.8086240000 0.7540280000 0.1697690000
0.8253480000 0.7601320000 0.1734010000
0.8363950000 0.7622070000 0.1772770000
0.8471070000 0.7644350000 0.1816100000
0.8569640000 0.7651980000 0.1875610000
0.8648070000 0.7657780000 0.1932980000
0.8723750000 0.7662660000 0.1984250000
0.8790890000 0.7667850000 0.2031560000
0.8836670000 0.7681270000 0.2079160000
0.8875120000 0.7695920000 0.2124330000
0.8907170000 0.7700500000 0.2168880000
0.0391240000 0.4286190000 0.2522280000
0.0390930000 0.4315800000 0.2484440000
0.0396420000 0.4400330000 0.2390750000
0.0443420000 0.4560850000 0.2240300000
0.0656740000 0.4844670000 0.2082520000
0.1100160000 0.5206300000 0.1932370000
0.1822510000 0.5576170000 0.1823120000
0.2646480000 0.5938720000 0.1809080000
0.3378910000 0.6203310000 0.1801150000
0.3942260000 0.6388550000 0.1778870000
0.4480590000 0.6553650000 0.1763610000
0.4981990000 0.6684570000 0.1738890000
0.5353700000 0.6793820000 0.1738590000
0.5672910000 0.6888730000 0.1748050000
0.5988770000 0.6992800000 0.1736450000
0.6286930000 0.7079770000 0.1733400000
0.6626590000 0.7182010000 0.1728820000
0.6929630000 0.7280270000 0.1729130000
0.7211610000 0.7356570000 0.1730350000
