presets/XH_5219_N.cube
TITLE "Generated by Resolve"
LUT_3D_SIZE 5
0.0412757 0.0408637 0.0462196
0.0614939 0.0565499 0.0570077
0.430488 0.138125 0.0535897
0.596246 0.40557 0.338323
0.680262 0.470909 0.67483
0.0726635 0.0988174 0.115755
0.12723 0.129778 0.134386
0.40882 0.113329 0.051545
0.584421 0.377646 0.286198
0.651026 0.43125 0.615
0.158206 0.565957 0.59852
0.156893 0.574762 0.570077
0.673518 0.654978 0.459693
0.826551 0.566613 0.23386
0.684611 0.483787 0.628626
0.522652 0.817014 0.874174
0.520455 0.822583 0.865339
0.622705 0.870848 0.811414
0.908995 0.917052 0.799161
0.912856 0.892989 0.710918
0.790005 0.890806 0.912337
0.766613 0.890135 0.910521
0.832517 0.899107 0.909453
0.918807 0.930114 0.930083
0.926299 0.935058 0.937392
0.0441444 0.0446174 0.0552224
0.0646372 0.0626535 0.0770733
0.411597 0.149477 0.0677501
0.605081 0.404578 0.395514
0.687694 0.483757 0.692302
0.0778821 0.101183 0.143572
0.119295 0.138689 0.170962
0.431144 0.141253 0.0538033
0.600626 0.409308 0.350973
0.70869 0.523125 0.722393
0.16939 0.557671 0.619394
0.157031 0.56408 0.595758
0.65832 0.643488 0.450446
0.810285 0.541573 0.192584
0.73283 0.552224 0.722805
0.530556 0.819318 0.879698
0.52874 0.8224 0.873884
0.570932 0.862669 0.810742
0.90901 0.917006 0.7991
0.923873 0.880751 0.674052
0.800549 0.892546 0.913756
0.79913 0.892393 0.912856
0.841031 0.900801 0.915007
0.918227 0.929854 0.930648
0.926345 0.935042 0.937423
0.0433356 0.0655985 0.348653
0.0707408 0.0894331 0.41416
0.415198 0.14789 0.466804
0.610285 0.383062 0.58378
0.701701 0.505302 0.722347
0.0447852 0.0863203 0.387915
0.0470893 0.0712291 0.409354
0.428305 0.158801 0.486824
0.609018 0.383032 0.573877
0.725689 0.546487 0.744808
0.211856 0.550317 0.704585
0.213031 0.550942 0.706752
0.615564 0.645991 0.71577
0.657526 0.471901 0.460151
0.808118 0.67303 0.811536
0.575036 0.82266 0.903197
0.573693 0.82649 0.904814
0.602518 0.869444 0.882155
0.91426 0.926284 0.877119
0.916518 0.85774 0.631113
0.800549 0.892607 0.919997
0.802563 0.893065 0.919463
0.84947 0.903151 0.922866
0.923369 0.930526 0.935958
0.926833 0.934997 0.937758
0.0651713 0.145129 0.543313
0.125719 0.150027 0.53196
0.470451 0.211398 0.631647
0.625818 0.404196 0.661189
0.646357 0.433768 0.681102
0.0671397 0.183078 0.56759
0.0673686 0.160266 0.560739
0.466621 0.210193 0.63209
0.626398 0.404974 0.661707
0.672358 0.462226 0.703624
0.225925 0.557839 0.751446
0.225757 0.55584 0.750149
0.54461 0.596658 0.818814
0.64033 0.424872 0.675059
0.80853 0.671153 0.812406
0.60766 0.815747 0.902754
0.610147 0.817304 0.901823
0.645624 0.842039 0.913817
0.905928 0.924727 0.922972
0.864607 0.836011 0.890501
0.791775 0.894118 0.932769
0.803616 0.89601 0.932769
0.859388 0.912352 0.934401
0.927428 0.931899 0.945449
0.929046 0.93547 0.944625
0.0708171 0.309422 0.635065
0.0724193 0.25182 0.616236
0.417762 0.194827 0.607843
0.619837 0.396124 0.655879
0.636149 0.418708 0.670878
0.0748302 0.331518 0.645029
0.1187 0.436881 0.678553
0.474052 0.359747 0.719646
0.631159 0.41146 0.665965
0.637888 0.421241 0.672572
0.290562 0.600351 0.781384
0.312581 0.615106 0.792554
0.424323 0.697902 0.839796
0.835081 0.73547 0.845365
0.644022 0.430304 0.678752
0.574929 0.787091 0.884932
0.579538 0.790249 0.887449
0.622553 0.829328 0.909499
0.902235 0.918166 0.923323
0.869657 0.854688 0.898833
0.767819 0.888487 0.93135
0.784772 0.892226 0.932677
0.85156 0.910246 0.933654
0.927047 0.931579 0.945144
0.929061 0.935531 0.944793
