presets/XH_5219_C.cube
TITLE "Generated by Resolve"
LUT_3D_SIZE 9
0 0.00210575 0.00161746
0.000518807 0.00288396 0.0015259
0.0478523 0.014313 0.00137331
0.308583 0.0225071 0
0.407675 0.116869 0.00479133
0.590677 0.248768 0.0830243
0.618326 0.37554 0.307927
0.643107 0.368048 0.563806
0.726741 0.459648 0.707179
0.000106813 0.00425727 0.00962844
0.000518807 0.00622568 0.0010071
0.0316777 0.0167697 0.00436408
0.300969 0.0206149 4.57771e-05
0.402914 0.112169 0.00433356
0.590372 0.239033 0.0662699
0.610986 0.367895 0.272511
0.639109 0.365423 0.527993
0.678981 0.402838 0.640055
0.0260014 0.0675975 0.0762951
0.0256657 0.0605173 0.0699931
0.0817578 0.0870375 0.0817578
0.362707 0.0500801 0.00500496
0.377615 0.106233 0.00415045
0.602411 0.228977 0.0347753
0.603098 0.35491 0.238468
0.639628 0.361227 0.517418
0.685008 0.408225 0.642191
0.0096437 0.346456 0.295613
0.00936904 0.339239 0.285374
0.00932326 0.338537 0.281071
0.353124 0.388632 0.107408
0.696498 0.367498 0.0260319
0.637736 0.272312 0.0207218
0.627787 0.304616 0.142229
0.637476 0.358877 0.464057
0.698253 0.423316 0.64181
0.116838 0.610376 0.581369
0.112886 0.607813 0.568002
0.110964 0.603983 0.554757
0.172824 0.648341 0.585702
0.703731 0.708385 0.414694
0.920455 0.746258 0.317067
0.872572 0.585351 0.128908
0.639719 0.369604 0.238209
0.730938 0.477791 0.659068
0.372366 0.815076 0.815
0.362356 0.814771 0.810758
0.360021 0.819104 0.806546
0.364889 0.826856 0.78323
0.794553 0.863523 0.64654
0.939605 0.916136 0.580087
0.953735 0.908217 0.605081
0.93283 0.843748 0.45771
0.841398 0.573968 0.313619
0.523964 0.865232 0.888106
0.518898 0.866667 0.885878
0.517784 0.870268 0.886091
0.510445 0.879988 0.865263
0.635279 0.922042 0.838911
0.911757 0.951873 0.701274
0.956069 0.972015 0.7888
0.956909 0.972549 0.777844
0.961364 0.944793 0.689952
0.596124 0.890318 0.914885
0.591623 0.890257 0.913039
0.590387 0.892638 0.911116
0.593835 0.902647 0.903365
0.6804 0.938491 0.88333
0.913512 0.953368 0.838697
0.957748 0.981323 0.866423
0.962005 0.982238 0.879438
0.95581 0.973083 0.795026
0.81297 0.946105 0.929244
0.778973 0.944289 0.925658
0.783551 0.945022 0.92491
0.810681 0.946502 0.925521
0.86743 0.948318 0.927733
0.936797 0.962524 0.923506
0.974212 0.983673 0.935088
0.984588 0.98613 0.938384
0.981659 0.987945 0.942275
0.000427253 0.00231937 0.00146487
0.000976577 0.00259403 0.00317388
0.0526894 0.0153506 0.0090486
0.3131 0.023743 0
0.415991 0.120165 0.00514229
0.58793 0.263783 0.10898
0.621439 0.367132 0.344793
0.645335 0.369436 0.576181
0.737041 0.475425 0.722103
0.000274662 0.00366217 0.00495918
0.000579843 0.00550851 0.00556954
0.0612955 0.0176699 0.0034638
0.309102 0.0226596 0
0.407645 0.116823 0.00479133
0.589853 0.246372 0.0800031
0.616464 0.373571 0.30013
0.641794 0.367971 0.553597
0.712428 0.439017 0.687282
0.0254826 0.0728466 0.0844739
0.025864 0.0649271 0.0738994
0.0793622 0.0852522 0.0808728
0.364691 0.0468147 0.00256352
0.390539 0.113375 0.00457771
0.603296 0.237751 0.0499275
0.610147 0.367208 0.260319
0.641367 0.369451 0.541558
0.717159 0.445838 0.689937
0.00973526 0.34995 0.301228
0.00959792 0.345327 0.294774
0.00929274 0.337942 0.28069
0.349737 0.384833 0.104723
0.692912 0.360555 0.0258335
0.600717 0.249485 0.018204
0.617243 0.31342 0.165789
0.64213 0.361135 0.509804
0.72842 0.466621 0.701213
0.119539 0.60885 0.597726
0.11606 0.60943 0.580514
0.11046 0.60441 0.555749
0.152148 0.635386 0.579797
0.700923 0.706203 0.413306
0.919615 0.743389 0.312184
0.860441 0.570397 0.112139
0.664591 0.427222 0.311238
0.758572 0.523262 0.72221
0.373083 0.815839 0.82002
0.370977 0.814588 0.814481
0.363714 0.818235 0.810407
0.367117 0.827573 0.790158
0.783444 0.863905 0.658991
0.939529 0.916075 0.579797
0.953902 0.906798 0.602396
0.933669 0.832486 0.44213
0.80708 0.611444 0.686915
0.531426 0.865812 0.892363
0.524926 0.865766 0.888731
0.52076 0.869261 0.887663
0.515938 0.878996 0.870558
0.608179 0.919554 0.837339
0.910079 0.951095 0.700847
0.956069 0.972015 0.788846
0.957015 0.972625 0.776501
0.959579 0.935699 0.657755
0.6 0.89044 0.916472
0.596368 0.890455 0.914992
0.593866 0.89305 0.914076
0.597879 0.903609 0.906844
0.677394 0.938415 0.886778
0.910826 0.953002 0.841306
0.957824 0.981277 0.867338
0.96199 0.982238 0.879408
0.95581 0.973068 0.79498
0.826413 0.946365 0.931319
0.815351 0.946166 0.929595
0.818387 0.946426 0.929671
0.833463 0.947066 0.930831
0.877394 0.950332 0.928725
0.937774 0.963043 0.926452
0.97377 0.983429 0.934997
0.984848 0.98613 0.938399
0.981659 0.987945 0.942275
0 0.00514229 0.019028
0.00419623 0.0115511 0.0331426
0.0418555 0.0233616 0.023682
0.313527 0.0359808 0.00425727
0.412787 0.133303 0.0170138
0.577691 0.286717 0.152697
0.620859 0.351797 0.386664
0.647074 0.370687 0.585763
0.738842 0.477607 0.72546
0 0.00634775 0.0192721
0 0.00595102 0.0259709
0.0440528 0.0240787 0.0245518
0.326986 0.0305028 0
0.41297 0.124269 0.00654612
0.582422 0.267887 0.120211
0.621042 0.364813 0.348837
0.642954 0.367147 0.568368
0.714382 0.440787 0.693538
0.0318151 0.0679026 0.100633
0.0316777 0.0670024 0.0991684
0.0766308 0.0956436 0.114702
0.402991 0.0672313 0.00268559
0.408972 0.118715 0.00497444
0.593698 0.254948 0.0896468
0.621302 0.374853 0.324987
0.648066 0.372076 0.583551
0.76466 0.528237 0.754635
0.0100862 0.357046 0.326436
0.00975052 0.351354 0.314992
0.00932326 0.337575 0.290181
0.341436 0.376028 0.0975357
0.664088 0.340642 0.0259861
0.633234 0.25597 0.0197604
0.603159 0.33753 0.210422
0.644831 0.373434 0.54818
0.771099 0.541161 0.758038
0.130419 0.60499 0.622675
0.122759 0.604181 0.608392
0.111315 0.603342 0.57615
0.112551 0.604868 0.549889
0.686305 0.693889 0.405585
0.916854 0.737652 0.308034
0.850645 0.555322 0.0976272
0.678614 0.437095 0.406455
0.780926 0.567712 0.75996
0.370306 0.814649 0.824369
0.369116 0.814359 0.82089
0.36405 0.812161 0.812161
0.358877 0.820478 0.793484
0.73991 0.866865 0.698207
0.935866 0.913375 0.580316
0.954223 0.908446 0.60708
0.93257 0.825727 0.431815
0.829435 0.646784 0.728054
0.540352 0.865125 0.898314
0.535225 0.865858 0.894896
0.530907 0.869123 0.892546
0.525933 0.879332 0.88246
0.573663 0.915007 0.840497
0.907042 0.950744 0.708659
0.956069 0.972015 0.788846
0.956741 0.972488 0.780163
0.961273 0.931395 0.650843
0.603845 0.889708 0.918013
0.600259 0.88983 0.916548
0.598474 0.892088 0.915846
0.600702 0.902342 0.909514
0.676753 0.938293 0.890166
0.907286 0.952422 0.846082
0.958373 0.981292 0.869947
0.9617 0.982071 0.878798
0.955764 0.973205 0.796185
0.82707 0.946258 0.931701
0.815732 0.946044 0.929915
0.824781 0.94641 0.930892
0.83772 0.947051 0.931731
0.878538 0.950744 0.92903
0.937484 0.963134 0.927291
0.973541 0.98323 0.935409
0.984741 0.986313 0.938766
0.981643 0.987961 0.94229
0 0.0153048 0.125032
0 0.0224765 0.174945
0.00756847 0.0579843 0.208942
0.222522 0.0679789 0.138659
0.411078 0.133852 0.211398
0.585534 0.328313 0.293873
0.628717 0.343725 0.482078
0.650858 0.374594 0.606943
0.739101 0.484184 0.733333
0 0.014725 0.114702
0 0.0161135 0.134661
0.00187686 0.0516823 0.237644
0.223301 0.0678721 0.139635
0.409003 0.130327 0.196231
0.581628 0.335393 0.257877
0.626032 0.342184 0.455924
0.648081 0.371405 0.596307
0.723644 0.452171 0.70399
0.00883497 0.0746319 0.239719
0.00637827 0.0695354 0.248096
0.00849927 0.0745098 0.317998
0.265812 0.0686503 0.190143
0.413397 0.133303 0.168719
0.575799 0.328634 0.216632
0.625574 0.344518 0.443839
0.651896 0.375647 0.605875
0.770809 0.537255 0.759457
0.0202335 0.32874 0.435737
0.0202182 0.328389 0.435691
0.0187991 0.322698 0.431556
0.341787 0.394858 0.487373
0.662318 0.364843 0.173205
0.607233 0.277501 0.113924
0.624094 0.370672 0.347448
0.658793 0.38294 0.608194
0.818998 0.63238 0.796567
0.17818 0.592004 0.672068
0.173938 0.591043 0.671153
0.160983 0.589639 0.654612
0.109651 0.591989 0.589792
0.684703 0.697643 0.455817
0.900832 0.714351 0.403494
0.801724 0.463386 0.0850233
0.676448 0.410056 0.541238
0.827283 0.644587 0.798611
0.391348 0.803174 0.8448
0.382467 0.805539 0.83859
0.367773 0.808026 0.828946
0.367346 0.818677 0.819303
0.599954 0.876692 0.794644
0.919173 0.903578 0.612497
0.949416 0.902846 0.655116
0.930083 0.807813 0.407187
0.838758 0.668406 0.786938
0.560739 0.863951 0.910903
0.557229 0.86421 0.908675
0.556848 0.866361 0.908217
0.545739 0.877409 0.894789
0.570443 0.912764 0.851637
0.903365 0.95108 0.744488
0.955825 0.972671 0.795911
0.955932 0.972793 0.792172
0.955962 0.933013 0.63978
0.614664 0.890517 0.922072
0.611536 0.890028 0.921004
0.610574 0.890959 0.920119
0.61207 0.897856 0.916243
0.682872 0.934585 0.896941
0.896819 0.951476 0.859846
0.964843 0.979599 0.874723
0.961242 0.981826 0.87776
0.955139 0.97557 0.803555
0.828626 0.946044 0.932723
0.817121 0.945617 0.931044
0.826749 0.94609 0.932021
0.849058 0.947372 0.934051
0.882048 0.952056 0.930953
0.936965 0.963211 0.930526
0.973114 0.982773 0.936767
0.983703 0.98703 0.940154
0.981613 0.987976 0.942336
0 0.022797 0.367193
0.00047303 0.0290379 0.403159
0.0409094 0.0570077 0.425132
0.247089 0.0612497 0.476509
0.432731 0.117754 0.500694
0.599557 0.303395 0.502602
0.638071 0.356878 0.601068
0.663127 0.386877 0.653498
0.754314 0.509316 0.750439
0 0.0222324 0.362783
0 0.0233005 0.377966
0.0197299 0.0508583 0.433707
0.2365 0.0610056 0.472557
0.431983 0.11722 0.499535
0.596292 0.297978 0.49279
0.636225 0.355337 0.593393
0.663081 0.382437 0.649851
0.730983 0.477836 0.733242
0 0.0475166 0.405753
0 0.0453803 0.410437
0 0.0312657 0.413703
0.243702 0.0637522 0.497963
0.449256 0.128542 0.523995
0.598413 0.301885 0.490196
0.636301 0.356008 0.592111
0.665614 0.388632 0.655863
0.783398 0.560449 0.769146
0.0230411 0.288075 0.607919
0.0270237 0.281361 0.605097
0.0353399 0.265583 0.595514
0.235966 0.289693 0.624369
0.564126 0.249378 0.618967
0.60943 0.318791 0.494316
0.632303 0.351232 0.574319
0.679454 0.403738 0.671946
0.829969 0.650538 0.807355
0.185046 0.586877 0.724437
0.184192 0.586313 0.724132
0.180529 0.583749 0.722393
0.167346 0.573404 0.713024
0.666102 0.691402 0.735912
0.854383 0.734813 0.674647
0.683253 0.434562 0.449042
0.699626 0.42533 0.648508
0.863737 0.707958 0.834669
0.431083 0.791699 0.871183
0.429175 0.791501 0.869947
0.425483 0.79086 0.867781
0.427771 0.800961 0.866926
0.589715 0.879515 0.839002
0.879042 0.909133 0.770596
0.933242 0.907057 0.77557
0.906706 0.745815 0.537652
0.859007 0.703426 0.824384
0.60148 0.863813 0.91751
0.59881 0.864118 0.917464
0.599176 0.867292 0.91873
0.599435 0.879759 0.916747
0.618296 0.915709 0.904036
0.911711 0.953292 0.846525
0.958755 0.980087 0.873014
0.9608 0.975021 0.85658
0.952682 0.927565 0.62121
0.638041 0.893431 0.930083
0.635813 0.893019 0.92961
0.635615 0.894591 0.928756
0.639948 0.903487 0.926802
0.704738 0.93817 0.915755
0.895552 0.95227 0.895766
0.970184 0.98056 0.905577
0.970275 0.982666 0.897307
0.960647 0.981491 0.876509
0.828244 0.946395 0.935058
0.82031 0.94551 0.933959
0.830533 0.946517 0.934951
0.853223 0.948425 0.937667
0.889128 0.954421 0.938827
0.93698 0.96405 0.937453
0.973236 0.982086 0.942168
0.981506 0.989044 0.944961
0.981537 0.988067 0.942641
0.00120546 0.0697337 0.466316
0.0107576 0.0786603 0.482826
0.104295 0.0848554 0.470771
0.309606 0.0937819 0.545266
0.463157 0.148196 0.614954
0.609262 0.311528 0.608667
0.654017 0.375494 0.663279
0.670314 0.39646 0.67512
0.724865 0.471122 0.722148
0.000534066 0.0682231 0.460304
0.00144961 0.0699168 0.467231
0.0492561 0.0817273 0.481346
0.289265 0.095964 0.532845
0.458152 0.143099 0.614527
0.606058 0.307637 0.604089
0.652415 0.373877 0.662303
0.669444 0.395132 0.674372
0.693431 0.433936 0.697414
0.00422675 0.0970474 0.486641
0.00373846 0.0914626 0.484718
0.00950637 0.0778821 0.487633
0.254612 0.110124 0.525521
0.492302 0.179995 0.614923
0.613489 0.316793 0.614664
0.654643 0.376196 0.663691
0.67219 0.399268 0.676722
0.779461 0.550942 0.764935
0.0332799 0.28014 0.615915
0.0354467 0.270161 0.604929
0.0382696 0.250782 0.582483
0.142123 0.185168 0.604425
0.480339 0.175067 0.627787
0.641291 0.360464 0.649424
0.655039 0.376638 0.663951
0.674693 0.403021 0.678874
0.843687 0.667765 0.820081
0.183764 0.596704 0.775479
0.181567 0.595346 0.775479
0.177752 0.593027 0.775647
0.165133 0.575128 0.765911
0.625254 0.656138 0.841184
0.840009 0.667277 0.812573
0.663066 0.387488 0.671962
0.675456 0.404181 0.67953
0.882582 0.737835 0.844236
0.442985 0.777539 0.881849
0.442329 0.777295 0.881788
0.444373 0.779538 0.883314
0.454139 0.786664 0.888304
0.596506 0.85156 0.905287
0.876631 0.889174 0.875227
0.921752 0.886732 0.882536
0.8439 0.679026 0.792309
0.87451 0.724956 0.839338
0.646845 0.869856 0.924056
0.646433 0.870344 0.924102
0.648371 0.87335 0.925658
0.651759 0.878141 0.929503
0.675547 0.908751 0.935699
0.897429 0.951049 0.924254
0.971359 0.979248 0.929442
0.967193 0.977172 0.921721
0.948013 0.916487 0.835569
0.674495 0.894224 0.933318
0.673243 0.894163 0.933577
0.673671 0.89601 0.934264
0.675776 0.902525 0.936126
0.75494 0.93608 0.936187
0.900649 0.955093 0.93341
0.972778 0.982651 0.936263
0.983017 0.987106 0.940581
0.981689 0.986191 0.938323
0.829862 0.947143 0.943267
0.826352 0.946822 0.942489
0.837125 0.947906 0.943297
0.861189 0.951766 0.945449
0.899535 0.956283 0.946609
0.940764 0.966232 0.946502
0.980148 0.981826 0.950622
0.990494 0.989075 0.956451
0.984787 0.989487 0.952758
0.0123293 0.0919509 0.51754
0.0265049 0.0936141 0.523415
0.0754101 0.0981765 0.506371
0.292378 0.120378 0.546197
0.502785 0.201755 0.625025
0.61413 0.312901 0.638651
0.654887 0.376089 0.663584
0.667506 0.392294 0.672724
0.679149 0.40972 0.682689
0.0106508 0.0962387 0.516823
0.0132448 0.0890669 0.516289
0.0430457 0.0983902 0.525109
0.258579 0.118685 0.531472
0.498253 0.197406 0.627344
0.612802 0.309392 0.638819
0.654612 0.375753 0.663401
0.666667 0.391043 0.672007
0.677256 0.406912 0.681086
0.0305486 0.139361 0.5364
0.0280003 0.135073 0.535088
0.0140841 0.106447 0.522393
0.199451 0.110536 0.508934
0.497154 0.196353 0.627894
0.618021 0.325185 0.640162
0.655589 0.376928 0.664057
0.669306 0.39501 0.674281
0.704875 0.449226 0.707073
0.0423133 0.29633 0.613214
0.0441596 0.284001 0.599771
0.0465553 0.267689 0.581979
0.0576638 0.183078 0.547921
0.449134 0.157671 0.631128
0.643549 0.364767 0.65716
0.656489 0.378012 0.664668
0.671412 0.398138 0.676066
0.799588 0.594202 0.781338
0.217243 0.606104 0.779431
0.214221 0.603586 0.777584
0.211124 0.601007 0.775601
0.186984 0.581064 0.762249
0.567422 0.629908 0.832959
0.82327 0.63357 0.819471
0.671901 0.398871 0.676493
0.672389 0.399603 0.676905
0.863325 0.70692 0.834485
0.475044 0.77113 0.876112
0.474266 0.770626 0.875425
0.474022 0.770291 0.87483
0.465064 0.765576 0.872984
0.531624 0.810666 0.905348
0.863172 0.871412 0.892515
0.917891 0.872786 0.900893
0.824048 0.640482 0.802594
0.852491 0.681941 0.827924
0.65069 0.866178 0.916182
0.651102 0.866499 0.916564
0.653834 0.868482 0.918868
0.662867 0.874159 0.926177
0.694026 0.891707 0.925277
0.89601 0.946288 0.942946
0.967483 0.976974 0.940322
0.967285 0.967453 0.922667
0.922896 0.881544 0.905837
0.702968 0.899016 0.927626
0.702983 0.898985 0.927718
0.70573 0.90042 0.927932
0.714733 0.903655 0.929732
0.780301 0.933303 0.946075
0.91426 0.963546 0.952392
0.980957 0.983444 0.958511
0.990509 0.989944 0.960067
0.989273 0.99147 0.958999
0.825589 0.945617 0.951568
0.825391 0.945571 0.951537
0.838499 0.946731 0.951919
0.866773 0.953002 0.952224
0.904875 0.960632 0.952972
0.947478 0.973754 0.956024
0.980972 0.983413 0.958618
0.991211 0.989853 0.962219
0.991119 0.989044 0.960922
0.0449378 0.171801 0.533272
0.0387884 0.156085 0.536934
0.026978 0.133364 0.534569
0.160586 0.103593 0.497612
0.482795 0.182147 0.634974
0.632227 0.352102 0.649454
0.652949 0.373754 0.662287
0.662409 0.385122 0.66865
0.67364 0.40148 0.677974
0.0424353 0.165423 0.534752
0.0413825 0.162707 0.535393
0.0300298 0.138491 0.536141
0.130465 0.100603 0.494148
0.47512 0.17438 0.638636
0.63006 0.349004 0.648081
0.652735 0.373495 0.662135
0.661997 0.384619 0.66836
0.672099 0.399191 0.676661
0.0492714 0.191348 0.535027
0.0488899 0.188724 0.534417
0.0490425 0.189746 0.534646
0.0203403 0.108217 0.531624
0.441627 0.151431 0.626688
0.634745 0.354849 0.650965
0.653574 0.374502 0.662699
0.663386 0.386297 0.669306
0.677958 0.40795 0.681682
0.0537728 0.379538 0.668803
0.0530709 0.377172 0.667933
0.0601663 0.401465 0.676829
0.0558785 0.386801 0.671458
0.52166 0.329839 0.729946
0.634241 0.345098 0.656107
0.655665 0.377005 0.664103
0.664775 0.388235 0.670405
0.702815 0.446983 0.705623
0.239704 0.62324 0.790997
0.238605 0.622415 0.790417
0.242741 0.625544 0.792615
0.230213 0.616053 0.785962
0.507958 0.679881 0.837263
0.839094 0.684535 0.836301
0.737575 0.485771 0.735195
0.666239 0.390417 0.671656
0.813993 0.622446 0.794171
0.479484 0.772656 0.87744
0.479026 0.772442 0.877195
0.479133 0.772503 0.877256
0.473274 0.769833 0.874128
0.516197 0.803479 0.900893
0.854643 0.869368 0.893462
0.919188 0.877882 0.902174
0.858335 0.694835 0.832258
0.792554 0.579843 0.775051
0.620417 0.844938 0.901854
0.620111 0.844755 0.901839
0.624216 0.847379 0.902922
0.637186 0.857053 0.910216
0.66125 0.874617 0.923674
0.878401 0.935775 0.938704
0.965026 0.968383 0.938354
0.968383 0.960891 0.923919
0.917357 0.870512 0.900343
0.703243 0.899229 0.927474
0.703609 0.899428 0.927474
0.706401 0.900938 0.927535
0.71487 0.904112 0.929061
0.777279 0.930999 0.946166
0.911162 0.963119 0.953231
0.976745 0.981994 0.956725
0.99144 0.985763 0.956588
0.991257 0.984863 0.954253
0.809903 0.943481 0.94905
0.810864 0.94374 0.94931
0.824201 0.945891 0.951614
0.856458 0.950774 0.952468
0.898466 0.958389 0.953429
0.942748 0.972808 0.956512
0.981231 0.983352 0.958846
0.99205 0.988052 0.963882
0.991791 0.987533 0.961196
0.0462043 0.269947 0.584436
0.0508278 0.231815 0.552972
0.0511482 0.204273 0.538048
0.0292058 0.137102 0.535714
0.413962 0.139345 0.611734
0.624964 0.341787 0.644877
0.648417 0.368307 0.659236
0.656291 0.377768 0.66453
0.66688 0.391363 0.67219
0.0520333 0.221103 0.545037
0.0519875 0.221454 0.545312
0.0502632 0.198169 0.536614
0.026978 0.133364 0.534569
0.413291 0.139101 0.611368
0.623529 0.339742 0.643977
0.648005 0.367803 0.658961
0.656001 0.377432 0.664347
0.666178 0.390326 0.671595
0.0420539 0.297948 0.614984
0.0412604 0.304341 0.621744
0.0723125 0.436851 0.686976
0.0559701 0.387091 0.671565
0.490425 0.330297 0.728756
0.626963 0.323323 0.653544
0.660883 0.383276 0.667613
0.656977 0.378592 0.664988
0.668894 0.394385 0.67393
0.0925154 0.477821 0.702953
0.0955062 0.482612 0.705272
0.133806 0.536873 0.733211
0.181277 0.576394 0.759091
0.482826 0.610849 0.794949
0.811414 0.61912 0.824048
0.675242 0.403876 0.679347
0.657679 0.379431 0.665461
0.672099 0.399191 0.676661
0.278279 0.64892 0.809583
0.281834 0.651392 0.811048
0.307698 0.669383 0.821576
0.325948 0.683101 0.829282
0.409094 0.741268 0.865309
0.836896 0.804837 0.869474
0.896498 0.775662 0.861158
0.660395 0.382696 0.667292
0.676356 0.405554 0.680308
0.493446 0.779019 0.885039
0.495674 0.780026 0.886259
0.500908 0.782406 0.889097
0.502602 0.7832 0.889799
0.538048 0.808927 0.898863
0.847562 0.891951 0.909041
0.933867 0.910826 0.918837
0.910033 0.821149 0.887083
0.677897 0.407843 0.68162
0.614862 0.841276 0.900114
0.614954 0.841321 0.900099
0.615412 0.841566 0.900084
0.628534 0.850263 0.90428
0.664866 0.876524 0.923445
0.881193 0.937636 0.939651
0.962142 0.968566 0.941329
0.967773 0.964553 0.923186
0.931548 0.897902 0.915663
0.706355 0.900923 0.92752
0.706676 0.901045 0.927581
0.709606 0.902144 0.928115
0.71725 0.904997 0.929503
0.779477 0.932387 0.945998
0.905715 0.960372 0.952865
0.973785 0.979721 0.95581
0.991333 0.985183 0.955093
0.990906 0.983032 0.949493
0.804593 0.942031 0.947555
0.805875 0.942382 0.947921
0.819425 0.945785 0.951431
0.855207 0.950469 0.952438
0.897826 0.958251 0.953338
0.941649 0.972519 0.956481
0.979171 0.9832 0.958038
0.991989 0.987747 0.963195
0.991745 0.98732 0.960616
