presets/XH_5219_B.cube
TITLE "Generated by Resolve"
LUT_3D_SIZE 5
0 0.000564584 0.0914626
0 0.016022 0.100069
0.450599 0.100954 0.0900893
0.620615 0.399176 0.336172
0.708263 0.468772 0.736385
0 0.0632181 0.150484
0.0239414 0.0973526 0.165469
0.42742 0.0729076 0.0910201
0.609613 0.368246 0.286397
0.678004 0.424964 0.666529
0 0.602213 0.681117
0 0.621454 0.662684
0.702037 0.686519 0.350622
0.885573 0.576806 0.217319
0.713359 0.483528 0.679011
0.482109 0.865141 0.9664
0.472251 0.873228 0.959838
0.507042 0.946975 0.924422
0.932052 0.977966 0.782818
0.960601 0.94818 0.645777
0.801419 0.940185 0.994904
0.771969 0.940322 0.995102
0.851225 0.948501 0.99028
0.950301 0.98143 0.999908
0.958801 0.986862 1
0 0.00360113 0.0993668
0 0.0225528 0.11751
0.427207 0.114229 0.102205
0.630289 0.397345 0.400244
0.715633 0.482994 0.756619
0 0.0656291 0.175357
0.0151369 0.107301 0.197925
0.451072 0.104524 0.0899519
0.625284 0.40322 0.349279
0.736889 0.526894 0.790326
0.00849927 0.586694 0.693874
0 0.600259 0.678111
0.685115 0.674342 0.336065
0.868757 0.549218 0.181994
0.763119 0.559335 0.788403
0.492866 0.867231 0.971679
0.486763 0.871656 0.966995
0.445823 0.939071 0.927016
0.932113 0.97789 0.782742
0.982986 0.931167 0.609186
0.814054 0.941802 0.995392
0.812284 0.941695 0.994736
0.861494 0.950149 0.996338
0.94963 0.981125 1
0.958831 0.986847 1
0 0.0243076 0.374838
0 0.050309 0.451392
0.424277 0.1093 0.508949
0.634134 0.371481 0.63238
0.730129 0.506935 0.791684
0 0.0474708 0.419867
0 0.0300908 0.447074
0.438437 0.121263 0.532403
0.632883 0.371649 0.620386
0.754788 0.552834 0.815778
0.0978103 0.568856 0.773754
0.0997177 0.569482 0.776135
0.618982 0.668009 0.774105
0.68571 0.471931 0.473457
0.841215 0.693812 0.887083
0.552819 0.867948 0.993118
0.55024 0.872435 0.995239
0.554391 0.926894 0.981643
0.923003 0.984543 0.94667
0.979751 0.904372 0.561883
0.814343 0.941649 0.99852
0.816663 0.942138 0.998306
0.871046 0.952438 0.999741
0.955642 0.981796 1
0.959411 0.986786 1
0 0.112856 0.605005
0.0181582 0.117388 0.5906
0.481483 0.179126 0.704936
0.649485 0.394659 0.725231
0.670985 0.427436 0.747036
0 0.155825 0.632013
0 0.129793 0.62533
0.477089 0.177844 0.705608
0.650095 0.395514 0.72578
0.698924 0.458946 0.772168
0.119722 0.576333 0.828672
0.119677 0.574075 0.827176
0.537408 0.613001 0.904433
0.664714 0.417563 0.740398
0.841825 0.691707 0.888289
0.593957 0.858991 0.990768
0.59675 0.860792 0.989593
0.635752 0.887846 1
0.935821 0.975753 0.999451
0.894255 0.876463 0.970932
0.803967 0.943435 1
0.81767 0.945281 1
0.881849 0.96257 1
0.960082 0.983185 1
0.961913 0.987213 1
0 0.298802 0.705425
0 0.233524 0.686671
0.421134 0.1617 0.67747
0.643168 0.385718 0.719402
0.660334 0.410742 0.735821
0 0.323796 0.716075
0 0.442069 0.749111
0.473274 0.347097 0.801266
0.655116 0.402701 0.730419
0.66215 0.41355 0.737682
0.212879 0.622782 0.861387
0.243641 0.638926 0.873823
0.38854 0.729931 0.924346
0.867674 0.763668 0.923491
0.668544 0.423606 0.744457
0.558206 0.827283 0.971283
0.563363 0.830777 0.974075
0.609995 0.87393 0.998489
0.931792 0.968353 0.999619
0.898665 0.897353 0.979583
0.77615 0.937591 1
0.79588 0.941482 1
0.872831 0.960372 1
0.959655 0.982803 1
0.961913 0.987274 1
