presets/XH_5219_G.cube
TITLE "Generated by Resolve"
LUT_3D_SIZE 5
0 0.0101472 0.0416724
0 0.026978 0.0529641
0.4047 0.122332 0.0634623
0.590036 0.407874 0.33666
0.681147 0.483864 0.663584
0 0.0708934 0.106783
0.0009308 0.105501 0.127306
0.381247 0.0961929 0.0595407
0.576059 0.377172 0.287739
0.648707 0.439719 0.603098
0 0.591394 0.628305
0 0.609674 0.61622
0.693767 0.688396 0.35935
0.841901 0.584558 0.248341
0.68632 0.497215 0.620432
0.499626 0.866621 0.898451
0.484901 0.875761 0.896178
0.525154 0.946014 0.881102
0.933577 0.983627 0.724392
0.952865 0.953811 0.614878
0.777951 0.952575 0.941344
0.748592 0.952621 0.941695
0.824018 0.961624 0.940154
0.925994 0.995636 0.931411
0.936065 0.997971 0.938521
0 0.01355 0.0486152
0 0.0322881 0.0680705
0.386084 0.133776 0.0761578
0.599481 0.407538 0.389899
0.689555 0.498054 0.681346
0 0.0721447 0.126574
0.00109865 0.113268 0.155871
0.405554 0.125597 0.0639048
0.594797 0.412131 0.348547
0.713436 0.541253 0.713069
0.00535592 0.576532 0.635691
0 0.589395 0.625681
0.677012 0.675959 0.346685
0.823865 0.556786 0.209873
0.740047 0.57322 0.716228
0.511116 0.868635 0.902571
0.501732 0.873732 0.90071
0.461097 0.939147 0.881498
0.933608 0.983551 0.72433
0.971771 0.93724 0.585199
0.790555 0.954223 0.942351
0.788281 0.954223 0.941833
0.83621 0.962936 0.944167
0.925246 0.995361 0.933211
0.936141 0.997971 0.938537
0 0.0352178 0.301015
0 0.0617075 0.365698
0.390967 0.136461 0.437293
0.603937 0.386587 0.568856
0.705303 0.521935 0.711711
0 0.0570687 0.339162
0 0.0417639 0.358618
0.404898 0.148226 0.457374
0.602655 0.386496 0.559457
0.732372 0.567086 0.736584
0.108309 0.559289 0.689143
0.110689 0.55993 0.690959
0.626322 0.671901 0.712139
0.657313 0.481941 0.457115
0.824689 0.706127 0.810925
0.57557 0.868742 0.916259
0.572351 0.873335 0.919173
0.547387 0.934524 0.925902
0.929778 0.9935 0.838544
0.96643 0.910185 0.547601
0.795727 0.952972 0.946136
0.797238 0.953643 0.945891
0.849073 0.964645 0.949508
0.934371 0.996017 0.938552
0.937102 0.99794 0.938674
0 0.120348 0.491997
0.00169375 0.128206 0.484962
0.451438 0.205173 0.599893
0.621408 0.410605 0.644587
0.64416 0.443076 0.66598
0 0.159854 0.517464
0 0.136233 0.50959
0.447395 0.203861 0.600122
0.622049 0.41146 0.645136
0.672633 0.474693 0.690364
0.138705 0.566781 0.729152
0.138582 0.564553 0.727596
0.551324 0.618387 0.805219
0.637476 0.433295 0.659495
0.82504 0.704189 0.811688
0.617212 0.859937 0.910842
0.619058 0.861906 0.910719
0.651743 0.890578 0.927413
0.908232 0.991363 0.930739
0.89276 0.884092 0.898497
0.795285 0.952438 0.955276
0.807401 0.954711 0.955367
0.860502 0.974792 0.960998
0.941314 0.996551 0.953033
0.942 0.99913 0.949813
0 0.291539 0.589715
0 0.231495 0.568414
0.396689 0.186664 0.574609
0.614801 0.40174 0.638849
0.632837 0.426535 0.655009
0 0.314855 0.600778
0 0.429999 0.64303
0.463981 0.360693 0.692866
0.627298 0.41857 0.649729
0.63476 0.429313 0.65684
0.244022 0.615503 0.763027
0.278141 0.632288 0.775372
0.430747 0.726238 0.831846
0.856168 0.774487 0.848051
0.641566 0.439277 0.663462
0.585901 0.827161 0.888548
0.590784 0.830732 0.891402
0.630243 0.875593 0.920287
0.907897 0.982559 0.934371
0.897642 0.904738 0.908446
0.771206 0.945602 0.953094
0.78883 0.950072 0.954742
0.851759 0.972534 0.960067
0.940856 0.996185 0.952804
0.941955 0.999176 0.950134
