presets/XH_5219_R.cube
TITLE "Generated by Resolve"
LUT_3D_SIZE 9
0.0631571 0.00373846 0
0.0650034 0.00459297 0
0.0805371 0.0183566 0
0.243381 0.0280308 0
0.378393 0.0908827 0.0241093
0.524224 0.206439 0.0903029
0.557168 0.361349 0.321233
0.603891 0.352697 0.488228
0.670726 0.423911 0.633494
0.0638132 0.00590524 0
0.0671092 0.00740063 0
0.0767071 0.0168154 0
0.237598 0.0264897 0
0.374502 0.0856184 0.0226291
0.523919 0.197742 0.0736858
0.553765 0.344991 0.301442
0.594888 0.347677 0.458228
0.635981 0.379263 0.56463
0.0938582 0.0595712 0.000259403
0.0962234 0.0564279 0
0.138064 0.0892348 0.0117647
0.2963 0.0582589 0.0102083
0.348089 0.0703746 0.0134127
0.532647 0.193988 0.0565347
0.55201 0.328099 0.279423
0.591608 0.34844 0.445472
0.639338 0.384436 0.566323
0.0925154 0.306722 0.266133
0.0921645 0.30193 0.257374
0.0941482 0.307271 0.262898
0.399283 0.348394 0
0.621653 0.324956 0
0.572229 0.240696 0.0150607
0.574929 0.288945 0.208881
0.572976 0.358694 0.402365
0.649592 0.398413 0.573648
0.187869 0.517159 0.542977
0.185672 0.517586 0.536202
0.187442 0.526238 0.51136
0.255314 0.574243 0.530037
0.703609 0.62324 0.331243
0.874052 0.662654 0.33225
0.82356 0.515618 0.146029
0.585077 0.345693 0.294514
0.675715 0.437171 0.583062
0.3991 0.74165 0.781857
0.395224 0.743938 0.774517
0.401038 0.745907 0.763851
0.406195 0.755703 0.737453
0.761868 0.822995 0.508614
0.913832 0.865049 0.5682
0.963226 0.858701 0.516609
0.942382 0.773465 0.386526
0.767956 0.507347 0.417105
0.550256 0.815091 0.864713
0.548562 0.817456 0.860594
0.548592 0.82153 0.855131
0.550805 0.835554 0.835431
0.653422 0.878752 0.799268
0.870192 0.919966 0.65507
0.938827 0.936965 0.72961
0.935821 0.939757 0.713405
0.952605 0.907881 0.601038
0.606409 0.849332 0.884092
0.603952 0.847227 0.882017
0.604501 0.84918 0.879896
0.606439 0.860365 0.872297
0.711101 0.891371 0.852308
0.87509 0.919387 0.811673
0.936294 0.943099 0.838026
0.944015 0.944427 0.860899
0.938766 0.940475 0.738048
0.816541 0.902327 0.912535
0.789914 0.901213 0.909667
0.793896 0.901564 0.910079
0.815488 0.902968 0.910048
0.858045 0.912016 0.909926
0.912306 0.927581 0.918334
0.943023 0.948653 0.929488
0.94345 0.955718 0.929061
0.951324 0.954253 0.939071
0.063798 0.00358587 0
0.0646372 0.00442512 0
0.0786755 0.020676 0
0.241459 0.0279545 0
0.373327 0.0928664 0.0229496
0.517128 0.215763 0.114748
0.55668 0.371771 0.331807
0.606577 0.356237 0.49839
0.678416 0.435523 0.650187
0.063386 0.00523384 0
0.0657664 0.00656138 0
0.0865034 0.0228885 0
0.243717 0.0280919 0
0.378454 0.090898 0.0241245
0.523522 0.204395 0.0868849
0.556741 0.358144 0.317647
0.601877 0.349981 0.481224
0.659739 0.408698 0.611093
0.09308 0.0658579 0.00622568
0.0940414 0.0585031 0.000488289
0.135912 0.0876631 0.0114443
0.29723 0.0560616 0.00769055
0.359854 0.0778668 0.0176547
0.535424 0.199176 0.0656748
0.554101 0.340475 0.295308
0.599771 0.349447 0.472084
0.66424 0.414939 0.617136
0.0928206 0.308476 0.273655
0.0923934 0.305684 0.265538
0.0915999 0.298283 0.247807
0.395407 0.346258 0
0.616953 0.319036 0
0.543206 0.220829 0.016907
0.5673 0.296895 0.228214
0.589059 0.353567 0.436698
0.67686 0.432303 0.632685
0.189532 0.514748 0.550256
0.18819 0.51722 0.542901
0.18645 0.522362 0.519509
0.236515 0.56434 0.525307
0.700893 0.621057 0.32961
0.871153 0.661265 0.342107
0.816373 0.501625 0.115557
0.596216 0.390265 0.349187
0.707088 0.473808 0.647868
0.401068 0.737362 0.786618
0.398779 0.741573 0.781765
0.40061 0.746899 0.772351
0.408255 0.756451 0.74725
0.753048 0.821714 0.5243
0.913787 0.864881 0.567941
0.962478 0.856992 0.515801
0.929885 0.755322 0.401907
0.745876 0.551858 0.622644
0.553857 0.816342 0.866987
0.551156 0.815946 0.864683
0.550851 0.82063 0.859007
0.552361 0.831952 0.840406
0.631922 0.873793 0.797986
0.868193 0.919387 0.654887
0.938827 0.936965 0.72961
0.935439 0.940276 0.711284
0.968627 0.896498 0.559518
0.608606 0.851408 0.885634
0.606714 0.849638 0.884199
0.606973 0.850843 0.882124
0.610269 0.861387 0.875746
0.708202 0.890852 0.856306
0.872282 0.918624 0.814694
0.936812 0.942992 0.839902
0.943984 0.944472 0.860746
0.938766 0.940444 0.737972
0.826474 0.904356 0.913573
0.818357 0.902495 0.912795
0.820905 0.903227 0.912367
0.833143 0.906416 0.91107
0.86569 0.913817 0.914977
0.912871 0.92781 0.920577
0.942641 0.94844 0.929564
0.943358 0.955779 0.929335
0.951324 0.954253 0.939071
0.0641184 0.00721752 0
0.0678569 0.0109712 0
0.0800336 0.024567 0
0.243351 0.034165 0.000579843
0.365927 0.101396 0.0334325
0.505364 0.237263 0.160754
0.554162 0.367895 0.348501
0.608331 0.357458 0.507378
0.679057 0.43679 0.653315
0.0671702 0.00883497 0
0.0640726 0.00827039 0
0.081239 0.0255436 0
0.247929 0.0306706 0
0.367742 0.0949721 0.024033
0.511574 0.219043 0.125353
0.556008 0.37232 0.332418
0.604166 0.353109 0.491127
0.660517 0.409583 0.615183
0.0917983 0.0619364 0.0317235
0.0923781 0.0621347 0.0318303
0.128878 0.0982223 0.0621042
0.332891 0.0733654 0.0213626
0.380636 0.0934462 0.0247196
0.52639 0.211017 0.0974594
0.557809 0.367178 0.327077
0.609247 0.359472 0.505409
0.703243 0.477028 0.688716
0.0934005 0.312245 0.306676
0.0932631 0.311528 0.289052
0.0922255 0.303609 0.269856
0.387488 0.349538 0.000381476
0.595956 0.300557 0.0102388
0.558907 0.216098 0.0353399
0.554726 0.313817 0.259525
0.603525 0.352972 0.478904
0.712947 0.485466 0.691386
0.196597 0.508873 0.566567
0.19147 0.510872 0.558465
0.186816 0.515206 0.539834
0.198062 0.53817 0.502876
0.688212 0.609689 0.319829
0.854994 0.649012 0.378973
0.807691 0.488045 0.0876478
0.601984 0.428031 0.395773
0.72961 0.507774 0.690669
0.403159 0.731167 0.791241
0.399954 0.733608 0.787335
0.39765 0.741863 0.781842
0.404349 0.752255 0.750622
0.714931 0.820569 0.564004
0.908095 0.862882 0.564492
0.952331 0.855329 0.560433
0.924788 0.747753 0.407431
0.769268 0.586053 0.664149
0.558175 0.817777 0.870909
0.555901 0.817349 0.868406
0.556771 0.821408 0.864561
0.556848 0.831312 0.848112
0.602792 0.868986 0.797513
0.864942 0.919432 0.662715
0.938857 0.936904 0.729519
0.936522 0.938811 0.71693
0.969833 0.891829 0.553628
0.610208 0.852567 0.887144
0.608362 0.850919 0.886076
0.608865 0.852262 0.884321
0.614176 0.86215 0.879637
0.707393 0.890394 0.861143
0.871092 0.917845 0.820996
0.93814 0.943313 0.844923
0.943771 0.944762 0.859678
0.938796 0.941039 0.739605
0.826734 0.904311 0.914092
0.818372 0.902388 0.913222
0.825391 0.904143 0.91313
0.836149 0.90724 0.912032
0.866331 0.913985 0.916167
0.912627 0.927733 0.921218
0.942367 0.948318 0.930465
0.942992 0.956115 0.930495
0.95137 0.954238 0.939116
0.0542 0.0188754 0.0367132
0.057847 0.0225071 0.0677501
0.0647898 0.049897 0.10309
0.175723 0.0706493 0.0473487
0.327367 0.124239 0.142962
0.482307 0.281712 0.267155
0.570306 0.339498 0.409247
0.612757 0.355444 0.53489
0.681041 0.441947 0.663417
0.0555276 0.0181582 0.0316472
0.0547951 0.0196384 0.0448157
0.0615702 0.0469825 0.131685
0.17612 0.0709697 0.0476844
0.321599 0.122774 0.129595
0.487129 0.288884 0.2495
0.561379 0.343008 0.390204
0.609445 0.35523 0.52015
0.664042 0.414054 0.628885
0.0663157 0.0705425 0.171954
0.0641184 0.0678569 0.18558
0.0714885 0.0798047 0.248112
0.210086 0.0934462 0.0836194
0.323049 0.123095 0.110491
0.497414 0.278416 0.225895
0.559442 0.347173 0.383856
0.613382 0.356664 0.533639
0.708507 0.481209 0.695125
0.0960555 0.290852 0.384527
0.0960098 0.290578 0.384451
0.0971084 0.29189 0.385245
0.34258 0.359548 0.450324
0.557198 0.324681 0.259388
0.536736 0.230823 0.128496
0.559258 0.374792 0.334936
0.619089 0.364401 0.534554
0.76437 0.560861 0.738872
0.224384 0.50277 0.605158
0.222721 0.502815 0.603693
0.219821 0.505241 0.602152
0.205783 0.526802 0.561105
0.662623 0.61677 0.40444
0.822339 0.63035 0.443305
0.743511 0.417823 0.124941
0.620569 0.389609 0.466209
0.768063 0.569162 0.742306
0.426444 0.723537 0.809873
0.419806 0.724102 0.806699
0.414694 0.728435 0.804288
0.407401 0.744717 0.780713
0.624369 0.815579 0.722148
0.891859 0.855558 0.568475
0.935439 0.854353 0.604242
0.910689 0.735302 0.393179
0.784741 0.603632 0.727611
0.570382 0.818921 0.881315
0.56788 0.819013 0.879271
0.568261 0.823255 0.878111
0.570504 0.835325 0.86807
0.597086 0.870619 0.814252
0.860929 0.921645 0.692805
0.938964 0.94049 0.738674
0.938674 0.939086 0.734218
0.970626 0.878782 0.535851
0.614099 0.855116 0.889998
0.612833 0.853956 0.889357
0.613352 0.855573 0.888334
0.62031 0.864759 0.886244
0.708553 0.889601 0.875502
0.870008 0.914961 0.844739
0.940414 0.943954 0.859983
0.943358 0.945251 0.857572
0.939406 0.942748 0.751019
0.827329 0.904234 0.915618
0.818723 0.902083 0.914565
0.826108 0.904005 0.914687
0.843488 0.909148 0.916182
0.868452 0.914656 0.91928
0.912001 0.927611 0.923278
0.943786 0.948241 0.932433
0.945571 0.955703 0.9337
0.951507 0.954192 0.939239
0.059556 0.0294804 0.272312
0.0611887 0.0342412 0.302113
0.0839094 0.0523079 0.344747
0.212573 0.0652323 0.351843
0.385595 0.105974 0.400122
0.532113 0.257145 0.421241
0.59649 0.336355 0.530312
0.619898 0.359213 0.581079
0.694591 0.45864 0.687709
0.0593271 0.0278172 0.269093
0.0600748 0.0303197 0.285008
0.0749828 0.0464637 0.347845
0.203525 0.0658427 0.35198
0.385046 0.105638 0.399207
0.527886 0.253086 0.412451
0.594827 0.335439 0.521248
0.617884 0.356985 0.572747
0.67776 0.433387 0.667094
0.0622263 0.0494545 0.316381
0.0617685 0.0479438 0.323674
0.0630045 0.0347295 0.338933
0.214542 0.0658885 0.394446
0.399268 0.116243 0.420447
0.529412 0.256641 0.408804
0.595468 0.336492 0.519493
0.622049 0.361044 0.580911
0.72192 0.501717 0.714778
0.0872358 0.264851 0.548348
0.0865797 0.25977 0.553445
0.0850233 0.245686 0.559152
0.25977 0.27451 0.550011
0.505653 0.229221 0.540734
0.541238 0.273732 0.410651
0.593133 0.338476 0.494377
0.634516 0.374121 0.587625
0.776638 0.578729 0.758999
0.231098 0.502144 0.661311
0.231678 0.50251 0.662501
0.232105 0.502815 0.663691
0.236408 0.50753 0.665461
0.625177 0.613153 0.685176
0.759121 0.656443 0.634318
0.611307 0.434592 0.417777
0.651316 0.399451 0.579568
0.814038 0.645014 0.794965
0.445182 0.716945 0.836271
0.444648 0.717296 0.834989
0.447929 0.721233 0.834348
0.451179 0.734539 0.828275
0.612406 0.813352 0.805554
0.855177 0.85507 0.721675
0.908705 0.856794 0.783825
0.850477 0.675807 0.590249
0.80766 0.632944 0.780148
0.602792 0.822385 0.897795
0.601144 0.82266 0.899062
0.601923 0.826886 0.899763
0.603296 0.837034 0.892409
0.633753 0.877424 0.876783
0.874769 0.919051 0.821607
0.94049 0.945708 0.847974
0.928328 0.944793 0.823178
0.96492 0.863783 0.502205
0.627848 0.857221 0.901656
0.626413 0.856657 0.900053
0.62652 0.858549 0.898604
0.63505 0.868696 0.896986
0.72842 0.893446 0.888395
0.878019 0.915496 0.876921
0.931289 0.94818 0.898283
0.94078 0.941878 0.888502
0.942855 0.9458 0.8551
0.826719 0.904387 0.920943
0.820233 0.902495 0.919051
0.828687 0.904921 0.920378
0.846052 0.909728 0.92343
0.874571 0.916686 0.924849
0.913222 0.928206 0.926345
0.94905 0.948608 0.938277
0.954604 0.953643 0.942138
0.951965 0.954116 0.939681
0.065156 0.068452 0.418494
0.0728618 0.073579 0.433936
0.124193 0.0755169 0.416632
0.28159 0.0800336 0.468666
0.391974 0.118654 0.541283
0.548424 0.254673 0.539712
0.607889 0.348852 0.599588
0.627817 0.37174 0.631144
0.674846 0.429023 0.680812
0.0640269 0.0671702 0.413443
0.0652476 0.0688945 0.419669
0.0909895 0.0713054 0.427237
0.267735 0.0808423 0.457038
0.387137 0.115831 0.539864
0.546212 0.25069 0.538415
0.606516 0.348104 0.595895
0.626703 0.369833 0.629679
0.649378 0.399664 0.655299
0.0677501 0.0980392 0.444114
0.0673075 0.094728 0.441566
0.0664683 0.0850996 0.441138
0.245563 0.0915847 0.44271
0.419867 0.134066 0.55639
0.551431 0.260304 0.541833
0.608484 0.349371 0.600732
0.629725 0.373938 0.633158
0.725521 0.500862 0.721599
0.0863966 0.259739 0.606668
0.08542 0.25153 0.600809
0.0840162 0.237583 0.585519
0.174075 0.191531 0.548012
0.433936 0.151568 0.576684
0.575875 0.305547 0.563027
0.608865 0.349722 0.601419
0.632136 0.376211 0.635615
0.790921 0.600641 0.781353
0.224048 0.501762 0.701473
0.222354 0.500725 0.701793
0.219181 0.499077 0.703166
0.204105 0.487388 0.702098
0.587411 0.575265 0.786038
0.764416 0.575372 0.755535
0.618631 0.360388 0.610819
0.63241 0.373617 0.63505
0.835065 0.680613 0.814771
0.453025 0.705501 0.849729
0.453193 0.705623 0.849836
0.455848 0.707576 0.851423
0.465248 0.716365 0.858579
0.602182 0.792294 0.869932
0.832212 0.835966 0.844312
0.880217 0.84387 0.860151
0.790295 0.614496 0.735882
0.825315 0.665599 0.806851
0.624521 0.818936 0.900084
0.624079 0.81912 0.899687
0.625834 0.821866 0.899977
0.631754 0.83183 0.903609
0.659083 0.866651 0.908476
0.879194 0.91136 0.909712
0.942596 0.93814 0.917159
0.944198 0.935119 0.911574
0.912276 0.877272 0.824063
0.658152 0.855253 0.910719
0.657221 0.855131 0.91043
0.658351 0.857069 0.910491
0.66424 0.8645 0.911818
0.758862 0.894743 0.911284
0.886259 0.920256 0.921447
0.943069 0.948058 0.931853
0.947143 0.955184 0.935164
0.94432 0.954696 0.92604
0.825147 0.909285 0.92932
0.822019 0.908064 0.92874
0.832547 0.910369 0.929137
0.853101 0.912123 0.929229
0.884489 0.919326 0.930037
0.915267 0.935454 0.938674
0.950973 0.952148 0.943694
0.952911 0.959701 0.945647
0.951308 0.962402 0.944579
0.0822919 0.104952 0.478538
0.0948196 0.106859 0.485344
0.132158 0.109697 0.466651
0.276081 0.121706 0.478294
0.444602 0.166339 0.578653
0.541924 0.256138 0.566598
0.612589 0.357382 0.616342
0.624292 0.372747 0.628092
0.634806 0.387182 0.639338
0.0802014 0.106538 0.475975
0.082475 0.102495 0.475105
0.107469 0.111528 0.487221
0.256947 0.119219 0.470451
0.439994 0.163333 0.576883
0.539864 0.253941 0.565011
0.612253 0.35697 0.616022
0.623484 0.371664 0.627283
0.633127 0.384863 0.637568
0.0864729 0.141283 0.505882
0.0862287 0.138048 0.504982
0.084947 0.119341 0.497856
0.218921 0.111376 0.452888
0.440635 0.165148 0.579126
0.551507 0.266926 0.574426
0.613199 0.35816 0.616938
0.625956 0.375021 0.629862
0.662074 0.415305 0.66511
0.0904097 0.269337 0.600381
0.0901198 0.261372 0.593957
0.0924239 0.254459 0.585031
0.115633 0.195621 0.567254
0.415793 0.163424 0.567315
0.588281 0.312306 0.602319
0.614084 0.359274 0.617761
0.627787 0.377539 0.631846
0.747326 0.536812 0.740963
0.243214 0.510246 0.713588
0.242206 0.508614 0.712718
0.242985 0.508186 0.712139
0.231159 0.496574 0.700832
0.551507 0.557427 0.797208
0.752926 0.548486 0.774166
0.628244 0.378164 0.632319
0.628702 0.37879 0.632792
0.814221 0.642817 0.795834
0.44358 0.674617 0.826612
0.443305 0.674098 0.826307
0.44361 0.673808 0.826093
0.438132 0.669276 0.823774
0.538628 0.750362 0.873411
0.820737 0.818692 0.866361
0.877577 0.826917 0.882521
0.775158 0.576577 0.766033
0.798703 0.616709 0.786557
0.633417 0.814176 0.897368
0.633768 0.81442 0.897215
0.63592 0.815961 0.896361
0.643519 0.822919 0.897108
0.672496 0.845289 0.910872
0.87364 0.903944 0.918029
0.92874 0.942901 0.921721
0.932555 0.935943 0.901503
0.883009 0.837995 0.88777
0.688136 0.859586 0.912871
0.688106 0.859571 0.912917
0.690059 0.861326 0.914183
0.696284 0.865248 0.917388
0.765606 0.895567 0.92958
0.893339 0.929793 0.938689
0.952773 0.949889 0.950515
0.955123 0.953811 0.94757
0.95494 0.954162 0.946426
0.818479 0.906294 0.934859
0.818296 0.906233 0.934798
0.83003 0.908492 0.935027
0.852934 0.91313 0.936767
0.884916 0.92755 0.937942
0.922164 0.940215 0.939116
0.952865 0.949966 0.950683
0.955093 0.954406 0.949187
0.955108 0.954192 0.948638
0.0951095 0.176898 0.546487
0.0937972 0.162814 0.537575
0.0891585 0.141787 0.521202
0.192035 0.107988 0.446952
0.428168 0.156451 0.573266
0.563867 0.28246 0.580377
0.610681 0.354955 0.614496
0.619638 0.36643 0.623194
0.629847 0.380346 0.634028
0.0945754 0.17113 0.542824
0.0943465 0.168688 0.541283
0.0910353 0.14638 0.52575
0.171939 0.110903 0.451377
0.420996 0.152712 0.568948
0.562554 0.2795 0.580468
0.610407 0.354604 0.614237
0.619257 0.365911 0.622782
0.628443 0.378439 0.632532
0.0953841 0.195575 0.554986
0.0953536 0.193194 0.553948
0.0953384 0.194049 0.55433
0.0927443 0.122881 0.504448
0.396155 0.144076 0.554147
0.576562 0.298878 0.591653
0.611246 0.355657 0.615015
0.62063 0.367742 0.624216
0.633722 0.385672 0.638178
0.126375 0.345617 0.615412
0.126345 0.344015 0.615076
0.135744 0.362661 0.621897
0.131334 0.35198 0.618173
0.48098 0.315984 0.683711
0.577829 0.30164 0.602396
0.61323 0.358221 0.616968
0.621851 0.369421 0.625513
0.660502 0.413672 0.663203
0.271794 0.532479 0.727489
0.271458 0.532113 0.727214
0.275669 0.535653 0.730159
0.266712 0.527871 0.723476
0.514031 0.603037 0.814847
0.772961 0.60296 0.804471
0.68896 0.444617 0.693462
0.623178 0.371237 0.626932
0.764492 0.562463 0.755901
0.457664 0.679973 0.829145
0.457298 0.679728 0.829053
0.457389 0.679789 0.829053
0.451621 0.67599 0.827665
0.528557 0.740871 0.872847
0.813519 0.816129 0.868193
0.880385 0.830076 0.886229
0.805432 0.630945 0.79028
0.739498 0.524117 0.733227
0.610468 0.789258 0.886854
0.610285 0.789136 0.886778
0.613275 0.793423 0.890211
0.621942 0.804868 0.897246
0.644694 0.828107 0.905043
0.855421 0.893004 0.912184
0.927718 0.934005 0.921859
0.93312 0.928374 0.898955
0.876112 0.825238 0.880781
0.68864 0.860121 0.912581
0.688884 0.860319 0.912734
0.690745 0.861921 0.913985
0.696086 0.864927 0.917067
0.758709 0.894759 0.92668
0.888518 0.928267 0.938003
0.950134 0.947662 0.947311
0.955215 0.952361 0.943603
0.955215 0.9523 0.94342
0.801419 0.901396 0.933608
0.802563 0.901671 0.933715
0.816449 0.905623 0.935088
0.843931 0.910933 0.936233
0.878325 0.92575 0.937209
0.917159 0.939239 0.938094
0.952834 0.949981 0.950637
0.955108 0.95436 0.949081
0.955108 0.954299 0.948913
0.0983902 0.263783 0.581109
0.0959182 0.232181 0.569055
0.0953841 0.207309 0.560082
0.090547 0.14519 0.524559
0.390219 0.150896 0.552163
0.570474 0.290211 0.589975
0.606241 0.349371 0.610285
0.61387 0.359014 0.617563
0.623697 0.371939 0.627482
0.0956893 0.22295 0.566003
0.0956893 0.223102 0.566049
0.0953689 0.201709 0.557641
0.0891585 0.141787 0.521202
0.382177 0.143343 0.545724
0.568063 0.287358 0.588067
0.605768 0.34876 0.609827
0.613535 0.358587 0.617243
0.623056 0.371069 0.626795
0.103014 0.285267 0.592081
0.104234 0.290181 0.594507
0.146242 0.38883 0.630259
0.13138 0.352087 0.618219
0.460716 0.314763 0.680079
0.566903 0.292729 0.59794
0.61828 0.364614 0.62179
0.614496 0.359792 0.618158
0.625574 0.374502 0.629465
0.162676 0.419272 0.643854
0.165057 0.423255 0.645853
0.195102 0.464683 0.672221
0.23064 0.495644 0.696666
0.47866 0.538552 0.789532
0.741726 0.538338 0.799634
0.631342 0.382391 0.635599
0.615228 0.360739 0.61886
0.628443 0.378439 0.632532
0.301808 0.556939 0.74873
0.304341 0.558831 0.750393
0.322789 0.573724 0.761929
0.336233 0.585153 0.769985
0.437659 0.672206 0.819791
0.785199 0.742031 0.83917
0.845762 0.719036 0.834714
0.617777 0.363958 0.621271
0.632258 0.383673 0.636606
0.471916 0.689296 0.832639
0.473854 0.690471 0.834104
0.47837 0.693217 0.837507
0.47982 0.694102 0.83859
0.540536 0.749859 0.875319
0.818616 0.84036 0.876524
0.888792 0.868055 0.897917
0.862104 0.77319 0.863844
0.633722 0.385672 0.638178
0.599283 0.780285 0.876417
0.599573 0.78056 0.876554
0.604074 0.784085 0.879393
0.616785 0.797909 0.893568
0.649027 0.830442 0.905531
0.858274 0.895048 0.912993
0.92668 0.934249 0.925307
0.933349 0.93283 0.89836
0.889509 0.859998 0.89752
0.688212 0.860029 0.91339
0.688289 0.860105 0.913481
0.689967 0.861631 0.914626
0.695186 0.864103 0.917296
0.759884 0.894789 0.926726
0.883177 0.925536 0.936217
0.946731 0.945968 0.945205
0.955245 0.951858 0.942214
0.955322 0.950439 0.938323
0.794858 0.899702 0.93283
0.796338 0.900038 0.932967
0.811521 0.904021 0.934539
0.842496 0.910338 0.935943
0.877256 0.925048 0.936965
0.91574 0.938811 0.937667
0.952453 0.949569 0.950271
0.955108 0.954299 0.948928
0.955108 0.954269 0.948837
