presets/XH_5219_R.cube
TITLE "Generated by Resolve"
LUT_3D_SIZE 5
0.0631571 0.00373846 0
0.0805371 0.0183566 0
0.378393 0.0908827 0.0241093
0.557168 0.361349 0.321233
0.670726 0.423911 0.633494
0.0938582 0.0595712 0.000259403
0.138064 0.0892348 0.0117647
0.348089 0.0703746 0.0134127
0.55201 0.328099 0.279423
0.639338 0.384436 0.566323
0.187869 0.517159 0.542977
0.187442 0.526238 0.51136
0.703609 0.62324 0.331243
0.82356 0.515618 0.146029
0.675715 0.437171 0.583062
0.550256 0.815091 0.864713
0.548592 0.82153 0.855131
0.653422 0.878752 0.799268
0.938827 0.936965 0.72961
0.952605 0.907881 0.601038
0.816541 0.902327 0.912535
0.793896 0.901564 0.910079
0.858045 0.912016 0.909926
0.943023 0.948653 0.929488
0.951324 0.954253 0.939071
0.0641184 0.00721752 0
0.0800336 0.024567 0
0.365927 0.101396 0.0334325
0.554162 0.367895 0.348501
0.679057 0.43679 0.653315
0.0917983 0.0619364 0.0317235
0.128878 0.0982223 0.0621042
0.380636 0.0934462 0.0247196
0.557809 0.367178 0.327077
0.703243 0.477028 0.688716
0.196597 0.508873 0.566567
0.186816 0.515206 0.539834
0.688212 0.609689 0.319829
0.807691 0.488045 0.0876478
0.72961 0.507774 0.690669
0.558175 0.817777 0.870909
0.556771 0.821408 0.864561
0.602792 0.868986 0.797513
0.938857 0.936904 0.729519
0.969833 0.891829 0.553628
0.826734 0.904311 0.914092
0.825391 0.904143 0.91313
0.866331 0.913985 0.916167
0.942367 0.948318 0.930465
0.95137 0.954238 0.939116
0.059556 0.0294804 0.272312
0.0839094 0.0523079 0.344747
0.385595 0.105974 0.400122
0.59649 0.336355 0.530312
0.694591 0.45864 0.687709
0.0622263 0.0494545 0.316381
0.0630045 0.0347295 0.338933
0.399268 0.116243 0.420447
0.595468 0.336492 0.519493
0.72192 0.501717 0.714778
0.231098 0.502144 0.661311
0.232105 0.502815 0.663691
0.625177 0.613153 0.685176
0.611307 0.434592 0.417777
0.814038 0.645014 0.794965
0.602792 0.822385 0.897795
0.601923 0.826886 0.899763
0.633753 0.877424 0.876783
0.94049 0.945708 0.847974
0.96492 0.863783 0.502205
0.826719 0.904387 0.920943
0.828687 0.904921 0.920378
0.874571 0.916686 0.924849
0.94905 0.948608 0.938277
0.951965 0.954116 0.939681
0.0822919 0.104952 0.478538
0.132158 0.109697 0.466651
0.444602 0.166339 0.578653
0.612589 0.357382 0.616342
0.634806 0.387182 0.639338
0.0864729 0.141283 0.505882
0.084947 0.119341 0.497856
0.440635 0.165148 0.579126
0.613199 0.35816 0.616938
0.662074 0.415305 0.66511
0.243214 0.510246 0.713588
0.242985 0.508186 0.712139
0.551507 0.557427 0.797208
0.628244 0.378164 0.632319
0.814221 0.642817 0.795834
0.633417 0.814176 0.897368
0.63592 0.815961 0.896361
0.672496 0.845289 0.910872
0.92874 0.942901 0.921721
0.883009 0.837995 0.88777
0.818479 0.906294 0.934859
0.83003 0.908492 0.935027
0.884916 0.92755 0.937942
0.952865 0.949966 0.950683
0.955108 0.954192 0.948638
0.0983902 0.263783 0.581109
0.0953841 0.207309 0.560082
0.390219 0.150896 0.552163
0.606241 0.349371 0.610285
0.623697 0.371939 0.627482
0.103014 0.285267 0.592081
0.146242 0.38883 0.630259
0.460716 0.314763 0.680079
0.61828 0.364614 0.62179
0.625574 0.374502 0.629465
0.301808 0.556939 0.74873
0.322789 0.573724 0.761929
0.437659 0.672206 0.819791
0.845762 0.719036 0.834714
0.632258 0.383673 0.636606
0.599283 0.780285 0.876417
0.604074 0.784085 0.879393
0.649027 0.830442 0.905531
0.92668 0.934249 0.925307
0.889509 0.859998 0.89752
0.794858 0.899702 0.93283
0.811521 0.904021 0.934539
0.877256 0.925048 0.936965
0.952453 0.949569 0.950271
0.955108 0.954269 0.948837
