presets/XH_5219_R.cube
TITLE "Generated by Resolve"
LUT_3D_SIZE 33
0.0631571 0.00373846 0
0.0631571 0.00373846 0
0.0631571 0.00373846 0
0.0631571 0.00376898 0
0.0650034 0.00459297 0
0.065919 0.00587472 0
0.0677043 0.00863661 0
0.0712444 0.0127108 0
0.0805371 0.0183566 0
0.105745 0.0214389 0
0.155596 0.0167391 0
0.204929 0.0209049 0
0.243381 0.0280308 0
0.279759 0.0364385 0
0.316381 0.0510262 0.00146487
0.346319 0.0646677 0.00849927
0.378393 0.0908827 0.0241093
0.407019 0.121218 0.0264439
0.445548 0.14493 0.0400244
0.493736 0.172107 0.053727
0.524224 0.206439 0.0903029
0.537926 0.248661 0.162402
0.54226 0.289479 0.228367
0.549676 0.326635 0.277974
0.557168 0.361349 0.321233
0.557153 0.36968 0.354162
0.568719 0.350561 0.399527
0.59173 0.346746 0.449027
0.603891 0.352697 0.488228
0.611917 0.359091 0.519097
0.628809 0.371328 0.555108
0.650752 0.396612 0.59144
0.670726 0.423911 0.633494
0.0631571 0.00373846 0
0.0631571 0.00373846 0
0.0631571 0.00373846 0
0.0631571 0.00375372 0
0.0649271 0.00450141 0
0.0658427 0.00573739 0
0.0675364 0.00839246 0
0.0710613 0.0124819 0
0.0799573 0.0180819 0
0.10515 0.0214237 0
0.155596 0.0167391 0
0.204929 0.0209049 0
0.243381 0.0280308 0
0.279759 0.0364385 0
0.316381 0.0510262 0.00146487
0.346319 0.0646677 0.00849927
0.378393 0.0908827 0.0241093
0.406699 0.121019 0.0263981
0.444282 0.144167 0.0394751
0.491341 0.170581 0.0529793
0.523369 0.203723 0.0856947
0.537331 0.245396 0.156497
0.541939 0.285252 0.222278
0.549035 0.322866 0.273152
0.556146 0.355917 0.314992
0.557717 0.376135 0.345968
0.564416 0.352728 0.389853
0.586892 0.346838 0.436591
0.601068 0.348882 0.478431
0.609339 0.359197 0.506722
0.615412 0.359319 0.534142
0.638132 0.381369 0.5682
0.654963 0.402121 0.60058
0.0631571 0.00373846 0
0.0631571 0.00373846 0
0.0631571 0.00373846 0
0.0631571 0.00375372 0
0.0646067 0.00433356 0
0.0654612 0.00515755 0
0.066743 0.00708019 0
0.0696727 0.0110933 0
0.0760662 0.0163119 0
0.0978256 0.0212406 0
0.145769 0.0171359 0
0.198032 0.0195621 0
0.239979 0.0272984 0
0.277562 0.035874 0
0.315312 0.0505989 0.00135805
0.344884 0.0637675 0.00782788
0.376776 0.0886702 0.023621
0.404456 0.1196 0.026154
0.44181 0.142931 0.0387121
0.488518 0.168566 0.0517433
0.522591 0.201068 0.081239
0.53669 0.242664 0.15169
0.541604 0.281575 0.217014
0.548486 0.319905 0.269368
0.555276 0.352163 0.310414
0.558267 0.380346 0.34081
0.561593 0.354162 0.38349
0.582773 0.347845 0.428061
0.598291 0.348104 0.469306
0.607004 0.356725 0.498436
0.613138 0.359213 0.524315
0.62797 0.370672 0.553567
0.644602 0.38912 0.578515
0.0630961 0.0037995 0
0.0631113 0.0037995 0
0.0631571 0.0037995 0
0.0631876 0.00383001 0
0.0644083 0.00444038 0
0.0653391 0.00497444 0
0.0663157 0.00622568 0
0.0687419 0.0099794 0
0.0732128 0.014786 0
0.0905013 0.0208286 0
0.135302 0.0182956 0
0.190539 0.0181582 0
0.237308 0.0268711 0
0.273655 0.0348974 0
0.312062 0.0493019 0.000991836
0.34229 0.0621958 0.00662242
0.374472 0.0860609 0.022858
0.402594 0.118303 0.0260166
0.439261 0.141527 0.0378119
0.485725 0.16701 0.0507362
0.521584 0.19852 0.0775006
0.536004 0.239612 0.146426
0.541283 0.277897 0.211765
0.547997 0.31696 0.265568
0.554223 0.348013 0.305303
0.558602 0.3776 0.337896
0.558572 0.355627 0.37673
0.578302 0.348638 0.419013
0.595361 0.347509 0.460166
0.604654 0.353674 0.490654
0.6112 0.359304 0.51516
0.617288 0.360723 0.537881
0.635493 0.3785 0.564416
0.0638132 0.00590524 0
0.0637675 0.00581369 0
0.0640574 0.00572213 0
0.0655528 0.00636301 0
0.0671092 0.00740063 0
0.0682536 0.00894179 0
0.0701152 0.0113832 0
0.0720226 0.0141451 0
0.0767071 0.0168154 0
0.0957351 0.0229343 0
0.136584 0.0190433 0
0.186236 0.0170748 0
0.237598 0.0264897 0
0.276463 0.035523 0
0.313832 0.0499123 0.00112917
0.341894 0.0614633 0.0059968
0.374502 0.0856184 0.0226291
0.403571 0.118395 0.0263981
0.439994 0.14139 0.0365759
0.486168 0.167269 0.0481727
0.523919 0.197742 0.0736858
0.537301 0.237888 0.14226
0.543221 0.276799 0.208515
0.547829 0.314382 0.262211
0.553765 0.344991 0.301442
0.558694 0.37583 0.336034
0.557412 0.356573 0.373892
0.577234 0.349081 0.416709
0.594888 0.347677 0.458228
0.604456 0.353414 0.489509
0.611139 0.359533 0.514153
0.617899 0.36144 0.538247
0.635981 0.379263 0.56463
0.0683146 0.0119631 0
0.0682383 0.011841 0
0.067689 0.0109407 0
0.0688792 0.0113222 0
0.0707561 0.0135042 0
0.0725567 0.0161746 0
0.0753033 0.0202029 0
0.0780652 0.0228885 0
0.0812543 0.0215915 0
0.0977188 0.0250553 0
0.144793 0.0198367 0
0.195254 0.0191653 0
0.231144 0.0239719 0
0.272084 0.0341955 0
0.312261 0.0490578 0.000839246
0.343954 0.0623941 0.00662242
0.373358 0.0842145 0.0219577
0.404486 0.118379 0.0268254
0.440955 0.141253 0.035172
0.486656 0.167544 0.0454414
0.525597 0.197192 0.0710307
0.538811 0.236179 0.137881
0.545342 0.275807 0.205127
0.547753 0.311849 0.2589
0.553368 0.341985 0.297551
0.55874 0.374121 0.334234
0.556863 0.357961 0.371328
0.576135 0.34966 0.414237
0.594308 0.347768 0.456077
0.604196 0.353048 0.488273
0.610986 0.359686 0.512963
0.618433 0.362173 0.538369
0.63653 0.380118 0.564904
0.0770428 0.0224002 0
0.0767987 0.0221408 0
0.075639 0.0209659 0
0.0751659 0.0205997 0
0.0770733 0.023621 0
0.0798657 0.0278782 0
0.0836957 0.0330816 0
0.0893873 0.0370947 0
0.0993973 0.0372473 0
0.116976 0.0385901 0
0.155123 0.0287327 0
0.197879 0.0198672 0
0.24065 0.0272526 0
0.271763 0.0331884 0
0.301717 0.0442664 0.000198367
0.341924 0.0610666 0.00567636
0.376013 0.0868849 0.022858
0.405829 0.118334 0.027451
0.441825 0.140764 0.0332647
0.487404 0.167895 0.0418555
0.527611 0.196414 0.0676738
0.540673 0.234028 0.132342
0.548012 0.274495 0.200809
0.548089 0.30898 0.254841
0.552987 0.338628 0.293156
0.558877 0.371664 0.33167
0.557549 0.361547 0.367712
0.574441 0.350362 0.41059
0.593683 0.347967 0.453513
0.603937 0.352712 0.486854
0.61091 0.359945 0.511757
0.619089 0.363149 0.538231
0.637217 0.381186 0.565225
0.08542 0.0341039 0
0.0853285 0.0339513 0
0.0848096 0.0331579 0
0.0843061 0.0323339 0
0.0854658 0.0355688 0
0.0896162 0.0413062 0
0.0962844 0.0488899 0
0.104128 0.0556344 0.000564584
0.120775 0.0626688 0.00273136
0.161074 0.0572824 0
0.199283 0.0462959 0.000366217
0.233173 0.0392462 0.000579843
0.259449 0.0370794 4.57771e-05
0.279774 0.0363622 0
0.303868 0.0441901 0.000183108
0.324681 0.0521248 0.000183108
0.365179 0.0772412 0.0181277
0.407645 0.119814 0.0274205
0.439475 0.14023 0.0323186
0.487449 0.168688 0.0375677
0.530465 0.195132 0.0626078
0.544869 0.232502 0.123766
0.552056 0.272831 0.194781
0.549447 0.305608 0.249454
0.552636 0.334203 0.287297
0.559274 0.368505 0.32842
0.558389 0.366339 0.362737
0.572198 0.35137 0.405661
0.59295 0.34818 0.450584
0.60354 0.352163 0.48484
0.610727 0.360296 0.509789
0.620233 0.364691 0.538506
0.638025 0.382437 0.565621
0.0938582 0.0595712 0.000259403
0.0938582 0.059205 0.000198367
0.0938277 0.0568551 0
0.0936446 0.0547036 0
0.0962234 0.0564279 0
0.100374 0.0613718 0
0.10985 0.0716259 0.000198367
0.121355 0.082063 0.00430304
0.138064 0.0892348 0.0117647
0.179446 0.0908675 0.00888075
0.253056 0.0724193 0.0166781
0.280217 0.0598611 0.0145113
0.2963 0.0582589 0.0102083
0.314214 0.057023 0.00535592
0.323415 0.0539864 0.00167849
0.326909 0.0529183 0.0016022
0.348089 0.0703746 0.0134127
0.381613 0.104906 0.0230259
0.442206 0.143297 0.031632
0.485344 0.169863 0.0332494
0.532647 0.193988 0.0565347
0.550652 0.230304 0.111742
0.55668 0.269764 0.185138
0.551629 0.300908 0.241856
0.55201 0.328099 0.279423
0.55993 0.364431 0.3243
0.559609 0.372869 0.356115
0.570031 0.353231 0.40029
0.591608 0.34844 0.445472
0.602975 0.351415 0.481987
0.610559 0.360815 0.507485
0.621576 0.36672 0.538766
0.639338 0.384436 0.566323
0.0879072 0.104097 0.0455482
0.0879072 0.103716 0.0447395
0.0888685 0.099733 0.0357366
0.0904555 0.0961471 0.0265812
0.0913863 0.0969406 0.024445
0.0970932 0.0995956 0.0216068
0.104143 0.108309 0.0333562
0.12311 0.122835 0.0469215
0.143313 0.131792 0.0468452
0.194263 0.130571 0.0229191
0.260349 0.123873 0.0325322
0.333394 0.104341 0.0480049
0.354894 0.0920119 0.0386969
0.372457 0.0894026 0.0320592
0.37937 0.0851606 0.0255894
0.376928 0.0820478 0.0219883
0.366278 0.0818189 0.0202487
0.359136 0.0975814 0.016144
0.395438 0.123568 0.0179751
0.479408 0.170306 0.0278477
0.5364 0.195605 0.0542611
0.557885 0.227481 0.0953078
0.561456 0.264759 0.170672
0.555779 0.295277 0.231662
0.551431 0.319844 0.268727
0.558572 0.356176 0.314488
0.561166 0.381125 0.347845
0.566827 0.355871 0.392416
0.588754 0.34963 0.438529
0.602243 0.35082 0.478309
0.610086 0.360525 0.504677
0.623133 0.369299 0.538811
0.641047 0.38703 0.567208
0.0882429 0.160601 0.137285
0.0882429 0.160601 0.137285
0.0876173 0.156481 0.129274
0.0867323 0.15169 0.120058
0.0860761 0.151843 0.117617
0.0851148 0.151492 0.111696
0.0895705 0.157137 0.113466
0.108919 0.169574 0.133852
0.137011 0.184726 0.144656
0.172854 0.192462 0.0807355
0.265309 0.188724 0.00141909
0.345937 0.180362 0.030396
0.409598 0.15581 0.0738842
0.436011 0.149096 0.0715038
0.448188 0.146273 0.0626535
0.453971 0.14313 0.0508888
0.449516 0.13698 0.0395361
0.421164 0.128496 0.028809
0.382269 0.120882 0.0142519
0.418082 0.145937 0.0113222
0.516991 0.18819 0.0369573
0.565744 0.229007 0.0855573
0.571847 0.260624 0.151766
0.565225 0.289525 0.217533
0.552895 0.310292 0.25507
0.556909 0.345052 0.300587
0.5626 0.380423 0.34081
0.563088 0.359243 0.383047
0.584543 0.351614 0.42916
0.600504 0.351247 0.471397
0.609369 0.359609 0.50074
0.624857 0.372488 0.538247
0.643198 0.390143 0.568597
0.0878157 0.23093 0.20473
0.0878157 0.23093 0.20473
0.0873274 0.227588 0.200626
0.0866255 0.223682 0.195666
0.0856184 0.222278 0.192142
0.0848859 0.221775 0.189975
0.0857099 0.216342 0.186999
0.0932021 0.226429 0.196323
0.113787 0.246677 0.227726
0.152255 0.259586 0.218219
0.222995 0.26453 0.0778973
0.332082 0.268894 0.00134279
0.428519 0.260441 0
0.494926 0.229572 0.0550088
0.522927 0.213962 0.0893721
0.536889 0.210468 0.0719463
0.549065 0.214664 0.0543374
0.550103 0.212512 0.0388647
0.523049 0.200031 0.0263371
0.459998 0.171878 0.0117189
0.449516 0.168093 0.0083772
0.549691 0.202457 0.0462043
0.583719 0.259632 0.135332
0.574731 0.280919 0.194491
0.559548 0.299931 0.237125
0.555444 0.330129 0.281407
0.563424 0.37174 0.331655
0.562036 0.368093 0.370382
0.579187 0.354208 0.417212
0.598199 0.351873 0.462104
0.608255 0.35819 0.495171
0.627115 0.376776 0.537621
0.64593 0.393729 0.570916
0.0925154 0.306722 0.266133
0.0925154 0.306722 0.266133
0.0923781 0.305119 0.26392
0.0921798 0.302861 0.260563
0.0921645 0.30193 0.257374
0.0920882 0.301915 0.255924
0.0917372 0.300038 0.252064
0.0910201 0.29395 0.238682
0.0941482 0.307271 0.262898
0.112276 0.336583 0.29395
0.186252 0.335424 0.252567
0.284352 0.341176 0.0766461
0.399283 0.348394 0
0.506081 0.33991 0
0.566537 0.338033 0.00047303
0.601099 0.330755 0.00175479
0.621653 0.324956 0
0.634012 0.319692 0
0.633265 0.309178 0
0.621729 0.28159 0.00442512
0.572229 0.240696 0.0150607
0.499001 0.192035 0.0178073
0.564828 0.212924 0.0440986
0.59144 0.273579 0.158694
0.574929 0.288945 0.208881
0.55761 0.312596 0.256764
0.560906 0.353292 0.31017
0.565682 0.386526 0.35201
0.572976 0.358694 0.402365
0.595346 0.352758 0.450416
0.609369 0.359686 0.491203
0.629267 0.381521 0.536217
0.649592 0.398413 0.573648
0.0996872 0.369985 0.323674
0.0996872 0.369985 0.323674
0.0995651 0.368933 0.322148
0.099382 0.367208 0.319463
0.099321 0.366339 0.317449
0.0992905 0.365438 0.315785
0.0993668 0.365637 0.315236
0.0989242 0.36202 0.309926
0.0990616 0.364431 0.306218
0.103334 0.38027 0.32604
0.1234 0.405783 0.357885
0.230991 0.409995 0.26479
0.363653 0.410285 0.103075
0.491386 0.410163 0.0341802
0.573297 0.413169 0.0608377
0.620096 0.418265 0.109468
0.680156 0.417945 0.0444495
0.718273 0.411826 0.00175479
0.727092 0.400793 0
0.727062 0.391745 0
0.71223 0.36759 6.10361e-05
0.673518 0.317357 0.00189212
0.551858 0.220645 0.0238193
0.57937 0.22858 0.0359503
0.596231 0.277302 0.159594
0.575769 0.296422 0.221744
0.558511 0.326711 0.276371
0.567269 0.37615 0.336049
0.565072 0.366445 0.381781
0.58822 0.356497 0.433234
0.613626 0.365759 0.490471
0.631525 0.387274 0.534401
0.654307 0.404242 0.576181
0.110857 0.420768 0.380118
0.110857 0.420768 0.380118
0.110674 0.420539 0.378973
0.110216 0.42002 0.376211
0.110155 0.420142 0.375143
0.10985 0.419852 0.374014
0.109651 0.419821 0.373129
0.110658 0.421927 0.37528
0.111376 0.424125 0.376806
0.115114 0.424308 0.374517
0.122591 0.444389 0.394598
0.166735 0.472084 0.416464
0.31429 0.473747 0.291325
0.454734 0.475395 0.174502
0.571344 0.479286 0.153048
0.629908 0.486198 0.196277
0.680339 0.49218 0.216556
0.754955 0.494499 0.117601
0.795468 0.49514 0.0565347
0.797818 0.485008 0.0674144
0.793118 0.471946 0.056611
0.778668 0.444053 0.0191043
0.742641 0.396918 0.00436408
0.628702 0.276249 0.0148775
0.582773 0.233997 0.0310674
0.605371 0.277836 0.146868
0.577493 0.3028 0.231983
0.56257 0.342214 0.295781
0.570504 0.391028 0.352224
0.584756 0.369024 0.418128
0.61912 0.375158 0.485939
0.637232 0.394873 0.534508
0.660349 0.412085 0.579583
0.140658 0.467948 0.457877
0.140658 0.467948 0.457877
0.140414 0.467536 0.454994
0.140002 0.46688 0.450126
0.140093 0.467079 0.446052
0.140826 0.468833 0.444266
0.141848 0.470924 0.442481
0.143709 0.473884 0.442603
0.146181 0.475166 0.442176
0.148714 0.475273 0.437125
0.147021 0.484001 0.441932
0.169482 0.50634 0.463096
0.259205 0.535195 0.46482
0.42446 0.539467 0.294347
0.535286 0.548745 0.260304
0.637079 0.551141 0.260227
0.694682 0.552804 0.293431
0.749538 0.56199 0.280308
0.817884 0.568948 0.210971
0.841123 0.575463 0.202884
0.846281 0.570245 0.201007
0.836316 0.54342 0.184955
0.818036 0.504799 0.122087
0.786847 0.457465 0.042649
0.706447 0.3552 0.00325017
0.595697 0.250629 0.0207828
0.611032 0.269535 0.117571
0.586954 0.321767 0.256657
0.578958 0.376684 0.335058
0.588205 0.398001 0.40206
0.62356 0.388144 0.473167
0.646998 0.405905 0.534173
0.666819 0.423301 0.582071
0.187869 0.517159 0.542977
0.187869 0.517159 0.542977
0.187076 0.517098 0.540719
0.186114 0.516991 0.53814
0.185672 0.517586 0.536202
0.18497 0.518044 0.533715
0.184985 0.519371 0.527428
0.185626 0.521904 0.517861
0.187442 0.526238 0.51136
0.190326 0.528756 0.504417
0.190936 0.530831 0.500313
0.203159 0.543145 0.508659
0.255314 0.574243 0.530037
0.407782 0.594797 0.462699
0.538659 0.604715 0.33875
0.603937 0.625116 0.328084
0.703609 0.62324 0.331243
0.763989 0.619806 0.335653
0.823896 0.6336 0.301778
0.862364 0.652888 0.306386
0.874052 0.662654 0.33225
0.876066 0.655985 0.339742
0.872587 0.627451 0.294789
0.846113 0.576455 0.206775
0.82356 0.515618 0.146029
0.768795 0.428244 0.00932326
0.664408 0.302083 0.0112459
0.627985 0.269154 0.0703441
0.585077 0.345693 0.294514
0.605737 0.423621 0.3841
0.62179 0.414527 0.452293
0.656825 0.422217 0.526833
0.675715 0.437171 0.583062
0.246754 0.569512 0.613901
0.24654 0.569482 0.613672
0.244862 0.569268 0.611917
0.243641 0.569207 0.610529
0.243122 0.570169 0.609598
0.242649 0.571176 0.608606
0.2421 0.572259 0.607095
0.241459 0.573632 0.60351
0.239979 0.576669 0.594873
0.238758 0.581094 0.587442
0.239231 0.586358 0.571328
0.243732 0.584497 0.560433
0.287434 0.612665 0.56556
0.393256 0.641962 0.573877
0.549416 0.666651 0.412558
0.619577 0.676753 0.387884
0.675731 0.700343 0.366491
0.785458 0.691524 0.373724
0.849073 0.690501 0.332769
0.889448 0.704417 0.30782
0.899931 0.722515 0.378119
0.901335 0.731777 0.407187
0.89543 0.716518 0.397528
0.888365 0.68925 0.366278
0.878477 0.656962 0.331197
0.85922 0.595956 0.240024
0.815641 0.500404 0.112978
0.721645 0.372122 0.00555428
0.690486 0.335409 0.00588998
0.613886 0.384421 0.338033
0.63949 0.469993 0.430823
0.65565 0.447517 0.503471
0.687266 0.455589 0.579202
0.292042 0.633921 0.675074
0.291722 0.633631 0.67393
0.291112 0.633112 0.671611
0.290654 0.6327 0.669642
0.290593 0.633249 0.668055
0.290639 0.633844 0.66656
0.290669 0.634607 0.664805
0.290715 0.63537 0.662943
0.291081 0.636866 0.659831
0.291493 0.640421 0.657511
0.291951 0.645411 0.652216
0.295003 0.650385 0.635187
0.320348 0.65861 0.620233
0.402701 0.685496 0.625162
0.548363 0.716258 0.566369
0.650004 0.730388 0.428489
0.695094 0.75079 0.404578
0.786175 0.757259 0.377874
0.852827 0.759625 0.413764
0.910353 0.760372 0.344839
0.932326 0.767834 0.367376
0.928115 0.783398 0.426642
0.93225 0.783627 0.441779
0.931228 0.765393 0.4159
0.920989 0.744076 0.404898
0.900664 0.715358 0.381277
0.88397 0.672145 0.343099
0.849531 0.581643 0.215534
0.772854 0.433921 0.0126955
0.768872 0.428336 0.00935378
0.66302 0.424567 0.375555
0.674464 0.514229 0.476524
0.69276 0.484535 0.555276
0.340337 0.692058 0.726253
0.339513 0.691783 0.724483
0.338537 0.691661 0.723003
0.337713 0.691554 0.722377
0.337896 0.692531 0.722408
0.337972 0.693431 0.722194
0.338369 0.695033 0.721843
0.33875 0.697414 0.72047
0.339498 0.700023 0.717418
0.340383 0.701289 0.713054
0.341817 0.703563 0.709285
0.341833 0.707897 0.701747
0.35201 0.707164 0.67538
0.41265 0.729213 0.670085
0.532387 0.757488 0.685512
0.654398 0.782223 0.515282
0.726635 0.794705 0.441962
0.772702 0.810025 0.396124
0.855634 0.813397 0.417029
0.89485 0.817731 0.482918
0.929808 0.81799 0.468742
0.952193 0.826429 0.456535
0.950515 0.832334 0.49987
0.95314 0.825223 0.477729
0.958053 0.804395 0.417212
0.951934 0.785946 0.389609
0.935119 0.763394 0.393805
0.908202 0.730251 0.389013
0.880674 0.66331 0.336095
0.812482 0.495262 0.102159
0.809903 0.49131 0.0941024
0.713664 0.453437 0.381064
0.689647 0.507286 0.532036
0.3991 0.74165 0.781857
0.39762 0.742092 0.779782
0.396368 0.742382 0.777935
0.395178 0.742763 0.775952
0.395224 0.743938 0.774517
0.396017 0.744595 0.773297
0.397406 0.745129 0.771588
0.39913 0.745464 0.768582
0.401038 0.745907 0.763851
0.401251 0.747829 0.75938
0.403067 0.752499 0.757992
0.405173 0.754574 0.752102
0.406195 0.755703 0.737453
0.425162 0.762875 0.712001
0.528756 0.792996 0.725826
0.646143 0.812512 0.696406
0.761868 0.822995 0.508614
0.788083 0.843153 0.431785
0.849088 0.848783 0.448203
0.886976 0.862547 0.511269
0.913832 0.865049 0.5682
0.940658 0.868513 0.580758
0.946212 0.873716 0.575601
0.954437 0.869383 0.570001
0.963226 0.858701 0.516609
0.964828 0.834958 0.466957
0.962097 0.819715 0.433967
0.957992 0.80058 0.399603
0.942382 0.773465 0.386526
0.902861 0.719783 0.383108
0.840528 0.562325 0.195666
0.839567 0.557931 0.195682
0.767956 0.507347 0.417105
0.460853 0.778302 0.818601
0.459678 0.778408 0.817304
0.45864 0.778485 0.816052
0.457694 0.778515 0.814923
0.457603 0.779004 0.813977
0.457755 0.779522 0.81323
0.45803 0.780041 0.8121
0.459159 0.781018 0.810636
0.460822 0.782681 0.807843
0.463401 0.785367 0.802701
0.465507 0.785229 0.793683
0.467338 0.786557 0.783337
0.46952 0.791119 0.772473
0.465415 0.796338 0.750957
0.511543 0.814267 0.741299
0.628443 0.840833 0.76817
0.742504 0.850263 0.608728
0.800137 0.867903 0.501259
0.844251 0.877211 0.495018
0.865568 0.890806 0.542916
0.905455 0.897887 0.603326
0.925734 0.901228 0.637339
0.937255 0.90515 0.641932
0.938643 0.909407 0.636683
0.941588 0.906294 0.624918
0.944961 0.89604 0.589639
0.970275 0.874174 0.527245
0.964446 0.852918 0.469596
0.961883 0.8365 0.431907
0.95874 0.806485 0.411337
0.936217 0.765103 0.392584
0.875807 0.648569 0.324681
0.874464 0.641047 0.314244
0.512383 0.801022 0.844862
0.511284 0.801678 0.843626
0.510262 0.80206 0.842191
0.509285 0.802548 0.84065
0.509148 0.80322 0.839567
0.509071 0.803937 0.838514
0.509133 0.804746 0.837217
0.509285 0.805661 0.835431
0.509483 0.807095 0.832883
0.50988 0.809369 0.829282
0.510491 0.812177 0.823041
0.510643 0.816754 0.814847
0.513069 0.822461 0.807141
0.511559 0.821225 0.789029
0.515892 0.825101 0.770962
0.610407 0.859648 0.780591
0.721859 0.869398 0.709285
0.807706 0.878859 0.574456
0.842954 0.894255 0.545846
0.858183 0.907668 0.580499
0.889326 0.918166 0.625071
0.910567 0.925887 0.665278
0.93106 0.926635 0.689219
0.943008 0.927123 0.6916
0.944121 0.924514 0.689036
0.9458 0.917556 0.67982
0.945037 0.916075 0.656794
0.948501 0.911192 0.606928
0.968978 0.895109 0.557046
0.965072 0.868605 0.508232
0.962646 0.843946 0.435431
0.957397 0.799603 0.398016
0.896147 0.705409 0.37615
0.536812 0.809644 0.857664
0.53637 0.810513 0.856565
0.535958 0.811353 0.855528
0.535576 0.812238 0.854337
0.535683 0.813184 0.853483
0.535805 0.813916 0.852735
0.535943 0.814878 0.851667
0.536263 0.816022 0.850263
0.536828 0.817578 0.848188
0.537438 0.81944 0.845167
0.538369 0.821988 0.840787
0.539544 0.826581 0.834348
0.537331 0.833326 0.825833
0.53814 0.837812 0.810315
0.532143 0.836896 0.792584
0.580941 0.859281 0.788891
0.695506 0.8766 0.776761
0.801724 0.881086 0.622904
0.833173 0.8981 0.583673
0.853162 0.911864 0.605402
0.879789 0.92047 0.64271
0.897307 0.928725 0.672099
0.920089 0.939086 0.707332
0.93753 0.936217 0.719036
0.93843 0.935988 0.724605
0.93843 0.935836 0.723445
0.937606 0.936675 0.715023
0.939651 0.933608 0.698833
0.945602 0.926665 0.669535
0.943908 0.923964 0.636759
0.956573 0.905623 0.59234
0.968887 0.873564 0.524147
0.961303 0.832593 0.425757
0.550256 0.815091 0.864713
0.549767 0.815641 0.863691
0.549172 0.816129 0.862623
0.548684 0.816693 0.861555
0.548562 0.817456 0.860594
0.548333 0.818128 0.859586
0.548379 0.819013 0.858488
0.54844 0.820203 0.856901
0.548592 0.82153 0.855131
0.548836 0.823056 0.852674
0.549676 0.825437 0.848844
0.550256 0.828763 0.842939
0.550805 0.835554 0.835431
0.547478 0.840955 0.823209
0.545129 0.844648 0.803388
0.555108 0.851331 0.794629
0.653422 0.878752 0.799268
0.754086 0.89044 0.681132
0.829496 0.895216 0.619638
0.844648 0.91043 0.622751
0.870192 0.919966 0.65507
0.886717 0.929671 0.677134
0.90927 0.937438 0.704005
0.927092 0.937041 0.720867
0.938827 0.936965 0.72961
0.93875 0.939666 0.735943
0.938689 0.939391 0.735073
0.938552 0.93756 0.729976
0.935821 0.939757 0.713405
0.942565 0.930434 0.692103
0.94406 0.929168 0.681804
0.945541 0.92607 0.656458
0.952605 0.907881 0.601038
0.562493 0.825116 0.870405
0.562417 0.825452 0.869505
0.562402 0.825788 0.868559
0.562341 0.826078 0.867582
0.562722 0.826795 0.866819
0.562966 0.827375 0.866087
0.563317 0.828214 0.865156
0.563699 0.829374 0.863996
0.563531 0.830579 0.862547
0.563165 0.831754 0.86041
0.562829 0.832975 0.85716
0.562463 0.833997 0.851514
0.562371 0.838087 0.844236
0.561563 0.84477 0.835767
0.558389 0.848447 0.817929
0.572045 0.858656 0.807858
0.619776 0.87512 0.806531
0.732235 0.885008 0.774487
0.820966 0.896468 0.654124
0.843702 0.907576 0.651652
0.862028 0.922271 0.67068
0.884123 0.92903 0.696361
0.907546 0.937163 0.7093
0.918746 0.941787 0.723995
0.938979 0.939437 0.736278
0.938949 0.942428 0.743511
0.939361 0.942748 0.750378
0.939147 0.942748 0.747494
0.938781 0.94078 0.738888
0.937362 0.937697 0.72105
0.93814 0.936461 0.701808
0.941253 0.932097 0.696117
0.943252 0.929808 0.687449
0.576532 0.831037 0.877317
0.576028 0.831678 0.876783
0.575418 0.832273 0.876173
0.574945 0.832975 0.875608
0.57499 0.833661 0.875273
0.575235 0.834318 0.874693
0.575372 0.835126 0.873869
0.575525 0.83624 0.872831
0.57557 0.837797 0.87126
0.575769 0.839918 0.869062
0.575952 0.842649 0.866514
0.575936 0.844999 0.862531
0.57496 0.845853 0.854551
0.573663 0.847868 0.84419
0.576226 0.856077 0.834394
0.589792 0.865797 0.820279
0.639277 0.880858 0.82089
0.711482 0.886778 0.816327
0.781598 0.904387 0.721813
0.850446 0.904173 0.70045
0.863584 0.919783 0.708858
0.879499 0.932082 0.727687
0.908858 0.936202 0.727367
0.918486 0.940612 0.732845
0.93022 0.940139 0.743236
0.939925 0.942153 0.754589
0.93814 0.942351 0.779278
0.932235 0.943145 0.79411
0.936904 0.94229 0.78471
0.939391 0.942748 0.750835
0.938338 0.936385 0.725719
0.934798 0.941161 0.708278
0.936416 0.938903 0.705013
0.592386 0.836118 0.880323
0.591302 0.836347 0.879713
0.590524 0.836698 0.879149
0.589654 0.83711 0.878492
0.589639 0.837888 0.877943
0.589639 0.838621 0.877501
0.589578 0.83946 0.87686
0.58941 0.840696 0.875914
0.589242 0.842298 0.874708
