presets/XH_5219_N.cube
TITLE "Generated by Resolve"
LUT_3D_SIZE 33
0.0412757 0.0408637 0.0462196
0.0412757 0.0408637 0.0462196
0.0412757 0.0408637 0.0462196
0.0412909 0.0408942 0.0462654
0.0429999 0.0420081 0.0454108
0.0448463 0.0432746 0.048127
0.0482032 0.046128 0.0538033
0.0522011 0.05037 0.0580911
0.0614939 0.0565499 0.0570077
0.097612 0.0604105 0.0527199
0.166247 0.0581369 0.0500038
0.243656 0.0596628 0.0502022
0.302907 0.0636149 0.052079
0.347906 0.0722667 0.0485084
0.385306 0.0892195 0.0495308
0.413504 0.10515 0.0511177
0.430488 0.138125 0.0535897
0.442603 0.173983 0.0561532
0.477852 0.199863 0.0645914
0.523705 0.229679 0.0719615
0.5523 0.264668 0.104387
0.568841 0.304112 0.169162
0.575509 0.341375 0.234592
0.581781 0.376211 0.285145
0.596246 0.40557 0.338323
0.607553 0.406394 0.401617
0.605844 0.38996 0.45861
0.613779 0.390616 0.509972
0.619333 0.398352 0.545953
0.62504 0.405478 0.573327
0.641016 0.418158 0.605158
0.661967 0.44358 0.637491
0.680262 0.470909 0.67483
0.0412757 0.0408637 0.0462196
0.0412757 0.0408637 0.0462196
0.0412757 0.0408637 0.0462196
0.0412757 0.0408789 0.0462654
0.0428473 0.0419013 0.0451667
0.0446479 0.0431373 0.0477607
0.0479133 0.0458686 0.053315
0.0520638 0.0501259 0.057969
0.060853 0.05626 0.0571603
0.0967117 0.0603799 0.052781
0.166247 0.0581369 0.0500038
0.243656 0.0596628 0.0502022
0.302907 0.0636149 0.052079
0.347906 0.0722667 0.0485084
0.385306 0.0892195 0.0495308
0.413504 0.10515 0.0511177
0.430488 0.138125 0.0535897
0.442329 0.173754 0.0561379
0.476616 0.199039 0.0642557
0.521462 0.228016 0.071458
0.5514 0.262104 0.10016
0.56788 0.301167 0.163745
0.57525 0.337438 0.22829
0.581369 0.372656 0.280186
0.593317 0.401328 0.328984
0.609476 0.412787 0.390265
0.605158 0.391241 0.44712
0.611994 0.389838 0.497841
0.617548 0.394263 0.537224
0.622965 0.405356 0.562402
0.627955 0.405982 0.586603
0.650034 0.428229 0.61677
0.665888 0.449119 0.64567
0.0412757 0.0408637 0.0462196
0.0412757 0.0408637 0.0462196
0.0412757 0.0408637 0.0462196
0.0412757 0.0408789 0.0462501
0.0423743 0.0416724 0.0449836
0.0436866 0.0425574 0.0462043
0.0463111 0.0444953 0.0504005
0.0507515 0.048661 0.0570687
0.0566262 0.0543069 0.058381
0.0855573 0.0599527 0.0535286
0.151644 0.0585641 0.0503395
0.233204 0.0587167 0.0497292
0.298283 0.0629892 0.0522927
0.345586 0.0715648 0.0488594
0.384207 0.0887465 0.049485
0.412497 0.104021 0.0510262
0.430335 0.135424 0.0534066
0.440482 0.172168 0.0560006
0.474205 0.197665 0.0639353
0.518822 0.225879 0.0704967
0.550576 0.259586 0.0960098
0.566964 0.298665 0.15935
0.574975 0.33402 0.222873
0.580987 0.369848 0.276326
0.591592 0.398199 0.323232
0.610758 0.417014 0.382864
0.604715 0.392096 0.439597
0.610636 0.389975 0.488945
0.616434 0.393027 0.528817
0.621363 0.40267 0.555032
0.626062 0.405707 0.577935
0.640177 0.417487 0.603784
0.656184 0.435996 0.625956
0.0412757 0.04094 0.0465248
0.0412909 0.04094 0.046479
0.0413062 0.04094 0.0463874
0.0413367 0.0409705 0.0463874
0.042237 0.0417487 0.0455482
0.0431525 0.0423896 0.0454108
0.0448768 0.0436255 0.0476997
0.0493477 0.0475319 0.0553292
0.0537575 0.0525826 0.0591135
0.0743572 0.0593729 0.0542
0.137713 0.0590677 0.050721
0.221683 0.0578164 0.049134
0.294224 0.0627909 0.0523079
0.34136 0.0703746 0.0494545
0.38085 0.0872663 0.0493172
0.410605 0.102007 0.0508583
0.429694 0.132204 0.0531777
0.439048 0.170703 0.0558785
0.471733 0.196124 0.063447
0.516075 0.22417 0.0699474
0.549584 0.257069 0.0924697
0.566033 0.295857 0.154498
0.574731 0.330602 0.217472
0.580697 0.367056 0.272435
0.589624 0.39469 0.316915
0.608652 0.415641 0.375326
0.604196 0.39295 0.431617
0.609049 0.389899 0.479515
0.615259 0.391959 0.520333
0.619837 0.39939 0.548119
0.624491 0.405615 0.569848
0.629725 0.407446 0.589899
0.647486 0.425361 0.613397
0.0428473 0.0433661 0.0511482
0.0427558 0.0432593 0.0509041
0.04271 0.043183 0.049836
0.0436561 0.0439155 0.0484016
0.0448615 0.0450599 0.0480507
0.0465248 0.0466163 0.0503243
0.0491035 0.049073 0.0536507
0.0525063 0.0519417 0.0592508
0.0576333 0.0547189 0.0588693
0.0809339 0.0616617 0.0535592
0.138994 0.0598764 0.0501869
0.21503 0.0569924 0.0483101
0.29482 0.0623178 0.0518502
0.344106 0.0712749 0.0487526
0.382834 0.0879225 0.0494087
0.410986 0.100969 0.0507973
0.430289 0.131579 0.0531624
0.440238 0.170779 0.0559091
0.472267 0.196048 0.0622873
0.515862 0.224552 0.0683757
0.551644 0.25658 0.0886854
0.567071 0.294438 0.150393
0.576333 0.329854 0.213901
0.580728 0.364645 0.26894
0.588403 0.392218 0.312047
0.607294 0.414694 0.370703
0.604166 0.393622 0.428214
0.608774 0.390082 0.477104
0.615198 0.39202 0.518532
0.619776 0.3991 0.547097
0.624475 0.405829 0.568963
0.630289 0.408164 0.590219
0.647929 0.426108 0.613581
0.0477607 0.0496681 0.0583963
0.0476844 0.049546 0.0582284
0.0469368 0.0486152 0.0567025
0.0477455 0.0490883 0.055314
0.0496681 0.0513771 0.0572976
0.0515908 0.054139 0.0603952
0.054963 0.0583505 0.0660868
0.0590372 0.0611429 0.0705882
0.0637675 0.0596628 0.0652781
0.0826581 0.0639048 0.0541543
0.149447 0.0612039 0.0505989
0.228473 0.0586404 0.0491035
0.285908 0.0600595 0.0502937
0.338857 0.0699168 0.0487526
0.381598 0.0868544 0.0493172
0.412909 0.102083 0.0509041
0.430182 0.129763 0.0530404
0.441444 0.170733 0.0559243
0.472999 0.195972 0.0609445
0.515663 0.224933 0.0666972
0.553201 0.256199 0.0861219
0.568261 0.293034 0.14609
0.578042 0.329229 0.210208
0.58088 0.362249 0.265446
0.587228 0.389761 0.307149
0.605982 0.413748 0.366339
0.604456 0.394842 0.424918
0.608545 0.390402 0.474495
0.615076 0.391989 0.516533
0.619654 0.398703 0.545998
0.624369 0.405951 0.56791
0.630808 0.408896 0.590326
0.648432 0.426963 0.613794
0.0582742 0.0607462 0.0711223
0.0579843 0.0604562 0.0708629
0.0566415 0.0591745 0.0697032
0.0559701 0.0587625 0.0692912
0.0579232 0.0619059 0.0730144
0.0598154 0.0663767 0.0764324
0.0633097 0.0718242 0.0813916
0.07187 0.0759899 0.0870527
0.0848096 0.0762493 0.0785229
0.107713 0.0779889 0.0675059
0.160693 0.0705119 0.0549935
0.231037 0.0597086 0.0479133
0.296803 0.0637522 0.0500801
0.33875 0.0688487 0.047776
0.371771 0.0810712 0.0487526
0.411536 0.10045 0.0507668
0.431266 0.133028 0.0532692
0.443198 0.170642 0.0559548
0.47364 0.19556 0.0590982
0.515541 0.225452 0.0644694
0.555077 0.255634 0.0829175
0.569696 0.291295 0.140642
0.580194 0.328405 0.205493
0.581399 0.35964 0.261112
0.585977 0.387045 0.301625
0.604135 0.412406 0.360021
0.605798 0.398383 0.419715
0.608103 0.390707 0.470665
0.614969 0.392035 0.514153
0.619562 0.398306 0.544732
0.624323 0.406195 0.566842
0.631449 0.409857 0.590204
0.649058 0.428016 0.614069
0.0683452 0.0728466 0.0869306
0.0682841 0.072694 0.0868238
0.06804 0.0718395 0.086244
0.0678111 0.0709392 0.0856489
0.0691844 0.0742504 0.0910048
0.0724193 0.0802167 0.0955367
0.0784772 0.0881056 0.100771
0.0888075 0.0950179 0.107378
0.111925 0.102266 0.109758
0.163745 0.0983902 0.0792859
0.214878 0.0896468 0.062089
0.267628 0.0816968 0.0511482
0.311345 0.0767376 0.049134
0.346731 0.072694 0.047776
0.37586 0.0804761 0.0487984
0.397696 0.0894026 0.0497902
0.426093 0.120958 0.0523842
0.444434 0.172305 0.0560922
0.471122 0.19501 0.0591745
0.514427 0.226368 0.0624094
0.557733 0.254643 0.0780652
0.572915 0.29044 0.133028
0.583505 0.327413 0.19884
0.582879 0.35668 0.255146
0.584619 0.383398 0.294377
0.601801 0.410773 0.351675
0.607553 0.403128 0.412589
0.607538 0.391196 0.465492
0.614847 0.392081 0.511437
0.619394 0.397696 0.542947
0.624216 0.406516 0.565118
0.632578 0.411399 0.590448
0.649805 0.429252 0.614404
0.0726635 0.0988174 0.115755
0.0727245 0.0984512 0.115221
0.0733959 0.0960861 0.112703
0.074052 0.0939193 0.110857
0.0772869 0.0957351 0.112383
0.0815595 0.100832 0.116686
0.0915084 0.111452 0.123827
0.104952 0.122194 0.132342
0.12723 0.129778 0.134386
0.182498 0.132479 0.113695
0.280781 0.117479 0.077348
0.333043 0.100252 0.0697337
0.360922 0.0959793 0.0679179
0.382834 0.0949264 0.0592203
0.392279 0.0925765 0.0500191
0.400244 0.0900435 0.0498817
0.40882 0.113329 0.051545
0.421988 0.155459 0.054551
0.47277 0.198413 0.0597543
0.511025 0.227512 0.0614786
0.559472 0.253864 0.0730297
0.577371 0.289189 0.122347
0.587091 0.325261 0.188922
0.58526 0.352575 0.246693
0.584421 0.377646 0.286198
0.598871 0.408698 0.340871
0.609979 0.409598 0.403052
0.607553 0.392508 0.458976
0.614572 0.39205 0.506691
0.619165 0.396857 0.540413
0.624155 0.406973 0.563073
0.63389 0.413397 0.590661
0.651026 0.43125 0.615
0.0703746 0.142977 0.168017
0.0703899 0.142565 0.167483
0.0712749 0.138354 0.161807
0.0727855 0.1346 0.156252
0.0740673 0.135348 0.155306
0.0802472 0.138048 0.15462
0.0883955 0.147051 0.163531
0.1093 0.162448 0.175692
0.130327 0.172198 0.177279
0.190265 0.172946 0.148501
0.276539 0.169512 0.118532
0.377371 0.150591 0.0917983
0.419638 0.132723 0.0847334
0.433417 0.133165 0.0670024
0.440726 0.129442 0.0573892
0.437507 0.126635 0.0529793
0.422492 0.127306 0.0527352
0.397589 0.147478 0.0535592
0.426108 0.176638 0.0562295
0.503716 0.227604 0.0608377
0.562783 0.255802 0.0714122
0.583276 0.287312 0.108019
0.590509 0.321477 0.174884
0.589532 0.347845 0.235203
0.584497 0.369894 0.275044
0.595087 0.402075 0.327214
0.613092 0.417777 0.391135
0.607507 0.394369 0.449424
0.613886 0.392569 0.499611
0.618936 0.396124 0.537118
0.623911 0.406607 0.560601
0.635416 0.41593 0.590661
0.652598 0.433814 0.615717
0.0649577 0.203159 0.233524
0.0649577 0.203159 0.233524
0.0649577 0.198779 0.227054
0.0649271 0.193637 0.21976
0.0643626 0.193668 0.218036
0.0641489 0.192782 0.214389
0.0697642 0.198596 0.216663
0.0914626 0.211627 0.232792
0.124041 0.227131 0.243107
0.169024 0.232166 0.211002
0.260426 0.232837 0.147753
0.359121 0.22884 0.119478
0.442527 0.207858 0.106462
0.476646 0.200961 0.0938125
0.488975 0.198993 0.0811017
0.492851 0.197192 0.0689555
0.486839 0.191318 0.059144
0.455421 0.182177 0.0569467
0.411963 0.173342 0.0570993
0.443198 0.200137 0.0584878
0.540795 0.247303 0.0637369
0.589944 0.289418 0.100404
0.599039 0.318944 0.156832
0.598688 0.343557 0.218906
0.586557 0.361196 0.260334
0.590585 0.392981 0.309285
0.611353 0.419135 0.375586
0.607599 0.39678 0.437995
0.612909 0.393545 0.489799
0.618631 0.396155 0.530709
0.623652 0.40557 0.557107
0.63711 0.419059 0.590143
0.654582 0.436927 0.616892
0.0582895 0.27538 0.289281
0.0582895 0.27538 0.289281
0.0579995 0.271962 0.285893
0.0574807 0.267979 0.281849
0.0564126 0.26656 0.278965
0.0555886 0.266041 0.277211
0.0569924 0.260365 0.274601
0.0650492 0.270787 0.282383
0.0885481 0.291493 0.308507
0.134218 0.304417 0.300114
0.227771 0.302571 0.224628
0.323323 0.311696 0.147723
0.419486 0.308553 0.105592
0.514229 0.283574 0.112367
0.549691 0.271382 0.110063
0.563653 0.2692 0.0923476
0.572183 0.274617 0.07953
0.57174 0.272648 0.0687724
0.544289 0.258839 0.0636606
0.481682 0.227619 0.0604105
0.471305 0.223209 0.0599222
0.574578 0.263325 0.0663005
0.609155 0.31931 0.142153
0.605768 0.337179 0.194873
0.593484 0.352377 0.240101
0.588342 0.379675 0.287617
0.604746 0.414649 0.352285
0.6103 0.404959 0.421088
0.611673 0.394827 0.477302
0.618265 0.396246 0.522133
0.623178 0.403967 0.552178
0.639307 0.423239 0.589548
0.657084 0.440513 0.618875
0.0581064 0.353033 0.341604
0.0581064 0.353033 0.341604
0.0580148 0.351385 0.339666
0.0578775 0.349065 0.336706
0.0578012 0.348104 0.333883
0.0578012 0.348119 0.332677
0.0576791 0.346258 0.329412
0.0572824 0.340017 0.317922
0.0598001 0.353628 0.338735
0.0792706 0.383505 0.365743
0.169192 0.381582 0.328542
0.295918 0.377188 0.241077
0.388556 0.38938 0.164096
0.48069 0.388434 0.141802
0.560937 0.388754 0.13756
0.609918 0.382971 0.115633
0.632624 0.378561 0.0859998
0.648264 0.374411 0.0732433
0.65095 0.365011 0.0726329
0.641688 0.340047 0.0708324
0.591882 0.299519 0.067216
0.519646 0.249424 0.062562
0.588403 0.274418 0.066453
0.617594 0.332784 0.161624
0.606912 0.344274 0.208911
0.591592 0.363684 0.261097
0.595789 0.400336 0.320027
0.617609 0.423163 0.394629
0.611139 0.397757 0.460288
0.617853 0.39646 0.51133
0.624903 0.405234 0.548714
0.641382 0.427863 0.588266
0.660426 0.445197 0.62121
0.0618143 0.417929 0.392599
0.0618143 0.417929 0.392599
0.061738 0.416861 0.391226
0.0616312 0.415091 0.3888
0.0615702 0.414191 0.386938
0.0615091 0.413199 0.385367
0.0615244 0.413352 0.384802
0.0612955 0.409628 0.380056
0.0614176 0.412268 0.376959
0.0654002 0.42858 0.39469
0.0874037 0.454932 0.423331
0.226551 0.453803 0.349447
0.373007 0.446708 0.273213
0.470039 0.454261 0.232547
0.547311 0.462699 0.229664
0.612055 0.468986 0.233173
0.677211 0.470954 0.175296
0.71667 0.466789 0.124071
0.731487 0.45623 0.105119
0.735546 0.447425 0.0970932
0.726299 0.424079 0.0852674
0.693263 0.376257 0.0742809
0.572015 0.280095 0.0655833
0.600885 0.289952 0.0673533
0.621744 0.336751 0.162707
0.608576 0.350942 0.221439
0.592294 0.376593 0.281697
0.608515 0.419043 0.356207
0.611612 0.403449 0.434836
0.616419 0.398398 0.49366
0.629816 0.411048 0.548104
0.643503 0.433433 0.586603
0.664714 0.451041 0.62327
0.0714885 0.47071 0.444831
0.0714885 0.47071 0.444831
0.0712902 0.470481 0.443717
0.0708476 0.469978 0.441047
0.0707103 0.4701 0.440009
0.0702983 0.469764 0.438865
0.0699626 0.469688 0.437949
0.070985 0.471855 0.44004
0.0717479 0.474174 0.441703
0.0763714 0.474434 0.439353
0.0837262 0.495033 0.458946
0.135164 0.522362 0.479759
0.324849 0.514153 0.383658
0.453117 0.514015 0.331243
0.544747 0.525124 0.316304
0.6065 0.535058 0.324742
0.672007 0.541375 0.313634
0.74667 0.546059 0.237537
0.786068 0.548196 0.192035
0.796582 0.538628 0.18613
0.794995 0.526452 0.172351
0.783703 0.499687 0.138903
0.754452 0.453391 0.105104
0.648814 0.336339 0.0707256
0.603754 0.295079 0.0671702
0.629252 0.338247 0.152255
0.61091 0.356741 0.231266
0.595773 0.391211 0.301366
0.620829 0.428702 0.389868
0.620264 0.408591 0.476493
0.63769 0.419715 0.543984
0.649332 0.440986 0.586709
0.670253 0.4589 0.626093
0.104204 0.518746 0.521157
0.104204 0.518746 0.521157
0.103929 0.518349 0.51841
0.103502 0.517723 0.513787
0.103593 0.517952 0.509896
0.104311 0.519661 0.50811
0.105364 0.521721 0.50634
0.107408 0.524681 0.506462
0.110292 0.525826 0.505913
0.113436 0.525902 0.500938
0.110735 0.534676 0.505852
0.136492 0.555978 0.525765
0.241611 0.58143 0.524224
0.439628 0.57171 0.411872
0.526131 0.583947 0.401251
0.609857 0.592462 0.396994
0.672908 0.596628 0.394797
0.736065 0.6056 0.368078
0.806134 0.613077 0.310323
0.830854 0.619043 0.300938
0.83949 0.614603 0.293034
0.836316 0.59118 0.268055
0.820829 0.556893 0.216892
0.791211 0.512718 0.156924
0.723522 0.412604 0.0856336
0.615915 0.310964 0.0684367
0.633631 0.330999 0.128359
0.620569 0.374792 0.254749
0.614862 0.422782 0.344427
0.634211 0.435111 0.451133
0.647837 0.430945 0.531777
0.659815 0.451743 0.586389
0.67628 0.470146 0.628107
0.158206 0.565957 0.59852
0.158206 0.565957 0.59852
0.157244 0.565911 0.596536
0.156054 0.565835 0.594247
0.155474 0.5664 0.592523
0.154574 0.566857 0.590295
0.154452 0.568154 0.584619
0.155016 0.570626 0.575967
0.156893 0.574762 0.570077
0.160281 0.577081 0.563699
0.1608 0.579004 0.560052
0.174685 0.590387 0.567361
0.234607 0.61767 0.585031
0.403113 0.631357 0.521065
0.538842 0.630991 0.462654
0.592218 0.650538 0.463066
0.673518 0.654978 0.459693
0.735103 0.655009 0.439597
0.795773 0.667689 0.405585
0.835874 0.684062 0.404715
0.851377 0.691798 0.418631
0.859922 0.686076 0.413962
0.861524 0.66247 0.369162
0.837049 0.619852 0.300938
0.826551 0.566613 0.23386
0.776837 0.484291 0.125612
0.684535 0.362325 0.0733959
0.648951 0.331518 0.0957351
0.620462 0.395682 0.295125
0.643626 0.466957 0.399496
0.658488 0.45359 0.507103
0.67274 0.466957 0.579767
0.684611 0.483787 0.628626
0.225162 0.613504 0.661295
0.224903 0.613474 0.661097
0.222965 0.613352 0.659586
0.221546 0.613352 0.658366
0.220874 0.614267 0.657511
0.220264 0.615198 0.656611
0.219547 0.616236 0.655268
0.218692 0.617517 0.652064
0.216617 0.620264 0.644175
0.21474 0.624308 0.637354
0.214939 0.628992 0.62269
0.220325 0.627222 0.612772
0.269276 0.650904 0.615656
0.381643 0.673518 0.619074
0.557992 0.681041 0.526604
0.613672 0.692271 0.515663
0.660655 0.713405 0.508354
0.749203 0.713039 0.505257
0.808774 0.714672 0.457527
0.847044 0.727031 0.437827
0.862699 0.741756 0.484901
0.865141 0.749294 0.50837
0.863066 0.736645 0.491264
0.86244 0.713939 0.452201
0.860578 0.687022 0.409964
0.850278 0.636393 0.324804
0.818433 0.552911 0.21033
0.737087 0.429007 0.0939803
0.709499 0.39379 0.0831311
0.650828 0.43267 0.33666
0.681208 0.509773 0.456519
0.68246 0.488716 0.556725
0.69691 0.501457 0.62501
0.273533 0.669139 0.714794
0.273182 0.668894 0.713771
0.272526 0.668467 0.711696
0.272053 0.668116 0.709957
0.271962 0.66862 0.708522
0.271992 0.669123 0.707195
0.271992 0.669795 0.705623
0.271962 0.67042 0.703914
0.272145 0.671656 0.701015
0.272282 0.674784 0.698848
0.272374 0.679103 0.69395
0.275364 0.68333 0.67837
0.302876 0.689754 0.663706
0.387991 0.710658 0.664759
0.53669 0.731258 0.616526
0.646448 0.735958 0.554498
0.684215 0.753841 0.544839
0.755535 0.763516 0.531884
0.811475 0.769665 0.551064
0.861753 0.772274 0.492134
0.883757 0.779461 0.503182
0.88217 0.792035 0.550912
0.887724 0.792447 0.557931
0.888624 0.777569 0.528725
0.882445 0.759976 0.508629
0.86717 0.735851 0.478828
0.861616 0.699718 0.427024
0.840482 0.624247 0.307301
0.780102 0.489845 0.130312
0.776898 0.484382 0.125673
0.697826 0.474083 0.364157
0.71162 0.552087 0.502022
0.711025 0.526696 0.603082
0.322438 0.717662 0.758343
0.321538 0.717449 0.756756
0.320439 0.717388 0.755444
0.319554 0.717327 0.754925
0.319692 0.718166 0.75494
0.319707 0.718959 0.754742
0.320027 0.720333 0.754421
0.320302 0.722393 0.753201
0.320882 0.724666 0.750362
0.321553 0.725719 0.746166
0.322972 0.727535 0.742718
0.322728 0.731304 0.735958
0.333745 0.730465 0.711772
0.39498 0.747585 0.704082
0.509148 0.769146 0.714061
0.659037 0.777584 0.618845
0.716197 0.789929 0.578927
0.753552 0.803693 0.553948
0.819379 0.811231 0.571481
0.85359 0.817777 0.611612
0.883391 0.819669 0.596307
0.903212 0.827253 0.587961
0.903975 0.832258 0.616434
0.905669 0.82652 0.598886
0.908461 0.809766 0.549172
0.902708 0.794644 0.52195
0.890608 0.776074 0.5131
0.870924 0.748272 0.493767
0.860868 0.692332 0.417136
0.815183 0.548196 0.202762
0.812543 0.544579 0.197116
0.736339 0.50779 0.358007
0.721065 0.544839 0.577371
0.380499 0.758206 0.805432
0.378927 0.758618 0.803586
0.377615 0.758923 0.801953
0.376364 0.759289 0.800168
0.376303 0.760296 0.79884
0.377081 0.760845 0.797681
0.378454 0.761257 0.796063
0.380194 0.761486 0.793271
0.382116 0.761807 0.788922
0.382208 0.763455 0.784878
0.383658 0.767407 0.783581
0.385626 0.769116 0.778134
0.38645 0.770092 0.764599
0.404913 0.775784 0.740932
0.502739 0.799115 0.749538
0.623484 0.814084 0.722881
0.749203 0.81474 0.628168
0.771176 0.830549 0.583764
0.819989 0.83859 0.598627
0.853223 0.852293 0.642863
0.87599 0.856809 0.679118
0.89865 0.861357 0.68545
0.90367 0.865644 0.683391
0.910536 0.862531 0.676127
0.915755 0.853971 0.637736
0.91516 0.834714 0.595499
0.911849 0.822324 0.567956
0.907576 0.806592 0.536309
0.89485 0.784421 0.514427
0.868177 0.739544 0.483085
0.834592 0.607691 0.286931
0.835386 0.603861 0.283604
0.780484 0.560586 0.388785
0.43856 0.78761 0.835767
0.437446 0.787732 0.834638
0.436439 0.787839 0.833555
0.435538 0.7879 0.832563
0.435431 0.788342 0.831708
0.435538 0.788785 0.831006
0.435767 0.789242 0.829969
0.43679 0.790066 0.828595
0.438254 0.791485 0.825986
0.440558 0.793713 0.82121
0.442557 0.7935 0.812924
0.444221 0.794598 0.803449
0.445945 0.798505 0.793423
0.441444 0.803021 0.773816
0.484154 0.817426 0.763333
0.599878 0.838773 0.784726
0.739986 0.836591 0.695628
0.78584 0.851453 0.633341
0.821515 0.860914 0.633082
0.841337 0.873503 0.667384
0.874739 0.882277 0.709484
0.891463 0.88687 0.732601
0.901061 0.890593 0.736629
0.90251 0.893812 0.734279
0.904265 0.891402 0.725902
0.905013 0.883116 0.700542
0.922393 0.866606 0.650202
0.914565 0.848798 0.606744
0.910811 0.835416 0.576562
0.908415 0.81146 0.546929
0.891157 0.777478 0.51342
0.860456 0.680018 0.400351
0.860639 0.673747 0.389487
0.486427 0.805814 0.857572
0.485328 0.806394 0.856474
0.484321 0.80676 0.855207
0.48333 0.807202 0.853849
0.483162 0.807797 0.852872
0.483024 0.808408 0.851911
0.48304 0.809094 0.850721
0.483085 0.809842 0.849012
0.483116 0.811002 0.846586
0.483253 0.812818 0.843137
0.48365 0.815274 0.837415
0.483299 0.819318 0.829847
0.485054 0.824063 0.822461
0.483833 0.823163 0.806317
0.487709 0.826444 0.789807
0.579568 0.854765 0.795621
0.711162 0.857374 0.749065
0.794797 0.861555 0.682551
0.824231 0.874952 0.668681
0.839078 0.886839 0.694148
0.866087 0.897536 0.726299
0.884092 0.905592 0.754681
0.900542 0.907805 0.771176
0.910079 0.908934 0.773327
0.910491 0.90695 0.771145
0.910552 0.901518 0.763775
0.909087 0.899825 0.748699
0.91017 0.895399 0.715572
0.923537 0.883299 0.677623
0.917067 0.861631 0.636988
0.911543 0.841306 0.582467
0.906996 0.805783 0.53489
0.865599 0.72752 0.468803
0.509682 0.81265 0.868269
0.509163 0.813397 0.867262
0.50869 0.814115 0.866285
0.508217 0.814893 0.865202
0.508247 0.815686 0.864393
0.508324 0.816327 0.863722
0.508385 0.817151 0.86273
0.508614 0.818143 0.861433
0.509071 0.819471 0.859541
0.509575 0.821088 0.856764
0.510323 0.82327 0.85272
0.511131 0.827192 0.846662
0.508232 0.832959 0.838743
0.508522 0.836728 0.824506
0.50277 0.836133 0.808667
0.54963 0.854612 0.803662
0.666499 0.869154 0.790784
0.791638 0.863828 0.71371
0.817975 0.87808 0.693278
0.836271 0.890196 0.710506
0.859358 0.899077 0.737331
0.874815 0.907027 0.758633
0.894392 0.917266 0.78439
0.907637 0.916167 0.792172
0.908415 0.916152 0.795743
0.908354 0.916014 0.794965
0.907683 0.916457 0.7897
0.908537 0.91397 0.77882
0.911482 0.908339 0.759045
0.908904 0.905562 0.737713
0.915526 0.891325 0.704555
0.921141 0.86598 0.648341
0.910109 0.832258 0.570871
0.522652 0.817014 0.874174
0.522118 0.817487 0.873259
0.521492 0.817929 0.872297
0.520958 0.818433 0.871321
0.520775 0.819104 0.870451
0.520485 0.819684 0.86952
0.52047 0.820447 0.868498
0.520424 0.821469 0.867018
0.520455 0.822583 0.865339
0.520577 0.823865 0.86305
0.521233 0.825925 0.859556
0.521584 0.828809 0.854154
0.521462 0.834562 0.847044
0.517647 0.839292 0.835935
0.514885 0.842481 0.817884
0.524376 0.848035 0.809537
0.622705 0.870848 0.811414
0.754253 0.870344 0.74725
0.815442 0.876234 0.715618
0.829709 0.88896 0.720958
0.852033 0.89839 0.744701
0.867063 0.90724 0.761425
0.885664 0.915328 0.781369
0.899687 0.916259 0.792981
0.908995 0.917052 0.799161
0.909529 0.919326 0.803769
0.909422 0.919081 0.803159
0.908888 0.917525 0.799496
0.906737 0.918746 0.789136
0.910185 0.911604 0.773999
0.910933 0.910445 0.767254
0.911009 0.907652 0.750683
0.912856 0.892989 0.710918
0.534218 0.825498 0.878981
0.534112 0.825788 0.878172
0.534051 0.826078 0.877333
0.533974 0.826352 0.876432
0.534295 0.826963 0.875731
0.534493 0.827451 0.875059
0.534768 0.828183 0.874189
0.535042 0.82916 0.873091
0.534752 0.830167 0.871702
0.534264 0.831144 0.869688
0.533761 0.832135 0.866667
0.533257 0.832975 0.861524
0.53283 0.836515 0.854749
0.531395 0.842237 0.846799
0.527886 0.845487 0.830655
0.540749 0.854078 0.820874
0.587991 0.867781 0.818616
0.705516 0.875837 0.789471
0.809735 0.877363 0.737484
0.829206 0.887251 0.739055
0.846235 0.899962 0.754635
0.865324 0.907057 0.773587
0.884306 0.914992 0.784634
0.894072 0.9196 0.795514
0.909667 0.919142 0.803967
0.910307 0.921675 0.809201
0.910826 0.922103 0.813703
0.910613 0.922026 0.811841
0.909804 0.920272 0.80589
0.907774 0.917357 0.793729
0.907835 0.916167 0.78117
0.909499 0.912886 0.776822
0.910536 0.91104 0.770947
0.547814 0.83035 0.88484
0.547265 0.830884 0.884337
0.546578 0.831403 0.883772
0.546044 0.831983 0.883253
0.546029 0.832563 0.882933
0.546212 0.833127 0.882368
0.546273 0.833829 0.881605
0.546334 0.83476 0.880613
0.546258 0.836088 0.879118
0.546242 0.837903 0.877043
0.546197 0.840238 0.874632
0.545937 0.842206 0.870939
0.544808 0.842924 0.86363
0.543313 0.844724 0.854185
0.545174 0.851713 0.84506
0.558068 0.859937 0.831693
0.607828 0.872587 0.831098
0.682124 0.877684 0.826139
0.777783 0.883772 0.776226
0.834913 0.885817 0.76997
0.847898 0.898848 0.778744
