presets/XH_5219_C.cube
TITLE "Generated by Resolve"
LUT_3D_SIZE 33
0 0.00210575 0.00161746
0 0.00210575 0.00161746
0 0.00210575 0.00161746
0 0.00215152 0.00177005
0.000518807 0.00288396 0.0015259
0.000915541 0.00378424 0.00328069
0.00164797 0.00791943 0.00646983
0.0132448 0.0127413 0.0049897
0.0478523 0.014313 0.00137331
0.114 0.0131228 0.000640879
0.1953 0.0127413 0.000793469
0.259556 0.0142367 0.00120546
0.308583 0.0225071 0
0.354101 0.0364996 0
0.388617 0.0466468 0
0.399145 0.0780499 0.00112917
0.407675 0.116869 0.00479133
0.450263 0.140917 0.00772107
0.509728 0.170184 0.0114137
0.562051 0.202075 0.0276646
0.590677 0.248768 0.0830243
0.610971 0.301137 0.149676
0.599634 0.327062 0.198291
0.602716 0.355123 0.240528
0.618326 0.37554 0.307927
0.623789 0.354955 0.392691
0.632532 0.350332 0.464775
0.638224 0.361196 0.520333
0.643107 0.368048 0.563806
0.651194 0.37467 0.596414
0.668589 0.392874 0.627741
0.69958 0.424796 0.67126
0.726741 0.459648 0.707179
0 0.00209049 0.00161746
0 0.00210575 0.00161746
0 0.00210575 0.00161746
0 0.002121 0.00184634
0.000488289 0.00288396 0.00134279
0.000885023 0.00367742 0.00306706
0.00155642 0.00746166 0.0061799
0.0124819 0.0125582 0.00523384
0.0462806 0.0142977 0.00143435
0.112734 0.013138 0.000656138
0.1953 0.0127413 0.000793469
0.259556 0.0142367 0.00120546
0.308583 0.0225071 0
0.354101 0.0364996 0
0.388617 0.0466468 0
0.399145 0.0780499 0.00112917
0.407675 0.116869 0.00479133
0.449775 0.140719 0.00770581
0.507759 0.169451 0.0111391
0.560403 0.199969 0.0258335
0.589807 0.24564 0.0788434
0.610666 0.297276 0.143252
0.601068 0.324331 0.193622
0.601129 0.352163 0.234546
0.615488 0.372549 0.295689
0.623484 0.357443 0.38027
0.63006 0.350408 0.448844
0.637705 0.356298 0.510262
0.641199 0.367849 0.549401
0.648188 0.372107 0.584802
0.654231 0.378103 0.606683
0.68191 0.405859 0.645274
0.705364 0.431174 0.678614
0 0.00209049 0.00161746
0 0.00209049 0.00161746
0 0.00210575 0.00161746
0 0.00210575 0.00170901
0.000335698 0.00280766 0.000793469
0.000701915 0.0031281 0.00189212
0.00114443 0.00500496 0.0043946
0.00709544 0.0114443 0.00672923
0.0347448 0.0140688 0.00215152
0.0950179 0.0135653 0.00077821
0.179339 0.0125887 0.000671397
0.251453 0.0138399 0.0015259
0.304067 0.0213016 0
0.351583 0.035584 0
0.387579 0.0463417 0
0.39884 0.0757916 0.000976577
0.4065 0.115175 0.00460822
0.446113 0.139269 0.00749218
0.503746 0.167926 0.0105898
0.55819 0.197208 0.0234073
0.588922 0.242588 0.0746014
0.610224 0.294026 0.138186
0.602426 0.322225 0.189776
0.599939 0.349905 0.229984
0.613718 0.370687 0.287633
0.623713 0.360571 0.371328
0.628305 0.350454 0.438346
0.637049 0.354025 0.501625
0.639918 0.367773 0.538674
0.645853 0.370092 0.575952
0.652232 0.375845 0.599954
0.667765 0.39205 0.626017
0.691722 0.416037 0.66096
0 0.0019379 0.00352483
0 0.00196841 0.00340276
0 0.00215152 0.00251774
0 0.00218204 0.00250248
0.000213626 0.0031281 0.000442512
0.00062562 0.00350958 0.00106813
0.00111391 0.00453193 0.00285344
0.00238041 0.0101778 0.00708019
0.0242466 0.0140536 0.00331121
0.0787976 0.0138705 0.000961318
0.163424 0.0125582 0.000396735
0.242374 0.0133822 0.00195315
0.301045 0.0205844 7.62951e-05
0.3467 0.0338903 0
0.38468 0.0454719 0
0.398428 0.0717937 0.000701915
0.405203 0.113237 0.00440986
0.442145 0.137865 0.00726329
0.499306 0.165942 0.010132
0.556039 0.194598 0.0211337
0.587945 0.239826 0.0705577
0.609949 0.290517 0.132601
0.603693 0.320241 0.18616
0.598672 0.347524 0.225162
0.612009 0.368887 0.279286
0.62385 0.365332 0.359884
0.626551 0.350668 0.427253
0.635767 0.353002 0.490318
0.639002 0.366033 0.52961
0.643748 0.368338 0.5673
0.650339 0.373892 0.59295
0.656138 0.380179 0.609812
0.678004 0.401968 0.639704
0.000106813 0.00425727 0.00962844
6.10361e-05 0.00410468 0.0100099
4.57771e-05 0.00364691 0.00999466
0.000366217 0.00485237 0.00503548
0.000518807 0.00622568 0.0010071
0.00149538 0.00816358 0
0.00381476 0.010605 0.00450141
0.00634775 0.0137484 0.00978103
0.0316777 0.0167697 0.00436408
0.0864576 0.0162051 0.00151064
0.163561 0.012726 0.000854505
0.236118 0.013077 0.00224308
0.300969 0.0206149 4.57771e-05
0.34966 0.0343481 0
0.386938 0.0460822 0
0.396643 0.0698253 0.000595102
0.402914 0.112169 0.00433356
0.438331 0.137911 0.00729381
0.495659 0.166522 0.010071
0.556359 0.193164 0.0185702
0.590372 0.239033 0.0662699
0.611627 0.28864 0.127855
0.605447 0.31754 0.181231
0.598535 0.344686 0.221118
0.610986 0.367895 0.272511
0.623728 0.367773 0.353155
0.625925 0.351003 0.422415
0.635538 0.352926 0.48719
0.639109 0.365423 0.527993
0.643641 0.36849 0.565484
0.650233 0.373877 0.591882
0.656901 0.380987 0.610147
0.678981 0.402838 0.640055
0.000885023 0.00996414 0.0141299
0.000610361 0.00975052 0.0140688
6.10361e-05 0.00862135 0.0139773
0.00125124 0.00877394 0.0113069
0.00311284 0.0110475 0.00901808
0.00518807 0.0141299 0.00862135
0.00892653 0.0181582 0.0137331
0.0140993 0.0203708 0.0196994
0.0331579 0.0227359 0.00892653
0.0869612 0.0186007 0.00196841
0.173663 0.0141146 0.00132753
0.243839 0.0140078 0.0024567
0.296086 0.0196536 7.62951e-05
0.344182 0.0318456 0
0.386572 0.0458228 0
0.395804 0.0731823 0.000793469
0.400305 0.110735 0.00422675
0.434165 0.137881 0.00729381
0.491783 0.167132 0.00999466
0.555337 0.19263 0.0176547
0.592981 0.2383 0.0619059
0.613031 0.286748 0.123644
0.607233 0.314763 0.176196
0.598733 0.341634 0.217166
0.61004 0.367041 0.265507
0.623575 0.370199 0.34638
0.625437 0.351446 0.418021
0.63537 0.352941 0.484001
0.639231 0.364782 0.526284
0.643595 0.368765 0.563607
0.650156 0.373877 0.590906
0.657572 0.381689 0.610346
0.679957 0.403723 0.640421
0.0145266 0.0204929 0.0242771
0.0141146 0.0201114 0.0238346
0.012314 0.0186618 0.0221103
0.0104829 0.017258 0.0209659
0.01149 0.0194247 0.0222324
0.0130465 0.0233158 0.0240482
0.0162966 0.0301213 0.0287022
0.0289921 0.0327153 0.0372778
0.0613718 0.0352483 0.0176852
0.107836 0.030045 0.00706493
0.179843 0.0206607 0.0012665
0.241291 0.0168307 0.00117494
0.302754 0.0207675 0
0.346899 0.0310216 0
0.379232 0.0428016 0
0.393332 0.0705119 0.000686656
0.400153 0.113222 0.00450141
0.428885 0.137789 0.00730907
0.488533 0.168566 0.00999466
0.55407 0.191943 0.0165103
0.595651 0.236423 0.0556802
0.614771 0.284291 0.118273
0.609552 0.311162 0.169619
0.598978 0.337713 0.212085
0.608743 0.365286 0.258122
0.623331 0.373419 0.33727
0.625391 0.352819 0.412146
0.635019 0.352819 0.479149
0.639277 0.363821 0.524025
0.643519 0.369085 0.561212
0.650004 0.373831 0.589548
0.658396 0.382559 0.610513
0.681147 0.404791 0.640848
0.0272374 0.0368353 0.0464637
0.0272831 0.036408 0.0460365
0.0275731 0.0339818 0.0435035
0.0278325 0.0317082 0.0411536
0.0277867 0.0315862 0.0409857
0.0285039 0.0355993 0.0442206
0.033341 0.0441138 0.0475776
0.0443885 0.0529641 0.0546883
0.0733654 0.0621805 0.0485847
0.161852 0.0480812 0.0138247
0.225086 0.0379187 0.00332647
0.27277 0.0342718 0.00062562
0.315557 0.0304417 0
0.344488 0.0279088 0
0.379705 0.0417792 0
0.385229 0.0685893 0.000671397
0.392172 0.106996 0.00396735
0.433265 0.141161 0.00782788
0.483711 0.170016 0.0100557
0.553063 0.192691 0.0154574
0.598444 0.232792 0.0464332
0.617319 0.28069 0.11043
0.612634 0.307134 0.158587
0.599329 0.332021 0.204715
0.606424 0.360983 0.250034
0.622873 0.377646 0.324773
0.625635 0.355108 0.404242
0.634638 0.352758 0.472847
0.639399 0.362844 0.521569
0.643397 0.369482 0.558038
0.649775 0.373739 0.587716
0.659754 0.383993 0.610971
0.682689 0.406165 0.641367
0.0260014 0.0675975 0.0762951
0.0259861 0.0671397 0.0758984
0.0258335 0.0641642 0.0732433
0.0256809 0.0610819 0.0704967
0.0256657 0.0605173 0.0699931
0.0256962 0.0612039 0.0706035
0.0382696 0.0690776 0.0718853
0.0544442 0.0796368 0.0801251
0.0817578 0.0870375 0.0817578
0.157992 0.0869306 0.0505684
0.289784 0.060441 0.0248112
0.338338 0.0493172 0.0136263
0.362707 0.0500801 0.00500496
0.380224 0.0489662 0
0.383902 0.0460517 0
0.374212 0.0712139 0.000854505
0.377615 0.106233 0.00415045
0.414801 0.132479 0.00680552
0.484672 0.174472 0.0104829
0.547295 0.196002 0.0155795
0.602411 0.228977 0.0347753
0.623255 0.275822 0.0970779
0.616999 0.301427 0.142885
0.600977 0.324453 0.193835
0.603098 0.35491 0.238468
0.621241 0.379324 0.309728
0.626001 0.358175 0.393866
0.634089 0.35288 0.464332
0.639628 0.361227 0.517418
0.643275 0.370092 0.553643
0.649546 0.373709 0.585382
0.661479 0.385824 0.611673
0.685008 0.408225 0.642191
0.0249485 0.115862 0.124132
0.0249943 0.115526 0.123659
0.02533 0.111879 0.119142
0.0254826 0.108507 0.115755
0.0254368 0.109346 0.116594
0.0255283 0.107668 0.114916
0.0271916 0.109987 0.11696
0.0514687 0.123461 0.129122
0.0750134 0.133547 0.131212
0.142794 0.132967 0.0950637
0.258656 0.123293 0.0584268
0.380102 0.0931716 0.0348974
0.422858 0.0822156 0.0147555
0.434913 0.0859846 0.0040589
0.438087 0.0894026 0.00178531
0.418784 0.0959335 0.00262455
0.370871 0.105348 0.00407416
0.40087 0.128679 0.00891127
0.452293 0.165042 0.00941482
0.536355 0.198184 0.0145418
0.607599 0.230243 0.0299687
0.631418 0.271153 0.0800183
0.621378 0.29427 0.128374
0.606577 0.315785 0.178058
0.599557 0.346639 0.223255
0.617411 0.375509 0.290623
0.62652 0.362142 0.380713
0.632517 0.354147 0.450752
0.639811 0.358923 0.511879
0.642985 0.370687 0.548135
0.649195 0.373602 0.582269
0.66392 0.388098 0.612177
0.688029 0.410864 0.643046
0.0145876 0.17966 0.186969
0.0145876 0.17966 0.186969
0.0146181 0.17525 0.182788
0.0146944 0.17142 0.178882
0.0146181 0.172763 0.180255
0.0146334 0.172457 0.17995
0.0147402 0.170825 0.178271
0.0212711 0.178958 0.183047
0.0593423 0.193774 0.203861
0.103456 0.201785 0.182162
0.208789 0.198413 0.0917983
0.355322 0.184588 0.0648661
0.45922 0.163012 0.048127
0.490837 0.152392 0.0255283
0.498939 0.151843 0.0120546
0.502983 0.150408 0.00814832
0.491722 0.155413 0.00891127
0.448402 0.155093 0.009308
0.436271 0.161089 0.00898756
0.488212 0.186236 0.0114595
0.595926 0.217517 0.0156252
0.639994 0.270954 0.0688945
0.633951 0.288258 0.109194
0.615 0.305653 0.153262
0.600702 0.333577 0.206226
0.613336 0.371603 0.265049
0.627832 0.373083 0.357748
0.630701 0.355703 0.434699
0.639551 0.357855 0.501518
0.64268 0.371771 0.539925
0.648692 0.373465 0.577813
0.667384 0.39115 0.612268
0.691783 0.414099 0.643809
0.00781262 0.259937 0.241169
0.00781262 0.259937 0.241169
0.00814832 0.255726 0.238483
0.00874342 0.250187 0.235233
0.00917067 0.249393 0.234165
0.0091249 0.250935 0.234638
0.00915541 0.249973 0.234333
0.00918593 0.248432 0.23386
0.0217288 0.265019 0.254749
0.0507973 0.289754 0.275212
0.154437 0.285847 0.2009
0.269383 0.292027 0.0885939
0.419989 0.280491 0.0487221
0.54612 0.242496 0.057435
0.587137 0.237201 0.0407874
0.599542 0.242451 0.0218662
0.60528 0.252522 0.0186007
0.601038 0.251011 0.018265
0.567452 0.236255 0.0164645
0.503883 0.194705 0.0122988
0.530785 0.206394 0.01355
0.637125 0.251316 0.0239414
0.645457 0.283848 0.0881208
0.627497 0.296666 0.129549
0.609308 0.318669 0.180667
0.606226 0.357305 0.237812
0.627573 0.386542 0.322698
0.629801 0.359808 0.413458
0.638834 0.357916 0.486137
0.642741 0.370336 0.531136
0.647883 0.37322 0.571328
0.672267 0.395453 0.612467
0.69482 0.418021 0.643122
0.0096437 0.346456 0.295613
0.0096437 0.346456 0.295613
0.00955215 0.344015 0.293416
0.00944533 0.340764 0.28986
0.00936904 0.339239 0.285374
0.00933852 0.339132 0.282475
0.00935378 0.339437 0.281621
0.009308 0.338384 0.280964
0.00932326 0.338537 0.281071
0.0124514 0.36936 0.31902
0.053315 0.392844 0.345586
0.223133 0.377722 0.218921
0.353124 0.388632 0.107408
0.483238 0.387823 0.0785229
0.603983 0.371237 0.0738079
0.661677 0.370336 0.0422065
0.696498 0.367498 0.0260319
0.7131 0.362173 0.0271
0.715343 0.348211 0.0270542
0.698192 0.323201 0.0253758
0.637736 0.272312 0.0207218
0.588403 0.240101 0.017258
0.650172 0.260166 0.0258488
0.646281 0.289769 0.0974899
0.627787 0.304616 0.142229
0.605524 0.334295 0.205509
0.618311 0.377783 0.27718
0.631113 0.368719 0.384283
0.637476 0.358877 0.464057
0.643214 0.366369 0.521523
0.650431 0.378622 0.562966
0.677577 0.400656 0.611643
0.698253 0.423316 0.64181
0.0132296 0.420188 0.356207
0.0132296 0.420188 0.356207
0.013138 0.418601 0.354421
0.0129854 0.41593 0.351324
0.0128939 0.414023 0.348135
0.0128176 0.412497 0.344579
0.0128786 0.413672 0.341588
0.0127871 0.412619 0.335317
0.012726 0.411719 0.334371
0.0133669 0.4159 0.338979
0.0275883 0.456809 0.388205
0.111345 0.477943 0.36788
0.329778 0.462959 0.246845
0.446082 0.473747 0.168444
0.562753 0.484474 0.171389
0.659876 0.478309 0.155276
0.742412 0.47805 0.0783093
0.780056 0.476143 0.0456855
0.797482 0.468879 0.0437629
0.800977 0.457435 0.0426642
0.792752 0.435874 0.0328985
0.746075 0.361151 0.0290074
0.616403 0.256916 0.0191501
0.643381 0.261997 0.0202335
0.650202 0.293797 0.0984665
0.628595 0.311971 0.154345
0.608942 0.353262 0.228397
0.631891 0.392401 0.325673
0.633783 0.362905 0.428519
0.643336 0.363317 0.504631
0.657023 0.389517 0.557992
0.683818 0.408225 0.610895
0.702495 0.430777 0.640772
0.0302892 0.485863 0.421759
0.0302892 0.485863 0.421759
0.0299382 0.485206 0.421195
0.0290532 0.483604 0.419821
0.0288853 0.483101 0.419913
0.0287022 0.482063 0.418784
0.0297551 0.481544 0.415717
0.0315251 0.481743 0.413001
0.0254368 0.477943 0.408484
0.0255283 0.478141 0.408743
0.0364996 0.489067 0.421118
0.0663005 0.532433 0.470192
0.218524 0.553124 0.407416
0.440635 0.539635 0.306218
0.546014 0.556878 0.262348
0.640284 0.574136 0.275959
0.736187 0.567758 0.235645
0.815183 0.575662 0.12398
0.851499 0.577661 0.11136
0.863722 0.576593 0.111192
0.847318 0.549035 0.0900893
0.825772 0.503624 0.0665141
0.797009 0.44213 0.0376287
0.663798 0.292699 0.0226291
0.630564 0.258747 0.0196841
0.658183 0.294575 0.0871901
0.628946 0.318517 0.165957
0.615595 0.369162 0.251408
0.637034 0.382132 0.374655
0.648219 0.372366 0.481895
0.666377 0.400977 0.554147
0.690654 0.420829 0.611597
0.708797 0.44213 0.642802
0.0667735 0.551675 0.495979
0.0667735 0.551675 0.495979
0.0664988 0.55082 0.494591
0.0661173 0.549523 0.492332
0.0663005 0.549142 0.490608
0.0664073 0.548455 0.488289
0.0665751 0.546593 0.486061
0.0673838 0.545525 0.48484
0.0657816 0.543709 0.481804
0.0611276 0.538064 0.474205
0.0611429 0.537926 0.473732
0.0845045 0.56701 0.509361
0.150637 0.61474 0.53991
0.387747 0.616938 0.423011
0.544274 0.621942 0.373724
0.626551 0.633112 0.349386
0.720256 0.647974 0.356176
0.802075 0.646983 0.288746
0.868498 0.664363 0.203296
0.892195 0.672633 0.2009
0.902419 0.658625 0.195209
0.885786 0.619028 0.160342
0.863172 0.573724 0.115938
0.833112 0.516686 0.0745251
0.758175 0.379034 0.0301061
0.61738 0.256916 0.0191806
0.661006 0.284794 0.0636912
0.639475 0.339651 0.192889
0.641169 0.405539 0.298878
0.659159 0.399237 0.447501
0.675792 0.409567 0.547784
0.698604 0.438453 0.608743
0.719387 0.458869 0.653254
0.116838 0.610376 0.581369
0.116838 0.610376 0.581369
0.115129 0.609522 0.576257
0.113436 0.608392 0.571099
0.112886 0.607813 0.568002
0.112154 0.607004 0.564263
0.110857 0.605493 0.558618
0.110277 0.604135 0.555398
0.110964 0.603983 0.554757
0.109987 0.603052 0.553124
0.103349 0.595895 0.539483
0.118669 0.612222 0.556207
0.172824 0.648341 0.585702
0.33463 0.680476 0.566094
0.536156 0.681819 0.462913
0.627268 0.694911 0.440574
0.703731 0.708385 0.414694
0.784634 0.717739 0.403052
0.856703 0.724681 0.328313
0.900649 0.742962 0.314382
0.920455 0.746258 0.317067
0.917693 0.728832 0.282567
0.912261 0.699916 0.243641
0.899153 0.655787 0.193896
0.872572 0.585351 0.128908
0.813428 0.480552 0.0552377
0.705623 0.325322 0.0258946
0.673335 0.285115 0.029099
0.639719 0.369604 0.238209
0.683268 0.451987 0.371481
0.693797 0.429526 0.516548
0.705989 0.454353 0.599115
0.730938 0.477791 0.659068
0.172625 0.669001 0.662089
0.172366 0.66891 0.661585
0.170367 0.668147 0.657603
0.168582 0.667353 0.654139
0.167269 0.667811 0.65066
0.165774 0.668193 0.646815
0.165316 0.666972 0.641932
0.164401 0.664454 0.633875
0.163729 0.663264 0.627497
0.163745 0.663462 0.622721
0.156069 0.661021 0.610712
0.15523 0.656764 0.605066
0.204944 0.685679 0.630808
0.333425 0.720668 0.646555
0.552071 0.736171 0.539147
0.650965 0.743481 0.507073
0.699275 0.766857 0.484703
0.785229 0.775677 0.452827
0.856611 0.783047 0.401541
0.906081 0.786221 0.371939
0.923079 0.798169 0.411017
0.929763 0.804562 0.419409
0.925795 0.787167 0.389761
0.922133 0.761349 0.344121
0.917922 0.728756 0.281209
0.904891 0.670329 0.210636
0.859403 0.569116 0.110719
0.774014 0.405051 0.032578
0.742519 0.352911 0.0286259
0.682734 0.41413 0.279515
0.721859 0.50573 0.443229
0.727413 0.478676 0.575555
0.741817 0.499565 0.654337
0.223239 0.730526 0.723415
0.221958 0.729961 0.721813
0.219471 0.729046 0.71873
0.217304 0.728252 0.716197
0.215488 0.728298 0.714504
0.213611 0.728435 0.712779
0.210895 0.728664 0.710307
0.207446 0.728923 0.706905
0.205966 0.729 0.704326
0.205097 0.727886 0.698085
0.206668 0.725673 0.685634
0.213977 0.725185 0.67602
0.235492 0.732464 0.675059
0.343481 0.758068 0.680354
0.507958 0.78967 0.672328
0.677516 0.789731 0.558175
0.735042 0.805325 0.537881
0.791485 0.829358 0.47245
0.863111 0.831769 0.435096
0.90457 0.837888 0.411765
0.930495 0.843549 0.447333
0.940642 0.853422 0.483742
0.940826 0.849104 0.479377
0.935821 0.837949 0.453758
0.931365 0.819959 0.422889
0.926802 0.78703 0.384817
0.920104 0.741466 0.307576
0.900999 0.65977 0.197925
0.817334 0.487572 0.0589456
0.813489 0.480674 0.0552987
0.739498 0.464012 0.313237
0.755413 0.554009 0.495338
0.760678 0.528405 0.633036
0.290394 0.781781 0.78024
0.288548 0.781048 0.778378
0.28603 0.77998 0.775921
0.283818 0.779019 0.773709
0.282597 0.778744 0.771939
0.281285 0.77847 0.770062
0.279454 0.778302 0.767483
0.276829 0.778363 0.763699
0.272602 0.778302 0.757733
0.272221 0.779965 0.754406
0.273533 0.781109 0.750088
0.276219 0.782605 0.744503
0.27892 0.784863 0.736065
0.34255 0.80267 0.738552
0.491554 0.830014 0.748837
0.667628 0.833768 0.672099
0.774762 0.838422 0.591012
0.797971 0.863325 0.512108
0.885344 0.873426 0.42153
0.913329 0.880735 0.458183
0.940063 0.883421 0.508354
0.945937 0.889448 0.546212
0.954162 0.888121 0.562448
0.950484 0.882124 0.541207
0.937972 0.871977 0.50312
0.934142 0.856214 0.479271
0.933394 0.837125 0.447395
0.929686 0.802563 0.40145
0.918822 0.734066 0.292103
0.855116 0.563882 0.104601
0.852232 0.559411 0.100267
0.783123 0.50164 0.289479
0.762875 0.54165 0.587533
0.372366 0.815076 0.815
0.36936 0.814969 0.813703
0.366476 0.814679 0.812543
0.364004 0.814557 0.811505
0.362356 0.814771 0.810758
0.360784 0.815015 0.810025
0.360494 0.816358 0.809583
0.359976 0.817899 0.808347
0.360021 0.819104 0.806546
0.358892 0.820035 0.803861
0.359411 0.819791 0.799039
0.362478 0.822416 0.79118
0.364889 0.826856 0.78323
0.372595 0.831525 0.777249
0.487312 0.855497 0.773907
0.621561 0.871611 0.786908
0.794553 0.863523 0.64654
0.823621 0.888289 0.546746
0.882597 0.898909 0.457023
0.924407 0.912871 0.472755
0.939605 0.916136 0.580087
0.951644 0.920241 0.619867
0.958206 0.923064 0.635752
0.956497 0.917876 0.625238
0.953735 0.908217 0.605081
0.945663 0.904753 0.565957
0.945357 0.890867 0.546075
0.938247 0.87306 0.504723
0.93283 0.843748 0.45771
0.927733 0.791226 0.389883
0.893172 0.64184 0.181018
0.891157 0.636652 0.176654
0.841398 0.573968 0.313619
0.436164 0.836942 0.842908
0.434852 0.836759 0.842466
0.434134 0.837369 0.841779
0.433539 0.837919 0.841215
0.434012 0.838987 0.841016
0.434409 0.839933 0.840848
0.434867 0.84123 0.840604
0.435279 0.843076 0.840131
0.435218 0.84445 0.838621
0.433524 0.844724 0.836103
0.431418 0.845808 0.83444
0.432609 0.849622 0.830793
0.434669 0.852995 0.823011
0.426688 0.854398 0.811536
0.483085 0.872267 0.801663
0.611109 0.892866 0.819409
0.77908 0.889952 0.727382
0.842039 0.904494 0.588357
0.886976 0.918334 0.50428
0.917525 0.928908 0.525689
0.941924 0.93875 0.629221
0.949325 0.940887 0.700893
0.9514 0.94873 0.716884
0.954177 0.950286 0.711315
0.959075 0.949203 0.692988
0.961669 0.93666 0.667872
0.95491 0.926589 0.627573
0.948989 0.921401 0.600214
0.945693 0.90605 0.567803
0.941161 0.879896 0.5205
0.933333 0.838117 0.448798
0.916564 0.721736 0.271351
0.915251 0.714443 0.261097
0.487144 0.855695 0.866026
0.486076 0.856184 0.865248
0.484993 0.856321 0.864805
0.483742 0.856413 0.86421
0.483192 0.856764 0.863981
0.482597 0.857114 0.863661
0.482002 0.857603 0.863264
0.48127 0.858335 0.862608
0.480476 0.859464 0.861463
0.48246 0.861845 0.861051
0.485542 0.864683 0.859693
0.484337 0.867155 0.863096
0.478935 0.872618 0.855879
0.477775 0.874311 0.846601
0.47805 0.878523 0.829236
0.59704 0.908553 0.829725
0.741466 0.909987 0.794369
0.853025 0.91223 0.668574
0.88806 0.930282 0.572976
0.916152 0.93843 0.599405
0.930236 0.951003 0.672328
0.949737 0.957534 0.730419
0.95349 0.964355 0.756252
0.953521 0.966751 0.761929
0.95288 0.966247 0.758709
0.950515 0.965316 0.74966
0.956008 0.956512 0.725963
0.962646 0.944793 0.694591
0.959915 0.934035 0.65507
0.953368 0.928695 0.625086
0.946838 0.911467 0.579202
0.938155 0.872679 0.504158
0.924788 0.777066 0.370626
0.505714 0.860533 0.877546
0.504341 0.860807 0.876844
0.503044 0.861128 0.876219
0.501915 0.861601 0.875761
0.501152 0.862181 0.875547
0.500542 0.862715 0.875425
0.499535 0.86334 0.875181
0.499321 0.864317 0.875273
0.499718 0.86566 0.87512
0.500816 0.867857 0.873976
0.501701 0.871641 0.871061
0.500587 0.873259 0.865339
0.496635 0.87602 0.863096
0.494072 0.880583 0.856123
0.490898 0.882673 0.84123
0.548943 0.906798 0.826337
0.688212 0.921767 0.84651
0.848478 0.913008 0.740902
0.879316 0.93022 0.644831
0.907149 0.941451 0.645624
0.919875 0.952712 0.689311
0.939193 0.960494 0.72958
0.953323 0.971389 0.770123
0.95639 0.97171 0.781704
0.956252 0.972 0.785245
0.956268 0.971649 0.784283
0.956329 0.97116 0.778561
0.957916 0.969757 0.768017
0.960754 0.962905 0.739284
0.964157 0.953826 0.715389
0.959655 0.94461 0.682979
0.954803 0.93106 0.633158
0.945617 0.902708 0.563027
0.523964 0.865232 0.888106
0.52253 0.865522 0.887434
0.52108 0.865782 0.886748
0.519768 0.866117 0.886152
0.518898 0.866667 0.885878
0.51809 0.867185 0.885634
0.517708 0.867994 0.88571
0.517617 0.869047 0.885878
0.517784 0.870268 0.886091
0.518486 0.871962 0.886381
0.518425 0.874144 0.883635
0.51577 0.87718 0.875074
0.510445 0.879988 0.865263
0.510002 0.883299 0.861784
0.506401 0.887114 0.85005
0.516869 0.896117 0.83238
0.635279 0.922042 0.838911
0.783886 0.923201 0.79823
0.870909 0.926177 0.701305
0.890425 0.940093 0.675654
0.911757 0.951873 0.701274
0.931853 0.959915 0.732921
0.946914 0.968811 0.763424
0.953079 0.970748 0.781369
0.956069 0.972015 0.7888
0.955871 0.972915 0.793561
0.955901 0.972869 0.792828
0.956085 0.972473 0.788968
0.956909 0.972549 0.777844
0.960632 0.968002 0.762142
0.960037 0.965316 0.751324
0.962707 0.961089 0.728145
0.961364 0.944793 0.689952
0.543893 0.869123 0.899428
0.542626 0.869795 0.898772
0.541268 0.870527 0.8981
0.539666 0.871305 0.897261
0.538842 0.872053 0.896513
0.538247 0.872511 0.895964
0.537438 0.873121 0.895216
0.536355 0.87396 0.894179
0.535851 0.875364 0.892897
0.535271 0.877165 0.891234
0.534691 0.879377 0.888792
0.534157 0.881605 0.884916
0.532296 0.884092 0.877714
0.527581 0.888594 0.868803
0.527245 0.890318 0.856519
0.538994 0.899733 0.842191
0.589426 0.920027 0.841581
0.719554 0.930175 0.837415
0.861692 0.924483 0.74934
0.886336 0.938338 0.709087
0.90515 0.950393 0.718639
0.925353 0.960311 0.746441
0.938872 0.966552 0.765362
0.949447 0.972564 0.782879
0.955901 0.972274 0.794293
0.955627 0.973419 0.799374
0.955184 0.975402 0.803204
0.955367 0.974594 0.801572
0.955779 0.973159 0.795682
0.956512 0.972396 0.78291
0.959335 0.970733 0.770871
0.960937 0.969207 0.767025
0.960372 0.966827 0.757351
0.561654 0.872282 0.905058
0.560311 0.872343 0.904402
0.558831 0.872908 0.903395
0.557473 0.873487 0.902434
0.556832 0.874113 0.901778
0.556085 0.874815 0.900984
0.555169 0.875715 0.899962
0.554269 0.877028 0.898741
0.552911 0.878614 0.897093
0.552224 0.880766 0.895354
0.552193 0.882887 0.893721
0.552178 0.885405 0.891188
0.551827 0.888106 0.886763
0.551125 0.891569 0.879713
0.551461 0.900649 0.872999
0.562737 0.90985 0.854078
0.610773 0.924544 0.850324
0.688426 0.938216 0.850065
0.811673 0.93547 0.808835
0.890608 0.939681 0.76051
