presets/XH_5219_N.cube
TITLE "Generated by Resolve"
LUT_3D_SIZE 9
0.0412757 0.0408637 0.0462196
0.0429999 0.0420081 0.0454108
0.0614939 0.0565499 0.0570077
0.302907 0.0636149 0.052079
0.430488 0.138125 0.0535897
0.5523 0.264668 0.104387
0.596246 0.40557 0.338323
0.619333 0.398352 0.545953
0.680262 0.470909 0.67483
0.0428473 0.0433661 0.0511482
0.0448615 0.0450599 0.0480507
0.0576333 0.0547189 0.0588693
0.29482 0.0623178 0.0518502
0.430289 0.131579 0.0531624
0.551644 0.25658 0.0886854
0.588403 0.392218 0.312047
0.615198 0.39202 0.518532
0.647929 0.426108 0.613581
0.0726635 0.0988174 0.115755
0.0772869 0.0957351 0.112383
0.12723 0.129778 0.134386
0.360922 0.0959793 0.0679179
0.40882 0.113329 0.051545
0.559472 0.253864 0.0730297
0.584421 0.377646 0.286198
0.614572 0.39205 0.506691
0.651026 0.43125 0.615
0.0581064 0.353033 0.341604
0.0578012 0.348104 0.333883
0.0598001 0.353628 0.338735
0.388556 0.38938 0.164096
0.632624 0.378561 0.0859998
0.591882 0.299519 0.067216
0.606912 0.344274 0.208911
0.611139 0.397757 0.460288
0.660426 0.445197 0.62121
0.158206 0.565957 0.59852
0.155474 0.5664 0.592523
0.156893 0.574762 0.570077
0.234607 0.61767 0.585031
0.673518 0.654978 0.459693
0.851377 0.691798 0.418631
0.826551 0.566613 0.23386
0.620462 0.395682 0.295125
0.684611 0.483787 0.628626
0.380499 0.758206 0.805432
0.376303 0.760296 0.79884
0.382116 0.761807 0.788922
0.38645 0.770092 0.764599
0.749203 0.81474 0.628168
0.87599 0.856809 0.679118
0.915755 0.853971 0.637736
0.89485 0.784421 0.514427
0.780484 0.560586 0.388785
0.522652 0.817014 0.874174
0.520775 0.819104 0.870451
0.520455 0.822583 0.865339
0.521462 0.834562 0.847044
0.622705 0.870848 0.811414
0.852033 0.89839 0.744701
0.908995 0.917052 0.799161
0.906737 0.918746 0.789136
0.912856 0.892989 0.710918
0.576547 0.84564 0.889967
0.574166 0.843885 0.888136
0.574456 0.845548 0.886091
0.575525 0.8551 0.878965
0.681376 0.881483 0.858656
0.859037 0.901015 0.845182
0.910399 0.923735 0.869963
0.917113 0.925734 0.885359
0.909728 0.920012 0.80528
0.790005 0.890806 0.912337
0.762478 0.88983 0.91017
0.766613 0.890135 0.910521
0.788907 0.891325 0.910155
0.832517 0.899107 0.909453
0.88751 0.91252 0.916548
0.918807 0.930114 0.930083
0.919707 0.935622 0.931533
0.926299 0.935058 0.937392
0.0422675 0.0408637 0.0457771
0.0441749 0.0419471 0.0481727
0.0596323 0.0588998 0.064622
0.300282 0.0636149 0.0525673
0.4215 0.141039 0.0536049
0.546502 0.27248 0.127672
0.603922 0.411429 0.364034
0.620905 0.402182 0.554986
0.68716 0.482521 0.68954
0.0426184 0.0426947 0.0506447
0.0451514 0.0441901 0.0510567
0.0679026 0.0614328 0.0587625
0.30338 0.0636759 0.0520485
0.430549 0.138155 0.0535897
0.551553 0.26273 0.101259
0.5944 0.40322 0.332326
0.618051 0.395438 0.539712
0.670344 0.455741 0.655085
0.0732586 0.105211 0.132174
0.073518 0.0977493 0.115312
0.12491 0.128115 0.133883
0.361746 0.0939956 0.0641337
0.417655 0.122377 0.0523079
0.562387 0.258869 0.0806287
0.587289 0.388739 0.303838
0.617533 0.394461 0.53138
0.674418 0.461967 0.660349
0.0582437 0.354742 0.348089
0.0580453 0.351965 0.3411
0.0575723 0.344457 0.325734
0.385107 0.387121 0.162005
0.629465 0.372747 0.0850996
0.562661 0.279316 0.0653391
0.600977 0.350408 0.229419
0.615595 0.396033 0.497414
0.685756 0.479286 0.673777
0.160433 0.563546 0.604959
0.158572 0.566003 0.598459
0.155962 0.571054 0.577432
0.213031 0.609155 0.581384
0.670924 0.653132 0.458244
0.850675 0.690425 0.422904
0.819181 0.554025 0.212146
0.631281 0.436973 0.354009
0.712825 0.520195 0.68574
0.382879 0.754467 0.809781
0.380163 0.758144 0.805356
0.381582 0.762661 0.796582
0.38854 0.770626 0.773465
0.742443 0.813535 0.637491
0.875929 0.856672 0.678904
0.915068 0.852583 0.636561
0.888365 0.76939 0.512871
0.756298 0.589883 0.661265
0.526253 0.818097 0.876219
0.523491 0.817746 0.874128
0.52282 0.82179 0.86891
0.523415 0.831495 0.851682
0.600732 0.866697 0.810742
0.850355 0.89781 0.74435
0.908995 0.917052 0.799161
0.906462 0.919081 0.787854
0.923445 0.884398 0.679744
0.578637 0.847395 0.891325
0.576822 0.845914 0.890043
0.576898 0.846937 0.88809
0.5794 0.85594 0.882033
0.678477 0.88101 0.862394
0.856779 0.900374 0.846845
0.910826 0.923705 0.871168
0.917098 0.92575 0.885267
0.909712 0.919982 0.805234
0.800259 0.892576 0.913268
0.791882 0.890959 0.912551
0.794476 0.8916 0.912154
0.807004 0.894301 0.910918
0.84036 0.900649 0.913909
0.887968 0.912749 0.918486
0.918456 0.929931 0.930098
0.919661 0.935668 0.931716
0.926299 0.935058 0.937392
0.0441444 0.0446174 0.0552224
0.0496376 0.0484474 0.0607156
0.0646372 0.0626535 0.0770733
0.299443 0.0707866 0.0590066
0.411597 0.149477 0.0677501
0.536675 0.290852 0.173465
0.605081 0.404578 0.395514
0.621927 0.403647 0.562966
0.687694 0.483757 0.692302
0.0481575 0.0464485 0.055848
0.0440833 0.045655 0.0575418
0.0660868 0.0636606 0.0777905
0.306371 0.0670176 0.052491
0.413275 0.143511 0.0562905
0.541695 0.274952 0.13814
0.604257 0.411444 0.366552
0.619242 0.398871 0.548516
0.671061 0.456611 0.658763
0.0778821 0.101183 0.143572
0.0787518 0.101381 0.14345
0.119295 0.138689 0.170962
0.399466 0.112718 0.0710765
0.431144 0.141253 0.0538033
0.554513 0.269032 0.11078
0.600626 0.409308 0.350973
0.622919 0.4056 0.561227
0.70869 0.523125 0.722393
0.0586252 0.358495 0.377188
0.0584878 0.357824 0.361517
0.0579995 0.349859 0.344808
0.379248 0.389731 0.169772
0.612192 0.35491 0.0988479
0.58056 0.276646 0.06598
0.588495 0.364553 0.264652
0.620356 0.398215 0.537636
0.717876 0.531319 0.724422
0.16939 0.557671 0.619394
0.163058 0.559686 0.612222
0.157031 0.56408 0.595758
0.168933 0.585855 0.562264
0.65832 0.643488 0.450446
0.843641 0.679698 0.436591
0.810285 0.541573 0.192584
0.647501 0.466804 0.428901
0.73283 0.552224 0.722805
0.385504 0.749111 0.813993
0.382071 0.751278 0.810529
0.378988 0.758419 0.805463
0.384955 0.767178 0.776883
0.71284 0.811368 0.659998
0.871168 0.854688 0.676402
0.908095 0.85127 0.663859
0.885832 0.763104 0.511528
0.77351 0.621195 0.697276
0.530556 0.819318 0.879698
0.528252 0.818952 0.87747
0.52874 0.8224 0.873884
0.527916 0.830793 0.858595
0.570932 0.862669 0.810742
0.847929 0.897749 0.749111
0.90901 0.917006 0.7991
0.90721 0.91812 0.791241
0.923873 0.880751 0.674052
0.580209 0.848371 0.892653
0.578454 0.846983 0.891737
0.578775 0.848127 0.890074
0.583368 0.856565 0.885512
0.677745 0.880583 0.866896
0.855863 0.899855 0.85069
0.911986 0.924056 0.87451
0.91696 0.925963 0.884627
0.90988 0.920501 0.806409
0.800549 0.892546 0.913756
0.791913 0.890883 0.912947
0.79913 0.892393 0.912856
0.810117 0.895018 0.911803
0.841031 0.900801 0.915007
0.887678 0.912703 0.919036
0.918227 0.929854 0.930648
0.919432 0.935927 0.932509
0.926345 0.935042 0.937423
0.0413672 0.0547494 0.147127
0.0419623 0.0592203 0.176303
0.0471809 0.0877699 0.205631
0.206638 0.105653 0.140749
0.388739 0.157214 0.233631
0.538109 0.318151 0.323095
0.601968 0.380591 0.470039
0.625452 0.402121 0.587335
0.689174 0.488807 0.701106
0.0413367 0.0548257 0.140063
0.0414588 0.0554513 0.155428
0.0436561 0.0844739 0.229572
0.20734 0.105898 0.141299
0.386999 0.154803 0.220462
0.534279 0.330755 0.285527
0.599664 0.382177 0.449363
0.622553 0.401663 0.574243
0.674281 0.461051 0.67097
0.0471199 0.108644 0.262791
0.044831 0.105867 0.274189
0.0525826 0.118181 0.327047
0.251057 0.126802 0.180743
0.393652 0.154482 0.199786
0.531121 0.327337 0.245197
0.600748 0.385595 0.441428
0.625971 0.403342 0.586175
0.713771 0.527214 0.728008
0.0639811 0.336355 0.450355
0.0639506 0.33608 0.450278
0.0649729 0.337423 0.450919
0.348791 0.403723 0.509407
0.58262 0.376837 0.266468
0.565576 0.288029 0.137819
0.606577 0.414374 0.367117
0.631586 0.411032 0.586969
0.764004 0.600519 0.764157
0.203281 0.551019 0.653773
0.201282 0.55108 0.652491
0.197742 0.553491 0.651209
0.179141 0.574731 0.614374
0.640528 0.648478 0.512169
0.817639 0.664454 0.469886
0.756603 0.475532 0.184451
0.647349 0.431662 0.524712
0.767025 0.607843 0.766827
0.409476 0.741939 0.830274
0.402975 0.742672 0.827649
0.397498 0.746548 0.825528
0.388861 0.760555 0.804059
0.597711 0.817548 0.743908
0.857313 0.84802 0.678019
0.894759 0.850309 0.693492
0.872297 0.752499 0.499596
0.781308 0.638041 0.752529
0.542672 0.820035 0.888899
0.540139 0.820157 0.887083
0.540185 0.823789 0.885924
0.54136 0.834089 0.876402
0.564965 0.863981 0.825849
0.845762 0.899855 0.768688
0.909895 0.920027 0.805707
0.909331 0.918822 0.802548
0.923201 0.870329 0.657481
0.583947 0.850523 0.895079
0.582742 0.849546 0.894575
0.583154 0.850919 0.893599
0.589441 0.858671 0.89131
0.679164 0.879911 0.879988
0.853864 0.898329 0.864134
0.914199 0.924956 0.884489
0.91664 0.926268 0.883345
0.910887 0.922118 0.81413
0.801221 0.892515 0.915175
0.792355 0.890669 0.914229
0.799939 0.892302 0.914321
0.81767 0.896651 0.915511
0.843214 0.901381 0.917861
0.886946 0.912627 0.920836
0.91928 0.929885 0.93196
0.921599 0.93579 0.934401
0.926452 0.935027 0.937484
0.0433356 0.0655985 0.348653
0.0447547 0.0705882 0.375036
0.0707408 0.0894331 0.41416
0.226749 0.103273 0.419852
0.415198 0.14789 0.466804
0.550958 0.302663 0.483833
0.610285 0.383062 0.58378
0.633082 0.406119 0.629007
0.701701 0.505302 0.722347
0.0431525 0.063859 0.345739
0.0438697 0.0664683 0.35993
0.0603647 0.083299 0.416724
0.215732 0.103838 0.41973
0.414679 0.147539 0.465904
0.547051 0.298421 0.475303
0.608469 0.38201 0.575525
0.631128 0.403861 0.621439
0.686625 0.480339 0.704723
0.0447852 0.0863203 0.387915
0.0445258 0.0848554 0.394583
0.0470893 0.0712291 0.409354
0.229526 0.104143 0.462501
0.428305 0.158801 0.486824
0.549172 0.301762 0.471794
0.609018 0.383032 0.573877
0.635157 0.40798 0.628809
0.725689 0.546487 0.744808
0.0575723 0.310292 0.60502
0.0573281 0.30515 0.609674
0.0566262 0.290867 0.615122
0.264576 0.318639 0.603754
0.525734 0.275135 0.595499
0.561486 0.318624 0.473762
0.607355 0.384573 0.551339
0.647028 0.421073 0.634592
0.775113 0.616358 0.781567
0.211856 0.550317 0.704585
0.212543 0.550652 0.705669
0.213031 0.550942 0.706752
0.2177 0.555489 0.708125
0.615564 0.645991 0.71577
0.775967 0.678157 0.655543
0.657526 0.471901 0.460151
0.662181 0.446326 0.626566
0.808118 0.67303 0.811536
0.42829 0.735759 0.853773
0.427741 0.736095 0.852628
0.430564 0.739376 0.851789
0.432807 0.750561 0.845838
0.58555 0.815305 0.819394
0.831571 0.848341 0.774929
0.886091 0.85272 0.800046
0.844221 0.704143 0.579568
0.802533 0.662852 0.798642
0.575036 0.82266 0.903197
0.573281 0.822889 0.904326
0.573693 0.82649 0.904814
0.574411 0.835203 0.898009
0.602518 0.869444 0.882155
0.858991 0.900984 0.85153
0.91426 0.926284 0.877119
0.904189 0.924361 0.860258
0.916518 0.85774 0.631113
0.598016 0.852232 0.905562
0.596551 0.851759 0.904082
0.59649 0.853361 0.902678
0.604547 0.861936 0.900832
0.699199 0.883177 0.891371
0.856031 0.901259 0.881865
0.908614 0.928435 0.90956
0.914595 0.923919 0.902464
0.916274 0.926635 0.881849
0.800549 0.892607 0.919997
0.793927 0.891005 0.918349
0.802563 0.893065 0.919463
0.820264 0.897169 0.921996
0.84947 0.903151 0.922866
0.888182 0.913161 0.923629
0.923369 0.930526 0.935958
0.928969 0.934813 0.939239
0.926833 0.934997 0.937758
0.0473487 0.106416 0.487495
0.0563058 0.111925 0.502281
0.118807 0.114076 0.485237
0.307347 0.119768 0.533303
0.422278 0.161822 0.59881
0.567376 0.301381 0.594217
0.621592 0.395743 0.646082
0.640665 0.418616 0.674342
0.684306 0.476005 0.717266
0.046128 0.105028 0.482582
0.047425 0.10692 0.488624
0.0783551 0.10956 0.495796
0.291524 0.120439 0.522545
0.417624 0.158877 0.597513
0.565484 0.297383 0.593164
0.620188 0.39498 0.642741
0.639673 0.416724 0.67303
0.660548 0.446494 0.695293
0.0479896 0.137407 0.51165
0.0477913 0.133989 0.50927
0.0475776 0.123888 0.508919
0.265095 0.131518 0.509224
0.44889 0.17818 0.612146
0.569955 0.306996 0.595987
0.622187 0.396262 0.64712
0.642481 0.420783 0.676081
0.72958 0.545708 0.750957
0.0576638 0.30547 0.658579
0.0571908 0.297093 0.653407
0.0563516 0.282765 0.63949
0.169909 0.235142 0.604425
0.461479 0.196307 0.630488
0.591592 0.352239 0.613855
0.622553 0.396612 0.647745
0.644831 0.423072 0.678233
0.787961 0.635294 0.800793
0.203937 0.550149 0.741238
0.201938 0.549172 0.741543
0.198199 0.547662 0.742855
0.181109 0.53669 0.742336
0.579675 0.612573 0.807782
0.762646 0.613275 0.778546
0.631968 0.407294 0.656153
0.645426 0.4206 0.67776
0.827085 0.70309 0.828412
0.436576 0.725765 0.865751
0.436728 0.725872 0.865827
0.439155 0.727489 0.867155
0.44773 0.734707 0.873365
0.576989 0.79733 0.87866
0.811856 0.83444 0.851804
0.862913 0.84065 0.865538
0.786038 0.647318 0.75964
0.818173 0.69041 0.821668
0.598032 0.819699 0.905257
0.597528 0.819852 0.904891
0.599039 0.822065 0.904967
0.604532 0.83061 0.908049
0.629969 0.860075 0.911254
0.85478 0.898589 0.908995
0.917174 0.921508 0.918959
0.91902 0.919219 0.913558
0.887602 0.870176 0.836744
0.629969 0.850477 0.913634
0.629023 0.85037 0.913405
0.630014 0.852003 0.91339
0.635493 0.85832 0.91426
0.730785 0.884199 0.912093
0.861357 0.906218 0.919493
0.918654 0.929702 0.931533
0.922881 0.9355 0.935164
0.920195 0.934844 0.929442
0.798428 0.896742 0.927596
0.79527 0.895705 0.927123
0.806073 0.897688 0.927352
0.82739 0.899153 0.927153
0.859586 0.905287 0.927382
0.889601 0.919326 0.934691
0.925612 0.933532 0.940764
0.928069 0.939666 0.943633
0.927153 0.941711 0.943008
0.0651713 0.145129 0.543313
0.0804608 0.147265 0.549432
0.125719 0.150027 0.53196
0.297414 0.163043 0.541421
0.470451 0.211398 0.631647
0.560922 0.302724 0.618311
0.625818 0.404196 0.661189
0.636698 0.419516 0.671397
0.646357 0.433768 0.681102
0.0624399 0.146731 0.540932
0.0656138 0.142535 0.540246
0.0954757 0.15198 0.550942
0.275685 0.160281 0.534279
0.466194 0.208301 0.630121
0.559014 0.300511 0.616922
0.625513 0.403784 0.660914
0.63595 0.418448 0.670695
0.644816 0.431495 0.679576
0.0671397 0.183078 0.56759
0.0671702 0.179736 0.566873
0.0673686 0.160266 0.560739
0.230915 0.151675 0.518334
0.466621 0.210193 0.63209
0.569787 0.313573 0.625162
0.626398 0.404974 0.661707
0.638239 0.421759 0.672938
0.672358 0.462226 0.703624
0.0614786 0.315251 0.652796
0.0617533 0.307057 0.646983
0.0649882 0.299992 0.638911
0.0983291 0.239719 0.622919
0.442252 0.207935 0.621363
0.604639 0.35938 0.649836
0.627207 0.406088 0.662425
0.639918 0.424247 0.674632
0.748684 0.578775 0.76704
0.225925 0.557839 0.751446
0.224826 0.556283 0.750683
0.225757 0.55584 0.750149
0.212589 0.54493 0.740368
0.54461 0.596658 0.818814
0.753429 0.589242 0.796399
0.64033 0.424872 0.675059
0.640757 0.425483 0.675456
0.80853 0.671153 0.812406
0.429908 0.699733 0.845762
0.429679 0.69929 0.845487
0.429984 0.699031 0.845304
0.424964 0.695232 0.843442
0.516304 0.762295 0.884016
0.801282 0.819715 0.872267
0.859785 0.826688 0.886061
0.773739 0.614313 0.787823
0.794598 0.649058 0.804959
0.60766 0.815747 0.902754
0.608011 0.815961 0.902617
0.610147 0.817304 0.901823
0.617533 0.823148 0.90219
0.645624 0.842039 0.913817
0.8495 0.892119 0.916732
0.905928 0.924727 0.922972
0.907576 0.91902 0.909331
0.864607 0.836011 0.890501
0.660655 0.854154 0.915099
0.660639 0.854139 0.915145
0.662501 0.85565 0.916213
0.668589 0.859007 0.91902
0.737789 0.884916 0.928725
0.868116 0.91429 0.935012
0.927337 0.931838 0.945312
0.92903 0.935164 0.943771
0.928939 0.935424 0.943114
0.791775 0.894118 0.932769
0.791592 0.894057 0.932723
0.803616 0.89601 0.932769
0.827161 0.899977 0.934035
0.859388 0.912352 0.934401
0.89633 0.923369 0.934905
0.927428 0.931899 0.945449
0.929061 0.935637 0.945068
0.929046 0.93547 0.944625
0.0747692 0.220417 0.60412
0.0743725 0.205783 0.596109
0.0705425 0.183856 0.581537
0.198962 0.148043 0.513008
0.455009 0.20116 0.626902
0.58114 0.329213 0.630274
0.624018 0.40174 0.659556
0.632425 0.41326 0.66717
0.641794 0.427024 0.676509
0.0746166 0.21442 0.600839
0.0745403 0.211887 0.599451
0.0724041 0.188663 0.58555
0.174121 0.15111 0.517296
0.44831 0.197253 0.623148
0.580041 0.326253 0.630442
0.623758 0.401404 0.659327
0.632074 0.412757 0.666819
0.640528 0.425132 0.675227
0.0734569 0.239704 0.611704
0.07364 0.237247 0.610773
0.0735485 0.238132 0.611109
0.0767071 0.164034 0.566583
0.424399 0.188022 0.609857
0.593332 0.345769 0.640284
0.624552 0.402457 0.660014
0.633326 0.414572 0.668055
0.64535 0.432288 0.68011
0.0980697 0.392752 0.665476
0.0981765 0.391119 0.665125
0.107942 0.410056 0.671061
0.103532 0.399161 0.667796
0.494087 0.361166 0.722805
0.59443 0.348562 0.649866
0.626413 0.40502 0.661738
0.634455 0.41622 0.669169
0.670878 0.460594 0.701961
0.258076 0.578271 0.763241
0.25771 0.57792 0.762997
0.262303 0.581125 0.765545
0.252476 0.573938 0.759762
0.50341 0.637324 0.834607
0.769177 0.637171 0.821744
0.697398 0.491432 0.728145
0.635676 0.418021 0.670405
0.763973 0.601785 0.779309
0.443091 0.704021 0.847486
0.442756 0.703822 0.847425
0.442832 0.703883 0.847425
0.437522 0.700771 0.846418
0.506935 0.75436 0.88397
0.794125 0.817578 0.87425
0.862425 0.829297 0.889174
0.800351 0.661128 0.807843
0.741833 0.567285 0.760693
0.585626 0.794644 0.893996
0.585458 0.794537 0.893935
0.588144 0.798138 0.896956
0.596246 0.807767 0.902861
0.618265 0.827329 0.909148
0.831571 0.882902 0.912001
0.903838 0.917754 0.921035
0.907408 0.912993 0.905303
0.858396 0.825315 0.884596
0.661097 0.854536 0.914794
0.661326 0.854719 0.914931
0.663127 0.856092 0.915999
0.668391 0.858717 0.918715
0.730648 0.884169 0.926162
0.863157 0.912917 0.934462
0.924804 0.929946 0.94255
0.928954 0.933974 0.940597
0.928954 0.933928 0.940459
0.774487 0.889982 0.931991
0.775662 0.890227 0.932082
0.789761 0.893584 0.933074
0.817929 0.8981 0.933684
0.852613 0.910826 0.933822
0.891402 0.922545 0.934035
0.927398 0.931914 0.945403
0.929061 0.935592 0.944976
0.929061 0.935546 0.944854
0.0708171 0.309422 0.635065
0.0706951 0.277195 0.624231
0.0724193 0.25182 0.616236
0.0719158 0.187411 0.584497
0.417762 0.194827 0.607843
0.587594 0.337041 0.638804
0.619837 0.396124 0.655879
0.627008 0.405814 0.662242
0.636149 0.418708 0.670878
0.0713207 0.267826 0.621515
0.0713054 0.267964 0.621561
0.0728923 0.246021 0.614069
0.0705425 0.183856 0.581537
0.410315 0.187045 0.602197
0.58526 0.334157 0.63711
0.619394 0.395529 0.655467
0.626703 0.405386 0.661967
0.635569 0.417853 0.670283
0.0748302 0.331518 0.645029
0.0759289 0.336538 0.647227
0.1187 0.436881 0.678553
0.103578 0.399268 0.667826
0.474052 0.359747 0.719646
0.583444 0.339452 0.645975
0.631159 0.41146 0.665965
0.627604 0.406622 0.66276
0.637888 0.421241 0.672572
0.135943 0.468269 0.690547
0.138476 0.472374 0.692302
0.171695 0.514427 0.715587
0.212146 0.544076 0.736828
0.473686 0.580026 0.813626
0.742931 0.57998 0.819776
0.643168 0.429053 0.677867
0.62829 0.407553 0.663386
0.640528 0.425132 0.675227
0.290562 0.600351 0.781384
0.293248 0.602014 0.782773
0.312581 0.615106 0.792554
0.326589 0.625162 0.799466
0.424323 0.697902 0.839796
0.770672 0.75494 0.849729
0.835081 0.73547 0.845365
0.630686 0.410803 0.665507
0.644022 0.430304 0.678752
0.456168 0.71165 0.85005
0.457954 0.712612 0.851331
0.462074 0.714839 0.854276
0.463386 0.715557 0.855222
0.518257 0.761822 0.885878
0.797253 0.838071 0.881041
0.868315 0.861646 0.899062
0.847868 0.781109 0.870405
0.64535 0.432288 0.68011
0.574929 0.787091 0.884932
0.575204 0.78732 0.885039
0.579538 0.790249 0.887449
0.591379 0.801923 0.899886
0.622553 0.829328 0.909499
0.834455 0.884672 0.912703
0.902235 0.918166 0.923323
0.907652 0.916533 0.906752
0.869657 0.854688 0.898833
0.66067 0.854459 0.915511
0.660746 0.854536 0.915587
0.662364 0.855848 0.916564
0.667521 0.858 0.918944
0.731914 0.88423 0.926223
0.857755 0.910628 0.932921
0.921431 0.928481 0.940841
0.928923 0.933577 0.939498
0.928847 0.932433 0.936385
0.767819 0.888487 0.93135
0.769329 0.888792 0.931456
0.784772 0.892226 0.932677
0.816464 0.897597 0.93344
0.85156 0.910246 0.933654
0.890028 0.922194 0.933654
0.927047 0.931579 0.945144
0.929061 0.935561 0.944854
0.929061 0.935531 0.944793
