presets/XH_5219_G.cube
TITLE "Generated by Resolve"
LUT_3D_SIZE 9
0 0.0101472 0.0416724
0 0.0113527 0.0413672
0 0.026978 0.0529641
0.251148 0.0415351 0.0543221
0.4047 0.122332 0.0634623
0.536141 0.256245 0.119463
0.590036 0.407874 0.33666
0.614115 0.402777 0.534051
0.681147 0.483864 0.663584
0 0.0125887 0.0456397
0 0.0145571 0.0440681
0 0.0247044 0.053727
0.23978 0.0399023 0.0537423
0.404105 0.115526 0.062623
0.534997 0.247684 0.10518
0.581109 0.393072 0.311971
0.60943 0.395499 0.507317
0.645212 0.434089 0.601282
0 0.0708934 0.106783
0 0.0675669 0.103044
0.0009308 0.105501 0.127306
0.328695 0.0772717 0.0714275
0.381247 0.0961929 0.0595407
0.542763 0.244892 0.0914626
0.576059 0.377172 0.287739
0.608743 0.395315 0.495949
0.648707 0.439719 0.603098
0 0.358236 0.367849
0 0.353323 0.360815
0 0.359686 0.366415
0.374929 0.39556 0.0624704
0.626612 0.37702 0.109941
0.578347 0.293111 0.090135
0.596841 0.341695 0.21799
0.605615 0.40087 0.451896
0.659159 0.455039 0.610178
0 0.591394 0.628305
0 0.59324 0.625177
0 0.609674 0.61622
0.0168154 0.663951 0.641199
0.693767 0.688396 0.35935
0.885237 0.721752 0.397574
0.841901 0.584558 0.248341
0.613931 0.397299 0.29781
0.68632 0.497215 0.620432
0.316289 0.804303 0.836149
0.302098 0.808469 0.833616
0.301183 0.812467 0.828
0.275639 0.82948 0.817716
0.723476 0.883513 0.513771
0.912551 0.913466 0.585061
0.965316 0.905303 0.562356
0.942946 0.825345 0.459327
0.787686 0.579568 0.397803
0.499626 0.866621 0.898451
0.492607 0.870115 0.897414
0.484901 0.875761 0.896178
0.456046 0.896254 0.891798
0.525154 0.946014 0.881102
0.846937 0.971817 0.648661
0.933577 0.983627 0.724392
0.929091 0.986603 0.707881
0.952865 0.953811 0.614878
0.549615 0.900618 0.919371
0.54699 0.89865 0.917479
0.543816 0.901305 0.917128
0.528237 0.916045 0.918135
0.614572 0.952438 0.912093
0.83772 0.973404 0.820401
0.925139 0.991028 0.828687
0.934752 0.991958 0.851514
0.932799 0.987228 0.731777
0.777951 0.952575 0.941344
0.743603 0.952377 0.941634
0.748592 0.952621 0.941695
0.77438 0.953674 0.940368
0.824018 0.961624 0.940154
0.889677 0.976318 0.933562
0.925994 0.995636 0.931411
0.92314 0.998581 0.9337
0.936065 0.997971 0.938521
0 0.0101625 0.0412909
0 0.0110628 0.0429999
0 0.0290379 0.0589151
0.247562 0.0414435 0.0546731
0.395743 0.1252 0.0635538
0.530816 0.2645 0.140276
0.598383 0.414664 0.360693
0.615961 0.407065 0.542977
0.68893 0.496696 0.678614
0 0.011841 0.0450446
0 0.0132448 0.0455634
0 0.0324254 0.0554971
0.251789 0.0416266 0.0543221
0.404761 0.122362 0.0634775
0.535256 0.25417 0.116579
0.587976 0.405219 0.331044
0.612619 0.399558 0.527871
0.670085 0.467079 0.643503
0 0.0770886 0.12015
0 0.0697032 0.10602
0.000732433 0.103578 0.126467
0.329854 0.075227 0.0680095
0.390784 0.105806 0.0610666
0.546105 0.250233 0.0985275
0.579721 0.389242 0.304356
0.612009 0.398367 0.519814
0.674632 0.473945 0.649042
0 0.359167 0.372442
0 0.356909 0.366995
0 0.350164 0.354314
0.369497 0.393301 0.0601968
0.622492 0.370855 0.109483
0.547295 0.271382 0.0863355
0.591211 0.348165 0.236286
0.61004 0.399512 0.487373
0.687266 0.493004 0.663249
0.000167849 0.586969 0.630747
0 0.591455 0.628244
0 0.602945 0.618647
0.0030518 0.653559 0.636576
0.690806 0.686427 0.357458
0.883604 0.720302 0.403967
0.833692 0.570626 0.228199
0.627832 0.442649 0.353811
0.717449 0.537758 0.678111
0.327337 0.798428 0.836606
0.31574 0.804257 0.836103
0.306081 0.812024 0.833066
0.286793 0.828061 0.823133
0.707301 0.883848 0.533349
0.91252 0.913298 0.584863
0.964584 0.903655 0.561975
0.93286 0.808286 0.470787
0.766217 0.613504 0.660533
0.504448 0.867674 0.900053
0.499916 0.867582 0.898741
0.49131 0.873976 0.897765
0.466331 0.890929 0.892714
0.49778 0.942428 0.880934
0.844083 0.971466 0.648508
0.933577 0.983627 0.724392
0.928481 0.987152 0.705684
0.970443 0.941848 0.588235
0.551583 0.902647 0.921004
0.549752 0.900954 0.919554
0.547066 0.902724 0.918898
0.534813 0.916396 0.920134
0.613306 0.951507 0.914397
0.833524 0.972732 0.826429
0.925872 0.990875 0.830564
0.934707 0.992004 0.851362
0.932799 0.987198 0.731716
0.789807 0.95436 0.942092
0.780285 0.952682 0.941421
0.78265 0.953475 0.941314
0.794949 0.956725 0.941085
0.835081 0.962844 0.943328
0.891066 0.976226 0.936385
0.925551 0.995468 0.931807
0.922972 0.998611 0.934157
0.936065 0.997971 0.938521
0 0.01355 0.0486152
0 0.0173953 0.0531319
0 0.0322881 0.0680705
0.246159 0.0489509 0.0603647
0.386084 0.133776 0.0761578
0.522042 0.283909 0.181521
0.599481 0.407538 0.389899
0.617121 0.408759 0.550713
0.689555 0.498054 0.681346
0 0.0154574 0.0492714
0 0.0145113 0.0505226
0 0.0333867 0.0688029
0.256031 0.0451972 0.0547646
0.387442 0.12755 0.0657816
0.526116 0.267079 0.149523
0.598749 0.414694 0.363012
0.614054 0.403372 0.536538
0.670863 0.468055 0.647074
0 0.0721447 0.126574
0 0.0723735 0.126513
0.00109865 0.113268 0.155871
0.371801 0.0955825 0.076463
0.405554 0.125597 0.0639048
0.538689 0.260914 0.125429
0.594797 0.412131 0.348547
0.61825 0.410864 0.549218
0.713436 0.541253 0.713069
0 0.35845 0.391394
0 0.36051 0.381781
0 0.353246 0.367926
0.355962 0.397757 0.0664836
0.602411 0.351888 0.121736
0.565576 0.269047 0.0872969
0.57937 0.363149 0.267765
0.615152 0.402548 0.526131
0.723308 0.550301 0.715801
0.00535592 0.576532 0.635691
0.000244144 0.580484 0.632883
0 0.589395 0.625681
0 0.626535 0.616602
0.677012 0.675959 0.346685
0.872099 0.708812 0.426505
0.823865 0.556786 0.209873
0.646464 0.475975 0.426215
0.740047 0.57322 0.716228
0.339239 0.790646 0.836225
0.329549 0.794125 0.835477
0.313603 0.804654 0.836439
0.288426 0.822583 0.823636
0.64036 0.887953 0.59501
0.906386 0.911528 0.580514
0.95491 0.902281 0.597604
0.928878 0.80119 0.474662
0.785901 0.648081 0.697459
0.511116 0.868635 0.902571
0.507012 0.868559 0.901137
0.501732 0.873732 0.90071
0.478965 0.888228 0.896071
0.461097 0.939147 0.881498
0.838514 0.972061 0.656229
0.933608 0.983551 0.72433
0.930205 0.985611 0.711543
0.971771 0.93724 0.585199
0.553628 0.90367 0.922225
0.552117 0.902022 0.921035
0.549905 0.903883 0.920623
0.542123 0.91635 0.922225
0.615366 0.950408 0.916991
0.832227 0.97171 0.835554
0.927489 0.991104 0.835538
0.93434 0.992325 0.850294
0.932723 0.987808 0.733166
0.790555 0.954223 0.942351
0.780728 0.952499 0.941619
0.788281 0.954223 0.941833
0.798718 0.957427 0.941756
0.83621 0.962936 0.944167
0.89099 0.976059 0.937423
0.925246 0.995361 0.933211
0.922332 0.998718 0.936095
0.936141 0.997971 0.938537
0 0.0224308 0.122332
0 0.0271458 0.147723
0 0.056672 0.175051
0.104921 0.0820172 0.129076
0.363973 0.142733 0.22269
0.525994 0.313741 0.316777
0.595132 0.382345 0.459831
0.620691 0.407462 0.573999
0.691402 0.503594 0.690105
0 0.0225071 0.116411
0 0.023209 0.129503
0 0.0533455 0.195544
0.10605 0.0822919 0.129625
0.362005 0.140047 0.210956
0.522347 0.326619 0.282872
0.592889 0.383764 0.440085
0.61767 0.40676 0.561395
0.674403 0.47303 0.659083
0 0.0788128 0.226627
0 0.0760204 0.236484
0 0.0895247 0.285023
0.175418 0.106111 0.167971
0.368856 0.139651 0.193088
0.518746 0.322591 0.246815
0.594217 0.387335 0.432746
0.621302 0.408759 0.573007
0.718929 0.54583 0.718898
0 0.321706 0.429343
0 0.321401 0.429191
0 0.322881 0.430045
0.324773 0.402106 0.490806
0.574182 0.376135 0.270146
0.55108 0.281163 0.150607
0.601282 0.417929 0.363775
0.627558 0.417182 0.574411
0.774929 0.626398 0.759686
0.076051 0.563409 0.652216
0.0718242 0.563592 0.651499
0.0632029 0.566705 0.652003
0.00361639 0.599741 0.640635
0.6439 0.684001 0.428489
0.840177 0.692515 0.467811
0.758404 0.485084 0.207584
0.6448 0.438941 0.516732
0.7785 0.634424 0.762844
0.39089 0.778897 0.841337
0.379461 0.780194 0.840436
0.367361 0.785412 0.841337
0.326436 0.807401 0.835767
0.503517 0.885267 0.809049
0.888853 0.905028 0.581582
0.938125 0.901869 0.630274
0.914687 0.789425 0.459815
0.794949 0.667124 0.751568
0.531029 0.867796 0.907805
0.526741 0.868284 0.906889
0.523049 0.873243 0.908064
0.507485 0.888609 0.907561
0.460746 0.939315 0.891951
0.827771 0.975784 0.687602
0.933043 0.987213 0.732418
0.932967 0.985794 0.728374
0.972732 0.92459 0.574884
0.557931 0.905959 0.924529
0.557046 0.904799 0.923796
0.555413 0.906828 0.923934
0.552453 0.917769 0.926329
0.627237 0.947295 0.924468
0.832883 0.967712 0.865202
0.929549 0.991775 0.850721
0.933669 0.992844 0.848157
0.932967 0.989578 0.743969
0.792477 0.953902 0.943145
0.782544 0.951949 0.942275
0.790448 0.953826 0.942611
0.80914 0.95874 0.944274
0.839765 0.963302 0.946136
0.891035 0.97557 0.940703
0.927245 0.995422 0.934783
0.926543 0.998535 0.937591
0.93637 0.997955 0.938552
0 0.0352178 0.301015
0 0.0406958 0.325902
0 0.0617075 0.365698
0.136675 0.0834211 0.381048
0.390967 0.136461 0.437293
0.538354 0.299657 0.466743
0.603937 0.386587 0.568856
0.628748 0.412436 0.614221
0.705303 0.521935 0.711711
0 0.0334173 0.298161
0 0.0362402 0.311543
0 0.0548257 0.367178
0.119112 0.0835126 0.380285
0.390402 0.13608 0.436393
0.534081 0.295033 0.458244
0.602029 0.385412 0.560922
0.626581 0.409842 0.606806
0.688289 0.494453 0.692912
0 0.0570687 0.339162
0 0.0556039 0.345296
0 0.0417639 0.358618
0.141299 0.084947 0.421942
0.404898 0.148226 0.457374
0.536477 0.298543 0.455161
0.602655 0.386496 0.559457
0.630976 0.414466 0.614221
0.732372 0.567086 0.736584
0 0.291569 0.560403
0 0.286244 0.564538
0 0.271336 0.568673
0.199786 0.309865 0.57142
0.51133 0.271855 0.570932
0.550149 0.316472 0.458427
0.601007 0.387839 0.537957
0.643961 0.428901 0.620966
0.78735 0.643961 0.777691
0.108309 0.559289 0.689143
0.109667 0.55964 0.690059
0.110689 0.55993 0.690959
0.117662 0.565179 0.693172
0.626322 0.671901 0.712139
0.791531 0.709255 0.660639
0.657313 0.481941 0.457115
0.661051 0.456352 0.615427
0.824689 0.706127 0.810925
0.428641 0.769314 0.854337
0.427451 0.769787 0.85362
0.429633 0.773678 0.854032
0.424598 0.787594 0.854139
0.528908 0.874464 0.859663
0.839658 0.907912 0.722484
0.922393 0.90309 0.776532
0.864622 0.737652 0.587091
0.818326 0.694865 0.797848
0.57557 0.868742 0.916259
0.573938 0.86891 0.91722
0.572351 0.873335 0.919173
0.562768 0.885451 0.919036
0.547387 0.934524 0.925902
0.837217 0.972778 0.833799
0.929778 0.9935 0.838544
0.913344 0.993439 0.813718
0.96643 0.910185 0.547601
0.581476 0.905882 0.930724
0.579034 0.905562 0.929686
0.576303 0.907988 0.929702
0.575738 0.919814 0.932677
0.657404 0.948974 0.931563
0.840589 0.968078 0.896864
0.908354 0.995666 0.899992
0.92723 0.990005 0.881605
0.932876 0.993454 0.84564
0.795727 0.952972 0.946136
0.787808 0.951415 0.944823
0.797238 0.953643 0.945891
0.816632 0.95819 0.948226
0.849073 0.964645 0.949508
0.893675 0.975692 0.944427
0.934371 0.996017 0.938552
0.941299 0.997818 0.939361
0.937102 0.99794 0.938674
0 0.0789349 0.435416
0 0.0851911 0.450355
0 0.0903029 0.437919
0.258824 0.105089 0.494667
0.399298 0.15256 0.564157
0.555337 0.300069 0.572595
0.616388 0.401205 0.629465
0.637308 0.426535 0.658442
0.685618 0.48983 0.704387
0 0.0774243 0.43064
0 0.079469 0.436545
0 0.0838026 0.445335
0.236286 0.105058 0.48368
0.394415 0.149416 0.562631
0.553201 0.295872 0.571298
0.614878 0.40029 0.626169
0.636179 0.424475 0.657053
0.659495 0.457298 0.680858
0 0.111208 0.460227
0 0.107698 0.457801
0 0.0972915 0.456901
0.197421 0.115221 0.470192
0.427405 0.170199 0.578668
0.558251 0.305974 0.574685
0.617029 0.401785 0.630503
0.639307 0.428946 0.660304
0.73637 0.566445 0.742535
0 0.287083 0.611048
0 0.278279 0.605631
0 0.263142 0.591531
0.0487526 0.218891 0.56173
0.441428 0.18941 0.597757
0.583108 0.35407 0.595087
0.617441 0.402182 0.631144
0.641886 0.431495 0.662577
0.801678 0.664866 0.797604
0.101534 0.557794 0.719203
0.0984665 0.556664 0.719295
0.0927291 0.554864 0.72018
0.0660258 0.542123 0.71754
0.587991 0.636179 0.796689
0.77438 0.64033 0.774212
0.627741 0.413977 0.640162
0.642405 0.428855 0.662074
0.84596 0.739162 0.829633
0.443885 0.757198 0.860075
0.444038 0.757321 0.860166
0.446586 0.759136 0.861616
0.455741 0.767254 0.868437
0.581231 0.839902 0.887877
0.817426 0.886152 0.870283
0.891432 0.88922 0.869261
0.800412 0.677378 0.759091
0.836072 0.725185 0.822034
0.605173 0.864607 0.914809
0.604364 0.864836 0.914641
0.604959 0.867506 0.915511
0.607874 0.877653 0.921187
0.617151 0.914458 0.935958
0.854231 0.95967 0.93579
0.931365 0.986099 0.910658
0.938552 0.982406 0.900008
0.919631 0.924422 0.809979
0.6271 0.901656 0.932631
0.625895 0.901549 0.932479
0.625788 0.903624 0.933196
0.627527 0.911589 0.936568
0.713664 0.944915 0.942138
0.861921 0.968048 0.946914
0.926284 0.99527 0.9346
0.929213 0.998337 0.937758
0.924727 0.99823 0.928725
0.795438 0.957061 0.953124
0.79234 0.955795 0.952499
0.803418 0.958221 0.952926
0.827497 0.959747 0.951949
0.862898 0.966415 0.952712
0.896666 0.981781 0.959335
0.936233 0.997909 0.946242
0.9355 1 0.949065
0.93225 0.999939 0.949279
0 0.120348 0.491997
0 0.1234 0.498924
0.00169375 0.128206 0.484962
0.245853 0.149477 0.50454
0.451438 0.205173 0.599893
0.548898 0.301579 0.595376
0.621408 0.410605 0.644587
0.633448 0.427405 0.655573
0.64416 0.443076 0.66598
0 0.121859 0.489662
0 0.117632 0.488945
0 0.128908 0.501335
0.213962 0.145678 0.496406
0.446891 0.201877 0.598154
0.546838 0.299214 0.593881
0.621073 0.410132 0.644297
0.632624 0.42623 0.654826
0.642451 0.440558 0.664332
0 0.159854 0.517464
0 0.156435 0.516594
0 0.136233 0.50959
0.144305 0.134707 0.478264
0.447395 0.203861 0.600122
0.558587 0.313207 0.602838
0.622049 0.41146 0.645136
0.635157 0.429877 0.657221
0.672633 0.474693 0.690364
0 0.297414 0.606485
0 0.288838 0.600443
0 0.281422 0.592416
0 0.220371 0.575509
0.422354 0.200885 0.589105
0.596796 0.362173 0.630152
0.62295 0.41268 0.64593
0.637018 0.432609 0.659037
0.757885 0.602655 0.76054
0.138705 0.566781 0.729152
0.137011 0.565026 0.728176
0.138582 0.564553 0.727596
0.117037 0.552132 0.717006
0.551324 0.618387 0.805219
0.763531 0.614435 0.789425
0.637476 0.433295 0.659495
0.637949 0.433967 0.659922
0.82504 0.704189 0.811688
0.437736 0.728222 0.837186
0.437552 0.727733 0.836866
0.43801 0.727443 0.836637
0.433097 0.72314 0.834257
0.527199 0.798596 0.882445
0.826093 0.865217 0.879011
0.887251 0.873915 0.893568
0.785733 0.641794 0.783398
0.809354 0.679911 0.802716
0.617212 0.859937 0.910842
0.617456 0.860212 0.910811
0.619058 0.861906 0.910719
0.624613 0.868864 0.912917
0.651743 0.890578 0.927413
0.854093 0.951385 0.940017
0.908232 0.991363 0.930739
0.915511 0.984894 0.900679
0.89276 0.884092 0.898497
0.661494 0.90547 0.933013
0.661509 0.90544 0.933028
0.663233 0.907195 0.93434
0.669749 0.911009 0.937407
0.736553 0.941985 0.951888
0.870954 0.976669 0.961563
0.941192 0.99649 0.952865
0.942214 0.998917 0.948104
0.941543 0.999023 0.946792
0.795285 0.952438 0.955276
0.795071 0.952377 0.95523
0.807401 0.954711 0.955367
0.832639 0.959335 0.956558
0.860502 0.974792 0.960998
0.902403 0.987015 0.957794
0.941314 0.996551 0.953033
0.941894 0.999237 0.950683
0.942 0.99913 0.949813
0 0.199069 0.555032
0 0.183856 0.546548
0 0.160922 0.53109
0.093019 0.129381 0.470909
0.435035 0.194278 0.594354
0.571084 0.3299 0.609079
0.61941 0.407904 0.642832
0.628717 0.420539 0.651041
0.639094 0.43566 0.661067
0 0.192844 0.551553
0 0.190204 0.550088
0 0.166018 0.535348
0.0536049 0.131426 0.473823
0.428016 0.190082 0.590387
0.569787 0.326802 0.609033
0.619135 0.407523 0.642588
0.628321 0.419974 0.65066
0.63769 0.433585 0.659678
0 0.218997 0.563394
0 0.216449 0.562356
0 0.217365 0.562722
0 0.140627 0.516014
0.403021 0.179812 0.576364
0.584451 0.347524 0.619898
0.620005 0.408682 0.64332
0.629709 0.421988 0.651987
0.643046 0.441444 0.664912
0 0.381109 0.625574
0 0.379355 0.625132
0 0.400259 0.6327
0 0.388312 0.628565
0.484565 0.362676 0.69659
0.585946 0.350698 0.62945
0.622065 0.411505 0.645167
0.630961 0.423804 0.653178
0.671016 0.472892 0.688655
0.190982 0.59028 0.743206
0.190372 0.589899 0.742947
0.197986 0.593591 0.745785
0.181704 0.585397 0.739422
0.512154 0.661585 0.821881
0.782742 0.666835 0.817227
0.699947 0.506889 0.716152
0.632319 0.425772 0.654505
0.774945 0.627955 0.774182
0.451987 0.73312 0.839368
0.451637 0.732906 0.839277
0.451728 0.732967 0.839292
0.44625 0.729473 0.837858
0.518791 0.789563 0.880568
0.818692 0.862821 0.880491
0.890105 0.876783 0.896742
0.816007 0.693111 0.806424
0.750179 0.590097 0.753582
0.59791 0.835538 0.897551
0.597726 0.835416 0.897475
0.60032 0.839445 0.900877
0.607782 0.85037 0.908385
0.6262 0.873228 0.919493
0.836698 0.940627 0.933562
0.910216 0.982345 0.928298
0.920592 0.977081 0.892561
0.885756 0.872389 0.892042
0.661494 0.90602 0.932982
0.661707 0.906218 0.933135
0.663447 0.90779 0.934371
0.669459 0.910643 0.937041
0.726467 0.94168 0.950484
0.865064 0.975296 0.961044
0.937972 0.994492 0.950072
0.942977 0.998154 0.941726
0.943008 0.998108 0.941466
0.778225 0.947387 0.953857
0.779461 0.947662 0.953964
0.793713 0.951705 0.955337
0.823163 0.957031 0.955978
0.852674 0.973236 0.960403
0.896345 0.986053 0.958572
0.941299 0.996567 0.952941
0.941909 0.999222 0.950515
0.941939 0.999191 0.950256
0 0.291539 0.589715
0 0.257862 0.577462
0 0.231495 0.568414
0 0.164691 0.534234
0.396689 0.186664 0.574609
0.578195 0.338247 0.617777
0.614801 0.40174 0.638849
0.622721 0.412375 0.645731
0.632837 0.426535 0.655009
0 0.248112 0.57435
0 0.248249 0.574395
0 0.225513 0.566003
0 0.160922 0.53109
0.388602 0.178393 0.568521
0.575662 0.33518 0.615961
0.614313 0.401083 0.638407
0.622385 0.411902 0.645426
0.632197 0.425589 0.654383
0 0.314855 0.600778
0 0.32018 0.60325
0 0.429999 0.64303
0 0.388434 0.628611
0.463981 0.360693 0.692866
0.573983 0.340825 0.624643
0.627298 0.41857 0.649729
0.623377 0.413245 0.646281
0.63476 0.429313 0.65684
0 0.465049 0.658869
0 0.469642 0.661143
0.0507973 0.517266 0.689693
0.116152 0.551293 0.713832
0.478202 0.599008 0.79733
0.752331 0.604578 0.810819
0.64062 0.437888 0.662516
0.62414 0.414282 0.646967
0.63769 0.433585 0.659678
0.244022 0.615503 0.763027
0.24828 0.617395 0.764523
0.278141 0.632288 0.775372
0.29926 0.643732 0.783246
0.430747 0.726238 0.831846
0.791699 0.794156 0.851499
0.856168 0.774487 0.848051
0.62678 0.417838 0.649241
0.641566 0.439277 0.663462
0.465492 0.741726 0.843
0.467445 0.742794 0.844282
0.471931 0.745266 0.847196
0.473381 0.746059 0.848142
0.529839 0.79794 0.883772
0.815305 0.886946 0.892897
0.891814 0.913497 0.911528
0.87219 0.824292 0.875349
0.643046 0.441444 0.664912
0.585901 0.827161 0.888548
0.586175 0.827436 0.888701
0.590784 0.830732 0.891402
0.603418 0.843687 0.904234
0.630243 0.875593 0.920287
0.839017 0.942809 0.934722
0.907897 0.982559 0.934371
0.917922 0.98175 0.895186
0.897642 0.904738 0.908446
0.661524 0.905806 0.93341
0.661601 0.905882 0.933486
0.663111 0.907393 0.93463
0.669154 0.909712 0.936904
0.728008 0.941711 0.950454
0.859022 0.972808 0.959319
0.933501 0.992889 0.950088
0.943252 0.997879 0.939513
0.944015 0.997101 0.933288
0.771206 0.945602 0.953094
0.772808 0.945968 0.953231
0.78883 0.950072 0.954742
0.821714 0.95642 0.955657
0.851759 0.972534 0.960067
0.894667 0.985656 0.958587
0.940856 0.996185 0.952804
0.941939 0.999191 0.950271
0.941955 0.999176 0.950134
