presets/XH_5219_C.cube
TITLE "Generated by Resolve"
LUT_3D_SIZE 5
0 0.00210575 0.00161746
0.0478523 0.014313 0.00137331
0.407675 0.116869 0.00479133
0.618326 0.37554 0.307927
0.726741 0.459648 0.707179
0.0260014 0.0675975 0.0762951
0.0817578 0.0870375 0.0817578
0.377615 0.106233 0.00415045
0.603098 0.35491 0.238468
0.685008 0.408225 0.642191
0.116838 0.610376 0.581369
0.110964 0.603983 0.554757
0.703731 0.708385 0.414694
0.872572 0.585351 0.128908
0.730938 0.477791 0.659068
0.523964 0.865232 0.888106
0.517784 0.870268 0.886091
0.635279 0.922042 0.838911
0.956069 0.972015 0.7888
0.961364 0.944793 0.689952
0.81297 0.946105 0.929244
0.783551 0.945022 0.92491
0.86743 0.948318 0.927733
0.974212 0.983673 0.935088
0.981659 0.987945 0.942275
0 0.00514229 0.019028
0.0418555 0.0233616 0.023682
0.412787 0.133303 0.0170138
0.620859 0.351797 0.386664
0.738842 0.477607 0.72546
0.0318151 0.0679026 0.100633
0.0766308 0.0956436 0.114702
0.408972 0.118715 0.00497444
0.621302 0.374853 0.324987
0.76466 0.528237 0.754635
0.130419 0.60499 0.622675
0.111315 0.603342 0.57615
0.686305 0.693889 0.405585
0.850645 0.555322 0.0976272
0.780926 0.567712 0.75996
0.540352 0.865125 0.898314
0.530907 0.869123 0.892546
0.573663 0.915007 0.840497
0.956069 0.972015 0.788846
0.961273 0.931395 0.650843
0.82707 0.946258 0.931701
0.824781 0.94641 0.930892
0.878538 0.950744 0.92903
0.973541 0.98323 0.935409
0.981643 0.987961 0.94229
0 0.022797 0.367193
0.0409094 0.0570077 0.425132
0.432731 0.117754 0.500694
0.638071 0.356878 0.601068
0.754314 0.509316 0.750439
0 0.0475166 0.405753
0 0.0312657 0.413703
0.449256 0.128542 0.523995
0.636301 0.356008 0.592111
0.783398 0.560449 0.769146
0.185046 0.586877 0.724437
0.180529 0.583749 0.722393
0.666102 0.691402 0.735912
0.683253 0.434562 0.449042
0.863737 0.707958 0.834669
0.60148 0.863813 0.91751
0.599176 0.867292 0.91873
0.618296 0.915709 0.904036
0.958755 0.980087 0.873014
0.952682 0.927565 0.62121
0.828244 0.946395 0.935058
0.830533 0.946517 0.934951
0.889128 0.954421 0.938827
0.973236 0.982086 0.942168
0.981537 0.988067 0.942641
0.0123293 0.0919509 0.51754
0.0754101 0.0981765 0.506371
0.502785 0.201755 0.625025
0.654887 0.376089 0.663584
0.679149 0.40972 0.682689
0.0305486 0.139361 0.5364
0.0140841 0.106447 0.522393
0.497154 0.196353 0.627894
0.655589 0.376928 0.664057
0.704875 0.449226 0.707073
0.217243 0.606104 0.779431
0.211124 0.601007 0.775601
0.567422 0.629908 0.832959
0.671901 0.398871 0.676493
0.863325 0.70692 0.834485
0.65069 0.866178 0.916182
0.653834 0.868482 0.918868
0.694026 0.891707 0.925277
0.967483 0.976974 0.940322
0.922896 0.881544 0.905837
0.825589 0.945617 0.951568
0.838499 0.946731 0.951919
0.904875 0.960632 0.952972
0.980972 0.983413 0.958618
0.991119 0.989044 0.960922
0.0462043 0.269947 0.584436
0.0511482 0.204273 0.538048
0.413962 0.139345 0.611734
0.648417 0.368307 0.659236
0.66688 0.391363 0.67219
0.0420539 0.297948 0.614984
0.0723125 0.436851 0.686976
0.490425 0.330297 0.728756
0.660883 0.383276 0.667613
0.668894 0.394385 0.67393
0.278279 0.64892 0.809583
0.307698 0.669383 0.821576
0.409094 0.741268 0.865309
0.896498 0.775662 0.861158
0.676356 0.405554 0.680308
0.614862 0.841276 0.900114
0.615412 0.841566 0.900084
0.664866 0.876524 0.923445
0.962142 0.968566 0.941329
0.931548 0.897902 0.915663
0.804593 0.942031 0.947555
0.819425 0.945785 0.951431
0.897826 0.958251 0.953338
0.979171 0.9832 0.958038
0.991745 0.98732 0.960616
