presets/XH_5219_G.cube
TITLE "Generated by Resolve"
LUT_3D_SIZE 33
0 0.0101472 0.0416724
0 0.0101472 0.0416724
0 0.0101472 0.0416724
0 0.0101625 0.0417182
0 0.0113527 0.0413672
0 0.0126345 0.0434882
0 0.0153353 0.0479286
0 0.0197757 0.0519722
0 0.026978 0.0529641
0 0.0313268 0.0484169
0.0399176 0.0302434 0.0443885
0.162951 0.035111 0.0491951
0.251148 0.0415351 0.0543221
0.312139 0.0520485 0.0532082
0.355871 0.0707713 0.0556039
0.385534 0.0878614 0.0587472
0.4047 0.122332 0.0634623
0.419089 0.159731 0.0684672
0.456474 0.187304 0.0784314
0.50486 0.219074 0.0879225
0.536141 0.256245 0.119463
0.555505 0.29836 0.17937
0.564721 0.338125 0.23949
0.573266 0.375555 0.286625
0.590036 0.407874 0.33666
0.602182 0.409583 0.39588
0.59971 0.39234 0.449607
0.607858 0.39382 0.498985
0.614115 0.402777 0.534051
0.620462 0.41091 0.56083
0.637613 0.425238 0.592508
0.660731 0.453544 0.625696
0.681147 0.483864 0.663584
0 0.0101472 0.0416724
0 0.0101472 0.0416724
0 0.0101472 0.0416724
0 0.0101625 0.0417182
0 0.0112612 0.0411841
0 0.0125124 0.0432136
0 0.0151064 0.0475624
0 0.019501 0.0518044
0 0.026627 0.0529946
0 0.0312963 0.0485237
0.0399176 0.0302434 0.0443885
0.162951 0.035111 0.0491951
0.251148 0.0415351 0.0543221
0.312139 0.0520485 0.0532082
0.355871 0.0707713 0.0556039
0.385534 0.0878614 0.0587472
0.4047 0.122332 0.0634623
0.418799 0.159487 0.0684215
0.455161 0.186435 0.0780499
0.50248 0.217319 0.0872969
0.535058 0.253513 0.115572
0.554314 0.295201 0.17438
0.564233 0.333944 0.233738
0.572625 0.371725 0.281956
0.586755 0.403143 0.327886
0.604379 0.41648 0.385351
0.5991 0.393561 0.438697
0.605966 0.392767 0.487282
0.612024 0.398245 0.525414
0.61828 0.410605 0.550317
0.623499 0.411658 0.573632
0.647517 0.436469 0.604547
0.66511 0.459709 0.633967
0 0.0101472 0.0416724
0 0.0101472 0.0416724
0 0.0101472 0.0416724
0 0.0101472 0.0417029
0 0.0110323 0.0410315
0 0.0119478 0.0420539
0 0.0138399 0.0453193
0 0.0179141 0.050782
0 0.0242771 0.0533303
0 0.0309148 0.049897
0.0225376 0.0301671 0.0442817
0.146502 0.0336919 0.0481117
0.244724 0.0407111 0.0543221
0.309102 0.0512551 0.0534371
0.354726 0.0702678 0.0554971
0.384451 0.086656 0.0585794
0.404379 0.119524 0.0631113
0.416831 0.157794 0.0681468
0.452628 0.184955 0.0776226
0.499672 0.215061 0.086244
0.534066 0.250828 0.111742
0.553216 0.292515 0.170321
0.563775 0.330312 0.228779
0.572061 0.368719 0.278294
0.584772 0.39968 0.322469
0.605844 0.421057 0.378485
0.598688 0.394369 0.43154
0.604593 0.392798 0.478752
0.610788 0.396765 0.51725
0.616464 0.407584 0.543069
0.62153 0.411215 0.565286
0.636728 0.424491 0.591134
0.654353 0.445106 0.614023
0 0.0102083 0.0419013
0 0.0102083 0.0418708
0 0.0102235 0.0418097
0 0.0102388 0.0418097
0 0.0111086 0.0414435
0 0.0117952 0.0415045
0 0.0130922 0.0433509
0 0.0168002 0.0493629
0 0.0222324 0.0533455
0 0.0303349 0.0511482
0.0153658 0.0304417 0.0450141
0.128389 0.0322881 0.0468757
0.238849 0.0403601 0.0541085
0.303517 0.049897 0.0538033
0.351156 0.0686809 0.0551919
0.382422 0.0845197 0.0582589
0.40354 0.116167 0.0626688
0.41529 0.156237 0.0679026
0.450019 0.183307 0.0770428
0.496803 0.213245 0.0855879
0.532921 0.248188 0.108461
0.552056 0.289509 0.165835
0.563333 0.326696 0.223835
0.571572 0.365728 0.274632
0.582528 0.395804 0.316518
0.603555 0.41944 0.371435
0.59823 0.395163 0.423972
0.60296 0.392569 0.469673
0.609491 0.395468 0.509026
0.614679 0.403952 0.536202
0.619883 0.411002 0.557504
0.625422 0.413306 0.576928
0.644709 0.433265 0.601053
0 0.0125887 0.0456397
0 0.0124819 0.0454566
0 0.0124666 0.0447395
0 0.0133059 0.0439918
0 0.0145571 0.0440681
0 0.0161593 0.0460212
0 0.0187228 0.0489357
0 0.0215305 0.0533608
0 0.0247044 0.053727
0 0.03299 0.0511025
0.0164492 0.0314031 0.0448005
0.117876 0.0311742 0.0457008
0.23978 0.0399023 0.0537423
0.307149 0.0509194 0.0532692
0.353246 0.0693828 0.0553597
0.382742 0.0834516 0.0581369
0.404105 0.115526 0.062623
0.41651 0.156329 0.0679637
0.450523 0.183215 0.0760204
0.49659 0.213626 0.0842603
0.534997 0.247684 0.10518
0.553002 0.287999 0.162142
0.564889 0.325887 0.220676
0.571466 0.363134 0.271351
0.581109 0.393072 0.311971
0.602075 0.418326 0.367102
0.598245 0.395834 0.420752
0.602701 0.392752 0.467369
0.60943 0.395499 0.507317
0.614603 0.403616 0.53521
0.619867 0.411215 0.55668
0.626047 0.414099 0.57731
0.645212 0.434089 0.601282
0 0.0190127 0.0523232
0 0.0189059 0.0521706
0 0.0180056 0.0508888
0 0.0186007 0.0501106
0 0.0210422 0.0521248
0 0.0240024 0.0550851
0 0.0283055 0.06009
0 0.0309606 0.0635691
0 0.0297856 0.0592355
0 0.0355688 0.0522621
0.0238651 0.033051 0.045182
0.139116 0.0334325 0.0473182
0.226795 0.0372473 0.0516823
0.300206 0.0493629 0.0529793
0.351873 0.0682689 0.0551919
0.384756 0.0846418 0.0583505
0.403891 0.113649 0.0624247
0.417731 0.156298 0.0679942
0.451225 0.183124 0.074815
0.496422 0.214008 0.082826
0.536553 0.247303 0.102937
0.554101 0.286519 0.158282
0.566567 0.325216 0.217395
0.57145 0.360586 0.268086
0.579736 0.390356 0.307378
0.600641 0.417227 0.362997
0.598611 0.397131 0.417685
0.602472 0.393057 0.464897
0.609293 0.395422 0.505394
0.61445 0.403174 0.534127
0.619776 0.411353 0.555673
0.626627 0.414893 0.577462
0.645792 0.435019 0.601572
0 0.0305333 0.0638743
0 0.0302434 0.0636149
0 0.0288548 0.0624704
0 0.0283818 0.062089
0 0.0316625 0.0655375
0 0.0365606 0.0694133
0 0.0423896 0.0744793
0 0.0466011 0.0789349
0 0.0476387 0.0725872
0 0.0506294 0.0644083
0.0392309 0.0433204 0.0505226
0.143252 0.0346532 0.0465095
0.242527 0.0415045 0.0519875
0.30016 0.048249 0.0521553
0.341009 0.0620584 0.0540169
0.383246 0.0829023 0.0580453
0.405203 0.117052 0.0628672
0.419516 0.156207 0.0680552
0.451804 0.182666 0.0731365
0.49633 0.214527 0.0809491
0.538445 0.246754 0.100145
0.555428 0.284672 0.153399
0.568673 0.324346 0.213214
0.571832 0.357778 0.264073
0.578271 0.387366 0.30222
0.598627 0.415656 0.357092
0.600107 0.400961 0.412879
0.602045 0.393332 0.461234
0.609186 0.395438 0.50312
0.614343 0.402731 0.532891
0.619745 0.411582 0.554665
0.627344 0.415946 0.577417
0.646494 0.436179 0.601938
0 0.0430762 0.0780499
0 0.0429236 0.0779278
0 0.0420081 0.0772412
0 0.0410163 0.0765087
0 0.044358 0.0811322
0 0.0508583 0.0862135
0 0.0595712 0.0922713
0 0.0670787 0.0985122
0 0.075349 0.101183
0.0323796 0.0733043 0.0757763
0.117678 0.0650645 0.0595254
0.199832 0.0589456 0.0519722
0.263081 0.0556191 0.0518807
0.310628 0.0525826 0.0523384
0.345388 0.0615244 0.0540932
0.368643 0.0712749 0.0561837
0.399283 0.104494 0.0612192
0.420874 0.157961 0.0683299
0.449241 0.182071 0.0731365
0.495262 0.215457 0.0792096
0.5411 0.245747 0.0958877
0.558648 0.283787 0.146777
0.571923 0.323293 0.207355
0.573159 0.354604 0.258701
0.576638 0.383368 0.295445
0.596094 0.413733 0.349294
0.60209 0.406104 0.406287
0.601511 0.393774 0.456306
0.609049 0.395438 0.500511
0.61413 0.40206 0.531151
0.619638 0.411902 0.553033
0.628611 0.417624 0.577783
0.647334 0.437552 0.60235
0 0.0708934 0.106783
0 0.0705119 0.106279
0 0.0679637 0.103655
0 0.0655833 0.101549
0 0.0675669 0.103044
0 0.073167 0.107576
0 0.0849775 0.11574
0 0.0967269 0.124498
0.0009308 0.105501 0.127306
0.0574502 0.110872 0.111025
0.220249 0.0966964 0.077821
0.293019 0.080827 0.0722972
0.328695 0.0772717 0.0714275
0.353826 0.0767987 0.0645609
0.36321 0.074342 0.0564279
0.371145 0.0719158 0.05626
0.381247 0.0961929 0.0595407
0.39707 0.140063 0.0653086
0.451164 0.185641 0.0739452
0.491814 0.216556 0.0783551
0.542763 0.244892 0.0914626
0.563088 0.28249 0.137484
0.575418 0.321035 0.198581
0.575326 0.35024 0.251087
0.576059 0.377172 0.287739
0.592905 0.411322 0.339223
0.604852 0.413123 0.397482
0.601602 0.395117 0.450187
0.608743 0.395315 0.495949
0.61384 0.401114 0.528664
0.619593 0.41239 0.55111
0.63006 0.419806 0.578164
0.648707 0.439719 0.603098
0 0.118273 0.159075
0 0.117845 0.158572
0 0.113375 0.153094
0 0.109422 0.147829
0 0.110369 0.147448
0 0.113634 0.147677
0 0.123415 0.156466
0 0.140383 0.169055
0.000457771 0.151797 0.172671
0.0589609 0.155734 0.150103
0.214847 0.150729 0.117144
0.351003 0.134417 0.0965438
0.393454 0.116808 0.0901808
0.407523 0.117418 0.0750744
0.41471 0.113619 0.0665446
0.411276 0.110658 0.0624247
0.396017 0.111025 0.0619211
0.371695 0.131258 0.0632792
0.402457 0.162112 0.0683299
0.484337 0.216464 0.0775616
0.546181 0.246952 0.0902419
0.569024 0.280568 0.125032
0.578698 0.317067 0.186191
0.5794 0.345205 0.240848
0.575631 0.368841 0.277226
0.588586 0.403983 0.32639
0.608347 0.421973 0.386481
0.601694 0.396994 0.441184
0.608087 0.395789 0.489189
0.613565 0.400275 0.52546
0.619333 0.411963 0.548714
0.631754 0.422583 0.578378
0.650477 0.442542 0.604013
0 0.183642 0.22707
0 0.183642 0.22707
0 0.17911 0.22118
0 0.173739 0.21445
0 0.173999 0.213489
0 0.173342 0.210864
0 0.180133 0.214435
0 0.193652 0.228168
0 0.210819 0.238636
0.0103304 0.221927 0.218662
0.17232 0.224826 0.112657
0.33341 0.21471 0.121782
0.421073 0.195224 0.114855
0.455375 0.188617 0.104082
0.467842 0.18674 0.0930953
0.471687 0.184878 0.082475
0.465187 0.178561 0.0733043
0.432593 0.16849 0.0700236
0.387869 0.158419 0.0685283
0.421118 0.186816 0.0722362
0.523384 0.237675 0.0824292
0.575982 0.282856 0.11873
0.587121 0.314397 0.170336
0.588449 0.34081 0.226581
0.577173 0.359518 0.263676
0.583368 0.393912 0.309606
0.606516 0.423255 0.371954
0.601953 0.399451 0.430426
0.607141 0.396704 0.479866
0.61323 0.400183 0.519326
0.618997 0.410773 0.545296
0.633661 0.425971 0.578119
0.652689 0.44596 0.605386
0 0.265934 0.296513
0 0.265934 0.296513
0 0.262119 0.292836
0 0.25771 0.288487
0 0.256443 0.286213
0 0.256138 0.285008
0 0.249241 0.280354
0 0.261067 0.289433
0 0.282841 0.312963
0 0.300282 0.310369
0.0654612 0.30724 0.241459
0.277424 0.309911 0.0806287
0.41181 0.298894 0.0978714
0.49839 0.275273 0.126757
0.533913 0.263264 0.124849
0.547921 0.261112 0.109483
0.556893 0.266865 0.0987869
0.556298 0.264683 0.0892805
0.52755 0.249653 0.0831159
0.46186 0.216052 0.0766461
0.450996 0.2112 0.0755932
0.558663 0.254994 0.0865339
0.597345 0.314839 0.157671
0.595209 0.334081 0.205097
0.583719 0.350134 0.245533
0.580194 0.379446 0.289235
0.599298 0.41799 0.350134
0.605081 0.408209 0.414664
0.605951 0.397925 0.467964
0.612833 0.400137 0.511101
0.618402 0.408988 0.540475
0.636133 0.430533 0.577905
0.655451 0.449897 0.607584
0 0.358236 0.367849
0 0.358236 0.367849
0 0.356451 0.365866
0 0.353979 0.362936
0 0.353323 0.360815
0 0.353597 0.360143
0 0.351736 0.357305
0 0.345861 0.347555
0 0.359686 0.366415
0 0.394034 0.396201
0 0.397314 0.364874
0.155367 0.398276 0.222248
0.374929 0.39556 0.0624704
0.487434 0.385275 0.10779
0.559106 0.386389 0.144503
0.604181 0.381476 0.134997
0.626612 0.37702 0.109941
0.641321 0.372885 0.100099
0.642405 0.36318 0.100557
0.631479 0.336629 0.097261
0.578347 0.293111 0.090135
0.501808 0.239353 0.0808881
0.573373 0.266743 0.087602
0.606744 0.329335 0.175906
0.596841 0.341695 0.21799
0.582483 0.362264 0.264683
0.589181 0.402045 0.31986
0.613306 0.427924 0.390173
0.605615 0.40087 0.451896
0.61239 0.400183 0.500755
0.620249 0.410346 0.537285
0.638498 0.435523 0.577005
0.659159 0.455039 0.610178
0 0.435966 0.432914
0 0.435966 0.432914
0 0.434806 0.431525
0 0.432944 0.429129
0 0.432105 0.427527
0 0.431083 0.426032
0 0.431388 0.425757
0 0.427359 0.420951
0 0.431708 0.42063
0 0.450172 0.439704
0 0.479393 0.469093
0.0333257 0.484291 0.403601
0.296941 0.473823 0.187091
0.473198 0.464973 0.134661
0.561456 0.467781 0.18645
0.620386 0.474647 0.226123
0.684611 0.477607 0.183825
0.723735 0.473472 0.141451
0.735836 0.462409 0.128634
0.737987 0.453162 0.123613
0.724819 0.427848 0.114885
0.686122 0.376043 0.103975
0.55697 0.272374 0.0868696
0.587045 0.28336 0.0899062
0.611261 0.333623 0.177249
0.598993 0.348852 0.229511
0.584009 0.376196 0.283818
0.603433 0.422843 0.35407
0.60647 0.406699 0.42797
0.611032 0.402029 0.483955
0.62562 0.416678 0.537209
0.640955 0.441505 0.575799
0.66389 0.461402 0.612634
0 0.496651 0.492409
0 0.496651 0.492409
0 0.49659 0.49163
0 0.496529 0.489815
0 0.496956 0.489265
0 0.496773 0.488426
0 0.496895 0.487846
0 0.499367 0.490166
0 0.502159 0.492424
0 0.502953 0.490654
0 0.526741 0.512993
0 0.558633 0.535378
0.165042 0.553246 0.414801
0.409125 0.545586 0.222431
0.556085 0.54313 0.215839
0.626657 0.548821 0.270375
0.688823 0.554864 0.296208
0.76405 0.560464 0.237125
0.804318 0.563073 0.1991
0.811154 0.553109 0.200397
0.807431 0.53994 0.190219
0.792615 0.510689 0.161654
0.756573 0.460197 0.133425
0.638498 0.332891 0.0970779
0.590188 0.288777 0.0900893
0.618952 0.335241 0.168338
0.601785 0.355093 0.23859
0.588525 0.392065 0.302495
0.616861 0.433921 0.386069
0.615625 0.412924 0.468376
0.634195 0.426108 0.534051
0.64741 0.449805 0.576577
0.670024 0.470008 0.615991
0 0.54464 0.561227
0 0.54464 0.561227
0 0.544701 0.559396
0 0.544869 0.556329
0 0.546044 0.554131
0 0.548852 0.553979
0 0.552117 0.553994
0 0.55613 0.555474
0 0.55787 0.555505
0 0.55906 0.552254
0 0.570169 0.560418
0 0.594446 0.58146
0.0280766 0.626734 0.583703
0.327459 0.622354 0.371389
0.491188 0.623056 0.286564
0.624842 0.618631 0.295109
0.6981 0.616999 0.342947
0.76083 0.626154 0.343908
0.830976 0.634653 0.3028
0.855711 0.641535 0.298253
0.862654 0.636957 0.294789
0.85481 0.61146 0.277623
0.835569 0.573785 0.232563
0.801495 0.525017 0.177722
0.720043 0.415579 0.116213
0.603494 0.305699 0.0925917
0.622919 0.327489 0.146944
0.612741 0.374624 0.260594
0.610117 0.426871 0.343816
0.631388 0.44155 0.445945
0.645274 0.43827 0.523445
0.6589 0.461631 0.577356
0.676921 0.482307 0.618814
0 0.591394 0.628305
0 0.591394 0.628305
0 0.591745 0.627161
0 0.592111 0.625849
0 0.59324 0.625177
0 0.594339 0.624186
0 0.597375 0.621515
0 0.602716 0.617624
0 0.609674 0.61622
0 0.614328 0.613519
0 0.617761 0.612268
0 0.631525 0.621622
0.0168154 0.663951 0.641199
0.276051 0.681636 0.576013
0.463478 0.685161 0.374121
0.562387 0.697719 0.345861
0.693767 0.688396 0.35935
0.76701 0.682033 0.383612
0.83003 0.695018 0.368795
0.870863 0.7131 0.377249
0.885237 0.721752 0.397574
0.89134 0.715709 0.400671
0.889738 0.689738 0.363149
0.861357 0.642451 0.299992
0.841901 0.584558 0.248341
0.783322 0.49398 0.151003
0.676326 0.361028 0.101991
0.638575 0.328054 0.118746
0.613931 0.397299 0.29781
0.64239 0.475776 0.398093
0.657526 0.462623 0.501595
0.67306 0.478187 0.572351
0.68632 0.497215 0.620432
0.0714122 0.641749 0.685588
0.0708171 0.641764 0.685496
0.0662547 0.641901 0.684688
0.0627146 0.64213 0.684092
0.0598306 0.643503 0.684123
0.0569619 0.644923 0.684123
0.0534524 0.646571 0.683925
0.0481117 0.648966 0.68278
0.0353552 0.65449 0.67982
0.0220645 0.661509 0.678172
0.0129549 0.671244 0.672007
0.00975052 0.671031 0.664591
0.0708934 0.701869 0.674128
0.249973 0.72755 0.677241
0.452964 0.745602 0.485679
0.5608 0.750317 0.411429
0.643183 0.766705 0.382071
0.780667 0.75111 0.411399
0.849729 0.748272 0.394202
0.890806 0.761273 0.382071
0.90428 0.777493 0.444114
0.906233 0.785946 0.470466
0.902312 0.771756 0.459388
0.898665 0.746365 0.428458
0.892714 0.716686 0.39527
0.875944 0.660868 0.322866
0.832868 0.569375 0.226505
0.735637 0.433631 0.124132
0.703838 0.395193 0.113512
0.647425 0.438239 0.338415
0.683665 0.523384 0.456291
0.684367 0.501595 0.552041
0.699992 0.516487 0.618479
0.148287 0.704829 0.743267
0.147036 0.704707 0.74255
0.144564 0.704555 0.741115
0.142596 0.704433 0.73991
0.140749 0.705364 0.7393
0.139223 0.706294 0.73875
0.137224 0.707485 0.738155
0.135012 0.708721 0.737484
0.131518 0.71104 0.7364
0.126406 0.71574 0.736828
0.117235 0.722805 0.73637
0.103349 0.732143 0.729168
0.132677 0.743755 0.721004
0.256275 0.769284 0.724697
0.426856 0.794095 0.659586
0.584161 0.80235 0.453681
0.653773 0.816312 0.416999
0.773495 0.815045 0.400015
0.850202 0.813703 0.45626
0.910094 0.813123 0.413123
0.932296 0.820127 0.439811
0.929137 0.834546 0.491081
0.933944 0.834653 0.505714
0.933715 0.817578 0.483452
0.925185 0.797726 0.471641
0.907149 0.770825 0.445716
0.895979 0.730602 0.407355
0.865141 0.647349 0.306065
0.787396 0.500038 0.154894
0.783398 0.494087 0.151034
0.697948 0.484184 0.367254
0.717479 0.570123 0.503441
0.715999 0.543725 0.599603
0.22269 0.760327 0.791074
0.22005 0.760357 0.790066
0.21709 0.760555 0.789334
0.215122 0.760632 0.789105
0.214466 0.761791 0.789593
0.213489 0.762905 0.789929
0.212299 0.764858 0.790478
0.209522 0.767926 0.79089
0.205585 0.771603 0.790387
0.201709 0.773983 0.788373
0.198901 0.777173 0.787167
0.187854 0.783902 0.785275
0.184771 0.788205 0.769329
0.260746 0.811368 0.768017
0.403571 0.83267 0.776074
0.567254 0.852857 0.568597
0.68426 0.857801 0.450843
0.748028 0.868223 0.405585
0.849592 0.866148 0.442298
0.894148 0.867964 0.517082
0.930694 0.867094 0.519753
0.953063 0.874723 0.515312
0.952377 0.880262 0.551034
0.954665 0.873549 0.534905
0.958679 0.854002 0.487968
0.952163 0.836835 0.463523
0.936797 0.815854 0.4645
0.912749 0.784695 0.45536
0.89395 0.722499 0.400351
0.829282 0.564157 0.219409
0.826368 0.560128 0.21413
0.739315 0.521401 0.365026
0.727337 0.563165 0.576379
0.316289 0.804303 0.836149
0.311864 0.805264 0.835386
0.30811 0.805997 0.834669
0.304311 0.806851 0.83389
0.302098 0.808469 0.833616
0.301778 0.80943 0.833143
0.302174 0.810285 0.832273
0.302281 0.811154 0.830579
0.301183 0.812467 0.828
0.295842 0.815625 0.826535
0.292561 0.821393 0.827893
0.288502 0.824948 0.825391
0.275639 0.82948 0.817716
0.27689 0.8421 0.804913
0.389807 0.867842 0.815045
0.529458 0.883497 0.774105
0.723476 0.883513 0.513771
0.760235 0.900099 0.436545
0.837659 0.901122 0.460578
0.882246 0.912337 0.5243
0.912551 0.913466 0.585061
0.942107 0.915663 0.606256
0.947814 0.920592 0.601953
0.956664 0.915892 0.601892
0.965316 0.905303 0.562356
0.96582 0.88275 0.527031
0.962737 0.868498 0.501091
0.958221 0.850431 0.47248
0.942946 0.825345 0.459327
0.908721 0.774945 0.448234
0.856672 0.629221 0.289693
0.856474 0.625132 0.288228
0.787686 0.579568 0.397803
0.396857 0.836408 0.8654
0.394476 0.836805 0.864866
0.392279 0.837171 0.864317
0.390326 0.837461 0.863813
0.389013 0.838209 0.863523
0.388083 0.838941 0.86331
0.386969 0.839796 0.862913
0.386084 0.841215 0.862501
0.384054 0.843717 0.861646
0.380163 0.847807 0.859892
0.375341 0.849165 0.854643
0.367117 0.852827 0.849515
0.3552 0.860609 0.845594
0.327169 0.871244 0.836591
0.35903 0.890562 0.834821
0.505638 0.909224 0.849515
0.671641 0.914488 0.641611
0.767559 0.924712 0.501579
0.827039 0.929458 0.497551
0.852125 0.94139 0.543816
0.899794 0.946151 0.606989
0.922667 0.948714 0.642374
0.935729 0.951949 0.648386
0.936934 0.956085 0.642588
0.940703 0.952804 0.633646
0.945113 0.942489 0.605844
0.972198 0.920165 0.568689
0.96553 0.899809 0.522484
0.962585 0.88423 0.49366
0.959167 0.856046 0.482216
0.937682 0.817456 0.46363
0.891325 0.70901 0.388434
0.890547 0.702129 0.37969
0.453971 0.855543 0.884886
0.45124 0.85658 0.884627
0.448676 0.857359 0.884153
0.445975 0.858259 0.88365
0.444419 0.859251 0.883406
0.442893 0.860273 0.883177
0.441199 0.861463 0.882826
0.438987 0.862806 0.882216
0.435645 0.864897 0.881392
0.430716 0.868116 0.880308
0.423209 0.872755 0.878233
0.41117 0.880064 0.876036
0.400885 0.888273 0.874113
0.385443 0.890806 0.863951
0.373266 0.898375 0.855573
0.471611 0.929808 0.866835
0.623026 0.935271 0.771069
0.769528 0.936278 0.573693
0.820218 0.947127 0.543694
0.836942 0.959548 0.576608
0.876173 0.967498 0.621271
0.900999 0.974014 0.661143
0.926055 0.973587 0.68658
0.940398 0.973388 0.690608
0.942016 0.970794 0.689143
0.944778 0.963882 0.682658
0.943847 0.962356 0.661189
0.947906 0.957305 0.617777
0.97084 0.940475 0.586679
0.966735 0.914855 0.551263
0.963394 0.89131 0.494423
0.95761 0.849546 0.470985
0.904128 0.761517 0.439521
0.483589 0.86215 0.893446
0.48159 0.86334 0.893248
0.479698 0.864454 0.89305
0.477668 0.865675 0.892821
0.476341 0.866896 0.89276
0.475273 0.867903 0.892699
0.473716 0.869215 0.892561
0.471885 0.870832 0.892302
0.469398 0.873045 0.891859
0.465888 0.875807 0.891035
0.460792 0.879667 0.889754
0.451774 0.886427 0.888304
0.434134 0.89633 0.887007
0.417075 0.904753 0.880507
0.396963 0.907408 0.871015
0.435813 0.930602 0.874464
0.578317 0.943221 0.853361
0.752483 0.940734 0.627558
0.80209 0.952865 0.580209
0.826947 0.964782 0.600076
0.861952 0.970916 0.636744
0.882979 0.977935 0.665736
0.909316 0.98706 0.700221
0.931975 0.982925 0.714214
0.933257 0.982635 0.719738
0.933257 0.982483 0.718654
0.93196 0.983383 0.710277
0.93492 0.980209 0.695842
0.943496 0.972824 0.670619
0.941527 0.970245 0.639521
0.957321 0.95137 0.609384
0.970947 0.919585 0.565789
0.961898 0.880552 0.489128
0.499626 0.866621 0.898451
0.497856 0.86743 0.898177
0.495964 0.868208 0.897871
0.494133 0.869062 0.897581
0.492607 0.870115 0.897414
0.49102 0.871077 0.897169
0.489479 0.872297 0.896956
0.487282 0.873945 0.896605
0.484901 0.875761 0.896178
0.481819 0.877958 0.895476
0.477256 0.881498 0.894453
0.469474 0.886687 0.892821
0.456046 0.896254 0.891798
0.435691 0.905516 0.888106
0.412894 0.913817 0.879133
0.413016 0.922454 0.876524
0.525154 0.946014 0.881102
0.670695 0.953124 0.732494
0.794354 0.951019 0.61706
0.812757 0.964843 0.617609
0.846937 0.971817 0.648661
0.867735 0.980041 0.669551
0.895003 0.986389 0.696101
0.918303 0.984558 0.714534
0.933577 0.983627 0.724392
0.932937 0.986389 0.729931
0.932937 0.986114 0.729137
0.933135 0.984237 0.72459
0.929091 0.986603 0.707881
0.939239 0.976837 0.690547
0.941329 0.975433 0.681376
0.943389 0.972274 0.658152
0.952865 0.953811 0.614878
0.509438 0.876829 0.905089
0.508431 0.877363 0.904753
0.507424 0.877913 0.904402
0.506386 0.878416 0.90399
0.505653 0.879362 0.903868
0.50486 0.88014 0.9037
0.503777 0.881254 0.903532
0.502251 0.88278 0.90338
0.499641 0.884428 0.903105
0.496269 0.886168 0.902449
0.491936 0.888136 0.901198
0.485725 0.890349 0.898573
0.474769 0.896895 0.896559
0.458915 0.906691 0.895079
0.4365 0.914931 0.887541
0.435859 0.927871 0.885298
0.483467 0.943908 0.887648
0.623011 0.9514 0.838468
0.775265 0.954559 0.656123
0.809339 0.962692 0.64773
0.8318 0.975692 0.664576
0.862425 0.980194 0.68864
0.892439 0.986252 0.70132
0.90631 0.990082 0.715724
0.933257 0.98613 0.730312
0.932631 0.989212 0.73666
0.932921 0.989563 0.743328
0.932723 0.989548 0.74049
0.932754 0.987549 0.73254
0.931548 0.984421 0.715846
0.932555 0.983169 0.697841
0.937285 0.978607 0.693782
0.940215 0.97615 0.686427
0.525658 0.881849 0.910201
0.524147 0.882643 0.910201
0.522454 0.883421 0.91017
0.520897 0.884291 0.910185
0.520104 0.8851 0.910277
0.51931 0.885954 0.910231
0.518059 0.887053 0.91014
0.51635 0.888502 0.910048
0.513619 0.890623 0.909895
0.509911 0.893538 0.909651
0.505226 0.897246 0.909483
0.499382 0.900771 0.90837
0.490333 0.903441 0.904463
0.477516 0.908125 0.899947
0.463416 0.919799 0.898207
0.459907 0.933303 0.893751
0.511849 0.947753 0.896376
0.606714 0.949722 0.88719
0.704616 0.96527 0.766476
0.815991 0.959335 0.698283
0.831052 0.973831 0.704051
0.850599 0.984802 0.720882
0.8934 0.985458 0.719219
0.905699 0.988998 0.724544
0.921386 0.98761 0.735927
0.933654 0.988952 0.747662
0.930419 0.989487 0.771435
0.921279 0.991058 0.785397
0.928588 0.989563 0.776593
0.932952 0.989578 0.743786
0.933104 0.983032 0.720729
0.927443 0.988098 0.702525
0.9299 0.985733 0.700114
0.542412 0.886641 0.912688
0.540368 0.887068 0.912551
0.538659 0.887587 0.912459
0.53669 0.888197 0.912352
0.535515 0.889174 0.912383
0.534478 0.890089 0.912459
0.533104 0.891157 0.912474
0.530953 0.892744 0.91249
0.528222 0.89482 0.912551
