presets/XH_5219_B.cube
TITLE "Generated by Resolve"
LUT_3D_SIZE 33
0 0.000564584 0.0914626
0 0.000564584 0.0914626
0 0.000564584 0.0914626
0 0.000579843 0.0914931
0 0.00148013 0.0906996
0 0.00285344 0.0930495
0 0.00538643 0.0978561
0 0.00939956 0.101442
0 0.016022 0.100069
0.00361639 0.0196841 0.0958267
0.0915999 0.0157015 0.093492
0.20882 0.0156558 0.0934768
0.294545 0.0187381 0.0949264
0.355856 0.0275425 0.0910811
0.401526 0.0459907 0.0908827
0.433524 0.063508 0.0911879
0.450599 0.100954 0.0900893
0.461845 0.141573 0.0897841
0.501167 0.170214 0.0955978
0.552697 0.203128 0.100175
0.583185 0.242023 0.12723
0.598672 0.286 0.183505
0.602731 0.327657 0.240345
0.606638 0.36669 0.285481
0.620615 0.399176 0.336172
0.63299 0.399283 0.407431
0.631205 0.380148 0.479103
0.639277 0.380377 0.541726
0.644541 0.388891 0.585107
0.650172 0.396689 0.617884
0.667323 0.410407 0.655573
0.68954 0.43856 0.693049
0.708263 0.468772 0.736385
0 0.000564584 0.0914626
0 0.000564584 0.0914626
0 0.000564584 0.0914626
0 0.000579843 0.0915084
0 0.00137331 0.090486
0 0.00271611 0.0927443
0 0.00517281 0.0974594
0 0.00914015 0.10132
0 0.0157015 0.100221
0.00349432 0.0196536 0.0958724
0.0915999 0.0157015 0.093492
0.20882 0.0156558 0.0934768
0.294545 0.0187381 0.0949264
0.355856 0.0275425 0.0910811
0.401526 0.0459907 0.0908827
0.433524 0.063508 0.0911879
0.450599 0.100954 0.0900893
0.46154 0.141314 0.0897841
0.499794 0.169299 0.0953536
0.550179 0.201282 0.0998245
0.582422 0.239139 0.123568
0.597833 0.282704 0.178744
0.602853 0.323262 0.234943
0.606516 0.362692 0.280919
0.617655 0.394507 0.32697
0.634867 0.406653 0.392737
0.630564 0.381689 0.464973
0.637491 0.379583 0.526986
0.642908 0.38436 0.574762
0.647974 0.396658 0.604593
0.653269 0.397116 0.633997
0.677028 0.421576 0.668925
0.693614 0.444678 0.702617
0 0.000564584 0.0914626
0 0.000564584 0.0914626
0 0.000564584 0.0914626
0 0.000564584 0.0914931
0 0.0011902 0.0903334
0 0.00207523 0.0913863
0 0.00408942 0.0950027
0 0.00762951 0.100542
0 0.0135958 0.101518
0.00205997 0.0193942 0.0966049
0.0699168 0.016495 0.0937667
0.193149 0.0148318 0.0930953
0.288121 0.018143 0.0951705
0.352758 0.0267948 0.0914473
0.400259 0.0454566 0.0908675
0.432456 0.0622416 0.0912184
0.450706 0.0978561 0.0902266
0.459495 0.139544 0.0897536
0.497063 0.167819 0.0951705
0.547234 0.198917 0.0991073
0.581735 0.236316 0.119966
0.597025 0.279896 0.174899
0.602914 0.319448 0.23032
0.606348 0.359564 0.277363
0.61593 0.391043 0.321462
0.636133 0.411536 0.3832
0.630152 0.382712 0.455711
0.636103 0.379843 0.516121
0.641871 0.383017 0.564569
0.646433 0.393683 0.595834
0.651255 0.396887 0.623484
0.666423 0.409689 0.653971
0.683543 0.430198 0.67953
0 0.000595102 0.0917372
0 0.000595102 0.0916915
0 0.000610361 0.0915999
0 0.00062562 0.0915999
0 0.00120546 0.0908217
0 0.00178531 0.0906844
0 0.00317388 0.0926528
0 0.00660716 0.0990921
0 0.0117342 0.102312
0.000717174 0.0189364 0.097261
0.0502937 0.0173648 0.0940871
0.175875 0.0140841 0.0926223
0.282353 0.0180056 0.095201
0.347097 0.0255283 0.0920882
0.396353 0.0438392 0.0908064
0.430396 0.0599985 0.091249
0.450248 0.0941787 0.0903487
0.457923 0.137896 0.0897231
0.494301 0.166125 0.0948653
0.544152 0.197024 0.0987564
0.580819 0.233539 0.11693
0.596216 0.276753 0.170657
0.603006 0.315618 0.225711
0.606287 0.356435 0.273777
0.613977 0.387167 0.315435
0.633875 0.410071 0.375051
0.629664 0.383734 0.445914
0.63447 0.379858 0.504616
0.640726 0.381842 0.554284
0.645014 0.390051 0.587655
0.649577 0.396872 0.613642
0.655177 0.398703 0.637903
0.674266 0.418372 0.665049
0 0.00233463 0.0957198
0 0.00222782 0.0955062
0 0.00209049 0.0945754
0 0.00265507 0.0933089
0 0.00370794 0.092958
0 0.00540169 0.0949111
0 0.00810254 0.0977646
0 0.0111086 0.102373
0 0.013962 0.101854
0.0015259 0.0214084 0.0965438
0.052079 0.0182803 0.0935531
0.165942 0.0133059 0.0919203
0.283253 0.0174563 0.0947738
0.350759 0.0264897 0.091371
0.398657 0.0445258 0.0908217
0.430915 0.058793 0.0912795
0.450935 0.093492 0.0902266
0.459297 0.137957 0.0897078
0.494942 0.166049 0.0938125
0.543908 0.197498 0.0973373
0.583368 0.232975 0.113542
0.597589 0.275135 0.166979
0.60499 0.314748 0.222507
0.606561 0.353704 0.270558
0.612818 0.384436 0.310796
0.632425 0.409064 0.370092
0.629664 0.384497 0.441688
0.634195 0.380102 0.501656
0.640696 0.381918 0.552087
0.644984 0.389715 0.586435
0.649561 0.397116 0.612558
0.655787 0.399512 0.638239
0.674739 0.419226 0.665202
0 0.00877394 0.101808
0 0.00865187 0.101671
0 0.00772107 0.100389
0 0.00810254 0.0991073
0 0.0104982 0.10071
0 0.0135195 0.103288
0 0.0181125 0.10811
0 0.0210574 0.111925
0 0.0192721 0.107164
0.00166323 0.0238804 0.0969253
0.0666056 0.0195621 0.0938582
0.186069 0.0148318 0.0925612
0.27071 0.0150759 0.0934768
0.343725 0.0250706 0.0914778
0.397208 0.0433204 0.0907607
0.433112 0.0599985 0.0912947
0.450935 0.0914473 0.0901808
0.460685 0.137881 0.0896773
0.495827 0.165972 0.0925917
0.543709 0.197971 0.0958114
0.585245 0.232547 0.111254
0.59913 0.273564 0.163134
0.60708 0.314015 0.219165
0.606973 0.351034 0.267338
0.611688 0.38172 0.306127
0.631006 0.408042 0.365423
0.629969 0.385916 0.437537
0.633951 0.380484 0.498466
0.640574 0.381888 0.549645
0.644892 0.389288 0.585122
0.649454 0.397269 0.611261
0.656352 0.40032 0.6383
0.675273 0.420188 0.6654
0 0.0206302 0.112398
0 0.020325 0.112184
0 0.0189364 0.111254
0 0.0185092 0.110918
0 0.021973 0.114031
0 0.0269474 0.116838
0 0.0330053 0.121004
0 0.0375067 0.125841
0.000244144 0.0375982 0.118151
0.0150607 0.0393378 0.108156
0.0818341 0.0298314 0.0972915
0.189868 0.0159915 0.0914473
0.285908 0.019028 0.0930343
0.343679 0.0238193 0.0905928
0.38584 0.0370184 0.0906996
0.431617 0.0581521 0.0912795
0.451896 0.0951705 0.0900282
0.462715 0.137713 0.0896315
0.49662 0.165515 0.0909285
0.543587 0.198596 0.0937819
0.587549 0.231922 0.1084
0.601022 0.27158 0.158251
0.609705 0.313054 0.214893
0.607858 0.348089 0.263401
0.610498 0.378714 0.300862
0.629023 0.406607 0.358709
0.631312 0.389975 0.430701
0.633509 0.380865 0.493767
0.640513 0.381949 0.546731
0.644846 0.388846 0.583612
0.649409 0.397543 0.609949
0.657038 0.401389 0.638071
0.675929 0.421363 0.66566
0 0.0339666 0.12578
0 0.0337987 0.125689
0 0.0328374 0.125231
0 0.0318151 0.124743
0 0.0355077 0.129396
0 0.042237 0.133227
0 0.0511025 0.13756
0 0.0587015 0.143069
0.01149 0.0665446 0.144808
0.0832837 0.061265 0.11754
0.162112 0.0503395 0.102663
0.242237 0.0401617 0.0931716
0.305196 0.0334478 0.0913863
0.354086 0.0280156 0.0902571
0.39089 0.0363165 0.0908064
0.416037 0.0458381 0.0909133
0.44686 0.0814527 0.0903792
0.464073 0.139574 0.0896925
0.493706 0.164904 0.0910658
0.54226 0.19968 0.0918746
0.590799 0.230793 0.104082
0.60499 0.270619 0.1514
0.613718 0.311894 0.208896
0.609918 0.344732 0.258076
0.609277 0.374701 0.29398
0.626535 0.404837 0.349874
0.633097 0.395422 0.421363
0.632944 0.38146 0.487419
0.640421 0.381994 0.543389
0.644739 0.388174 0.581491
0.649302 0.397925 0.607813
0.658274 0.403098 0.638239
0.676722 0.422751 0.665965
0 0.0632181 0.150484
0 0.0628061 0.150011
0 0.0601053 0.147829
0 0.0576333 0.146242
0 0.0596475 0.147478
0 0.0653239 0.151064
0 0.0771954 0.156954
0.00158694 0.0891127 0.164096
0.0239414 0.0973526 0.165469
0.107652 0.0994125 0.146639
0.257664 0.080415 0.114778
0.332662 0.0595712 0.10869
0.370336 0.0541085 0.10724
0.397925 0.0524147 0.0992294
0.409476 0.0496376 0.0910658
0.419089 0.04654 0.0910811
0.42742 0.0729076 0.0910201
0.439124 0.120974 0.0895705
0.495399 0.168719 0.0913863
0.538109 0.201038 0.0909438
0.59292 0.229908 0.0995041
0.610498 0.269215 0.141787
0.618235 0.309468 0.199969
0.613138 0.340093 0.250523
0.609613 0.368246 0.286397
0.623423 0.402625 0.338506
0.635569 0.402869 0.408865
0.633005 0.383001 0.479362
0.640177 0.381979 0.537606
0.644572 0.387228 0.578454
0.649226 0.398459 0.605295
0.659648 0.405325 0.638331
0.678004 0.424964 0.666529
0 0.113298 0.195819
0 0.11284 0.195361
0 0.108034 0.190295
0 0.103716 0.185321
0 0.104555 0.184466
0 0.107469 0.183703
0 0.117525 0.191333
0 0.134615 0.201343
0.0229953 0.145373 0.202548
0.11487 0.144961 0.175616
0.245457 0.139452 0.148425
0.386755 0.115755 0.125429
0.438178 0.0945296 0.119875
0.454353 0.0948653 0.103075
0.463432 0.0906386 0.0944991
0.459236 0.0878767 0.0888685
0.442206 0.0886244 0.0906233
0.411048 0.112428 0.0893721
0.442313 0.144884 0.0899367
0.529488 0.201282 0.0904097
0.596613 0.232044 0.0977951
0.617807 0.26714 0.128939
0.622736 0.305241 0.187427
0.618677 0.334722 0.24033
0.610498 0.359548 0.276051
0.619684 0.395331 0.325185
0.638727 0.412238 0.393225
0.633036 0.385168 0.467536
0.639506 0.382635 0.528908
0.644434 0.386419 0.574487
0.649042 0.398062 0.602304
0.66125 0.408148 0.638132
0.679667 0.427832 0.667216
0 0.182971 0.257023
0 0.182971 0.257023
0 0.178012 0.25127
0 0.172168 0.244724
0 0.172335 0.243519
0 0.171435 0.240604
0 0.17821 0.243198
0 0.19205 0.255665
0.00601205 0.20885 0.263798
0.0618296 0.215549 0.237354
0.206348 0.21593 0.156298
0.355459 0.205295 0.14493
0.458396 0.17969 0.133394
0.499321 0.171206 0.122042
0.514046 0.168811 0.110338
0.518975 0.166781 0.0995041
0.512551 0.160357 0.0911116
0.476249 0.150607 0.0899214
0.42594 0.141436 0.0910201
0.460533 0.171328 0.090486
0.571664 0.222965 0.0915847
0.625635 0.269505 0.121935
0.633219 0.302342 0.171115
0.63003 0.329854 0.225971
0.613809 0.349752 0.262608
0.615351 0.385275 0.307988
0.636774 0.413962 0.375128
0.633219 0.387961 0.453391
0.638514 0.383841 0.516884
0.644205 0.386465 0.566659
0.648875 0.396902 0.598123
0.663005 0.411643 0.637247
0.681743 0.431296 0.668391
0 0.271763 0.323781
0 0.271763 0.323781
0 0.267659 0.320073
0 0.262882 0.315709
0 0.261509 0.313359
0 0.261158 0.312108
0 0.25359 0.307683
0 0.265904 0.316136
0 0.288228 0.339101
0.00469978 0.303853 0.332219
0.0948806 0.307469 0.259876
0.293553 0.307454 0.10782
0.428855 0.29456 0.115541
0.53695 0.264332 0.133913
0.579538 0.249699 0.132067
0.596368 0.247089 0.115984
0.606134 0.253147 0.103975
0.605966 0.251041 0.0944228
0.574868 0.23595 0.0908522
0.503655 0.201862 0.0903182
0.491875 0.196994 0.0902419
0.61001 0.240391 0.0925917
0.645289 0.302647 0.157748
0.639277 0.322637 0.204547
0.622919 0.339757 0.24448
0.614054 0.370443 0.287617
0.629664 0.409155 0.350057
0.636072 0.39736 0.431724
0.637263 0.385412 0.501534
0.643931 0.386603 0.556146
0.648539 0.395117 0.592248
0.665278 0.416312 0.63621
0.684367 0.435294 0.670542
0 0.371328 0.395514
0 0.371328 0.395514
0 0.369436 0.393423
0 0.366812 0.390341
0 0.366155 0.388022
0 0.366491 0.387274
0 0.364584 0.384237
0 0.358282 0.373877
0 0.372732 0.393744
0 0.407752 0.424094
0 0.407431 0.383871
0.159243 0.403052 0.235462
0.380804 0.397482 0.0642252
0.504112 0.383368 0.115892
0.58703 0.382132 0.144717
0.642084 0.375235 0.130205
0.669337 0.369924 0.103441
0.688212 0.365103 0.0920882
0.691997 0.354391 0.0920272
0.683024 0.326116 0.091722
0.627619 0.281193 0.0912795
0.546654 0.225772 0.0906539
0.625315 0.252659 0.0919203
0.653849 0.317601 0.174487
0.639841 0.330571 0.216831
0.619516 0.352453 0.263218
0.620752 0.393408 0.318135
0.643595 0.418219 0.397024
0.636805 0.388861 0.480552
0.643656 0.386862 0.542901
0.650584 0.396536 0.587945
0.667369 0.421469 0.634256
0.687877 0.440497 0.672984
0 0.452201 0.464347
0 0.452201 0.464347
0 0.451041 0.462791
0 0.44918 0.460075
0 0.448447 0.458228
0 0.447532 0.456565
0 0.447959 0.45623
0 0.443885 0.450767
0 0.448768 0.449897
0 0.467124 0.470741
0 0.495201 0.502068
0.0284886 0.49723 0.418753
0.282643 0.480766 0.184375
0.4813 0.46566 0.124804
0.578134 0.465492 0.181506
0.644099 0.470619 0.217197
0.718608 0.47219 0.170382
0.765103 0.467201 0.125856
0.781552 0.455375 0.112398
0.785885 0.445533 0.10724
0.775937 0.419532 0.0993057
0.740856 0.36614 0.0923781
0.605859 0.25951 0.0911269
0.638895 0.270176 0.0918898
0.658427 0.322026 0.175204
0.641138 0.338003 0.227726
0.619043 0.366934 0.282017
0.633692 0.414023 0.353796
0.637507 0.395468 0.448966
0.642222 0.389227 0.521202
0.65597 0.402975 0.586755
0.669413 0.427695 0.631785
0.692409 0.446983 0.675013
0 0.513298 0.529061
0 0.513298 0.529061
0 0.513313 0.52813
0 0.513436 0.525948
0 0.51397 0.525231
0 0.513893 0.524269
0 0.514122 0.523583
0 0.516579 0.526101
0 0.519448 0.528405
0 0.52015 0.525963
0 0.543984 0.550149
0 0.573648 0.571237
0.139818 0.563928 0.428214
0.395682 0.551522 0.206363
0.56527 0.542962 0.195819
0.642145 0.546014 0.256336
0.711437 0.550423 0.279194
0.798199 0.554726 0.213092
0.844694 0.556725 0.172854
0.854459 0.545998 0.173968
0.852323 0.532555 0.16463
0.839902 0.502998 0.138659
0.806989 0.45185 0.11458
0.691829 0.321828 0.0919356
0.641855 0.275837 0.0913252
0.667323 0.323644 0.165621
0.643336 0.344442 0.236225
0.621714 0.38323 0.300191
0.647028 0.42446 0.391043
0.646357 0.400839 0.499474
0.664622 0.412589 0.58088
0.675746 0.436164 0.631327
0.698238 0.455741 0.677806
0 0.558541 0.606012
0 0.558541 0.606012
0 0.558709 0.603708
0 0.55906 0.599847
0 0.560449 0.596918
0 0.563455 0.596353
0 0.566918 0.595911
0 0.571008 0.597147
0 0.572656 0.596841
0 0.573968 0.592615
0 0.585733 0.601328
0 0.608804 0.622843
0.0201267 0.637903 0.616922
0.297292 0.629984 0.384131
0.478828 0.628229 0.269825
0.633555 0.617594 0.27631
0.713619 0.613397 0.330175
0.784085 0.621286 0.321706
0.864591 0.62855 0.270359
0.892378 0.634882 0.263462
0.901259 0.629908 0.259556
0.896376 0.603861 0.243687
0.879805 0.566064 0.202716
0.847974 0.517403 0.15349
0.773617 0.406592 0.100252
0.654932 0.293584 0.0914626
0.673381 0.315541 0.144381
0.652934 0.364492 0.256397
0.641077 0.418173 0.341299
0.661326 0.430732 0.465965
0.675944 0.425101 0.565026
0.687388 0.448127 0.630091
0.704463 0.468284 0.679393
0 0.602213 0.681117
0 0.602213 0.681117
0 0.60264 0.679606
0 0.603113 0.677867
0 0.604303 0.676814
0 0.605463 0.675334
0 0.608667 0.671443
0 0.614267 0.665675
0 0.621454 0.662684
0 0.626444 0.658473
0 0.63032 0.656626
0 0.643656 0.665568
0.0152132 0.673304 0.682704
0.235508 0.691249 0.605997
0.43621 0.691951 0.384833
0.54931 0.70222 0.337438
0.702037 0.686519 0.350622
0.78323 0.677913 0.374273
0.853864 0.689982 0.344106
0.898222 0.707393 0.348424
0.913222 0.71577 0.371084
0.921065 0.709209 0.373251
0.924117 0.682811 0.327657
0.898848 0.63566 0.264439
0.885573 0.576806 0.217319
0.83209 0.486046 0.129549
0.731685 0.35053 0.0924392
0.691752 0.316091 0.114672
0.650477 0.387793 0.293568
0.67068 0.467185 0.399222
0.687495 0.45069 0.533135
0.70164 0.465064 0.620691
0.713359 0.483528 0.679011
0.0727855 0.649531 0.743038
0.0722362 0.649561 0.742901
0.0680247 0.64976 0.741802
0.0647593 0.65005 0.740963
0.062089 0.651499 0.740749
0.0594797 0.652995 0.74052
0.0562905 0.654704 0.739956
0.051194 0.657176 0.738003
0.0382849 0.662776 0.733074
0.0257877 0.669902 0.729549
0.014374 0.680369 0.720333
0.00984207 0.68011 0.710918
0.0634318 0.70985 0.716808
0.225666 0.732876 0.712642
0.427649 0.749187 0.52285
0.536248 0.756359 0.422461
0.633158 0.770199 0.374487
0.791943 0.747707 0.408835
0.869245 0.743694 0.378042
0.914717 0.756374 0.355978
0.925933 0.771939 0.432029
0.926055 0.780163 0.465248
0.923735 0.765881 0.450324
0.924102 0.740307 0.409369
0.922637 0.710262 0.366751
0.912947 0.654002 0.286503
0.877333 0.561685 0.197147
0.788098 0.424796 0.106752
0.75845 0.38555 0.0991684
0.68278 0.428687 0.332158
0.710796 0.514366 0.465507
0.712032 0.489632 0.59089
0.72665 0.503273 0.673198
0.140307 0.710979 0.803616
0.139254 0.710857 0.802701
0.137163 0.710689 0.80087
0.135515 0.710552 0.799298
0.133959 0.711437 0.798276
0.132708 0.712322 0.797299
0.131044 0.713481 0.796216
0.129091 0.714687 0.795071
0.126085 0.716945 0.793179
0.121309 0.721645 0.792767
0.112428 0.72874 0.790768
0.0982681 0.738231 0.779873
0.122194 0.749493 0.767269
0.235004 0.773037 0.765042
0.397574 0.79826 0.703487
0.556161 0.808362 0.473945
0.636484 0.821408 0.415457
0.777462 0.814771 0.388067
0.862562 0.809461 0.45864
0.930053 0.808423 0.396017
0.953155 0.814969 0.426078
0.946166 0.828916 0.49247
0.950866 0.828763 0.510002
0.953262 0.811826 0.4795
0.94612 0.791852 0.463691
0.929885 0.764981 0.432319
0.924025 0.724361 0.381933
0.902495 0.640528 0.270298
0.835798 0.49218 0.132952
0.832151 0.486152 0.12958
0.734356 0.474342 0.357488
0.742412 0.561227 0.517739
0.741955 0.531655 0.644419
0.20737 0.76466 0.852827
0.205127 0.764691 0.851499
0.202564 0.764889 0.850507
0.200717 0.764981 0.850172
0.200122 0.766079 0.850523
0.199237 0.767163 0.850675
0.198169 0.769039 0.850919
0.195697 0.772015 0.850675
0.192233 0.775586 0.84918
0.188937 0.777874 0.846113
0.186572 0.781018 0.843931
0.175799 0.787869 0.840284
0.170993 0.792233 0.819196
0.23827 0.814847 0.812558
0.382788 0.834928 0.814771
0.542504 0.854994 0.61825
0.664546 0.863188 0.454795
0.74052 0.871473 0.391424
0.857221 0.864195 0.435187
0.905104 0.863188 0.53051
0.944549 0.861494 0.530846
0.96875 0.869047 0.521996
0.965972 0.874189 0.567636
0.969619 0.867552 0.546288
0.977539 0.848264 0.484703
0.972854 0.83125 0.453285
0.957687 0.810224 0.455131
0.934203 0.778943 0.444816
0.923064 0.716152 0.373236
0.873945 0.556512 0.190661
0.871168 0.552529 0.18584
0.777279 0.511803 0.348775
0.752987 0.552102 0.61149
0.294057 0.806638 0.901061
0.290242 0.807553 0.899779
0.287037 0.808255 0.898619
0.283803 0.809049 0.897337
0.28217 0.810559 0.896529
0.282185 0.811429 0.895644
0.282963 0.812161 0.89424
0.283619 0.812863 0.891722
0.283406 0.813947 0.887892
0.278935 0.816922 0.885161
0.276127 0.822477 0.885481
0.272725 0.825864 0.88159
0.260594 0.830503 0.871199
0.256306 0.844251 0.853178
0.37145 0.868971 0.857832
0.507012 0.885023 0.823987
0.703655 0.88716 0.533059
0.74905 0.903883 0.428061
0.838636 0.901015 0.455344
0.88719 0.909453 0.534676
0.920058 0.908217 0.612726
0.95137 0.909255 0.639307
0.957458 0.914305 0.63299
0.967025 0.909377 0.632609
0.978469 0.899367 0.581277
0.981582 0.876829 0.535088
0.980331 0.862806 0.501793
0.978012 0.844846 0.465003
0.963836 0.819776 0.448737
0.93109 0.769131 0.43563
0.895582 0.622156 0.254749
0.89604 0.617899 0.253513
0.824582 0.570336 0.378286
0.374014 0.836759 0.930861
0.371862 0.837125 0.930007
0.369909 0.837446 0.929152
0.368154 0.83769 0.928374
0.367239 0.838361 0.927764
0.36669 0.839002 0.927275
0.366064 0.839734 0.926482
0.365972 0.840986 0.92549
0.365225 0.843198 0.923598
0.36321 0.846876 0.920089
0.360372 0.847868 0.912642
0.354055 0.851179 0.905089
0.342733 0.859022 0.898695
0.30956 0.871458 0.886549
0.334997 0.893126 0.880079
0.490669 0.909468 0.891157
0.651698 0.913619 0.706783
0.75111 0.928328 0.510475
0.821576 0.930388 0.500603
0.84799 0.940932 0.5579
0.901259 0.942443 0.636805
0.926421 0.943481 0.681468
0.940902 0.946105 0.688594
0.942 0.950454 0.680522
0.946639 0.947097 0.669718
0.953262 0.936934 0.635538
0.984771 0.914046 0.588495
0.980591 0.894255 0.530419
0.979568 0.879011 0.49366
0.978103 0.850416 0.477592
0.958541 0.811856 0.454124
0.922377 0.702449 0.357992
0.922728 0.69543 0.347723
0.434791 0.854673 0.951278
0.432486 0.855604 0.950576
0.43035 0.856291 0.94963
0.428153 0.857084 0.948623
0.427085 0.857969 0.947936
0.426062 0.858885 0.947265
0.42501 0.859937 0.94641
0.423575 0.861143 0.945159
0.421363 0.863005 0.94342
0.418082 0.865873 0.941009
0.41268 0.870069 0.937011
0.402655 0.876966 0.932448
0.393362 0.8851 0.928435
0.376669 0.888243 0.915602
0.358557 0.897856 0.904189
0.451545 0.93138 0.910323
0.612573 0.931289 0.83975
0.74699 0.939467 0.605615
0.809018 0.948531 0.559258
0.825391 0.960296 0.600015
0.869627 0.96585 0.654521
0.897093 0.970596 0.703746
0.926116 0.96846 0.735515
0.942931 0.967605 0.740276
0.945098 0.964797 0.738598
0.949157 0.957473 0.730907
0.948867 0.956481 0.703792
0.954726 0.951995 0.648997
0.981826 0.934478 0.610788
0.97969 0.909056 0.566506
0.980011 0.886168 0.494911
0.977462 0.843961 0.463157
0.927886 0.755566 0.424048
0.465293 0.860929 0.960906
0.463844 0.861997 0.960174
0.462486 0.863005 0.959487
0.461036 0.864088 0.958694
0.460273 0.865187 0.95816
0.459648 0.866087 0.957717
0.458732 0.867262 0.957076
0.457755 0.868681 0.956191
0.456489 0.870619 0.954849
0.454597 0.87303 0.952834
0.451591 0.876417 0.949935
0.445319 0.882612 0.946166
0.429328 0.892256 0.942458
0.41236 0.900923 0.93286
0.387747 0.905104 0.921248
0.419562 0.93077 0.920394
0.554681 0.945312 0.901381
0.72517 0.942733 0.685954
0.784009 0.9552 0.608789
0.81088 0.966094 0.631769
0.850843 0.970047 0.675441
0.87364 0.975845 0.711192
0.902525 0.983566 0.753445
0.930571 0.977539 0.769924
0.932021 0.97702 0.776913
0.932082 0.976883 0.77554
0.930587 0.978119 0.764874
0.934905 0.974975 0.7467
0.946883 0.967239 0.714687
0.945769 0.96527 0.675029
0.96585 0.945632 0.639002
0.98349 0.913542 0.584802
0.979248 0.875319 0.487877
0.482109 0.865141 0.9664
0.480766 0.865858 0.965713
0.479301 0.866545 0.964981
0.477913 0.867308 0.964248
0.476921 0.868254 0.963623
0.475837 0.869093 0.962936
0.474922 0.870176 0.962188
0.473625 0.871626 0.961089
0.472251 0.873228 0.959838
0.470497 0.87512 0.958099
0.467933 0.878218 0.955612
0.462882 0.882765 0.951858
0.452384 0.891722 0.94815
0.432563 0.901091 0.941833
0.406195 0.910735 0.929778
0.40148 0.920974 0.925063
0.507042 0.946975 0.924422
0.662425 0.947402 0.811658
0.77171 0.95317 0.660548
0.792157 0.966659 0.657465
0.830915 0.971817 0.693782
0.853834 0.979034 0.717968
0.885161 0.983719 0.749508
0.913405 0.980072 0.771206
0.932052 0.977966 0.782818
0.930587 0.98085 0.789822
0.930663 0.98056 0.788815
0.931426 0.978637 0.783062
0.92665 0.98175 0.761746
0.940734 0.971283 0.740063
0.943709 0.969863 0.728359
0.947082 0.966888 0.698543
0.960601 0.94818 0.645777
0.494011 0.874739 0.972152
0.493416 0.875181 0.97145
0.492866 0.875639 0.970733
0.492256 0.876066 0.969955
0.492073 0.876905 0.969421
0.491753 0.877577 0.968902
0.49131 0.878569 0.968246
0.490639 0.879896 0.967468
0.488899 0.881346 0.966522
0.48658 0.882841 0.965026
0.48368 0.884489 0.962631
0.479606 0.886259 0.958297
0.471443 0.89218 0.953964
0.45771 0.901579 0.949966
0.43389 0.910536 0.9393
0.42884 0.925017 0.934325
0.471626 0.942794 0.933181
0.606912 0.950256 0.89604
0.747982 0.955764 0.722225
0.785794 0.964111 0.700587
0.81004 0.976394 0.719142
0.845396 0.979324 0.745541
0.881544 0.983688 0.756588
0.897292 0.986709 0.773602
0.931014 0.980545 0.790326
0.929442 0.983749 0.798352
0.92929 0.984054 0.80708
0.929259 0.98407 0.803357
0.930053 0.98204 0.793133
0.929763 0.97911 0.771923
0.931563 0.97818 0.749126
0.938033 0.97319 0.744137
0.942123 0.970581 0.734798
0.511009 0.879499 0.977646
0.50985 0.880232 0.977325
0.508522 0.880919 0.976959
0.507332 0.881712 0.976623
0.506905 0.882445 0.97644
0.506554 0.883207 0.976059
0.505882 0.884153 0.97554
0.504936 0.885451 0.974884
0.503319 0.887312 0.973922
0.501152 0.88986 0.97261
0.498299 0.893141 0.971176
0.494484 0.896208 0.968566
0.487953 0.89836 0.9626
0.477333 0.902647 0.955566
0.464347 0.914244 0.951019
0.457191 0.929137 0.943175
0.507347 0.944442 0.942351
0.597757 0.947921 0.930861
0.701839 0.957382 0.851041
0.793133 0.958358 0.773983
0.807218 0.973251 0.778042
0.828397 0.983505 0.79707
0.881209 0.982605 0.781598
0.896117 0.985489 0.785733
0.915633 0.982818 0.798886
0.930022 0.983307 0.812787
0.923796 0.983902 0.845411
0.910292 0.985855 0.868498
0.920943 0.984054 0.852857
0.92929 0.984054 0.807675
0.931746 0.977432 0.778149
0.924559 0.983551 0.754894
0.927932 0.980972 0.751934
0.529961 0.883711 0.979278
0.528145 0.884092 0.978943
0.526696 0.884565 0.978622
0.525032 0.885115 0.978256
0.524346 0.885985 0.977935
0.52372 0.886793 0.977691
0.522896 0.887755 0.977325
0.521523 0.889174 0.976776
0.519829 0.891005 0.976104
