presets/XH_5219_Y.cube
TITLE "Generated by Resolve"
LUT_3D_SIZE 5
0 0.0318761 0
0.00497444 0.044419 0
0.528695 0.138827 0
0.711955 0.429129 0.266239
0.710979 0.4365 0.611399
0.023331 0.082414 0.012314
0.0842603 0.116243 0.00244144
0.509163 0.114809 0
0.725231 0.402136 0.192844
0.676905 0.389105 0.532296
0.136141 0.586374 0.585
0.125948 0.595407 0.558267
0.737591 0.664927 0.401007
0.857481 0.550454 0.113893
0.716594 0.455482 0.534493
0.573709 0.86862 0.91986
0.575555 0.872953 0.90309
0.721706 0.902708 0.807172
0.958495 0.956176 0.823926
0.953811 0.930892 0.715511
0.85658 0.926528 0.97055
0.839963 0.92459 0.96347
0.892744 0.935622 0.960845
0.969696 0.971908 0.996338
0.96788 0.972488 0.998123
0 0.0340124 0
0.00614939 0.0491951 0
0.515724 0.154528 0
0.669245 0.405921 0.30428
0.721508 0.450217 0.63743
0.0267643 0.0825971 0.0376287
0.0827955 0.121492 0.042649
0.531487 0.141909 0
0.711589 0.434928 0.282292
0.74641 0.490349 0.684916
0.158221 0.579355 0.609033
0.130495 0.582544 0.579644
0.724254 0.652628 0.394232
0.843671 0.522042 0.0615854
0.765545 0.53048 0.683467
0.582986 0.866697 0.931136
0.581018 0.872404 0.919661
0.66537 0.90132 0.840009
0.958495 0.956176 0.823926
0.953994 0.918212 0.671427
0.865248 0.928832 0.972229
0.864012 0.928527 0.97081
0.902754 0.938293 0.96875
0.969177 0.971756 0.996307
0.967865 0.972488 0.998123
0 0.0491493 0.240024
0.00248722 0.0791485 0.344915
0.440742 0.126879 0.356603
0.640894 0.337926 0.487388
0.740154 0.469108 0.697566
0 0.0691386 0.308827
0 0.0532998 0.327092
0.457404 0.137407 0.381765
0.640101 0.338216 0.475227
0.766155 0.510765 0.737987
0.195392 0.562646 0.719768
0.197055 0.563577 0.722744
0.677562 0.651209 0.670787
0.725124 0.482948 0.38761
0.841382 0.670405 0.835706
0.616327 0.873808 0.969665
0.617273 0.877104 0.965652
0.682231 0.906691 0.920134
0.958862 0.963546 0.914733
0.967849 0.896422 0.593576
0.865797 0.92903 0.980575
0.867414 0.929412 0.979736
0.911177 0.941756 0.984176
0.967803 0.971801 0.998596
0.967803 0.972625 0.998245
0 0.130663 0.525216
0.0597086 0.122255 0.515816
0.504646 0.172015 0.650828
0.662135 0.352422 0.638651
0.685985 0.386587 0.67776
0 0.171328 0.557961
0 0.146288 0.53611
0.504509 0.172381 0.651591
0.663447 0.354009 0.642557
0.712718 0.418357 0.714824
0.205631 0.572061 0.820371
0.201617 0.568765 0.820081
0.602701 0.599298 0.874067
0.678599 0.376959 0.666545
0.84596 0.675059 0.853529
0.649149 0.861189 0.995499
0.652949 0.863554 0.995666
0.696864 0.881132 0.99794
0.96141 0.960723 0.996506
0.900496 0.862608 0.940475
0.857359 0.928603 1
0.867399 0.93051 1
0.916533 0.946273 0.999725
0.974548 0.976471 1
0.97467 0.979767 1
0 0.301289 0.689632
0.000656138 0.249546 0.644175
0.443015 0.156558 0.614908
0.657832 0.344991 0.636973
0.675181 0.371405 0.664378
0 0.321111 0.702846
0.0558175 0.441947 0.738827
0.512459 0.342824 0.748547
0.669673 0.362707 0.655604
0.677073 0.374395 0.667414
0.290379 0.622965 0.862745
0.321477 0.641489 0.879744
0.47718 0.719417 0.927794
0.871809 0.748745 0.898177
0.68423 0.384329 0.67808
0.620081 0.828412 0.986465
0.626642 0.832883 0.989487
0.680125 0.872496 0.999786
0.953979 0.959945 0.994354
0.916793 0.886046 0.967773
0.842451 0.926757 1
0.857176 0.929198 1
0.913588 0.948714 1
0.975708 0.973556 1
0.976425 0.975662 1
