presets/XH_5219_Y.cube
TITLE "Generated by Resolve"
LUT_3D_SIZE 9
0 0.0318761 0
0 0.0332494 0
0.00497444 0.044419 0
0.323537 0.0521248 0
0.528695 0.138827 0
0.675364 0.28069 4.57771e-05
0.711955 0.429129 0.266239
0.64889 0.356054 0.443458
0.710979 0.4365 0.611399
0 0.0332952 0
0 0.0365911 0
0.000564584 0.0458839 0
0.312078 0.0500038 0
0.524895 0.132479 0
0.66688 0.27306 0
0.715343 0.416129 0.23006
0.643336 0.353536 0.41117
0.673274 0.383886 0.53048
0.023331 0.082414 0.012314
0.0236667 0.0764019 0.00204471
0.0842603 0.116243 0.00244144
0.413886 0.0965286 0
0.509163 0.114809 0
0.659998 0.265568 0
0.725231 0.402136 0.192844
0.641566 0.354528 0.39791
0.676905 0.389105 0.532296
0 0.355138 0.315877
0 0.349035 0.308827
0.00236515 0.355947 0.313252
0.436728 0.381491 0.0343175
0.682414 0.363378 0
0.668757 0.290486 0
0.733745 0.358312 0.0526284
0.641505 0.370764 0.34963
0.687327 0.404227 0.535943
0.136141 0.586374 0.585
0.12874 0.586236 0.576623
0.125948 0.595407 0.558267
0.259434 0.634928 0.538933
0.737591 0.664927 0.401007
0.888533 0.70457 0.398627
0.857481 0.550454 0.113893
0.768612 0.436057 0.210956
0.716594 0.455482 0.534493
0.432197 0.797391 0.837919
0.43331 0.796811 0.831617
0.441138 0.799908 0.819059
0.464256 0.809094 0.75967
0.789761 0.862409 0.456992
0.921614 0.894026 0.677073
0.948806 0.88661 0.641657
0.925231 0.812421 0.48896
0.898711 0.608148 0.336446
0.573709 0.86862 0.91986
0.573373 0.870909 0.913512
0.575555 0.872953 0.90309
0.580865 0.880293 0.876448
0.721706 0.902708 0.807172
0.894286 0.951095 0.677791
0.958495 0.956176 0.823926
0.956436 0.95494 0.806241
0.953811 0.930892 0.715511
0.635477 0.895445 0.943053
0.632837 0.894316 0.940795
0.634546 0.895415 0.936782
0.646876 0.900755 0.921782
0.769528 0.913512 0.904814
0.907118 0.94406 0.865538
0.955962 0.967468 0.899779
0.962768 0.962295 0.931945
0.958648 0.956756 0.832685
0.85658 0.926528 0.97055
0.835981 0.923995 0.964416
0.839963 0.92459 0.96347
0.857038 0.927855 0.960967
0.892744 0.935622 0.960845
0.941009 0.953338 0.986481
0.969696 0.971908 0.996338
0.970077 0.97116 0.995163
0.96788 0.972488 0.998123
0 0.0319371 0
0 0.0327001 0
0.00422675 0.0469215 0
0.319982 0.0528115 0
0.523323 0.141863 0
0.676631 0.289876 0.000946059
0.709285 0.439551 0.298421
0.650568 0.357092 0.455589
0.720226 0.449363 0.632044
0 0.0329442 0
0 0.0351873 0
0.0122988 0.0469673 0
0.324163 0.0522164 0
0.528756 0.138888 0
0.673442 0.278965 0
0.712383 0.426444 0.258152
0.647486 0.355001 0.435035
0.69865 0.42002 0.58822
0.0245212 0.0871901 0.0263371
0.0227665 0.0796521 0.00868238
0.0804608 0.114549 0.00196841
0.414496 0.0929122 0
0.518563 0.121752 0
0.669215 0.272007 0
0.719615 0.412787 0.219471
0.646815 0.355169 0.425635
0.702419 0.427176 0.590967
0 0.356344 0.321462
0 0.353674 0.315053
0.000167849 0.343481 0.299199
0.433066 0.378973 0.031632
0.68101 0.357275 0
0.640787 0.271916 0
0.735683 0.371115 0.0893568
0.642557 0.359365 0.388403
0.71342 0.446815 0.598749
0.142 0.584314 0.59202
0.135103 0.585718 0.5841
0.126375 0.592126 0.56463
0.219883 0.628733 0.542657
0.735592 0.663005 0.400061
0.888075 0.701213 0.39794
0.850523 0.535775 0.0865339
0.770642 0.478141 0.308278
0.744091 0.494347 0.617853
0.43035 0.795316 0.843519
0.432288 0.79704 0.837217
0.440208 0.799573 0.82742
0.462348 0.807965 0.774426
0.788403 0.859388 0.467887
0.921569 0.893858 0.67689
0.948516 0.884764 0.639796
0.915999 0.798016 0.487495
0.792386 0.588846 0.586099
0.577691 0.867826 0.924651
0.574716 0.8692 0.919875
0.576318 0.872908 0.910414
0.581567 0.879576 0.882322
0.695964 0.90248 0.82974
0.891295 0.951232 0.673564
0.958495 0.956176 0.823926
0.956237 0.954604 0.804364
0.95346 0.920958 0.679301
0.63801 0.896529 0.944778
0.635767 0.895613 0.943099
0.636988 0.896422 0.939452
0.649119 0.901366 0.925353
0.766155 0.91249 0.907591
0.907347 0.941665 0.873335
0.95668 0.967224 0.902785
0.962753 0.96231 0.931838
0.958648 0.956756 0.832609
0.864973 0.928771 0.97142
0.858091 0.926986 0.970626
0.860044 0.927474 0.969833
0.870115 0.930205 0.967544
0.90161 0.937957 0.966964
0.941588 0.953689 0.988098
0.969467 0.971786 0.996216
0.970016 0.971191 0.995254
0.96788 0.972488 0.998123
0 0.0340124 0
0 0.0367285 0
0.00614939 0.0491951 0
0.329809 0.0599527 0
0.515724 0.154528 0
0.676158 0.312215 0.0378882
0.669245 0.405921 0.30428
0.651362 0.357519 0.464759
0.721508 0.450217 0.63743
0 0.0360571 0
0 0.034165 0
0.00830091 0.0495003 0
0.331548 0.0569009 0
0.51696 0.14699 0
0.674006 0.293751 0.00781262
0.708476 0.440223 0.301595
0.648875 0.355566 0.447166
0.700282 0.420737 0.594263
0.0267643 0.0825971 0.0376287
0.0263676 0.0817578 0.0360113
0.0827955 0.121492 0.042649
0.468345 0.11545 0
0.531487 0.141909 0
0.679118 0.285069 0.000244144
0.711589 0.434928 0.282292
0.652277 0.359045 0.462821
0.74641 0.490349 0.684916
0 0.360174 0.352178
0 0.358465 0.338567
0 0.344656 0.311177
0.427329 0.377356 0.0329747
0.671061 0.342763 0
0.665431 0.276783 0
0.735637 0.393454 0.155703
0.649775 0.358801 0.431724
0.75201 0.501656 0.687282
0.158221 0.579355 0.609033
0.147723 0.580346 0.597635
0.130495 0.582544 0.579644
0.14638 0.609384 0.526909
0.724254 0.652628 0.394232
0.883635 0.690578 0.395758
0.843671 0.522042 0.0615854
0.744961 0.495491 0.375616
0.765545 0.53048 0.683467
0.428214 0.791241 0.851148
0.427893 0.792416 0.845212
0.433722 0.795789 0.833463
0.452705 0.802182 0.784405
0.764019 0.859388 0.471641
0.919081 0.890028 0.673732
0.946777 0.886351 0.654643
0.913497 0.791852 0.485206
0.809308 0.622675 0.629816
0.582986 0.866697 0.931136
0.580163 0.867613 0.927047
0.581018 0.872404 0.919661
0.586099 0.879957 0.891569
0.66537 0.90132 0.840009
0.887037 0.952422 0.673457
0.958495 0.956176 0.823926
0.956878 0.955337 0.809979
0.953994 0.918212 0.671427
0.639796 0.89691 0.947265
0.637476 0.896254 0.945556
0.63888 0.897078 0.942412
0.650736 0.901778 0.92958
0.764508 0.911543 0.910628
0.908324 0.939818 0.882185
0.958419 0.966644 0.910384
0.962386 0.962539 0.930175
0.958663 0.956756 0.834363
0.865248 0.928832 0.972229
0.858183 0.926986 0.971191
0.864012 0.928527 0.97081
0.872679 0.930831 0.968948
0.902754 0.938293 0.96875
0.941482 0.953567 0.988556
0.969177 0.971756 0.996307
0.969787 0.971359 0.995605
0.967865 0.972488 0.998123
0 0.0317082 0.0275731
0 0.0368505 0.0537575
0 0.0653544 0.088777
0.212436 0.0857557 0.0165103
0.427909 0.127459 0.0974136
0.634073 0.350301 0.223667
0.630167 0.345968 0.361074
0.654002 0.359014 0.491051
0.72575 0.45362 0.653864
0 0.0306859 0.0263828
0 0.0327153 0.0352483
0 0.0612192 0.116304
0.212955 0.0859693 0.0169985
0.431708 0.126879 0.0824598
0.649927 0.358968 0.19173
0.63006 0.352758 0.338216
0.651804 0.357183 0.476646
0.706416 0.424811 0.61416
0 0.0918441 0.179477
0 0.0892958 0.190875
0 0.0973373 0.247623
0.252155 0.104601 0.05449
0.445823 0.132998 0.0605325
0.665583 0.353796 0.144076
0.634226 0.361257 0.330358
0.654719 0.360342 0.489342
0.751186 0.494362 0.699687
0.00479133 0.339666 0.415702
0.00474556 0.339376 0.415686
0.00396735 0.334356 0.411978
0.395972 0.39147 0.429572
0.729885 0.431342 0.204273
0.695735 0.305501 0.0027924
0.71136 0.442786 0.302724
0.659556 0.367727 0.490608
0.798474 0.578241 0.771237
0.192416 0.572152 0.667796
0.187808 0.571298 0.663508
0.178088 0.570199 0.652506
0.157733 0.591028 0.600916
0.706645 0.6542 0.445533
0.863584 0.674052 0.414343
0.801007 0.452201 0.030808
0.674784 0.40296 0.419837
0.803616 0.591638 0.767666
0.440833 0.78529 0.882414
0.437446 0.785748 0.875761
0.437949 0.789593 0.862013
0.450782 0.798062 0.823377
0.694438 0.84564 0.691478
0.911788 0.878538 0.672023
0.937743 0.884398 0.694148
0.908217 0.774884 0.473823
0.815549 0.629206 0.727749
0.596429 0.867735 0.94583
0.594568 0.867536 0.942901
0.596399 0.871244 0.938048
0.59913 0.880079 0.919738
0.653956 0.899382 0.859327
0.884352 0.951141 0.704463
0.958618 0.956054 0.834348
0.958633 0.956771 0.828534
0.959182 0.909697 0.648188
0.644205 0.89752 0.954299
0.642359 0.897063 0.952728
0.64416 0.898161 0.949981
0.656138 0.902632 0.940124
0.763989 0.912139 0.920256
0.90956 0.936522 0.901732
0.963241 0.963989 0.934798
0.961776 0.962921 0.927275
0.958694 0.95668 0.845014
0.866102 0.929091 0.974517
0.858824 0.927199 0.973266
0.864912 0.928725 0.973144
0.880476 0.932601 0.974289
0.906188 0.939406 0.973648
0.941131 0.953307 0.989593
0.968536 0.971649 0.99675
0.969131 0.971893 0.996643
0.967849 0.972519 0.998154
0 0.0491493 0.240024
0 0.0543984 0.28481
0.00248722 0.0791485 0.344915
0.201785 0.102647 0.304311
0.440742 0.126879 0.356603
0.587579 0.275685 0.38381
0.640894 0.337926 0.487388
0.661234 0.360464 0.561395
0.740154 0.469108 0.697566
0 0.0472877 0.231464
0 0.0498817 0.255787
9.15541e-05 0.0719158 0.348684
0.187411 0.102815 0.3084
0.440085 0.126452 0.355398
0.582559 0.272038 0.375647
0.639506 0.336996 0.477134
0.658717 0.358968 0.549493
0.723217 0.442298 0.665187
0 0.0691386 0.308827
0 0.0659648 0.314397
0 0.0532998 0.327092
0.1935 0.0983139 0.378042
0.457404 0.137407 0.381765
0.58497 0.275257 0.370947
0.640101 0.338216 0.475227
0.662654 0.362921 0.560418
0.766155 0.510765 0.737987
0 0.309697 0.566278
0 0.304097 0.572168
0 0.287419 0.580133
0.261662 0.306874 0.572061
0.567514 0.259083 0.500511
0.598901 0.292317 0.373068
0.63801 0.338079 0.451621
0.673915 0.37847 0.572717
0.808377 0.596857 0.789731
0.195392 0.562646 0.719768
0.196323 0.56318 0.720989
0.197055 0.563577 0.722744
0.203098 0.568048 0.729961
0.677562 0.651209 0.670787
0.884428 0.72256 0.627466
0.725124 0.482948 0.38761
0.689296 0.406088 0.54461
0.841382 0.670405 0.835706
0.465278 0.775326 0.918334
0.464652 0.775738 0.916823
0.467918 0.778927 0.914565
0.480461 0.786358 0.899413
0.66128 0.8439 0.852232
0.890196 0.878141 0.779675
0.931868 0.880858 0.812467
0.890394 0.719844 0.514214
0.833158 0.659007 0.803052
0.616327 0.873808 0.969665
0.615335 0.873732 0.968307
0.617273 0.877104 0.965652
0.623789 0.88658 0.956664
0.682231 0.906691 0.920134
0.910292 0.941482 0.882902
0.958862 0.963546 0.914733
0.948318 0.964263 0.877287
0.967849 0.896422 0.593576
0.657237 0.896452 0.970108
0.655482 0.896468 0.968765
0.657298 0.897459 0.967239
0.672724 0.902571 0.96083
0.780514 0.916442 0.949203
0.914015 0.937636 0.930999
0.959579 0.96495 0.972366
0.961379 0.959808 0.957626
0.960983 0.963409 0.923598
0.865797 0.92903 0.980575
0.860746 0.927871 0.97908
0.867414 0.929412 0.979736
0.883436 0.933272 0.981964
0.911177 0.941756 0.984176
0.941329 0.953368 0.993362
0.967803 0.971801 0.998596
0.967575 0.973373 0.998764
0.967803 0.972625 0.998245
0 0.0712139 0.458076
0.00273136 0.0780194 0.471092
0.0677195 0.0910506 0.458167
0.288502 0.100252 0.498466
0.451865 0.136492 0.570993
0.606973 0.263401 0.558267
0.657053 0.337621 0.599435
0.672572 0.365148 0.635264
0.72311 0.431662 0.703899
0 0.0688182 0.451301
0 0.0718395 0.459663
0.022797 0.084184 0.467704
0.268406 0.100175 0.489982
0.446693 0.133852 0.568917
0.604761 0.260349 0.555489
0.656199 0.336385 0.59588
0.671565 0.363088 0.632654
0.697353 0.397589 0.662959
0 0.101335 0.479072
0 0.0977035 0.477821
0 0.0881971 0.486091
0.2486 0.104448 0.486748
0.473304 0.151263 0.603738
0.610254 0.267887 0.562112
0.657511 0.338338 0.600458
0.674372 0.367559 0.637095
0.77026 0.504479 0.778515
0 0.289448 0.681514
0 0.281514 0.672206
0 0.268696 0.6598
0.131304 0.207584 0.593545
0.479637 0.160388 0.624567
0.638102 0.306737 0.578286
0.657816 0.338811 0.601144
0.676783 0.370352 0.638575
0.824826 0.621775 0.821012
0.197971 0.567452 0.79144
0.19559 0.565942 0.79118
0.191852 0.563424 0.791699
0.169955 0.550729 0.78764
0.631022 0.616342 0.836194
0.80267 0.616846 0.774838
0.665705 0.353491 0.603983
0.676829 0.368246 0.631708
0.855985 0.706722 0.865812
0.471199 0.761532 0.946181
0.471595 0.7617 0.945769
0.474891 0.763333 0.943893
0.486259 0.768627 0.938918
0.643961 0.82414 0.934691
0.86688 0.862715 0.887373
0.90634 0.861158 0.897032
0.819974 0.640497 0.738674
0.848478 0.690211 0.844572
0.638239 0.866331 0.992355
0.638071 0.866728 0.992096
0.640345 0.869322 0.991943
0.647288 0.877485 0.989944
0.696223 0.900999 0.979477
0.90927 0.934386 0.957382
0.965988 0.962463 0.981888
0.962203 0.958846 0.971603
0.935119 0.899397 0.863294
0.680079 0.897353 0.995499
0.679194 0.897322 0.994949
0.681468 0.898665 0.994186
0.691768 0.903014 0.990585
0.802487 0.920012 0.984909
0.918715 0.943877 0.975692
0.968521 0.971496 0.996475
0.968719 0.971908 0.996979
0.970031 0.970703 0.994095
0.864363 0.928893 0.996536
0.862089 0.928344 0.995605
0.869703 0.930266 0.995926
0.88658 0.934798 0.995361
0.914305 0.944045 0.995438
0.945068 0.955764 0.999207
0.972473 0.972793 1
0.974227 0.973968 1
0.9691 0.974411 1
0 0.130663 0.525216
0.00112917 0.133135 0.531914
0.0597086 0.122255 0.515816
0.310765 0.127092 0.523552
0.504646 0.172015 0.650828
0.603922 0.25304 0.621027
0.662135 0.352422 0.638651
0.675502 0.372045 0.664256
0.685985 0.386587 0.67776
0 0.132158 0.525536
0 0.127565 0.522591
0.0213321 0.132525 0.536507
0.278111 0.12488 0.510216
0.500877 0.169116 0.648951
0.601709 0.250751 0.621973
0.661479 0.351446 0.636683
0.674495 0.370581 0.66212
0.684062 0.38407 0.674815
0 0.171328 0.557961
0 0.167712 0.554437
0 0.146288 0.53611
0.206653 0.124025 0.48864
0.504509 0.172381 0.651591
0.612421 0.26482 0.619898
0.663447 0.354009 0.642557
0.677348 0.374884 0.667597
0.712718 0.418357 0.714824
0 0.311727 0.711849
0 0.302846 0.701198
0 0.293324 0.688365
0.00881971 0.239658 0.634394
0.474891 0.16669 0.641352
0.647501 0.325383 0.635233
0.665217 0.356085 0.647379
0.679362 0.377874 0.671
0.790661 0.549798 0.814633
0.205631 0.572061 0.820371
0.202792 0.569955 0.819669
0.201617 0.568765 0.820081
0.183185 0.556023 0.811978
0.602701 0.599298 0.874067
0.796902 0.588403 0.849577
0.678599 0.376959 0.666545
0.680323 0.379156 0.672389
0.84596 0.675059 0.853529
0.450034 0.736706 0.943923
0.449638 0.736187 0.943542
0.44979 0.735836 0.943191
0.444068 0.731502 0.941024
0.567864 0.78883 0.963195
0.855497 0.850736 0.925353
0.900267 0.852674 0.938491
0.811353 0.59205 0.82121
0.832242 0.64506 0.842634
0.649149 0.861189 0.995499
0.649714 0.86154 0.995514
0.652949 0.863554 0.995666
0.661143 0.868681 0.996033
0.696864 0.881132 0.99794
0.901732 0.929717 0.990448
0.96141 0.960723 0.996506
0.956954 0.952224 0.982544
0.900496 0.862608 0.940475
0.710048 0.893965 0.999451
0.70988 0.894011 0.999405
0.713008 0.894926 0.999557
0.721157 0.897719 0.999985
0.803891 0.920073 0.999283
0.923186 0.949126 0.999588
0.974426 0.976349 1
0.974273 0.979782 1
0.97377 0.979599 1
0.857359 0.928603 1
0.857084 0.928634 1
0.867399 0.93051 1
0.887739 0.935637 1
0.916533 0.946273 0.999725
0.950484 0.961135 1
0.974548 0.976471 1
0.97496 0.980117 1
0.97467 0.979767 1
0 0.216602 0.608011
0.00030518 0.199786 0.590738
0 0.174411 0.564797
0.163333 0.123339 0.491203
0.495048 0.16936 0.648142
0.628809 0.296651 0.617533
0.662364 0.351202 0.64387
0.671092 0.36495 0.657877
0.681559 0.380789 0.674189
0 0.209384 0.59913
0 0.206638 0.596475
0 0.179995 0.570077
0.130983 0.123613 0.495979
0.487511 0.165957 0.644053
0.627344 0.294179 0.618463
0.662165 0.350896 0.643565
0.67071 0.36434 0.657252
0.680049 0.37879 0.671992
0 0.235035 0.62594
0 0.232914 0.624033
0 0.235111 0.628214
0.00112917 0.157015 0.551171
0.456336 0.152804 0.623896
0.6383 0.311177 0.62797
0.662898 0.352041 0.644755
0.672007 0.366384 0.659312
0.68574 0.386328 0.680278
0.0138094 0.393118 0.737285
0.0139315 0.391653 0.736355
0.034287 0.413016 0.734142
0.0319219 0.40267 0.730068
0.53724 0.341573 0.752544
0.641901 0.315114 0.657649
0.664836 0.355108 0.647852
0.673304 0.36846 0.661433
0.711437 0.417395 0.716106
0.243992 0.594583 0.840055
0.244312 0.594324 0.83946
0.25243 0.598276 0.841718
0.246845 0.59205 0.833387
0.56994 0.640513 0.897292
0.815061 0.648066 0.87187
0.73994 0.453712 0.756619
0.674662 0.370581 0.663539
0.804517 0.575509 0.821622
0.469459 0.741985 0.943633
0.469657 0.741802 0.943496
0.471153 0.742153 0.94345
0.467308 0.738842 0.941955
0.557916 0.789029 0.966232
0.849989 0.850278 0.934813
0.906371 0.85832 0.953002
0.839567 0.661204 0.847944
0.783764 0.536278 0.811887
0.631067 0.843732 0.993133
0.630976 0.843595 0.993164
0.633753 0.84593 0.994247
0.644114 0.853376 0.997818
0.675059 0.869703 0.999313
0.892348 0.921996 0.985794
0.954711 0.958648 0.989181
0.954238 0.948928 0.976883
0.903365 0.850767 0.947524
0.721325 0.895399 1
0.721736 0.895537 1
0.724819 0.896544 1
0.732219 0.898863 1
0.807248 0.919905 1
0.921904 0.951507 1
0.974533 0.972168 1
0.976059 0.974487 1
0.976028 0.973968 1
0.847471 0.927245 1
0.848524 0.927398 1
0.860426 0.929381 1
0.88368 0.937072 1
0.91397 0.94847 1
0.949218 0.960464 1
0.975631 0.97438 1
0.976379 0.976761 1
0.976272 0.976394 1
0 0.301289 0.689632
0 0.272557 0.665095
0.000656138 0.249546 0.644175
0 0.178546 0.568734
0.443015 0.156558 0.614908
0.633921 0.303349 0.633967
0.657832 0.344991 0.636973
0.665431 0.356023 0.648783
0.675181 0.371405 0.664378
0 0.263615 0.657023
0 0.263905 0.657328
0.000518807 0.243565 0.637812
0 0.174411 0.564843
0.433417 0.146517 0.606149
0.631556 0.299718 0.632792
0.65742 0.344411 0.636347
0.665171 0.355612 0.648371
0.674525 0.370382 0.66334
0 0.321111 0.702846
4.57771e-05 0.326146 0.706035
0.0558175 0.441947 0.738827
0.0320745 0.402914 0.730083
0.512459 0.342824 0.748547
0.631067 0.302373 0.666499
0.669673 0.362707 0.655604
0.666087 0.357061 0.649882
0.677073 0.374395 0.667414
0.0773785 0.471244 0.757656
0.0821851 0.475639 0.759014
0.139391 0.527047 0.78529
0.192691 0.560159 0.805646
0.527749 0.584985 0.864652
0.786633 0.581964 0.873045
0.683146 0.382895 0.676539
0.666743 0.358083 0.650904
0.680049 0.37879 0.671992
0.290379 0.622965 0.862745
0.294987 0.625513 0.864805
0.321477 0.641489 0.879744
0.341054 0.653056 0.88893
0.47718 0.719417 0.927794
0.823697 0.778729 0.900633
0.871809 0.748745 0.898177
0.66923 0.362005 0.654948
0.68423 0.384329 0.67808
0.490288 0.751827 0.947707
0.493431 0.753307 0.948714
0.500679 0.756878 0.95137
0.504326 0.758221 0.952773
0.563928 0.799237 0.972213
0.856489 0.869291 0.944381
0.920775 0.897276 0.972396
0.887953 0.801038 0.921065
0.685664 0.386221 0.680125
0.620081 0.828412 0.986465
0.620523 0.828687 0.986679
0.626642 0.832883 0.989487
0.639292 0.848676 0.995682
0.680125 0.872496 0.999786
0.895125 0.923735 0.987945
0.953979 0.959945 0.994354
0.954849 0.952544 0.977188
0.916793 0.886046 0.967773
0.724071 0.89572 1
0.724346 0.895796 1
0.727153 0.896788 1
0.733791 0.899229 1
0.809354 0.919463 1
0.917876 0.948852 1
0.973007 0.970367 1
0.976318 0.973159 1
0.976135 0.971603 1
0.842451 0.926757 1
0.843748 0.92694 1
0.857176 0.929198 1
0.882856 0.937224 1
0.913588 0.948714 1
0.948302 0.96022 1
0.975708 0.973556 1
0.976501 0.975982 1
0.976425 0.975662 1
