presets/XH_5219_B.cube
TITLE "Generated by Resolve"
LUT_3D_SIZE 9
0 0.000564584 0.0914626
0 0.00148013 0.0906996
0 0.016022 0.100069
0.294545 0.0187381 0.0949264
0.450599 0.100954 0.0900893
0.583185 0.242023 0.12723
0.620615 0.399176 0.336172
0.644541 0.388891 0.585107
0.708263 0.468772 0.736385
0 0.00233463 0.0957198
0 0.00370794 0.092958
0 0.013962 0.101854
0.283253 0.0174563 0.0947738
0.450935 0.093492 0.0902266
0.583368 0.232975 0.113542
0.612818 0.384436 0.310796
0.640696 0.381918 0.552087
0.674739 0.419226 0.665202
0 0.0632181 0.150484
0 0.0596475 0.147478
0.0239414 0.0973526 0.165469
0.370336 0.0541085 0.10724
0.42742 0.0729076 0.0910201
0.59292 0.229908 0.0995041
0.609613 0.368246 0.286397
0.640177 0.381979 0.537606
0.678004 0.424964 0.666529
0 0.371328 0.395514
0 0.366155 0.388022
0 0.372732 0.393744
0.380804 0.397482 0.0642252
0.669337 0.369924 0.103441
0.627619 0.281193 0.0912795
0.639841 0.330571 0.216831
0.636805 0.388861 0.480552
0.687877 0.440497 0.672984
0 0.602213 0.681117
0 0.604303 0.676814
0 0.621454 0.662684
0.0152132 0.673304 0.682704
0.702037 0.686519 0.350622
0.913222 0.71577 0.371084
0.885573 0.576806 0.217319
0.650477 0.387793 0.293568
0.713359 0.483528 0.679011
0.294057 0.806638 0.901061
0.28217 0.810559 0.896529
0.283406 0.813947 0.887892
0.260594 0.830503 0.871199
0.703655 0.88716 0.533059
0.920058 0.908217 0.612726
0.978469 0.899367 0.581277
0.963836 0.819776 0.448737
0.824582 0.570336 0.378286
0.482109 0.865141 0.9664
0.476921 0.868254 0.963623
0.472251 0.873228 0.959838
0.452384 0.891722 0.94815
0.507042 0.946975 0.924422
0.830915 0.971817 0.693782
0.932052 0.977966 0.782818
0.92665 0.98175 0.761746
0.960601 0.94818 0.645777
0.541772 0.896574 0.983597
0.538994 0.894667 0.981582
0.537514 0.896941 0.980072
0.52845 0.91014 0.976699
0.629465 0.943435 0.957504
0.847196 0.959838 0.925933
0.915846 0.983124 0.934096
0.932555 0.981567 0.960418
0.93019 0.981704 0.792172
0.801419 0.940185 0.994904
0.76672 0.940154 0.995087
0.771969 0.940322 0.995102
0.799588 0.940902 0.993194
0.851225 0.948501 0.99028
0.915221 0.962325 0.995346
0.950301 0.98143 0.999908
0.951095 0.987655 0.999985
0.958801 0.986862 1
0 0.000534066 0.0910658
0 0.00141909 0.0932021
0 0.0186465 0.106798
0.290959 0.0187991 0.0954452
0.439551 0.104524 0.0896162
0.575463 0.250874 0.147951
0.628794 0.405478 0.363119
0.64593 0.393149 0.595819
0.71516 0.481605 0.753353
0 0.00161746 0.0952926
0 0.00276188 0.0957046
0 0.0213169 0.101289
0.295186 0.0187991 0.0948959
0.45066 0.100984 0.0900893
0.582528 0.239841 0.124514
0.618723 0.396582 0.330175
0.643381 0.385657 0.577707
0.698207 0.452003 0.713603
0 0.0703288 0.164904
0 0.0619669 0.150118
0.0206455 0.095491 0.165087
0.37174 0.0518502 0.103899
0.436713 0.0832685 0.090074
0.595895 0.235477 0.106111
0.611872 0.380591 0.302922
0.643015 0.384588 0.56759
0.702434 0.45893 0.719524
0 0.372137 0.400641
0 0.369909 0.394644
0 0.362783 0.381064
0.37557 0.395285 0.0624552
0.666026 0.363378 0.102968
0.594827 0.258854 0.0910506
0.632059 0.337484 0.235004
0.641337 0.386526 0.525963
0.714183 0.478157 0.734478
0.000854505 0.597543 0.685161
0 0.602243 0.680995
0 0.614404 0.66688
0.00289921 0.663691 0.679194
0.69897 0.684611 0.348409
0.911391 0.714275 0.379141
0.878111 0.562921 0.198703
0.659236 0.433845 0.349981
0.742733 0.523735 0.745754
0.303212 0.801022 0.903273
0.293523 0.806592 0.901015
0.286915 0.813733 0.894789
0.271626 0.82884 0.878157
0.684901 0.887297 0.562493
0.920027 0.908049 0.612482
0.977783 0.897749 0.58088
0.953735 0.802533 0.462547
0.789273 0.601785 0.710292
0.486793 0.866178 0.968368
0.482765 0.866026 0.966476
0.477348 0.871717 0.962707
0.461402 0.886625 0.950545
0.481544 0.942763 0.924941
0.82742 0.971603 0.694057
0.932052 0.977966 0.782818
0.925872 0.982422 0.758938
0.981292 0.935866 0.61265
0.544045 0.898528 0.985183
0.542 0.896895 0.983719
0.540703 0.89836 0.982101
0.534691 0.910567 0.979248
0.629862 0.941939 0.960571
0.845212 0.958831 0.928847
0.917174 0.982727 0.936522
0.932448 0.981613 0.960266
0.93019 0.981689 0.792096
0.813657 0.941863 0.995026
0.803723 0.940291 0.994904
0.806714 0.940948 0.994476
0.821302 0.943694 0.992889
0.860655 0.950011 0.995102
0.915709 0.962554 0.996612
0.949905 0.981216 0.999924
0.951019 0.987716 0.999985
0.958801 0.986862 1
0 0.00360113 0.0993668
0 0.00729381 0.103914
0 0.0225528 0.11751
0.288685 0.0269322 0.100694
0.427207 0.114229 0.102205
0.561852 0.271611 0.188449
0.630289 0.397345 0.400244
0.64686 0.394751 0.605417
0.715633 0.482994 0.756619
0 0.00518807 0.0998703
0 0.00453193 0.101411
0 0.023682 0.118105
0.298985 0.0225071 0.0950484
0.429679 0.107561 0.0918898
0.569528 0.253712 0.157412
0.62916 0.405463 0.36585
0.644358 0.389471 0.58819
0.698894 0.452934 0.717983
0 0.0656291 0.175357
0 0.0658427 0.175235
0.0151369 0.107301 0.197925
0.416129 0.072221 0.108888
0.451072 0.104524 0.0899519
0.585336 0.246921 0.132753
0.625284 0.40322 0.349279
0.647929 0.396933 0.603159
0.736889 0.526894 0.790326
0 0.370748 0.424002
0 0.373297 0.41149
0 0.365881 0.396002
0.361028 0.400336 0.0683299
0.646891 0.343496 0.11664
0.616114 0.255421 0.0916304
0.615763 0.353475 0.266484
0.64596 0.388739 0.574975
0.747051 0.535927 0.792111
0.00849927 0.586694 0.693874
0.00128176 0.590799 0.689281
0 0.600259 0.678111
0 0.639078 0.66038
0.685115 0.674342 0.336065
0.899153 0.702403 0.407233
0.868757 0.549218 0.181994
0.674784 0.466667 0.435309
0.763119 0.559335 0.788403
0.312825 0.793561 0.905135
0.304616 0.796887 0.902983
0.291447 0.807019 0.901396
0.272786 0.823529 0.87982
0.614694 0.889509 0.653208
0.913451 0.906523 0.607034
0.965759 0.895705 0.627482
0.949783 0.795331 0.467079
0.806577 0.636637 0.751781
0.492866 0.867231 0.971679
0.489326 0.867063 0.969619
0.486763 0.871656 0.966995
0.472343 0.884291 0.955688
0.445823 0.939071 0.927016
0.819669 0.972442 0.705516
0.932113 0.97789 0.782742
0.928054 0.980545 0.766415
0.982986 0.931167 0.609186
0.546059 0.899535 0.986572
0.544198 0.897978 0.985489
0.543282 0.89955 0.984161
0.541451 0.910613 0.982086
0.633982 0.940139 0.963958
0.846128 0.957595 0.933761
0.920378 0.9823 0.943175
0.93167 0.982071 0.959213
0.929946 0.982315 0.793927
0.814054 0.941802 0.995392
0.803815 0.940185 0.995132
0.812284 0.941695 0.994736
0.825025 0.944381 0.993713
0.861494 0.950149 0.996338
0.915358 0.962493 0.996979
0.94963 0.981125 1
0.950729 0.988006 1
0.958831 0.986847 1
0 0.0138247 0.181262
0 0.0184024 0.206943
0 0.0504463 0.231769
0.146517 0.0681468 0.172366
0.397055 0.121965 0.252949
0.559472 0.301198 0.328008
0.627008 0.369528 0.493812
0.650568 0.392798 0.635187
0.716854 0.48867 0.766979
0 0.0138552 0.174853
0 0.0145571 0.188678
0 0.0466316 0.253742
0.147555 0.0683909 0.172854
0.395438 0.119371 0.241062
0.55433 0.31606 0.289204
0.624704 0.371511 0.468452
0.647486 0.392432 0.619318
0.702007 0.457725 0.732433
0 0.0737469 0.283497
0 0.0705425 0.294759
0 0.0839246 0.347173
0.210666 0.0909133 0.207095
0.403708 0.118975 0.2224
0.551537 0.312596 0.251667
0.62591 0.375402 0.458473
0.651118 0.394171 0.633707
0.742473 0.53138 0.796826
0 0.332448 0.483742
0 0.332128 0.483635
0 0.333608 0.484276
0.319051 0.401068 0.542763
0.608011 0.367575 0.267674
0.59646 0.268009 0.155932
0.631632 0.408743 0.366232
0.657191 0.402747 0.634028
0.795514 0.613016 0.834989
0.0754864 0.572503 0.719783
0.0717937 0.572763 0.71873
0.0642252 0.576059 0.718364
0.00657664 0.6094 0.694621
0.643839 0.682521 0.441779
0.863783 0.685924 0.460761
0.806149 0.476295 0.185809
0.675486 0.425986 0.55639
0.798459 0.621225 0.837781
0.357519 0.78204 0.916609
0.347173 0.783429 0.914763
0.336675 0.788602 0.914137
0.304707 0.809308 0.899413
0.474525 0.889723 0.849561
0.894499 0.900298 0.608896
0.94638 0.895018 0.671244
0.935668 0.783688 0.450492
0.813367 0.655192 0.81796
0.510506 0.866789 0.979843
0.506783 0.86717 0.978241
0.504784 0.871717 0.977905
0.497017 0.885359 0.971359
0.454078 0.936446 0.93991
0.803479 0.976059 0.754116
0.93048 0.981674 0.792966
0.9308 0.98024 0.787854
0.984863 0.918425 0.596353
0.550561 0.901778 0.989029
0.549355 0.900679 0.988434
0.548806 0.902449 0.987823
0.550881 0.912184 0.98735
0.647822 0.936202 0.974136
0.853819 0.953246 0.946258
0.928527 0.980865 0.961563
0.930175 0.982818 0.957107
0.92929 0.984054 0.807919
0.815015 0.941695 0.99649
0.804501 0.939895 0.995834
0.813413 0.941527 0.995819
0.83415 0.945907 0.99704
0.863966 0.950698 0.997955
0.914458 0.962386 0.998199
0.950866 0.98114 1
0.953262 0.987793 1
0.958968 0.986831 1
0 0.0243076 0.374838
0 0.0297551 0.405325
0 0.050309 0.451392
0.171359 0.0629587 0.456336
0.424277 0.1093 0.508949
0.572412 0.282185 0.517082
0.634134 0.371481 0.63238
0.658427 0.396811 0.685725
0.730129 0.506935 0.791684
0 0.0223239 0.371435
0 0.0251774 0.387778
0 0.043473 0.455009
0.154543 0.0638132 0.456214
0.423697 0.108919 0.507881
0.568322 0.277562 0.507088
0.632288 0.370459 0.622461
0.656443 0.394354 0.676722
0.714443 0.479149 0.77203
0 0.0474708 0.419867
0 0.0458076 0.428275
0 0.0300908 0.447074
0.17467 0.0634928 0.508293
0.438437 0.121263 0.532403
0.570657 0.281315 0.502525
0.632883 0.371649 0.620386
0.660731 0.398871 0.685344
0.754788 0.552834 0.815778
0 0.300359 0.668818
0 0.294484 0.674907
0 0.278233 0.682551
0.203952 0.30573 0.664866
0.542428 0.250736 0.655543
0.583841 0.300114 0.503532
0.631327 0.373541 0.592798
0.673594 0.413397 0.69131
0.807111 0.630625 0.855024
0.0978103 0.568856 0.773754
0.098909 0.569192 0.774929
0.0997177 0.569482 0.776135
0.106065 0.574578 0.777752
0.618982 0.668009 0.774105
0.806043 0.701411 0.695918
0.68571 0.471931 0.473457
0.689784 0.441718 0.679469
0.841215 0.693812 0.887083
0.388495 0.772946 0.940078
0.38761 0.773404 0.938811
0.390478 0.777142 0.937835
0.389105 0.790509 0.932342
0.539788 0.866392 0.908354
0.829679 0.902953 0.799878
0.921279 0.895354 0.855802
0.885618 0.729976 0.599344
0.835615 0.68249 0.87216
0.552819 0.867948 0.993118
0.550729 0.868223 0.994446
0.55024 0.872435 0.995239
0.546746 0.883223 0.989364
0.554391 0.926894 0.981643
0.850278 0.958679 0.934203
0.923003 0.984543 0.94667
0.900969 0.986908 0.916945
0.979751 0.904372 0.561883
0.571252 0.902251 0.996429
0.569177 0.901869 0.995453
0.567849 0.903975 0.994766
0.572931 0.914427 0.994797
0.679759 0.93724 0.982483
0.871015 0.952529 0.961151
0.935912 0.980636 0.988907
0.944015 0.975326 0.980285
0.928405 0.983703 0.95462
0.814343 0.941649 0.99852
0.806592 0.940078 0.997833
0.816663 0.942138 0.998306
0.837171 0.946319 0.99939
0.871046 0.952438 0.999741
0.915801 0.962936 0.999451
0.955642 0.981796 1
0.961913 0.986526 1
0.959411 0.986786 1
0 0.0696117 0.539956
0 0.0755474 0.557595
0.0115663 0.0770428 0.536156
0.285725 0.0792248 0.593088
0.429023 0.124086 0.668849
0.58941 0.279652 0.651637
0.645289 0.385214 0.707393
0.665476 0.410422 0.740001
0.711757 0.474113 0.787808
0 0.0680705 0.534096
0 0.070161 0.541314
0 0.0724651 0.549722
0.263478 0.080354 0.580011
0.423804 0.120851 0.667521
0.587549 0.275166 0.650675
0.643748 0.38439 0.703365
0.664469 0.408347 0.738582
0.686473 0.441428 0.763378
0 0.104723 0.567361
0 0.100832 0.56466
0 0.0893416 0.564996
0.224704 0.0936599 0.563287
0.458762 0.141955 0.68368
0.591943 0.285939 0.653315
0.645914 0.385794 0.708629
0.667414 0.412833 0.741939
0.759289 0.551858 0.823316
0 0.29456 0.734646
0 0.285084 0.728878
0 0.26891 0.712901
0.0687419 0.212818 0.672602
0.471809 0.162188 0.704494
0.61387 0.336797 0.671611
0.646311 0.386191 0.709361
0.669947 0.415381 0.744366
0.820417 0.651621 0.876997
0.0872053 0.568154 0.817166
0.0842603 0.567086 0.817609
0.0786603 0.565408 0.819287
0.0538796 0.553353 0.819593
0.577585 0.630335 0.889311
0.792676 0.627405 0.851667
0.656413 0.397986 0.718746
0.670832 0.412665 0.744045
0.860975 0.727306 0.905364
0.400549 0.760952 0.953887
0.400717 0.761074 0.953964
0.403372 0.76286 0.955413
0.412985 0.770809 0.962524
0.558862 0.839109 0.963714
0.833173 0.876066 0.924346
0.892393 0.881849 0.940078
0.818128 0.665583 0.82591
0.851575 0.713161 0.898085
0.581872 0.863752 0.994034
0.581247 0.863966 0.993576
0.582635 0.866468 0.993561
0.587777 0.876112 0.997909
0.610605 0.909773 1
0.877928 0.947295 0.988983
0.94931 0.971847 0.996979
0.951675 0.969177 0.992569
0.920348 0.915389 0.897337
0.614511 0.89836 0.999344
0.613321 0.898268 0.99913
0.614008 0.90016 0.998947
0.618891 0.907362 0.999817
0.72929 0.9346 0.996994
0.884947 0.955718 0.998428
0.950164 0.980941 1
0.954772 0.987442 1
0.951736 0.98677 0.999969
0.811444 0.946303 1
0.807797 0.945205 1
0.820401 0.947204 1
0.845457 0.948394 1
0.882734 0.954635 1
0.916777 0.969818 1
0.957946 0.985107 1
0.960342 0.991928 1
0.959121 0.994263 1
0 0.112856 0.605005
0 0.114946 0.612329
0.0181582 0.117388 0.5906
0.267689 0.128481 0.59971
0.481483 0.179126 0.704936
0.581292 0.281117 0.680873
0.649485 0.394659 0.725231
0.660914 0.411627 0.7364
0.670985 0.427436 0.747036
0 0.114702 0.602121
0 0.109926 0.601526
0.000457771 0.119982 0.613779
0.236744 0.125902 0.59147
0.476692 0.175692 0.703319
0.579232 0.27866 0.679362
0.649165 0.394186 0.724926
0.660136 0.410437 0.735622
0.669383 0.424903 0.745357
0 0.155825 0.632013
0 0.151995 0.631388
0 0.129793 0.62533
0.170932 0.117144 0.572976
0.477089 0.177844 0.705608
0.590784 0.293263 0.688441
0.650095 0.395514 0.72578
0.662516 0.41413 0.738064
0.698924 0.458946 0.772168
0 0.305562 0.726757
0 0.296284 0.720211
0 0.288228 0.710811
0 0.219226 0.695277
0.448631 0.175982 0.692836
0.62797 0.344228 0.714763
0.65095 0.39675 0.726574
0.664271 0.416876 0.73994
0.779065 0.588708 0.84033
0.119722 0.576333 0.828672
0.118212 0.574594 0.827832
0.119677 0.574075 0.827176
0.100938 0.562036 0.816098
0.537408 0.613001 0.904433
0.783291 0.600259 0.875319
0.664714 0.417563 0.740398
0.665141 0.418235 0.740841
0.841825 0.691707 0.888289
0.39501 0.731838 0.931365
0.394797 0.73135 0.931075
0.395209 0.731044 0.930846
0.389715 0.726833 0.928893
0.491234 0.800473 0.972625
0.82153 0.85948 0.9505
0.889372 0.866072 0.966247
0.805508 0.628244 0.862898
0.827131 0.667033 0.88098
0.593957 0.858991 0.990768
0.594339 0.859236 0.990585
0.59675 0.860792 0.989593
0.604532 0.867216 0.989593
0.635752 0.887846 1
0.872145 0.940108 0.99736
0.935821 0.975753 0.999451
0.938476 0.969268 0.987411
0.894255 0.876463 0.970932
0.651591 0.901396 0.999954
0.65156 0.901381 0.999954
0.653605 0.903044 0.999985
0.660609 0.906691 1
0.740307 0.934401 1
0.891936 0.964569 1
0.959991 0.983108 1
0.961913 0.986877 1
0.961776 0.987152 1
0.803967 0.943435 1
0.803754 0.943374 1
0.81767 0.945281 1
0.844999 0.949279 1
0.881849 0.96257 1
0.924437 0.974319 1
0.960082 0.983185 1
0.961913 0.987396 1
0.961913 0.987213 1
0 0.197757 0.673884
0 0.18117 0.665187
0 0.15639 0.649012
0.123049 0.113817 0.56701
0.464042 0.167773 0.699931
0.603006 0.310704 0.693507
0.647578 0.391928 0.72343
0.656443 0.4047 0.731746
0.666224 0.419959 0.742
0 0.190967 0.670314
0 0.188098 0.668803
0 0.161822 0.653559
0.084947 0.117815 0.572183
0.456504 0.163546 0.695674
0.601938 0.307393 0.693935
0.647318 0.391546 0.723186
0.656092 0.40412 0.731365
0.664897 0.417868 0.740581
0 0.21973 0.68188
0 0.216922 0.680903
0 0.217945 0.68127
0 0.133898 0.632105
0.429419 0.153826 0.680491
0.615885 0.329107 0.704311
0.648142 0.392721 0.723934
0.657389 0.406149 0.732723
0.669932 0.425788 0.745937
0 0.392615 0.73637
0 0.390753 0.736065
0 0.411917 0.741894
0 0.39968 0.738659
0.496696 0.348287 0.804898
0.616739 0.332387 0.715831
0.650111 0.395575 0.725811
0.658579 0.40798 0.733944
0.697322 0.45713 0.77026
0.166278 0.598672 0.841215
0.165759 0.598291 0.840955
0.172442 0.601816 0.843793
0.158251 0.593942 0.83743
0.486015 0.659754 0.921324
0.797879 0.654108 0.902571
0.725887 0.491249 0.799741
0.659846 0.409979 0.735302
0.795102 0.614343 0.853468
0.410101 0.73637 0.932998
0.409735 0.736156 0.932937
0.409827 0.736217 0.932937
0.403861 0.732845 0.932036
0.480735 0.791638 0.97319
0.813245 0.857237 0.953201
0.89221 0.868925 0.969741
0.832975 0.680568 0.883574
0.772 0.575952 0.833555
0.570138 0.835554 0.981567
0.56994 0.835431 0.981506
0.572747 0.839399 0.984909
0.581415 0.85005 0.991424
0.605158 0.871748 0.998535
0.851896 0.930053 0.994156
0.933837 0.96788 0.998398
0.938872 0.962493 0.982925
0.887877 0.864561 0.964614
0.652049 0.901854 0.999939
0.652308 0.902037 0.999939
0.654292 0.903548 0.999969
0.660395 0.906355 1
0.731426 0.933867 1
0.886213 0.963134 1
0.957153 0.981018 1
0.961929 0.985519 1
0.961929 0.985458 1
0.783917 0.939162 1
0.785275 0.939406 1
0.801648 0.942885 1
0.834211 0.947341 1
0.874037 0.961013 1
0.918685 0.973434 1
0.960067 0.983185 1
0.961913 0.98735 1
0.961913 0.987305 1
0 0.298802 0.705425
0 0.262333 0.694575
0 0.233524 0.686671
0 0.160403 0.652369
0.421134 0.1617 0.67747
0.609796 0.319387 0.703288
0.643168 0.385718 0.719402
0.650736 0.396445 0.726375
0.660334 0.410742 0.735821
0 0.251713 0.691966
0 0.251865 0.691997
0 0.226932 0.684382
0 0.15639 0.649012
0.413077 0.153048 0.671275
0.607309 0.316197 0.701442
0.642695 0.385046 0.718959
0.650416 0.395972 0.726055
0.659724 0.409781 0.735164
0 0.323796 0.716075
0 0.329473 0.718395
0 0.442069 0.749111
0 0.399802 0.738689
0.473274 0.347097 0.801266
0.604578 0.322194 0.711818
0.655116 0.402701 0.730419
0.651362 0.39733 0.72694
0.66215 0.41355 0.737682
0 0.477104 0.761288
0 0.481682 0.763119
0.0424048 0.528634 0.788556
0.100328 0.561105 0.811749
0.455619 0.595819 0.900206
0.771069 0.589944 0.904555
0.667659 0.422202 0.743481
0.652094 0.398383 0.727626
0.664897 0.417868 0.740581
0.212879 0.622782 0.861387
0.216678 0.624582 0.862943
0.243641 0.638926 0.873823
0.262943 0.650065 0.881514
0.38854 0.729931 0.924346
0.790494 0.786938 0.927962
0.867674 0.763668 0.923491
0.654627 0.401968 0.729931
0.668544 0.423606 0.744457
0.424765 0.74464 0.935378
0.42678 0.745678 0.936843
0.431418 0.748089 0.94023
0.432898 0.748852 0.941314
0.493462 0.799817 0.974731
0.815305 0.880293 0.959884
0.896574 0.905303 0.979355
0.87895 0.814878 0.950561
0.669932 0.425788 0.745937
0.558206 0.827283 0.971283
0.558511 0.827543 0.971405
0.563363 0.830777 0.974075
0.576181 0.843549 0.988174
0.609995 0.87393 0.998489
0.855146 0.931991 0.994873
0.931792 0.968353 0.999619
0.938857 0.966476 0.984482
0.898665 0.897353 0.979583
0.651637 0.901732 0.999954
0.651728 0.901823 0.999969
0.653498 0.903243 1
0.65951 0.905547 1
0.732998 0.933883 1
0.880079 0.960678 1
0.953307 0.979431 1
0.961944 0.985046 1
0.961959 0.983749 1
0.77615 0.937591 1
0.777905 0.937911 1
0.79588 0.941482 1
0.832517 0.946792 1
0.872831 0.960372 1
0.917098 0.973068 1
0.959655 0.982803 1
0.961913 0.987305 1
0.961913 0.987274 1
