presets/XH_5219_Y.cube
TITLE "Generated by Resolve"
LUT_3D_SIZE 33
0 0.0318761 0
0 0.0318761 0
0 0.0318761 0
0 0.0318761 0
0 0.0332494 0
0 0.0339971 0
0 0.0365301 0
7.62951e-05 0.0408637 0
0.00497444 0.044419 0
0.0437934 0.0408179 0
0.125261 0.036408 0
0.238499 0.0417945 0
0.323537 0.0521248 0
0.386099 0.0612497 0
0.441886 0.0832074 0
0.488594 0.104891 0
0.528695 0.138827 0
0.554101 0.18143 0
0.579507 0.213199 0
0.626673 0.24686 0
0.675364 0.28069 4.57771e-05
0.704311 0.326375 0.0270695
0.726787 0.375463 0.122881
0.721141 0.399237 0.190555
0.711955 0.429129 0.266239
0.66833 0.406638 0.308797
0.635843 0.360769 0.348058
0.641108 0.35259 0.401694
0.64889 0.356054 0.443458
0.653986 0.360571 0.475639
0.666682 0.375616 0.516106
0.689677 0.405371 0.569436
0.710979 0.4365 0.611399
0 0.0318761 0
0 0.0318761 0
0 0.0318761 0
0 0.0318608 0
0 0.0331731 0
0 0.0339208 0
0 0.0363012 0
4.57771e-05 0.0406348 0
0.00424201 0.0444648 0
0.0426947 0.0409094 0
0.125261 0.036408 0
0.238499 0.0417945 0
0.323537 0.0521248 0
0.386099 0.0612497 0
0.441886 0.0832074 0
0.488594 0.104891 0
0.528695 0.138827 0
0.553979 0.181048 0
0.578531 0.212329 0
0.624247 0.245182 0
0.672663 0.278355 0
0.702342 0.321904 0.0193484
0.726497 0.372656 0.115496
0.722438 0.395956 0.182162
0.712612 0.424811 0.253285
0.684413 0.421225 0.309209
0.638544 0.367514 0.33666
0.638682 0.352193 0.389242
0.646891 0.354543 0.431601
0.652293 0.358984 0.463981
0.656336 0.362829 0.48983
0.675486 0.386481 0.536538
0.69395 0.412268 0.578653
0 0.0318761 0
0 0.0318761 0
0 0.0318761 0
0 0.0318608 0
0 0.0330205 0
0 0.0336461 0
0 0.0352789 0
0 0.0393225 0
0.000579843 0.0442206 0
0.0282292 0.0422522 0
0.107744 0.0370184 0
0.223026 0.0401923 0
0.317006 0.0510567 0
0.382681 0.0607767 0
0.440101 0.0823224 0
0.48661 0.103853 0
0.526375 0.136172 0
0.552972 0.178241 0
0.576684 0.210666 0
0.621408 0.243076 0
0.669718 0.276188 0
0.700587 0.31812 0.0132296
0.726299 0.370489 0.109743
0.722957 0.393652 0.175616
0.713085 0.422126 0.24506
0.695048 0.430854 0.309392
0.641627 0.373297 0.330083
0.637766 0.353552 0.380224
0.645457 0.353643 0.42266
0.650965 0.357748 0.455421
0.654841 0.361425 0.480705
0.666072 0.374945 0.513817
0.682872 0.396002 0.55407
0 0.0316625 0
0 0.031693 0
0 0.0318456 0
0 0.0318761 0
0 0.0331579 0
0 0.033753 0
0 0.0345922 0
0 0.0382239 0
0.000381476 0.0431373 0
0.0159457 0.0432288 0
0.0905623 0.0376593 0
0.20589 0.0383764 0
0.31136 0.0504616 0
0.376944 0.0601663 0
0.434791 0.0797131 0
0.482994 0.101976 0
0.52398 0.133288 0
0.552224 0.17554 0
0.574853 0.208835 0
0.618891 0.241001 0
0.666911 0.274006 0
0.698863 0.314137 0.00683604
0.726116 0.368475 0.104341
0.723537 0.391241 0.168704
0.713924 0.418616 0.236408
0.705211 0.439704 0.308507
0.644816 0.379339 0.323018
0.637171 0.35584 0.37023
0.64358 0.353323 0.413214
0.649409 0.356497 0.44625
0.653544 0.360204 0.471946
0.657816 0.36466 0.493706
0.67274 0.383124 0.530236
0 0.0332952 0
0 0.0331579 0
0 0.0333562 0
0 0.0348516 0
0 0.0365911 0
0 0.0379797 0
0 0.0401923 0
0 0.0425116 0
0.000564584 0.0458839 0
0.0237736 0.0444343 0
0.092195 0.0384833 0
0.195697 0.0371099 0
0.312078 0.0500038 0
0.38117 0.0609293 0
0.437858 0.0812238 0
0.4822 0.101289 0
0.524895 0.132479 0
0.554879 0.175051 0
0.577279 0.208072 0
0.62002 0.240101 0
0.66688 0.27306 0
0.699214 0.31252 0.00463874
0.726177 0.366171 0.0976577
0.724498 0.389502 0.162844
0.715343 0.416129 0.23006
0.710307 0.443717 0.30695
0.646525 0.382467 0.319997
0.637217 0.356802 0.367712
0.643336 0.353536 0.41117
0.649332 0.356558 0.4448
0.653468 0.360174 0.470909
0.658381 0.365484 0.493996
0.673274 0.383886 0.53048
0 0.0389868 0
0 0.03888 0
0 0.0381323 0
0 0.0393683 0
0 0.0419776 0
0 0.0446632 0
0 0.0480049 0
0 0.0501106 0
0.00144961 0.0504616 0
0.0287175 0.0461433 0
0.105516 0.0399176 0
0.215717 0.040177 0
0.298848 0.0464332 0
0.374136 0.0599374 0
0.436133 0.0801709 0
0.485267 0.102541 0
0.524392 0.130114 0
0.557107 0.174395 0
0.578988 0.207462 0
0.62121 0.239185 0
0.666804 0.272023 0
0.699611 0.311101 0.00408942
0.726314 0.363851 0.0907759
0.725597 0.387778 0.156802
0.716777 0.413413 0.223209
0.710918 0.441962 0.301472
0.64802 0.385229 0.317327
0.637217 0.357778 0.364782
0.643015 0.353643 0.409018
0.649271 0.356619 0.443473
0.653468 0.360235 0.469947
0.658854 0.366232 0.494102
0.673884 0.384756 0.5308
0 0.0496071 0
0 0.0493324 0
0 0.0480354 0
0 0.0477302 0
0 0.0502937 0
6.10361e-05 0.0538033 0
0.00109865 0.0586099 0
0.00520333 0.0637522 0
0.0281376 0.0628367 0
0.0631266 0.0573892 0
0.124605 0.0488136 0
0.219974 0.0422217 0
0.316686 0.0514229 0
0.373083 0.05832 0
0.42266 0.0734722 0
0.481392 0.100114 0
0.527779 0.132631 0
0.557473 0.173358 0
0.579522 0.207141 0
0.621164 0.238468 0
0.666606 0.270542 0
0.700023 0.309224 0.00300603
0.726345 0.36112 0.0826123
0.72697 0.385641 0.14934
0.718608 0.410529 0.215702
0.711818 0.439597 0.293858
0.650416 0.389578 0.313329
0.637201 0.359152 0.360616
0.64268 0.353887 0.406302
0.649073 0.356573 0.441474
0.653437 0.360296 0.468681
0.659434 0.367147 0.494087
0.674617 0.385824 0.531075
0.00178531 0.0603494 0
0.00166323 0.0601968 0
0.000915541 0.0592966 0
0.000762951 0.0588998 0
0.00425727 0.0614176 0
0.00863661 0.0652323 0
0.0145266 0.0737469 0
0.0254826 0.0822919 0
0.0673838 0.0849165 0
0.136522 0.0762646 0
0.203601 0.0682994 0
0.286717 0.0688945 0
0.344915 0.0680247 0
0.382803 0.064332 0
0.429465 0.0749676 0
0.46746 0.0914321 0
0.516579 0.120836 0
0.560204 0.176684 0
0.580255 0.206546 0
0.620783 0.237491 0
0.664057 0.268574 0
0.700587 0.306508 0.00077821
0.725933 0.356924 0.0706188
0.729152 0.382757 0.138705
0.721294 0.407019 0.20618
0.712947 0.436316 0.283406
0.657435 0.39762 0.311009
0.637247 0.361089 0.355184
0.642206 0.354055 0.403082
0.648905 0.356603 0.439094
0.653361 0.360357 0.46688
0.66041 0.368627 0.494377
0.675563 0.387167 0.531594
0.023331 0.082414 0.012314
0.0232242 0.0818189 0.0113985
0.0225834 0.0779431 0.00552377
0.0212558 0.0745861 0.00109865
0.0236667 0.0764019 0.00204471
0.0296788 0.0817121 0.00610361
0.0416266 0.0929274 0.0149691
0.0555886 0.107042 0.0190127
0.0842603 0.116243 0.00244144
0.164584 0.112459 0.0037232
0.307576 0.107301 0
0.383383 0.0991684 0
0.413886 0.0965286 0
0.439918 0.0941024 0
0.454612 0.088777 0
0.467674 0.090013 0
0.509163 0.114809 0
0.538537 0.151461 0
0.583337 0.208225 0
0.618585 0.235782 0
0.659998 0.265568 0
0.701244 0.30341 0
0.725612 0.351293 0.053666
0.729625 0.377615 0.123247
0.725231 0.402136 0.192844
0.714534 0.432395 0.270237
0.672206 0.411307 0.312291
0.637278 0.363638 0.347906
0.641566 0.354528 0.39791
0.648692 0.35671 0.435599
0.65333 0.360479 0.464637
0.661585 0.370398 0.494926
0.676905 0.389105 0.532296
0.027451 0.129961 0.0772564
0.0274662 0.129717 0.0768444
0.0276951 0.12488 0.0691844
0.0278172 0.119646 0.0605631
0.0278325 0.119112 0.0586557
0.0315404 0.121019 0.0598917
0.0417029 0.130816 0.0696727
0.0678569 0.147784 0.0815137
0.0965133 0.158175 0.0795605
0.176516 0.157 0.0279545
0.294499 0.153521 0.00199893
0.456077 0.162661 0
0.497459 0.142794 0
0.52192 0.146914 0
0.532097 0.14139 0
0.531472 0.133654 0
0.518761 0.123568 0
0.530205 0.148287 0
0.548806 0.187335 0
0.610574 0.232471 0
0.659998 0.266163 0
0.701915 0.298955 0
0.725643 0.344656 0.0340581
0.73019 0.370672 0.101976
0.72845 0.396277 0.173632
0.716777 0.427039 0.251682
0.691264 0.429099 0.314305
0.641215 0.371527 0.339376
0.640589 0.355001 0.390906
0.648325 0.35671 0.43122
0.653254 0.360601 0.461784
0.66305 0.372625 0.495338
0.678721 0.391699 0.53315
0.0195926 0.194842 0.165652
0.0195926 0.194842 0.165652
0.0204318 0.189609 0.158572
0.0215915 0.183825 0.150347
0.0220035 0.183139 0.149172
0.0224308 0.181537 0.146777
0.0267491 0.183841 0.147845
0.0457465 0.199588 0.16173
0.091722 0.214298 0.162036
0.154849 0.219135 0.101884
0.274784 0.216602 0.0289769
0.405829 0.219135 6.10361e-05
0.549798 0.234318 0.00436408
0.59675 0.230243 0.0016022
0.610086 0.227176 0
0.616251 0.223346 0
0.609964 0.211841 0
0.578561 0.192813 0
0.528374 0.182239 0
0.556893 0.204593 0
0.629236 0.252445 0
0.703197 0.298726 0
0.725902 0.33579 0.0114595
0.730129 0.361135 0.0725261
0.733577 0.389151 0.148028
0.722225 0.418067 0.228061
0.713314 0.448676 0.313741
0.647242 0.382498 0.329641
0.640314 0.358068 0.380606
0.64773 0.356863 0.424613
0.653025 0.360678 0.457267
0.665003 0.375586 0.495048
0.680888 0.394858 0.533867
0.0101472 0.270741 0.251209
0.0101472 0.270741 0.251209
0.0106966 0.267353 0.247211
0.011368 0.262959 0.241794
0.0117037 0.260868 0.238346
0.0118868 0.259831 0.236225
0.0122377 0.257527 0.233265
0.0168154 0.263645 0.240192
0.0479438 0.285985 0.263981
0.129961 0.291447 0.222049
0.236759 0.300038 0.0724651
0.359197 0.29749 0.0166171
0.471458 0.295995 0
0.607614 0.294179 0.000167849
0.67216 0.30399 0.00715648
0.687312 0.297658 0
0.687526 0.293431 0
0.686656 0.286336 0
0.663279 0.265248 0
0.579217 0.223606 0
0.571115 0.224781 0
0.662745 0.269444 0
0.726406 0.328893 0
0.729671 0.347845 0.0319066
0.734874 0.376913 0.109789
0.730755 0.406561 0.195483
0.717067 0.439918 0.285328
0.655665 0.397772 0.31632
0.640345 0.362829 0.367391
0.646448 0.357717 0.41471
0.652583 0.360815 0.450431
0.66772 0.37966 0.494942
0.683665 0.398886 0.534905
0 0.355138 0.315877
0 0.355138 0.315877
0 0.353002 0.313909
0 0.350179 0.311101
0 0.349035 0.308827
1.5259e-05 0.349462 0.307729
9.15541e-05 0.347021 0.303334
0.00015259 0.343648 0.299306
0.00236515 0.355947 0.313252
0.0512551 0.376471 0.331121
0.195071 0.370809 0.241947
0.323964 0.380774 0.0426642
0.436728 0.381491 0.0343175
0.539818 0.382528 0.0135805
0.612589 0.377569 0.00393683
0.66157 0.370092 0
0.682414 0.363378 0
0.69424 0.359335 0
0.699855 0.349294 0
0.700099 0.328145 0
0.668757 0.290486 0
0.610239 0.251286 0
0.689555 0.286488 0
0.730007 0.336187 0.00494392
0.733745 0.358312 0.0526284
0.738384 0.392721 0.148653
0.724056 0.426368 0.243763
0.69688 0.436439 0.321172
0.641505 0.370764 0.34963
0.645014 0.35903 0.402289
0.654414 0.364279 0.444541
0.670924 0.384527 0.493568
0.687327 0.404227 0.535943
0.00015259 0.427848 0.369284
0.00015259 0.427848 0.369284
0.000122072 0.426856 0.367864
6.10361e-05 0.42533 0.365423
0 0.42504 0.36318
0 0.424659 0.360876
0 0.425834 0.359808
0 0.423392 0.353567
0 0.419791 0.347524
0.00697337 0.437263 0.368551
0.0830243 0.452995 0.374426
0.278248 0.446632 0.238315
0.41854 0.450401 0.115129
0.53312 0.448035 0.122606
0.601083 0.463355 0.128222
0.662425 0.463828 0.127947
0.720607 0.464622 0.0603037
0.759289 0.457084 0.00141909
0.774777 0.444297 0
0.779278 0.433539 0
0.770809 0.409873 0
0.749493 0.359243 0
0.65449 0.276097 0
0.678813 0.284001 0
0.73373 0.340444 0.00584421
0.738018 0.368246 0.0722972
0.738155 0.407034 0.18555
0.720607 0.444633 0.291264
0.655314 0.395758 0.328359
0.644053 0.363439 0.384192
0.659571 0.372198 0.441611
0.675456 0.39147 0.492073
0.69192 0.412009 0.535805
0.0203708 0.487861 0.426322
0.0203708 0.487861 0.426322
0.0201724 0.487434 0.425071
0.0196994 0.486366 0.421836
0.0197452 0.486534 0.420142
0.01944 0.486275 0.418036
0.0193179 0.486397 0.416098
0.0191653 0.487343 0.415106
0.0155337 0.485237 0.411002
0.0155184 0.487785 0.410864
0.0324254 0.504875 0.426017
0.157733 0.52398 0.411856
0.384833 0.520287 0.215061
0.512001 0.518303 0.223117
0.602777 0.523888 0.229908
0.66537 0.538491 0.251087
0.723201 0.541314 0.234257
0.788891 0.544427 0.156222
0.827192 0.54548 0.0906844
0.840177 0.533501 0.0724041
0.841169 0.516579 0.0442512
0.81799 0.480217 0.00328069
0.789639 0.427466 0
0.711452 0.311742 0
0.67126 0.2822 0
0.736217 0.340703 0.00518807
0.74258 0.37702 0.0893263
0.736889 0.42002 0.218952
0.714092 0.4542 0.328191
0.649607 0.38024 0.365942
0.66601 0.383886 0.43592
0.681804 0.401419 0.491203
0.698268 0.422629 0.53669
0.0603494 0.540795 0.504723
0.0603494 0.540795 0.504723
0.0593423 0.540475 0.502098
0.0576791 0.540017 0.497658
0.0573587 0.540291 0.493919
0.0571298 0.540185 0.489113
0.0568093 0.540017 0.48278
0.0573739 0.540658 0.478019
0.0581979 0.54284 0.475746
0.0569619 0.543313 0.4701
0.0672618 0.551141 0.470726
0.108141 0.572808 0.487007
0.317693 0.582132 0.429603
0.512718 0.584909 0.229709
0.592203 0.5879 0.31635
0.674357 0.59324 0.336568
0.728985 0.608194 0.335409
0.786664 0.61062 0.297963
0.846738 0.620493 0.258442
0.872847 0.624018 0.245304
0.882063 0.616602 0.226749
0.86978 0.580545 0.165591
0.85214 0.539025 0.0923934
0.825055 0.491737 0.0161135
0.765698 0.379004 0
0.674174 0.287373 0
0.729885 0.327642 0
0.759243 0.403235 0.13257
0.743114 0.453269 0.28304
0.685863 0.43856 0.356283
0.674434 0.400153 0.425299
0.68983 0.415137 0.486183
0.706645 0.437201 0.537087
0.136141 0.586374 0.585
0.136141 0.586374 0.585
0.133486 0.586007 0.582132
0.130694 0.585748 0.57908
0.12874 0.586236 0.576623
0.127733 0.587457 0.573953
0.126436 0.588937 0.56939
0.125124 0.59144 0.563592
0.125948 0.595407 0.558267
0.123674 0.599939 0.542641
0.128725 0.599802 0.528359
0.154925 0.61323 0.53283
0.259434 0.634928 0.538933
0.488884 0.642725 0.38996
0.607538 0.64564 0.323171
0.658305 0.663661 0.379141
0.737591 0.664927 0.401007
0.796948 0.670039 0.382208
0.84741 0.678492 0.357931
0.874571 0.70132 0.392355
0.888533 0.70457 0.398627
0.890257 0.688823 0.381689
0.888518 0.657374 0.321736
0.879973 0.61323 0.228702
0.857481 0.550454 0.113893
0.80618 0.460395 4.57771e-05
0.737499 0.337224 0
0.724483 0.32018 0
0.768612 0.436057 0.210956
0.759258 0.49659 0.357885
0.694133 0.440543 0.409827
0.699931 0.434272 0.475242
0.716594 0.455482 0.534493
0.232731 0.632364 0.671046
0.232334 0.632334 0.670558
0.229786 0.632181 0.667277
0.22771 0.632151 0.664439
0.227039 0.633265 0.662028
0.226261 0.634409 0.659312
0.225147 0.63592 0.655436
0.222934 0.638254 0.649378
0.221408 0.641779 0.643183
0.222354 0.646632 0.635843
0.219287 0.651972 0.612711
0.224674 0.6542 0.581445
0.295048 0.673609 0.587686
0.458244 0.693172 0.540246
0.61326 0.714687 0.313024
0.674479 0.718227 0.370672
0.729702 0.731304 0.431098
0.801816 0.729061 0.461067
0.858076 0.733959 0.408469
0.889403 0.747829 0.408621
0.897993 0.767224 0.471504
0.906325 0.772534 0.487404
0.90161 0.755825 0.46453
0.895827 0.728649 0.425666
0.890852 0.689311 0.380514
0.883558 0.627832 0.259159
0.849912 0.534585 0.0843366
0.776577 0.396628 0
0.754406 0.362402 0
0.808438 0.487327 0.280644
0.783902 0.538613 0.417777
0.718624 0.473793 0.453788
0.72842 0.477607 0.52874
0.307912 0.692485 0.74374
0.30721 0.692424 0.742443
0.305715 0.692348 0.739773
0.304479 0.692363 0.737484
0.304082 0.693141 0.735088
0.304173 0.693935 0.732143
0.304494 0.694911 0.727275
0.304768 0.696162 0.719905
0.305135 0.69807 0.710582
0.307271 0.701732 0.701183
0.312016 0.706996 0.689937
0.321004 0.710323 0.666239
0.352255 0.717021 0.640314
0.449821 0.735958 0.639048
0.611383 0.760662 0.496742
0.705318 0.77055 0.385016
0.741268 0.785748 0.409323
0.811139 0.78761 0.502937
0.855192 0.795361 0.525597
0.896513 0.802762 0.491295
0.913527 0.813642 0.494301
0.919478 0.82002 0.534081
0.92108 0.819257 0.535714
0.917082 0.805371 0.506462
0.912032 0.78706 0.482338
0.902205 0.756603 0.456214
0.892134 0.704433 0.398581
0.881056 0.616983 0.236088
0.809613 0.466697 0.000823987
0.806287 0.460594 4.57771e-05
0.86392 0.545357 0.324086
0.816648 0.587213 0.470115
0.746563 0.515602 0.511833
0.372259 0.750469 0.802457
0.371984 0.750546 0.800855
0.371511 0.75053 0.798733
0.371176 0.750576 0.796872
0.371969 0.751659 0.795224
0.372686 0.752682 0.793439
0.374289 0.754116 0.79089
0.37702 0.755123 0.786877
0.381155 0.75642 0.779248
0.385016 0.758312 0.766522
0.388998 0.761105 0.751842
0.393637 0.763912 0.72874
0.409064 0.761395 0.699641
0.465309 0.775723 0.699046
0.606317 0.797299 0.657008
0.704921 0.829236 0.406928
0.768063 0.829374 0.422812
0.808759 0.838331 0.477348
0.859541 0.845533 0.556924
0.897337 0.849699 0.601755
0.920836 0.855421 0.59646
0.936416 0.858137 0.583581
0.940749 0.861891 0.606394
0.938323 0.854139 0.58381
0.941192 0.840955 0.525353
0.935439 0.823209 0.490578
0.919097 0.804303 0.48806
0.906523 0.770245 0.469459
0.891402 0.695521 0.387991
0.847333 0.529397 0.0748913
0.845319 0.525338 0.0674754
0.878721 0.561288 0.285084
0.768353 0.555505 0.489952
0.432197 0.797391 0.837919
0.432227 0.797116 0.836179
0.432105 0.796719 0.834669
0.432044 0.796368 0.833051
0.43331 0.796811 0.831617
0.434592 0.797223 0.830137
0.436347 0.797772 0.828092
0.438788 0.798505 0.82475
0.441138 0.799908 0.819059
0.443458 0.801328 0.810498
0.448035 0.802899 0.797696
0.454826 0.805249 0.784497
0.464256 0.809094 0.75967
0.486061 0.813825 0.737469
0.582086 0.833967 0.751156
0.71017 0.847959 0.596078
0.789761 0.862409 0.456992
0.82475 0.873411 0.486336
0.859754 0.880858 0.552346
0.898619 0.889235 0.637079
0.921614 0.894026 0.677073
0.938186 0.899351 0.684413
0.947021 0.903227 0.680354
0.949142 0.898405 0.670451
0.948806 0.88661 0.641657
0.959808 0.872312 0.554559
0.955612 0.859266 0.531533
0.947417 0.836896 0.497124
0.925231 0.812421 0.48896
0.903258 0.760571 0.460288
0.876081 0.600275 0.203601
0.874708 0.595605 0.194522
0.898711 0.608148 0.336446
0.492485 0.828458 0.868376
0.492546 0.828565 0.86598
0.492607 0.828672 0.864012
0.492775 0.828763 0.86215
0.494102 0.829358 0.860548
0.495125 0.829892 0.859129
0.496361 0.830549 0.85713
0.498192 0.831556 0.854475
0.50042 0.832532 0.850782
0.502815 0.833524 0.845563
0.50544 0.835203 0.837125
0.508614 0.837385 0.824491
0.514153 0.839902 0.808789
0.517464 0.84387 0.784543
0.569467 0.856229 0.777768
0.704601 0.869505 0.733684
0.79884 0.886336 0.516609
0.838849 0.897597 0.507774
0.861891 0.906706 0.551232
0.8869 0.918151 0.618799
0.917952 0.926574 0.699855
0.939178 0.924941 0.744396
0.95111 0.927001 0.749905
0.954437 0.926085 0.741329
0.949111 0.923369 0.723812
0.949111 0.919341 0.701961
0.957183 0.904784 0.644938
0.965713 0.887892 0.578317
0.960296 0.873091 0.553002
0.950912 0.845045 0.510903
0.920012 0.805554 0.488289
0.890303 0.680964 0.365835
0.88983 0.672618 0.350958
0.54081 0.849958 0.894224
0.54078 0.850278 0.892164
0.54078 0.850568 0.890257
0.540734 0.850843 0.888212
0.541436 0.851469 0.886641
0.541985 0.851972 0.885115
0.542947 0.85275 0.883314
0.544106 0.853742 0.88072
0.545022 0.855253 0.877165
0.546014 0.857374 0.872236
0.547173 0.860136 0.865141
0.548363 0.86331 0.854871
0.551095 0.866209 0.841428
0.556176 0.868498 0.828687
0.563317 0.870207 0.803006
0.668788 0.890684 0.808759
0.772976 0.907805 0.590875
0.838087 0.916671 0.529229
0.860685 0.925963 0.559533
0.885115 0.935134 0.621927
0.909331 0.943999 0.686198
0.937285 0.948913 0.758312
0.950973 0.945113 0.786755
0.953735 0.945281 0.78999
0.953414 0.943877 0.786892
0.952926 0.940154 0.77789
0.956909 0.936339 0.756954
0.953414 0.930953 0.720424
0.95349 0.919905 0.67686
0.966491 0.899443 0.608881
0.962158 0.878477 0.561685
0.947188 0.836423 0.496284
0.899794 0.746441 0.445502
0.562036 0.863371 0.910689
0.562173 0.863539 0.908843
0.562341 0.863737 0.90695
0.5626 0.864042 0.904875
0.563149 0.864561 0.903014
0.563577 0.865003 0.901289
0.56408 0.865568 0.898939
0.564797 0.866545 0.896681
0.565591 0.867842 0.893553
0.566567 0.869566 0.889082
0.567727 0.871519 0.883085
0.568887 0.87451 0.875563
0.570459 0.877531 0.864256
0.573053 0.879713 0.846967
0.576974 0.881025 0.830518
0.633295 0.891615 0.825544
0.772503 0.899123 0.741131
0.838819 0.919951 0.571252
0.857755 0.929824 0.574868
0.880385 0.941176 0.627848
0.903273 0.948547 0.683085
0.930205 0.953735 0.744549
0.95288 0.95491 0.799527
0.957168 0.954787 0.81297
0.957839 0.955871 0.818387
0.957687 0.955459 0.817212
0.956603 0.953948 0.808652
0.955108 0.949752 0.794293
0.957198 0.946578 0.768444
0.956115 0.935866 0.7449
0.953597 0.92929 0.708171
0.963684 0.904891 0.63418
0.959289 0.870161 0.548379
0.573709 0.86862 0.91986
0.573434 0.869383 0.918379
0.573144 0.870161 0.91693
0.573022 0.870512 0.915221
0.573373 0.870909 0.913512
0.57351 0.871168 0.911711
0.573968 0.871656 0.909651
0.574685 0.872267 0.906691
0.575555 0.872953 0.90309
0.576486 0.87396 0.897963
0.577646 0.875593 0.891997
0.578866 0.877836 0.884916
0.580865 0.880293 0.876448
0.583627 0.882719 0.862867
0.588663 0.884642 0.840452
0.604517 0.887251 0.825833
0.721706 0.902708 0.807172
0.808804 0.923781 0.604746
0.853269 0.928969 0.595132
0.871504 0.942687 0.625513
0.894286 0.951095 0.677791
0.929412 0.950896 0.748287
0.945205 0.95552 0.785504
0.956512 0.954467 0.816144
0.958495 0.956176 0.823926
0.958633 0.95671 0.830549
0.958633 0.956756 0.829496
0.958495 0.956725 0.823911
0.956436 0.95494 0.806241
0.955566 0.950027 0.786648
0.956481 0.950607 0.776761
0.957122 0.941299 0.760647
0.953811 0.930892 0.715511
0.58912 0.872099 0.926665
0.588846 0.872679 0.92546
0.588556 0.873228 0.924178
0.58819 0.873823 0.922896
0.588449 0.874617 0.921736
0.588739 0.875349 0.920699
0.589014 0.876265 0.91928
0.589441 0.877455 0.917464
0.590402 0.878889 0.914885
0.591516 0.87985 0.910887
0.59234 0.880491 0.904997
0.593469 0.882033 0.897322
0.594537 0.884153 0.888853
0.597528 0.886046 0.880095
0.601816 0.886763 0.860288
0.623468 0.893141 0.842817
0.678904 0.904326 0.840391
0.799527 0.907439 0.756649
0.85214 0.9252 0.632151
0.867018 0.942733 0.642283
0.884947 0.952682 0.680354
0.927535 0.951461 0.753582
0.940368 0.955245 0.783749
0.955535 0.957061 0.819089
0.958587 0.955734 0.832166
0.958663 0.95639 0.839216
0.958694 0.95668 0.844541
0.958679 0.95668 0.842145
0.958648 0.956756 0.833646
0.957397 0.955795 0.81442
0.95552 0.951492 0.796567
0.955169 0.949676 0.791043
0.955962 0.950256 0.782208
0.604852 0.878737 0.933333
0.604349 0.878752 0.932204
0.603693 0.878676 0.930983
0.603159 0.878676 0.929808
0.603235 0.87892 0.92903
0.603326 0.87921 0.928145
0.603433 0.87953 0.92697
0.603952 0.880339 0.925353
0.604669 0.881422 0.923033
0.606027 0.882597 0.919921
0.607996 0.883848 0.915846
0.611017 0.885039 0.910277
0.612161 0.886763 0.903014
0.614038 0.889647 0.895186
0.622477 0.893141 0.882612
0.644221 0.897231 0.865644
0.699275 0.905287 0.858595
0.771908 0.912154 0.821881
0.831876 0.928908 0.704814
0.871305 0.938643 0.691203
0.886122 0.950729 0.722606
0.90959 0.956741 0.754421
0.932937 0.95877 0.787823
0.951644 0.958114 0.823804
0.957397 0.955169 0.841962
0.957916 0.956237 0.847181
0.952041 0.959136 0.85507
0.943542 0.96437 0.846159
0.949386 0.9608 0.852293
0.958694 0.95668 0.844862
0.957977 0.956298 0.819394
0.956039 0.95375 0.802258
0.955779 0.952667 0.799481
0.620295 0.887495 0.939879
0.619577 0.88719 0.939116
0.618997 0.886946 0.938201
0.618341 0.886671 0.937041
0.618509 0.886824 0.936217
0.618662 0.886976 0.935546
0.618845 0.887129 0.93463
0.619211 0.887434 0.933288
0.619654 0.88777 0.931594
