presets/XH_G200_2.cube
TITLE "Generated by Resolve"
LUT_3D_SIZE 33
0.108629 0.113268 0.0928511
0.108629 0.113268 0.0928511
0.108629 0.113268 0.0928511
0.108675 0.113359 0.0927138
0.127779 0.110994 0.090547
0.159472 0.1084 0.0851606
0.214282 0.103731 0.0794232
0.272709 0.0988785 0.0771649
0.324056 0.0954757 0.0803998
0.372946 0.0939803 0.0878309
0.417563 0.0954147 0.100252
0.459815 0.0995651 0.118563
0.501457 0.104845 0.137194
0.541283 0.112627 0.167285
0.577356 0.120195 0.200809
0.609583 0.126589 0.23064
0.637232 0.132204 0.260105
0.66157 0.137179 0.291279
0.684871 0.142092 0.327611
0.709468 0.146273 0.370336
0.738994 0.148898 0.416968
0.773907 0.150988 0.463157
0.812863 0.1579 0.504952
0.833417 0.171176 0.534951
0.836515 0.182116 0.556649
0.840436 0.192035 0.579034
0.844251 0.198657 0.601221
0.847532 0.204257 0.620478
0.848661 0.210315 0.636316
0.847898 0.216724 0.649165
0.845212 0.228 0.659846
0.838575 0.247318 0.667521
0.829084 0.269505 0.672984
0.108629 0.113268 0.0928511
0.108629 0.113268 0.0928511
0.108629 0.113268 0.0928511
0.108568 0.113375 0.0927443
0.125734 0.111131 0.0907454
0.15639 0.108644 0.0855573
0.210254 0.104082 0.0796216
0.270146 0.0990768 0.0770428
0.322148 0.0955673 0.0801251
0.372091 0.0939803 0.0875868
0.417563 0.0954147 0.100252
0.459815 0.0995651 0.118563
0.501457 0.104845 0.137194
0.541283 0.112627 0.167285
0.577356 0.120195 0.200809
0.609583 0.126589 0.23064
0.637232 0.132204 0.260105
0.661372 0.137133 0.290837
0.684245 0.141894 0.325902
0.708217 0.146029 0.367926
0.736965 0.148638 0.413336
0.771191 0.150683 0.4589
0.809812 0.156756 0.50106
0.833265 0.169848 0.531838
0.835996 0.180392 0.553323
0.839811 0.190707 0.574701
0.843366 0.197391 0.596567
0.846906 0.202762 0.615732
0.848692 0.20827 0.631785
0.848524 0.214191 0.644556
0.847166 0.219837 0.654627
0.843412 0.234989 0.663218
0.836652 0.251698 0.668757
0.108629 0.113268 0.0928511
0.108629 0.113268 0.0928511
0.108629 0.113268 0.0928511
0.108598 0.113329 0.0927596
0.121813 0.111635 0.0903334
0.141604 0.10988 0.0873274
0.18555 0.106371 0.0801862
0.251698 0.100496 0.0767376
0.308034 0.0963607 0.0782788
0.361227 0.0941024 0.0849012
0.409598 0.0948348 0.096849
0.454124 0.0988022 0.114717
0.497826 0.104082 0.134279
0.5393 0.112123 0.164553
0.576349 0.119921 0.199329
0.608316 0.126223 0.228428
0.635767 0.131777 0.257527
0.659998 0.136721 0.287785
0.683055 0.141512 0.322576
0.706691 0.145632 0.364263
0.735012 0.148348 0.409522
0.76875 0.1505 0.455497
0.80705 0.15584 0.497795
0.833097 0.168841 0.529488
0.835782 0.179294 0.551141
0.83949 0.189914 0.571786
0.842832 0.196628 0.593515
0.846372 0.201953 0.612345
0.848386 0.207034 0.628092
0.84863 0.212467 0.64094
0.847623 0.217792 0.651057
0.84538 0.227314 0.659236
0.841367 0.240925 0.665721
0.107759 0.113802 0.0926375
0.107897 0.113741 0.0926986
0.108461 0.113588 0.0925917
0.108644 0.113603 0.0925154
0.117372 0.112779 0.0903792
0.128923 0.111391 0.0885481
0.161044 0.108583 0.0822919
0.23035 0.102373 0.0763561
0.293767 0.0973068 0.0762188
0.350378 0.0942397 0.0822766
0.401404 0.0944533 0.0937209
0.447898 0.0979477 0.11078
0.494072 0.103944 0.136019
0.535378 0.111147 0.159487
0.573465 0.119142 0.194903
0.606256 0.125643 0.225055
0.634211 0.131258 0.254108
0.658763 0.136263 0.284321
0.681895 0.141039 0.318685
0.705364 0.145266 0.360616
0.733272 0.148043 0.405921
0.766369 0.15021 0.451698
0.804135 0.154971 0.494514
0.832944 0.167803 0.527062
0.835386 0.178012 0.548775
0.839124 0.188495 0.568795
0.842176 0.195727 0.590311
0.845747 0.200977 0.608881
0.847974 0.205753 0.624643
0.848646 0.210819 0.6374
0.848112 0.215946 0.647623
0.846983 0.220859 0.655528
0.843946 0.232883 0.662135
0.101717 0.122606 0.0920119
0.102007 0.122179 0.09131
0.103593 0.120562 0.0892042
0.106523 0.118685 0.0887922
0.11014 0.118181 0.0878004
0.125444 0.116732 0.08365
0.151598 0.114107 0.0758068
0.221073 0.104829 0.0688792
0.295369 0.0975357 0.0685893
0.350759 0.0943313 0.073991
0.401587 0.0939651 0.0856031
0.446403 0.0969711 0.103777
0.497185 0.10338 0.128649
0.539773 0.111406 0.157458
0.576898 0.119249 0.193011
0.607828 0.124453 0.213901
0.635538 0.130159 0.244114
0.6598 0.135164 0.275257
0.682765 0.139834 0.309987
0.706111 0.144167 0.352743
0.733898 0.146944 0.399512
0.766781 0.149233 0.446632
0.804517 0.154116 0.490852
0.832822 0.166781 0.524575
0.835203 0.177035 0.546685
0.838911 0.187671 0.567041
0.841917 0.195422 0.588785
0.845579 0.200778 0.607889
0.847898 0.20557 0.623758
0.848661 0.210636 0.636744
0.848173 0.215793 0.647166
0.847074 0.221042 0.655283
0.843931 0.233112 0.66186
0.107012 0.13904 0.0930343
0.106981 0.138567 0.0927596
0.107454 0.135439 0.0888075
0.109453 0.130266 0.086244
0.116701 0.130022 0.0836347
0.133761 0.128389 0.0805524
0.167132 0.123766 0.0752422
0.215732 0.115801 0.0683299
0.278141 0.104219 0.0634318
0.344244 0.0945449 0.0641947
0.40441 0.0936599 0.0779889
0.452445 0.0967575 0.0961013
0.496834 0.102312 0.121004
0.53753 0.109926 0.146242
0.579705 0.118151 0.181094
0.610925 0.124544 0.212879
0.636713 0.128985 0.234073
0.660792 0.134005 0.265858
0.683742 0.138552 0.300725
0.706859 0.142992 0.344472
0.734539 0.145907 0.392554
0.767285 0.148165 0.441199
0.804837 0.153201 0.486946
0.832792 0.165774 0.522011
0.834974 0.176013 0.544533
0.838682 0.186892 0.565423
0.841703 0.195102 0.587366
0.845396 0.200595 0.606775
0.847807 0.205341 0.622843
0.848661 0.210407 0.636072
0.848249 0.215564 0.646662
0.84712 0.221164 0.654963
0.8439 0.233387 0.661585
0.116136 0.173648 0.103716
0.115969 0.172549 0.102892
0.115465 0.1664 0.0972152
0.115663 0.158495 0.0888991
0.121157 0.154299 0.0839399
0.137682 0.151812 0.0804303
0.166262 0.148043 0.0760052
0.22089 0.139757 0.0705272
0.283726 0.120836 0.0646067
0.333562 0.111376 0.0631113
0.392035 0.10074 0.0638895
0.452918 0.0948043 0.0776837
0.503426 0.101808 0.109422
0.545724 0.109392 0.135225
0.576913 0.11606 0.165774
0.611521 0.122637 0.196078
0.639963 0.128771 0.231006
0.662013 0.132494 0.253391
0.684733 0.13698 0.289357
0.70782 0.141497 0.333898
0.735302 0.144594 0.38349
0.767803 0.146868 0.434363
0.805173 0.152041 0.481941
0.832731 0.164477 0.518639
0.83473 0.174868 0.542046
0.838346 0.185794 0.563104
0.841474 0.194507 0.585214
0.845136 0.20029 0.605203
0.8477 0.205097 0.621698
0.848676 0.210163 0.635264
0.848325 0.215366 0.646097
0.84712 0.221256 0.654521
0.84387 0.233722 0.661234
0.118776 0.227726 0.136248
0.118959 0.226261 0.1346
0.12015 0.218326 0.124681
0.121721 0.210208 0.113085
0.124178 0.198184 0.0975967
0.135698 0.191608 0.0899519
0.162585 0.184863 0.0807507
0.211551 0.18056 0.0789502
0.280415 0.173419 0.0802014
0.351293 0.144854 0.0746166
0.397162 0.128527 0.0727855
0.441886 0.115068 0.0695811
0.494697 0.106279 0.0779126
0.549767 0.105928 0.103883
0.589349 0.114839 0.14612
0.614725 0.120134 0.17525
0.638987 0.12604 0.21091
0.665476 0.131701 0.246235
0.685985 0.134905 0.272847
0.709056 0.139376 0.318502
0.736217 0.142718 0.37026
0.768399 0.145144 0.423728
0.805753 0.150332 0.474601
0.832731 0.162646 0.513558
0.834485 0.173297 0.538491
0.837919 0.18439 0.560021
0.841199 0.193729 0.5823
0.844739 0.199847 0.603067
0.847578 0.204807 0.620386
0.848646 0.209766 0.634165
0.848447 0.21503 0.645212
0.847181 0.221546 0.653956
0.843824 0.234104 0.660822
0.104265 0.29836 0.200504
0.104677 0.297383 0.198779
0.108278 0.288289 0.18323
0.11194 0.278859 0.167651
0.118898 0.264973 0.138552
0.12517 0.252888 0.120546
0.147143 0.23386 0.0987564
0.188968 0.233524 0.0906081
0.256916 0.228992 0.0928511
0.336156 0.226429 0.100816
0.411719 0.187457 0.096376
0.467292 0.155001 0.0909285
0.503609 0.14287 0.0879683
0.545037 0.121462 0.0836957
0.588098 0.111421 0.0970321
0.624704 0.115709 0.136049
0.645701 0.122927 0.181979
0.662531 0.128603 0.226352
0.68957 0.133364 0.261357
0.710277 0.136751 0.297627
0.737316 0.140185 0.351293
0.769146 0.142748 0.408865
0.806439 0.147982 0.463493
0.832746 0.159945 0.506035
0.834363 0.170916 0.532952
0.837278 0.182574 0.556039
0.840833 0.192706 0.578378
0.844282 0.199268 0.600153
0.847333 0.204227 0.618173
0.848676 0.209262 0.632578
0.848585 0.214633 0.644144
0.847166 0.22211 0.653208
0.843702 0.23473 0.660212
0.0903334 0.372457 0.282597
0.0904555 0.372137 0.281804
0.0925612 0.366415 0.268467
0.095491 0.359075 0.251148
0.0991989 0.35613 0.235767
0.107774 0.334997 0.18999
0.118395 0.316732 0.160571
0.164126 0.292103 0.120577
0.216358 0.297108 0.114397
0.304906 0.291005 0.119097
0.387076 0.291356 0.132204
0.467124 0.246342 0.124071
0.532433 0.197192 0.117815
0.568078 0.178424 0.11252
0.600336 0.151522 0.102327
0.628672 0.122423 0.0992752
0.652216 0.115587 0.122942
0.669841 0.123079 0.174105
0.683711 0.130434 0.24181
0.711299 0.134112 0.278264
0.740444 0.138491 0.340047
0.770077 0.139834 0.386679
0.807248 0.14493 0.447608
0.832868 0.15639 0.495109
0.834257 0.167636 0.525048
0.836805 0.179858 0.550469
0.840345 0.191394 0.573419
0.843565 0.198367 0.595911
0.846906 0.203632 0.615122
0.848661 0.208698 0.63061
0.848676 0.214145 0.64271
0.847089 0.222827 0.652125
0.843671 0.235538 0.659342
0.0931106 0.429328 0.348287
0.0931106 0.429328 0.348287
0.0948348 0.426902 0.339788
0.0968948 0.424231 0.329656
0.0994736 0.425254 0.323735
0.104692 0.422278 0.302754
0.109834 0.402213 0.251545
0.126848 0.372244 0.192432
0.191119 0.361318 0.163088
0.260884 0.364385 0.153201
0.357183 0.355154 0.154269
0.441321 0.353841 0.168887
0.515648 0.305409 0.163409
0.581918 0.249668 0.148043
0.624277 0.218051 0.143282
0.647684 0.196292 0.133364
0.669947 0.159228 0.121187
0.682902 0.121004 0.118593
0.692027 0.122423 0.170108
0.703075 0.128664 0.22974
0.735683 0.134051 0.301259
0.774441 0.137346 0.370748
0.808087 0.14049 0.422141
0.833265 0.151568 0.477501
0.834195 0.163088 0.513191
0.836149 0.176104 0.542626
0.839841 0.188724 0.566964
0.84271 0.19733 0.590738
0.84625 0.202869 0.610986
0.848325 0.20795 0.627512
0.848707 0.213474 0.640452
0.846906 0.223575 0.650553
0.843397 0.236652 0.658061
0.110506 0.475319 0.400168
0.110506 0.475319 0.400168
0.111574 0.47425 0.395682
0.113771 0.472984 0.388479
0.118242 0.473487 0.380926
0.122133 0.47425 0.375143
0.129534 0.473274 0.357275
0.131411 0.456809 0.309255
0.162158 0.429847 0.2392
0.241993 0.42295 0.216617
0.32108 0.423011 0.201083
0.408484 0.412863 0.197833
0.495216 0.411032 0.213733
0.557198 0.366445 0.2159
0.602518 0.316854 0.186862
0.648386 0.271611 0.181674
0.677378 0.244694 0.174426
0.702937 0.210605 0.161715
0.721492 0.154162 0.136202
0.72076 0.119783 0.160037
0.721798 0.128222 0.234577
0.762631 0.132982 0.323369
0.812131 0.13695 0.39968
0.833509 0.144945 0.447562
0.834562 0.156649 0.49398
0.835767 0.170489 0.529839
0.838727 0.184497 0.558022
0.841917 0.195621 0.583459
0.845426 0.201907 0.605661
0.847929 0.207004 0.623316
0.848707 0.212467 0.637354
0.846693 0.224735 0.648356
0.842725 0.238422 0.656291
0.140002 0.513039 0.442542
0.140002 0.513039 0.442542
0.140948 0.512505 0.439872
0.142794 0.511849 0.435569
0.147112 0.512123 0.430213
0.151034 0.512825 0.426123
0.15697 0.513176 0.417914
0.167269 0.511711 0.396567
0.171481 0.49958 0.35375
0.222263 0.478874 0.293339
0.308476 0.47248 0.272633
0.376287 0.473732 0.255268
0.461021 0.466651 0.250095
0.539773 0.466346 0.265248
0.591455 0.433906 0.271885
0.629297 0.388998 0.274235
0.651194 0.343877 0.242588
0.684886 0.303105 0.224628
0.716365 0.26566 0.206699
0.756725 0.205554 0.185306
0.769879 0.125994 0.158923
0.74905 0.127626 0.25214
0.789364 0.130709 0.335836
0.831861 0.138705 0.412833
0.835386 0.147555 0.45774
0.835904 0.16228 0.508721
0.837522 0.178042 0.544793
0.841123 0.192599 0.572488
0.844282 0.200488 0.598123
0.847395 0.205783 0.617975
0.848722 0.212314 0.633326
0.846433 0.226047 0.645426
0.84181 0.240787 0.653849
0.174914 0.542245 0.476799
0.174914 0.542245 0.476799
0.175601 0.54197 0.475349
0.177188 0.541573 0.472679
0.180835 0.541787 0.469154
0.184512 0.542062 0.46537
0.188907 0.542809 0.462226
0.196582 0.542794 0.452033
0.207187 0.540017 0.427939
0.219196 0.532952 0.388846
0.283558 0.51809 0.344991
0.366293 0.51487 0.324865
0.425818 0.518349 0.309773
0.507103 0.514382 0.302556
0.577371 0.516289 0.314397
0.618341 0.499443 0.319707
0.662135 0.458366 0.344305
0.679072 0.421546 0.332586
0.697139 0.372534 0.290318
0.735042 0.321508 0.257862
0.785275 0.257588 0.233921
0.836942 0.161563 0.202808
0.787945 0.124102 0.260426
0.81239 0.126482 0.317571
0.833555 0.13814 0.407889
0.837095 0.149874 0.466117
0.837263 0.16788 0.521569
0.83975 0.185229 0.557305
0.842649 0.198154 0.586679
0.846265 0.204364 0.610132
0.848264 0.214252 0.628382
0.846082 0.227955 0.641474
0.840772 0.243763 0.650309
0.211261 0.566033 0.506828
0.211261 0.566033 0.506828
0.211749 0.565896 0.506065
0.212985 0.56556 0.504173
0.215824 0.565728 0.502037
0.218952 0.565789 0.49929
0.222812 0.566018 0.49633
0.228824 0.566506 0.491234
0.239414 0.566079 0.476249
0.252186 0.565072 0.456443
0.267964 0.560937 0.423346
0.33727 0.553262 0.391135
0.417731 0.553918 0.371054
0.473594 0.560662 0.359777
0.547951 0.557748 0.352987
0.605417 0.560281 0.359136
0.646128 0.55169 0.364523
0.684901 0.52665 0.383062
0.725917 0.490776 0.399939
0.745083 0.445838 0.365682
0.777218 0.381796 0.311254
0.828809 0.300191 0.277348
0.881498 0.213962 0.262043
0.84863 0.12343 0.24889
0.822797 0.124712 0.304006
0.833921 0.135836 0.390829
0.838804 0.151507 0.47126
0.838514 0.173022 0.531731
0.841779 0.192218 0.568215
0.845121 0.204746 0.598688
0.846723 0.217624 0.62063
0.844221 0.232334 0.635767
0.838804 0.248844 0.64593
0.240177 0.585992 0.532921
0.240177 0.585992 0.532921
0.240864 0.585824 0.532082
0.2421 0.585565 0.530648
0.244556 0.585641 0.529046
0.248814 0.585794 0.52604
0.254108 0.585992 0.522103
0.260288 0.586572 0.51812
0.266651 0.587121 0.51252
0.27715 0.587259 0.500008
0.295644 0.586999 0.476921
0.321004 0.586511 0.448066
0.398825 0.586374 0.429236
0.47039 0.590799 0.409598
0.515297 0.598688 0.407218
0.581506 0.597131 0.400458
0.626032 0.597803 0.398978
0.669352 0.594339 0.406897
0.713863 0.581704 0.422705
0.764675 0.557366 0.436347
0.813993 0.52076 0.434043
0.829236 0.461479 0.379034
0.821515 0.394034 0.328008
0.840391 0.307256 0.287037
0.901427 0.158404 0.243046
0.832715 0.122255 0.272969
0.833753 0.133181 0.371649
0.844999 0.155077 0.475166
0.844388 0.182452 0.541558
0.844739 0.206485 0.579904
0.844587 0.221942 0.608499
0.841428 0.238315 0.627192
0.834638 0.257359 0.639063
0.267918 0.604044 0.554223
0.267918 0.604044 0.554223
0.26952 0.603937 0.552789
0.27129 0.6038 0.551202
0.273838 0.603967 0.549752
0.276631 0.604105 0.548028
0.280308 0.604303 0.545632
0.285313 0.604715 0.542473
0.290669 0.605524 0.539696
0.29839 0.60589 0.533059
0.310674 0.606149 0.519936
0.333272 0.609201 0.498573
0.372839 0.613642 0.477668
0.456321 0.619242 0.464286
0.510628 0.626078 0.451392
0.553536 0.634897 0.452644
0.607111 0.635096 0.447852
0.643565 0.630594 0.435752
0.690013 0.631662 0.445975
0.741833 0.629068 0.460945
0.796078 0.613489 0.467079
0.850172 0.58706 0.472465
0.863157 0.555047 0.460563
0.84918 0.505226 0.422675
0.822324 0.412558 0.341253
0.86952 0.254093 0.280568
0.875944 0.129885 0.237263
0.838926 0.129122 0.332235
0.848478 0.166842 0.502327
0.850584 0.199268 0.548806
0.841871 0.227436 0.587655
0.835981 0.247791 0.61297
0.828931 0.26865 0.629175
0.289631 0.620249 0.575616
0.289769 0.620233 0.575463
0.29099 0.620081 0.574136
0.292119 0.619989 0.573022
0.294194 0.620188 0.571847
0.296574 0.620432 0.570535
0.29984 0.620737 0.568627
0.304875 0.62121 0.565515
0.310613 0.621942 0.562097
0.317052 0.623087 0.558663
0.326696 0.62385 0.550774
0.34049 0.624353 0.536568
0.367651 0.63238 0.52166
0.425727 0.643168 0.511528
0.508385 0.652384 0.497932
0.543969 0.660273 0.494316
0.583444 0.67129 0.498695
0.628809 0.672389 0.494285
0.663111 0.664546 0.475395
0.709941 0.665965 0.483757
0.765682 0.667781 0.495354
0.80972 0.660349 0.49662
0.834699 0.645197 0.490944
0.845441 0.623087 0.48101
0.8598 0.586496 0.472862
0.856611 0.522316 0.438163
0.821759 0.386313 0.323095
0.902495 0.176165 0.252735
0.892348 0.142046 0.247745
0.862837 0.178698 0.492348
0.846418 0.227543 0.549813
0.828611 0.260639 0.589273
0.820768 0.284672 0.613886
0.311376 0.635157 0.596277
0.311849 0.635142 0.595804
0.312901 0.635126 0.594781
0.313909 0.635142 0.593866
0.315663 0.635386 0.59292
0.317525 0.63566 0.591913
0.320195 0.636057 0.590448
0.32398 0.636622 0.588144
0.329458 0.637491 0.584802
0.335653 0.638743 0.581445
0.34287 0.640208 0.577234
0.35314 0.641123 0.568475
0.371176 0.645136 0.556069
0.406806 0.65861 0.545861
0.48127 0.67718 0.545556
0.544488 0.685924 0.534752
0.570947 0.696544 0.539345
0.606714 0.708797 0.54342
0.648432 0.710781 0.537881
0.68629 0.703716 0.521477
0.729488 0.699825 0.520684
0.784192 0.700648 0.52694
0.81091 0.69662 0.521981
0.808621 0.685557 0.509392
0.812955 0.671046 0.497169
0.831403 0.646326 0.486931
0.855772 0.600732 0.4766
0.851164 0.509773 0.42681
0.863844 0.264179 0.282078
0.869429 0.254261 0.280583
0.870863 0.199405 0.460197
0.826123 0.272526 0.546395
0.809705 0.308232 0.589075
0.331319 0.648737 0.614847
0.33193 0.648707 0.614191
0.33283 0.648768 0.613413
0.333562 0.648829 0.612696
0.335012 0.64921 0.6121
0.336446 0.649561 0.611444
0.338613 0.650111 0.610529
0.341833 0.650874 0.609018
0.346532 0.651896 0.606607
0.352361 0.653071 0.603326
0.358495 0.654398 0.599924
0.366629 0.656123 0.594507
0.377264 0.65713 0.584283
0.402289 0.667506 0.577646
0.454612 0.691127 0.579278
0.527779 0.711192 0.578256
0.568139 0.720012 0.575448
0.590616 0.732647 0.584527
0.625422 0.745464 0.587152
0.667018 0.74876 0.57882
0.704845 0.743832 0.56466
0.744045 0.734768 0.554726
0.795377 0.733333 0.559396
0.80296 0.724773 0.549325
0.793256 0.709758 0.530785
0.793301 0.696788 0.515984
0.803449 0.684138 0.505165
0.823682 0.657176 0.490959
0.858076 0.592416 0.474449
0.823056 0.377096 0.31809
0.824048 0.369879 0.314183
0.874052 0.226581 0.415961
0.807263 0.314504 0.56994
0.351156 0.66157 0.631525
0.351858 0.661616 0.630854
0.352438 0.661631 0.630289
0.353109 0.661692 0.629709
0.354253 0.661967 0.629328
0.355383 0.662257 0.628916
0.356985 0.662715 0.628367
0.359396 0.663386 0.627466
0.362844 0.664286 0.626001
0.36762 0.66537 0.623438
0.373739 0.666728 0.620111
0.379965 0.668284 0.616587
0.388891 0.670329 0.609277
0.402487 0.674128 0.600229
0.440604 0.695033 0.603677
0.498817 0.724956 0.612741
0.557977 0.742214 0.611948
0.581933 0.752987 0.617548
0.60296 0.766934 0.628153
0.641077 0.779797 0.628611
0.681926 0.785458 0.62089
0.720821 0.783337 0.608927
0.758679 0.77702 0.599588
0.794156 0.768063 0.592798
0.789471 0.755016 0.577554
0.774884 0.733074 0.553231
0.775097 0.716686 0.537041
0.785657 0.705119 0.525582
0.79942 0.68954 0.5093
0.829267 0.649485 0.488121
0.841489 0.488441 0.406012
0.838499 0.482109 0.399542
0.835981 0.326818 0.411582
0.367163 0.672496 0.644984
0.367849 0.672587 0.64445
0.36849 0.672679 0.643961
0.36907 0.672755 0.643534
0.370062 0.673045 0.643259
0.371008 0.67335 0.643061
0.372198 0.673701 0.64268
0.373953 0.674205 0.642084
0.376516 0.674937 0.641108
0.380346 0.676005 0.639628
0.385794 0.677333 0.637217
0.392416 0.678874 0.633783
0.398718 0.680598 0.629725
0.407919 0.682841 0.620386
0.429801 0.694591 0.61973
0.480812 0.727932 0.634592
0.532631 0.755367 0.641489
0.571176 0.76939 0.644099
0.590005 0.781842 0.653269
0.613214 0.795605 0.66334
0.653498 0.807218 0.662577
0.693401 0.815808 0.657755
0.729503 0.817166 0.649393
0.760708 0.812772 0.63978
0.777386 0.804837 0.631189
0.773053 0.791379 0.614679
0.759823 0.769451 0.588754
0.756146 0.744533 0.561959
0.765866 0.727657 0.54641
0.781231 0.709148 0.529656
0.802945 0.685039 0.505852
0.861646 0.578622 0.470512
0.862211 0.570352 0.467185
0.380636 0.681712 0.655512
0.381262 0.681819 0.655161
0.381857 0.681926 0.654856
0.382574 0.682063 0.654536
0.383398 0.682322 0.654398
0.384268 0.682597 0.654261
0.385351 0.682948 0.654063
0.386801 0.683391 0.653727
0.388876 0.683986 0.653178
0.391867 0.68481 0.652323
0.395926 0.685939 0.650629
0.401572 0.687327 0.6477
0.408225 0.689052 0.643763
0.414343 0.690959 0.638727
0.424796 0.694881 0.629496
0.464866 0.723461 0.64593
0.512612 0.756725 0.658259
0.554665 0.779355 0.663996
0.57792 0.79292 0.671824
0.597192 0.805493 0.681086
0.626688 0.817288 0.686702
0.665248 0.827192 0.686564
0.703761 0.836255 0.684092
0.733074 0.839506 0.678645
0.755428 0.83798 0.672618
0.759121 0.83212 0.66453
0.755322 0.82034 0.649592
0.745708 0.80238 0.627604
0.750225 0.785382 0.605753
0.752956 0.761883 0.580056
0.762219 0.73254 0.55079
0.78526 0.70454 0.524865
0.836835 0.638163 0.484642
0.386145 0.686336 0.66125
0.386908 0.686534 0.661067
0.387655 0.686717 0.660899
0.388464 0.686931 0.660716
0.389334 0.687205 0.660639
0.390051 0.687449 0.660517
0.391012 0.687755 0.660334
0.392218 0.688167 0.660105
0.393942 0.688762 0.659724
0.396216 0.689479 0.659083
0.399329 0.690394 0.657954
0.403784 0.691524 0.65594
0.410101 0.693019 0.652476
0.417411 0.694835 0.647318
0.423484 0.69688 0.640665
0.447242 0.713451 0.644938
0.495125 0.74931 0.664546
0.537957 0.779706 0.673594
0.567071 0.796521 0.680537
0.5888 0.809964 0.689403
0.613367 0.821485 0.696132
0.645121 0.829313 0.697017
0.682918 0.839109 0.697749
0.716854 0.845945 0.696071
0.737072 0.847684 0.694881
0.74583 0.847517 0.692515
0.746075 0.845136 0.687846
0.742626 0.838621 0.677165
0.734401 0.825757 0.659648
0.737575 0.813291 0.641443
0.745312 0.797299 0.621302
0.751904 0.768231 0.586862
0.766873 0.724575 0.543465
0.388052 0.688685 0.664591
0.388708 0.688838 0.664393
0.389303 0.68896 0.664179
0.389975 0.689128 0.663981
0.390738 0.689357 0.663859
0.391455 0.68957 0.663722
0.39234 0.689891 0.663645
0.393652 0.690349 0.663493
0.395209 0.690913 0.663325
0.397238 0.691615 0.662974
0.400076 0.6925 0.662211
0.403937 0.693538 0.660822
0.409232 0.694789 0.658228
0.416342 0.696605 0.653803
0.423941 0.698741 0.64686
0.433814 0.704326 0.642588
0.475044 0.73695 0.663447
0.51986 0.771664 0.677516
0.556146 0.796567 0.685954
0.579004 0.810864 0.694118
0.603998 0.823575 0.701625
0.634348 0.831754 0.703532
0.665904 0.838132 0.702876
0.703593 0.846632 0.702235
0.731319 0.849287 0.699306
0.744945 0.850858 0.699825
0.746273 0.850553 0.698924
0.745144 0.849104 0.696117
0.741878 0.843778 0.686625
0.735912 0.834257 0.671794
0.733822 0.830442 0.666606
0.734874 0.820844 0.652674
0.744091 0.800275 0.625101
0.391836 0.692058 0.668452
0.392355 0.69218 0.668284
0.392889 0.692302 0.668116
0.393423 0.692409 0.667918
0.394156 0.692668 0.667857
0.394797 0.692882 0.667796
0.395712 0.693187 0.667704
0.396872 0.693584 0.667567
0.398383 0.694118 0.667399
0.400229 0.694713 0.667094
0.402579 0.69546 0.666636
0.405829 0.696437 0.665812
0.410315 0.69778 0.664195
0.416266 0.699321 0.661051
0.424033 0.701213 0.654963
0.43624 0.707973 0.651057
0.457542 0.725216 0.659983
0.500359 0.759991 0.679591
0.541314 0.792828 0.691737
0.569421 0.81239 0.700755
0.593484 0.825772 0.708156
0.626017 0.836454 0.712016
0.655238 0.841077 0.710735
0.685908 0.846159 0.708614
0.720058 0.85156 0.706142
0.74229 0.853162 0.705196
0.749065 0.854368 0.706462
0.748653 0.853803 0.705318
0.747021 0.851621 0.70103
0.743328 0.846326 0.691051
0.738857 0.83888 0.678737
0.736904 0.835981 0.674311
0.735103 0.832547 0.669444
0.396384 0.69572 0.672465
0.396841 0.695796 0.672267
0.397269 0.695842 0.672068
0.397772 0.695933 0.671885
0.398322 0.696117 0.671839
0.398962 0.696345 0.671794
0.399741 0.69659 0.671702
0.400732 0.696941 0.67158
0.40209 0.697414 0.671427
0.403891 0.698131 0.671336
0.406134 0.699016 0.671199
0.408942 0.700069 0.670863
0.412634 0.701259 0.669917
0.417594 0.702693 0.667765
0.425925 0.705745 0.665019
0.439139 0.712963 0.662501
0.459968 0.729961 0.669902
0.485832 0.753658 0.684764
0.522118 0.784604 0.700191
0.559075 0.812985 0.712001
0.585153 0.830549 0.720623
0.615061 0.842847 0.725612
0.647745 0.847807 0.723064
0.676188 0.849271 0.717235
0.705821 0.853315 0.715084
0.734371 0.85536 0.711589
0.752026 0.860426 0.719081
0.756954 0.864317 0.726543
0.754498 0.861692 0.721279
0.749111 0.854475 0.706661
0.74432 0.847898 0.693751
0.740795 0.842039 0.68365
0.739956 0.840467 0.681178
0.401526 0.700191 0.676921
