presets/XH_G200_5.cube
TITLE "Generated by Resolve"
LUT_3D_SIZE 9
0.0223697 0.0264286 0.0248264
0.0231174 0.0272679 0.026276
0.125933 0.0507362 0.049958
0.384695 0.083711 0.0696422
0.545907 0.150835 0.171984
0.672923 0.235279 0.326558
0.752239 0.324025 0.470619
0.75079 0.349905 0.551919
0.760403 0.392905 0.61117
0.0263523 0.0415198 0.0306249
0.0256657 0.0399329 0.0289311
0.0912337 0.0482338 0.0424964
0.377722 0.0807202 0.0627909
0.540978 0.146731 0.157229
0.667628 0.23006 0.312154
0.751797 0.320806 0.460731
0.751629 0.345846 0.538338
0.752712 0.367239 0.584894
0.0328374 0.168917 0.0579385
0.0330816 0.158556 0.0497749
0.079942 0.157183 0.0472114
0.370367 0.132784 0.0479744
0.547631 0.138293 0.100481
0.668589 0.226001 0.278965
0.751186 0.316777 0.447456
0.752377 0.344503 0.532616
0.75407 0.368215 0.584527
0.0650797 0.380529 0.150378
0.0660258 0.377172 0.127718
0.0608682 0.362249 0.0841993
0.341604 0.380987 0.0884718
0.599832 0.330678 0.111284
0.692699 0.222004 0.11339
0.747356 0.301259 0.385702
0.754299 0.339635 0.513008
0.758801 0.371893 0.583001
0.131334 0.561715 0.32488
0.129976 0.560342 0.308644
0.129534 0.560098 0.261112
0.214878 0.570047 0.136355
0.566064 0.613489 0.164416
0.771801 0.623621 0.222766
0.811109 0.408804 0.166354
0.757519 0.318151 0.422156
0.774838 0.387839 0.575784
0.215015 0.689311 0.496254
0.213123 0.688014 0.48687
0.210788 0.687602 0.469993
0.207019 0.688106 0.388037
0.506188 0.772534 0.238636
0.751202 0.824384 0.35491
0.853162 0.836393 0.333928
0.814725 0.744793 0.251606
0.807553 0.393454 0.332052
0.24535 0.728664 0.592279
0.245838 0.729259 0.585473
0.246769 0.730556 0.576867
0.249821 0.73669 0.543297
0.293187 0.78706 0.421317
0.588937 0.855344 0.362737
0.825254 0.891081 0.477134
0.840818 0.892882 0.470665
0.85362 0.8813 0.369284
0.265782 0.755062 0.631464
0.264988 0.75407 0.62678
0.26627 0.755596 0.621775
0.273304 0.763058 0.609369
0.316045 0.802777 0.610971
0.522667 0.854398 0.588235
0.766705 0.886687 0.600885
0.844144 0.896254 0.642084
0.841337 0.893874 0.497948
0.388357 0.832792 0.732631
0.360052 0.824155 0.719921
0.362951 0.825406 0.719814
0.383185 0.832364 0.722515
0.45127 0.846571 0.728115
0.601068 0.865095 0.735164
0.764294 0.885237 0.742733
0.834363 0.893156 0.746517
0.842206 0.894453 0.75819
0.0257115 0.0284428 0.0316167
0.025864 0.0289006 0.0318914
0.131472 0.0515755 0.0622416
0.387701 0.0892348 0.100862
0.547768 0.154955 0.198184
0.674769 0.239399 0.347189
0.752499 0.32694 0.479362
0.750347 0.351461 0.557305
0.761975 0.39968 0.618067
0.0270237 0.0400092 0.0332341
0.0268101 0.0385901 0.0329137
0.134005 0.0547341 0.0508888
0.385122 0.0838331 0.0697795
0.545815 0.150805 0.171847
0.671458 0.234043 0.324285
0.752163 0.323339 0.468544
0.750957 0.34876 0.548318
0.757885 0.384253 0.603098
0.0327001 0.171405 0.0756237
0.0328679 0.165957 0.0578775
0.0776379 0.154467 0.0472572
0.380789 0.124224 0.0486305
0.549874 0.144335 0.127275
0.672679 0.230579 0.293629
0.751827 0.319631 0.456352
0.751537 0.347662 0.54374
0.759625 0.386542 0.604044
0.0637064 0.380804 0.172061
0.0647898 0.379721 0.151064
0.0610666 0.362432 0.0860456
0.338872 0.378302 0.0879835
0.600046 0.323018 0.113115
0.686091 0.217624 0.133684
0.748608 0.305348 0.402975
0.753658 0.344015 0.527718
0.764721 0.393164 0.606363
0.132219 0.561318 0.342733
0.131014 0.561151 0.324956
0.129229 0.55967 0.276799
0.181765 0.56492 0.135027
0.564431 0.61149 0.164385
0.774243 0.617548 0.225864
0.807782 0.394385 0.161913
0.76556 0.331991 0.446876
0.778622 0.412985 0.60943
0.216159 0.688991 0.505287
0.214862 0.68896 0.496193
0.212619 0.68838 0.481651
0.208026 0.688457 0.412711
0.497429 0.770886 0.241993
0.751125 0.824201 0.354772
0.852644 0.834287 0.333684
0.813428 0.727596 0.249653
0.797818 0.463203 0.580682
0.245731 0.729244 0.59791
0.245609 0.728985 0.592401
0.246708 0.730419 0.583291
0.249973 0.736004 0.553231
0.284993 0.780697 0.430274
0.582452 0.854582 0.362264
0.825254 0.891081 0.477134
0.840864 0.892805 0.46836
0.854826 0.872602 0.345357
0.266651 0.756146 0.635203
0.265949 0.755276 0.631601
0.266896 0.756405 0.626886
0.273625 0.763653 0.614557
0.314855 0.801846 0.617105
0.513924 0.853315 0.594125
0.765118 0.886442 0.603265
0.844144 0.896254 0.641932
0.841337 0.893874 0.497871
0.402289 0.836118 0.737652
0.390646 0.833432 0.733486
0.393454 0.834272 0.732906
0.408591 0.838315 0.733028
0.471168 0.849287 0.735759
0.603494 0.865278 0.739055
0.7626 0.885023 0.742855
0.834165 0.893156 0.746838
0.842206 0.894453 0.75819
0.0499886 0.0404822 0.111009
0.0508583 0.0403449 0.112367
0.152209 0.0586252 0.119814
0.410071 0.107561 0.181521
0.555642 0.16495 0.256596
0.677485 0.245884 0.377417
0.75227 0.330556 0.49163
0.749798 0.352789 0.561868
0.761608 0.401114 0.620066
0.0373236 0.0429999 0.0800336
0.0508278 0.0411688 0.116945
0.156374 0.0595102 0.121218
0.403357 0.100755 0.149813
0.551263 0.160128 0.231327
0.673487 0.239963 0.356039
0.752361 0.327138 0.480461
0.750408 0.350225 0.553765
0.757412 0.38555 0.605234
0.0329137 0.155444 0.120668
0.0329137 0.154452 0.120058
0.0838178 0.143496 0.113054
0.411826 0.133532 0.114183
0.548165 0.152102 0.173953
0.67631 0.237995 0.330556
0.752605 0.325582 0.474525
0.750439 0.352728 0.560464
0.768124 0.423194 0.636713
0.0629435 0.380911 0.225254
0.062211 0.379812 0.206897
0.0625925 0.374014 0.158114
0.328817 0.366827 0.0937057
0.575677 0.309957 0.124956
0.692393 0.235172 0.235569
0.750713 0.312612 0.430594
0.752255 0.349004 0.545678
0.771466 0.427466 0.637324
0.135439 0.56051 0.377707
0.132921 0.559731 0.361074
0.12903 0.557641 0.325826
0.132464 0.553399 0.151171
0.556115 0.600732 0.165118
0.769421 0.602197 0.239277
0.804685 0.3823 0.159319
0.767452 0.343587 0.483101
0.78117 0.438819 0.635187
0.216876 0.68748 0.517815
0.216083 0.687663 0.509331
0.214084 0.687251 0.496025
0.207141 0.685725 0.432013
0.473503 0.764599 0.256184
0.7467 0.819409 0.356573
0.854261 0.830579 0.359976
0.812772 0.719509 0.248783
0.801755 0.4925 0.597894
0.246265 0.730053 0.605875
0.246052 0.729717 0.600916
0.247196 0.730999 0.593378
0.250858 0.736461 0.566155
0.276066 0.772335 0.4495
0.572305 0.853925 0.368002
0.825116 0.891051 0.47689
0.840864 0.893019 0.474556
0.855024 0.870695 0.340185
0.267079 0.756649 0.639612
0.266316 0.755749 0.636088
0.267323 0.75697 0.632166
0.273671 0.763989 0.620371
0.314321 0.80145 0.624063
0.50837 0.852659 0.602701
0.763775 0.886229 0.61001
0.844038 0.896284 0.640803
0.841474 0.893965 0.499748
0.40325 0.83621 0.739178
0.391058 0.833448 0.734676
0.400381 0.835767 0.736278
0.413489 0.839292 0.735775
0.473747 0.849577 0.737881
0.602869 0.865171 0.740414
0.761318 0.884871 0.743862
0.833799 0.893202 0.74815
0.842084 0.894453 0.758236
0.088304 0.0529946 0.280308
0.100679 0.0559091 0.288685
0.247211 0.0927291 0.292454
0.426246 0.128862 0.302968
0.565393 0.184482 0.367468
0.676509 0.260151 0.44358
0.74995 0.338949 0.522255
0.74789 0.357046 0.574212
0.760723 0.405921 0.626108
0.076051 0.0502327 0.268467
0.0921645 0.0546273 0.291814
0.224125 0.0888685 0.306935
0.426673 0.129046 0.303456
0.563714 0.182422 0.360265
0.674037 0.254597 0.42826
0.750393 0.336583 0.514122
0.748547 0.354452 0.567758
0.756832 0.390707 0.612253
0.0323644 0.118257 0.245594
0.0325475 0.109606 0.259464
0.072221 0.0818341 0.307179
0.437385 0.133822 0.311162
0.564095 0.180636 0.347921
0.676692 0.252323 0.411307
0.751003 0.335683 0.510033
0.748379 0.356741 0.572992
0.767651 0.428168 0.642481
0.0662547 0.355138 0.333593
0.0661784 0.354864 0.333623
0.0651102 0.350835 0.330724
0.349615 0.365423 0.333593
0.584344 0.306859 0.302663
0.689891 0.249104 0.344259
0.753063 0.327474 0.479484
0.750637 0.35787 0.571176
0.783536 0.480858 0.675456
0.144945 0.558556 0.464973
0.144503 0.558083 0.456031
0.142199 0.555993 0.434836
0.127108 0.550347 0.350408
0.54902 0.587289 0.266453
0.740291 0.571847 0.295171
0.789883 0.326131 0.219013
0.764721 0.355749 0.529809
0.787793 0.485893 0.670451
0.216846 0.685771 0.56054
0.216922 0.685389 0.552575
0.216648 0.684825 0.539788
0.213352 0.683818 0.501274
0.374029 0.748959 0.303914
0.734401 0.804807 0.372015
0.855146 0.817578 0.423728
0.814389 0.696788 0.24712
0.801801 0.506828 0.63859
0.24799 0.732311 0.624811
0.247807 0.732052 0.620813
0.249088 0.733577 0.616251
0.252918 0.738567 0.595819
0.27454 0.769375 0.506416
0.540337 0.852476 0.407111
0.82269 0.891188 0.48661
0.841382 0.893736 0.493767
0.851514 0.862577 0.32462
0.268254 0.757855 0.650874
0.267643 0.757153 0.648096
0.26865 0.75848 0.645121
0.27451 0.765454 0.636759
0.313222 0.800977 0.642283
0.49337 0.851102 0.627497
0.760693 0.885618 0.630503
0.844114 0.896361 0.638743
0.841871 0.894377 0.511101
0.405417 0.836408 0.743175
0.392996 0.833585 0.738903
0.403021 0.836011 0.740673
0.429679 0.841856 0.743984
0.481773 0.850523 0.74377
0.601709 0.864927 0.744762
0.758846 0.88452 0.747372
0.832975 0.893416 0.751751
0.84213 0.894453 0.758389
0.157977 0.0967117 0.444968
0.199863 0.108736 0.450843
0.332326 0.144366 0.458076
0.450553 0.168383 0.452766
0.55938 0.211215 0.466972
0.677592 0.283452 0.524102
0.742306 0.355062 0.57882
0.742306 0.36968 0.599023
0.76022 0.421164 0.643198
0.153475 0.0964065 0.44712
0.163684 0.10013 0.451743
0.305913 0.139681 0.463706
0.445365 0.16762 0.455177
0.558953 0.210819 0.466377
0.675227 0.280018 0.519509
0.74313 0.353292 0.574517
0.742794 0.36701 0.5953
0.75584 0.406714 0.63151
0.0909438 0.0883192 0.44715
0.102419 0.091722 0.458198
0.186648 0.115709 0.481392
0.449836 0.178805 0.483742
0.567575 0.218647 0.477974
0.677836 0.281239 0.518273
0.74342 0.352758 0.573144
0.743175 0.36965 0.59826
0.768444 0.444389 0.659144
0.0524605 0.288624 0.484138
0.0518959 0.283024 0.489677
0.051133 0.267308 0.499062
0.304494 0.266773 0.513436
0.582208 0.247623 0.492409
0.687984 0.287922 0.518929
0.745495 0.348974 0.561807
0.747372 0.373663 0.599725
0.785397 0.497246 0.690166
0.131792 0.53669 0.577417
0.131594 0.536309 0.577142
0.130632 0.534356 0.575616
0.127306 0.526604 0.568185
0.543633 0.568994 0.562188
0.736782 0.531228 0.544152
0.770459 0.350942 0.494011
0.758618 0.373754 0.586465
0.797909 0.553613 0.714763
0.21181 0.68278 0.631327
0.211536 0.682521 0.628031
0.211078 0.682002 0.623377
0.21033 0.680797 0.607202
0.337606 0.737408 0.565927
0.71574 0.782437 0.5888
0.852857 0.784192 0.604166
0.830594 0.584802 0.411383
0.800015 0.537362 0.680766
0.252903 0.736858 0.665278
0.25272 0.736889 0.663035
0.254246 0.738918 0.660258
0.258564 0.745418 0.6486
0.285908 0.776272 0.620066
0.519417 0.854093 0.602319
0.817014 0.893614 0.626612
0.857389 0.897551 0.607446
0.842069 0.847654 0.301976
0.271885 0.760021 0.675883
0.271305 0.759594 0.673609
0.272267 0.761074 0.67158
0.278569 0.769162 0.668879
0.318608 0.804791 0.681956
0.491264 0.852033 0.67364
0.755886 0.883894 0.681208
0.843397 0.895079 0.672389
0.844205 0.896437 0.636332
0.407095 0.835859 0.752453
0.397879 0.833783 0.749599
0.409644 0.836591 0.751461
0.440146 0.842939 0.755276
0.502785 0.852537 0.7579
0.605371 0.864881 0.75581
0.757519 0.884169 0.758236
0.832288 0.894118 0.761608
0.84213 0.894514 0.758862
0.245975 0.163134 0.550835
0.315022 0.17731 0.551232
0.397711 0.198825 0.551583
0.484092 0.224079 0.553506
0.563821 0.251789 0.554559
0.663264 0.316594 0.583398
0.731609 0.385275 0.625299
0.733974 0.403113 0.645792
0.747463 0.424933 0.660548
0.233585 0.161624 0.551766
0.248295 0.163973 0.551446
0.364385 0.189776 0.552316
0.477104 0.223606 0.555337
0.560723 0.249882 0.553338
0.661234 0.31429 0.581491
0.731762 0.38349 0.62295
0.733806 0.401465 0.64387
0.740917 0.4103 0.649119
0.181109 0.16173 0.564492
0.192508 0.166003 0.566918
0.265949 0.181643 0.569955
0.47039 0.232364 0.57055
0.575189 0.270893 0.576135
0.666056 0.319814 0.586038
0.731563 0.38558 0.625757
0.734508 0.403433 0.645792
0.762646 0.458427 0.683528
0.0803388 0.22385 0.585748
0.0822461 0.213657 0.586633
0.0919966 0.196994 0.593484
0.28426 0.211948 0.601434
0.564324 0.275425 0.588174
0.688151 0.345281 0.606195
0.731579 0.385779 0.625986
0.735302 0.402945 0.644617
0.787671 0.525368 0.718135
0.148043 0.520104 0.656504
0.148302 0.518318 0.657679
0.149493 0.514946 0.66128
0.149844 0.49926 0.666758
0.517784 0.518441 0.67364
0.723323 0.485451 0.658717
0.73518 0.382742 0.619837
0.735882 0.396292 0.635966
0.802152 0.590448 0.743282
0.215427 0.678569 0.702586
0.21532 0.678416 0.702495
0.215045 0.677989 0.702251
0.214862 0.676829 0.701854
0.368353 0.709575 0.714321
0.704677 0.747463 0.717998
0.839811 0.735302 0.714443
0.802915 0.516304 0.642786
0.801328 0.570626 0.719341
0.258305 0.737499 0.718105
0.258244 0.73753 0.716899
0.259464 0.739071 0.715724
0.26331 0.743893 0.712688
0.286366 0.772824 0.713085
0.54493 0.854124 0.7402
0.818509 0.88542 0.747204
0.865827 0.874846 0.737621
0.85742 0.797116 0.650919
0.278737 0.762081 0.722713
0.278447 0.761868 0.721279
0.2795 0.763333 0.720256
0.284108 0.769223 0.717952
0.339483 0.811841 0.740505
0.521218 0.855543 0.747539
0.757763 0.884382 0.746441
0.840528 0.89398 0.753719
0.841917 0.89337 0.743557
0.409522 0.83444 0.77351
0.405402 0.833371 0.771908
0.419898 0.837034 0.7738
0.456641 0.844114 0.777142
0.527138 0.854139 0.780606
0.626856 0.866499 0.780728
0.762631 0.884215 0.783139
0.832013 0.894514 0.785641
0.842893 0.895735 0.77496
0.290059 0.235996 0.625299
0.30547 0.236118 0.623392
0.387091 0.251789 0.62118
0.491676 0.281849 0.624308
0.577661 0.313466 0.629938
0.652155 0.346822 0.632425
0.728756 0.420951 0.670588
0.729213 0.430488 0.679683
0.732967 0.431983 0.679301
0.280949 0.232929 0.623758
0.291707 0.233295 0.622492
0.348913 0.242481 0.620981
0.48127 0.277028 0.622889
0.574838 0.312428 0.629587
0.650523 0.345296 0.631327
0.728969 0.419608 0.668864
0.729091 0.429084 0.678447
0.732494 0.430838 0.678477
0.243458 0.233417 0.631022
0.251301 0.236744 0.632731
0.293477 0.254108 0.641077
0.457069 0.279911 0.631373
0.574685 0.324346 0.641123
0.658244 0.357458 0.642206
0.728313 0.423697 0.673732
0.729534 0.431891 0.680873
0.739269 0.444526 0.688197
0.135332 0.237247 0.643137
0.144747 0.238148 0.644251
0.171038 0.250675 0.652888
0.257618 0.27306 0.662089
0.549874 0.321447 0.642863
0.683894 0.391699 0.667201
0.727672 0.427024 0.677165
0.729885 0.433158 0.68191
0.764996 0.498177 0.720867
0.186862 0.521752 0.719203
0.187854 0.519585 0.720851
0.191684 0.518227 0.726619
0.195621 0.50045 0.736828
0.495796 0.489189 0.743282
0.709911 0.484306 0.728115
0.73135 0.427848 0.676158
0.730159 0.433631 0.682231
0.787503 0.564431 0.750301
0.237461 0.677577 0.761822
0.237934 0.677012 0.762997
0.238743 0.67657 0.764843
0.239368 0.672206 0.767834
0.34081 0.681041 0.785214
0.69163 0.724712 0.79556
0.822477 0.719081 0.784207
0.777371 0.514794 0.72549
0.783551 0.544579 0.741283
0.269902 0.744305 0.770031
0.27013 0.744533 0.770199
0.271565 0.745968 0.771298
0.275959 0.749981 0.774609
0.296208 0.766598 0.7879
0.614893 0.83975 0.824582
0.818235 0.865492 0.82771
0.854444 0.843381 0.809552
0.83122 0.729427 0.769345
0.292805 0.77026 0.771344
0.292546 0.770138 0.770748
0.293675 0.77145 0.770733
0.296727 0.774899 0.770092
0.353597 0.809964 0.796338
0.564324 0.856291 0.812833
0.759487 0.882002 0.816312
0.838621 0.892271 0.817258
0.844755 0.893202 0.80975
0.416159 0.831159 0.80975
0.41529 0.831037 0.809064
0.431754 0.835218 0.811414
0.471504 0.843336 0.814786
0.54548 0.853284 0.816785
0.649638 0.866667 0.817304
0.75993 0.880995 0.821225
0.829496 0.891249 0.823362
0.841764 0.892012 0.823804
0.269886 0.279698 0.665614
0.287205 0.283177 0.666117
0.302937 0.281285 0.662379
0.440909 0.294743 0.646845
0.567849 0.335683 0.652796
0.676112 0.390951 0.669459
0.727169 0.428534 0.678874
0.727611 0.429389 0.679423
0.730449 0.434104 0.682536
0.270604 0.276051 0.662776
0.275441 0.27808 0.663706
0.299657 0.281621 0.663249
0.426505 0.291096 0.647211
0.564126 0.334279 0.652247
0.673701 0.389441 0.669017
0.727169 0.428534 0.678874
0.72752 0.429236 0.679316
0.730098 0.433524 0.682155
0.242786 0.270253 0.66154
0.247822 0.272709 0.662791
0.261128 0.283619 0.669245
0.319326 0.279423 0.657786
0.548913 0.329381 0.650721
0.678935 0.392966 0.670192
0.72723 0.428656 0.67895
0.727916 0.429892 0.679759
0.731487 0.435798 0.683665
0.149203 0.30338 0.686839
0.15349 0.304585 0.688258
0.16669 0.329091 0.702846
0.191257 0.336049 0.706554
0.513832 0.356878 0.681605
0.66099 0.384527 0.669017
0.72723 0.428672 0.678965
0.728267 0.430503 0.680156
0.738125 0.447242 0.691279
0.213306 0.544579 0.754559
0.214817 0.544335 0.756481
0.219944 0.548623 0.76289
0.242817 0.544991 0.770657
0.469657 0.549554 0.765637
0.696406 0.533013 0.751019
0.745312 0.460166 0.699657
0.728603 0.431052 0.680522
0.770108 0.50985 0.72639
0.253697 0.682414 0.788449
0.254887 0.682307 0.78941
0.25716 0.682567 0.791211
0.260563 0.679606 0.793805
0.331319 0.682689 0.804013
0.670466 0.719417 0.803662
0.805798 0.714687 0.798001
0.785153 0.554513 0.74641
0.762509 0.492775 0.718257
0.28127 0.747112 0.795575
0.281621 0.747219 0.796139
0.282582 0.74786 0.797223
0.284794 0.74902 0.799893
0.316045 0.75877 0.814542
0.618936 0.798413 0.829145
0.783261 0.828183 0.831312
0.834928 0.815564 0.822446
0.811399 0.710964 0.79472
0.314565 0.778714 0.800778
0.314794 0.778866 0.800885
0.316762 0.780087 0.801907
0.321279 0.783017 0.804303
0.39382 0.808728 0.825025
0.591272 0.844388 0.8365
0.755184 0.867765 0.839139
0.829557 0.878828 0.839872
0.837812 0.879118 0.839979
0.438407 0.823896 0.830182
0.439475 0.824323 0.83032
0.45832 0.827878 0.831632
0.500389 0.834699 0.833585
0.564614 0.843687 0.835508
0.648112 0.856565 0.837064
0.757839 0.87306 0.838621
0.822568 0.883879 0.840436
0.83624 0.885695 0.840635
0.215641 0.287785 0.675944
0.236637 0.286442 0.673335
0.260136 0.291005 0.67451
0.300664 0.281636 0.663081
0.538201 0.327443 0.651667
0.668513 0.386664 0.668498
0.726848 0.427924 0.678508
0.727291 0.428794 0.679042
0.72874 0.431266 0.680659
0.236744 0.281621 0.670069
0.238056 0.282719 0.67071
0.262196 0.289158 0.67303
0.303166 0.281453 0.66247
0.538003 0.326482 0.650782
0.667018 0.385611 0.668116
0.726848 0.427924 0.678508
0.727291 0.428794 0.679042
0.728573 0.431006 0.680491
0.198779 0.288167 0.677699
0.1991 0.2916 0.679927
0.178073 0.357763 0.716945
0.191211 0.33611 0.706584
0.493202 0.353002 0.682475
0.6486 0.377813 0.667338
0.727459 0.42916 0.679271
0.727352 0.428916 0.679103
0.72932 0.432242 0.6813
0.156176 0.377523 0.72079
0.160647 0.383719 0.723659
0.201968 0.450721 0.747921
0.231876 0.500648 0.763348
0.42977 0.477073 0.747707
0.679545 0.481636 0.732479
0.730922 0.434928 0.683085
0.727352 0.428916 0.679118
0.730098 0.433524 0.682155
0.226688 0.573358 0.769619
0.230915 0.576349 0.771618
0.242176 0.593133 0.7785
0.254185 0.605097 0.785214
0.353765 0.629725 0.790295
0.677256 0.658289 0.787762
0.799603 0.625437 0.769268
0.72752 0.429267 0.679332
0.731106 0.435203 0.683268
0.264897 0.691432 0.797726
0.266239 0.692744 0.798901
0.268589 0.695735 0.801099
0.271672 0.696834 0.804013
0.302922 0.699428 0.808652
0.64303 0.742535 0.811719
0.798535 0.742672 0.806851
0.804257 0.668894 0.78143
0.731487 0.435798 0.683665
0.286915 0.747112 0.801221
0.287419 0.747219 0.801587
0.288563 0.747951 0.802045
0.292287 0.749523 0.804303
0.326162 0.75967 0.817533
0.619745 0.800427 0.829908
0.772259 0.82739 0.831403
0.834089 0.82005 0.824186
0.819135 0.738689 0.801358
0.330083 0.780316 0.810391
0.330556 0.780407 0.810666
0.332998 0.781491 0.811765
0.338796 0.783902 0.814054
0.412497 0.806821 0.828382
0.593164 0.837781 0.837003
0.747112 0.86096 0.840009
0.824384 0.873793 0.841489
0.836316 0.870939 0.840238
0.451621 0.816938 0.83154
0.453223 0.817349 0.831662
0.472236 0.82092 0.832868
0.516258 0.828153 0.834607
0.574029 0.838056 0.836469
0.64947 0.851774 0.838422
0.751766 0.868513 0.841108
0.819806 0.881056 0.842847
0.834546 0.883757 0.842893
