presets/XH_G200_3.cube
TITLE "Generated by Resolve"
LUT_3D_SIZE 9
0.0214542 0.0242924 0.0605478
0.0494392 0.0213626 0.056611
0.269947 0.0128939 0.0510262
0.472953 0.0234226 0.0950942
0.636942 0.0561227 0.184649
0.758679 0.0759289 0.285466
0.847181 0.0926223 0.413581
0.863569 0.124636 0.546181
0.884871 0.178698 0.633158
0.0120699 0.0372931 0.0562295
0.0282292 0.0316167 0.051133
0.236454 0.0146181 0.0390478
0.468284 0.021973 0.0885023
0.633875 0.0541238 0.174121
0.753735 0.0742046 0.273838
0.846265 0.088716 0.399695
0.859358 0.12076 0.522759
0.875456 0.143282 0.59971
0.0246128 0.217426 0.115221
0.0370336 0.187564 0.0705425
0.185229 0.146914 0.0345922
0.460777 0.0607156 0.0418097
0.64918 0.0471962 0.12842
0.75642 0.0682383 0.244419
0.845518 0.0839399 0.381811
0.857908 0.119356 0.512688
0.876234 0.144717 0.59823
0.0426184 0.465476 0.332387
0.0496986 0.46453 0.318791
0.0714885 0.44387 0.238865
0.428046 0.405707 0.147906
0.709972 0.24213 0.145953
0.785687 0.0459602 0.107683
0.843732 0.0678721 0.307012
0.854902 0.112474 0.478691
0.879011 0.150042 0.592935
0.219562 0.624079 0.496788
0.223194 0.623804 0.491569
0.237583 0.626337 0.479011
0.330831 0.634775 0.384054
0.682246 0.657801 0.348379
0.913695 0.619715 0.379721
0.918166 0.297169 0.225513
0.856565 0.0758526 0.345647
0.886732 0.174136 0.572961
0.347967 0.719646 0.612131
0.351263 0.719905 0.609522
0.361166 0.722332 0.605661
0.390311 0.72871 0.589258
0.621958 0.798825 0.580896
0.805905 0.836896 0.581582
0.917739 0.810544 0.540383
0.920867 0.737011 0.444389
0.925917 0.205951 0.289189
0.404913 0.755703 0.65565
0.408316 0.756497 0.654414
0.414191 0.758129 0.653223
0.432898 0.762936 0.646967
0.515007 0.801144 0.650294
0.71281 0.885939 0.675532
0.871565 0.9093 0.66566
0.884657 0.903517 0.655406
0.884993 0.859815 0.599802
0.429389 0.773007 0.675685
0.429862 0.772488 0.674266
0.43386 0.773587 0.673716
0.447898 0.778546 0.673075
0.518944 0.8159 0.688609
0.673961 0.901045 0.726741
0.830747 0.937667 0.726909
0.921187 0.942992 0.729839
0.891707 0.91284 0.667994
0.57731 0.86981 0.750057
0.551995 0.852827 0.736721
0.555947 0.855055 0.737911
0.578103 0.867826 0.745647
0.634806 0.89633 0.762707
0.728573 0.927672 0.780819
0.836713 0.941421 0.782116
0.916823 0.946151 0.77792
0.926665 0.947646 0.785321
0.0191958 0.0234836 0.070222
0.0464332 0.0210269 0.0661784
0.263615 0.013611 0.0730297
0.463966 0.0256657 0.121813
0.63331 0.0593729 0.203601
0.759884 0.0793469 0.304295
0.848295 0.0965133 0.426535
0.865171 0.12604 0.555505
0.886809 0.188907 0.641642
0.0102235 0.0343938 0.0639048
0.0236667 0.0291752 0.0622568
0.271046 0.0141146 0.0498817
0.473381 0.0234836 0.0952773
0.636866 0.0561227 0.184573
0.757183 0.075761 0.283711
0.846952 0.0917678 0.410605
0.862409 0.123644 0.540017
0.882155 0.16582 0.623514
0.0158846 0.215091 0.144762
0.0256199 0.209354 0.108858
0.18204 0.143877 0.034699
0.471168 0.051667 0.0469825
0.648936 0.0507973 0.149401
0.760006 0.0700847 0.255741
0.84625 0.0870375 0.39353
0.861234 0.122576 0.531991
0.883497 0.169635 0.623789
0.0329595 0.463371 0.343343
0.0414282 0.464576 0.332311
0.0693523 0.457237 0.268086
0.425116 0.40264 0.146593
0.709834 0.232059 0.145083
0.778958 0.046067 0.124178
0.844663 0.0714427 0.326467
0.857755 0.118227 0.503746
0.887358 0.181003 0.624063
0.212497 0.622766 0.501381
0.218936 0.623652 0.496361
0.232044 0.625025 0.483162
0.311635 0.632853 0.3897
0.680369 0.656153 0.347051
0.918334 0.612772 0.382132
0.917205 0.266621 0.214405
0.866087 0.0850233 0.372183
0.894804 0.217395 0.620493
0.343282 0.718486 0.613809
0.347799 0.719509 0.611948
0.356634 0.721645 0.608713
0.385824 0.728389 0.593805
0.61297 0.798321 0.583062
0.80592 0.836744 0.581369
0.918898 0.808911 0.538491
0.928252 0.723262 0.434134
0.902251 0.299351 0.557671
0.404105 0.756024 0.657374
0.40557 0.756008 0.655863
0.411627 0.757717 0.654597
0.429603 0.762524 0.649516
0.502159 0.794522 0.647013
0.709606 0.885557 0.675944
0.871565 0.9093 0.66566
0.884169 0.902693 0.654337
0.888579 0.844388 0.580255
0.429465 0.773617 0.676905
0.429648 0.773144 0.675792
0.433036 0.773999 0.675181
0.447257 0.779034 0.674647
0.516121 0.814939 0.689845
0.669078 0.899092 0.72726
0.829389 0.937774 0.72784
0.921172 0.942992 0.729778
0.891676 0.912825 0.667964
0.588342 0.876616 0.755505
0.579263 0.871061 0.751034
0.582574 0.872602 0.751675
0.598016 0.88043 0.756039
0.647593 0.903426 0.769543
0.730434 0.928786 0.78291
0.835325 0.941299 0.7823
0.916533 0.946151 0.778134
0.926665 0.947646 0.785321
0.013489 0.0168154 0.138811
0.0808423 0.0142824 0.133867
0.252293 0.0141604 0.131304
0.459617 0.0315862 0.182681
0.630091 0.0677043 0.245594
0.761898 0.0847791 0.333425
0.84921 0.102129 0.445441
0.866407 0.127275 0.563485
0.886732 0.190478 0.644434
0.00030518 0.0261387 0.11548
0.0150149 0.0165866 0.142779
0.254994 0.0143893 0.132204
0.462898 0.0295567 0.15993
0.629862 0.0636912 0.227329
0.758206 0.0811475 0.312917
0.848219 0.0970321 0.428244
0.863951 0.124941 0.549508
0.882002 0.167468 0.626734
0.00872816 0.184009 0.185519
0.00939956 0.179812 0.181247
0.147601 0.123659 0.119432
0.484138 0.0603342 0.121599
0.639338 0.0565957 0.185916
0.762219 0.0760967 0.288457
0.848005 0.0943313 0.419226
0.866377 0.127184 0.560769
0.892866 0.226276 0.662242
0.010193 0.45687 0.369787
0.0162203 0.458167 0.359991
0.0311437 0.45182 0.321904
0.403235 0.389456 0.158007
0.68571 0.231479 0.156024
0.783917 0.0577554 0.19852
0.845808 0.078584 0.360021
0.862486 0.123796 0.53492
0.894911 0.235691 0.661112
0.197436 0.620325 0.511269
0.203174 0.620417 0.505516
0.214282 0.620706 0.493935
0.275257 0.62536 0.411414
0.670634 0.646647 0.340719
0.914488 0.595087 0.389425
0.917525 0.239475 0.205646
0.867292 0.101946 0.421225
0.899901 0.262104 0.652476
0.335744 0.716381 0.615915
0.339437 0.717098 0.613977
0.347417 0.719051 0.611109
0.377569 0.725689 0.595865
0.584619 0.796094 0.589609
0.804318 0.834272 0.579431
0.929152 0.811292 0.543587
0.93135 0.716655 0.429679
0.908324 0.356161 0.581598
0.402792 0.75642 0.659754
0.403967 0.756344 0.658366
0.409598 0.757931 0.657282
0.426871 0.762768 0.653086
0.485374 0.785992 0.64332
0.704631 0.886763 0.678782
0.871397 0.90927 0.665644
0.885618 0.904875 0.657145
0.889387 0.841123 0.576165
0.428351 0.773785 0.678035
0.42855 0.773327 0.676951
0.431785 0.774227 0.676555
0.446097 0.779355 0.67631
0.514168 0.814618 0.691569
0.66598 0.89781 0.728466
0.828458 0.938231 0.730053
0.920882 0.942992 0.729366
0.892256 0.91342 0.668818
0.588281 0.876921 0.756191
0.578851 0.871138 0.751461
0.587335 0.875792 0.754574
0.601358 0.882734 0.758328
0.649073 0.904479 0.771008
0.73022 0.929 0.783566
0.834287 0.941375 0.783017
0.915923 0.946242 0.778943
0.926497 0.947646 0.785351
0.0207218 0.0121462 0.247028
0.0984054 0.01561 0.253483
0.277134 0.0187228 0.264973
0.452125 0.0370947 0.281437
0.620813 0.0867475 0.338613
0.759548 0.104936 0.409232
0.852964 0.114321 0.496376
0.869398 0.131579 0.585397
0.886717 0.195483 0.652644
0.00315862 0.0110475 0.239399
0.0228733 0.0118563 0.254658
0.248127 0.0189212 0.27422
0.452522 0.037232 0.281895
0.619104 0.085481 0.331304
0.756619 0.100175 0.390753
0.851316 0.111635 0.482582
0.867658 0.128985 0.574166
0.882399 0.1738 0.636774
0 0.122194 0.268528
0 0.107027 0.271794
0.0626383 0.0439002 0.27422
0.462791 0.0425269 0.290486
0.622354 0.0839857 0.320012
0.760113 0.0939651 0.371054
0.851041 0.110109 0.475624
0.869429 0.13135 0.583139
0.892912 0.230915 0.669566
0 0.422858 0.427848
0 0.422583 0.427817
0 0.409461 0.414008
0.341604 0.378805 0.35877
0.677577 0.232502 0.294957
0.776959 0.0758221 0.297627
0.848966 0.0965438 0.426429
0.870405 0.132479 0.578851
0.906905 0.323125 0.699504
0.162829 0.616266 0.542565
0.165179 0.616098 0.53843
0.170413 0.615076 0.528084
0.21181 0.614984 0.48011
0.651606 0.63679 0.40676
0.878828 0.568032 0.422354
0.916686 0.101595 0.189456
0.868421 0.127825 0.50013
0.910399 0.344915 0.691417
0.316869 0.713695 0.625986
0.320027 0.71371 0.623667
0.327871 0.715129 0.620432
0.353628 0.72137 0.610636
0.504189 0.778988 0.603021
0.799908 0.827848 0.576135
0.952422 0.811566 0.557443
0.944015 0.697063 0.419959
0.915831 0.392798 0.641855
0.398138 0.757183 0.665125
0.399817 0.757275 0.664149
0.405295 0.759075 0.663951
0.420905 0.763607 0.66125
0.475731 0.782788 0.64979
0.688655 0.892012 0.691264
0.871138 0.913069 0.671229
0.890761 0.911421 0.665965
0.889174 0.831083 0.564065
0.425299 0.77406 0.680812
0.425422 0.773709 0.679973
0.428687 0.774762 0.679866
0.442741 0.780224 0.680598
0.510246 0.814878 0.696757
0.658183 0.894942 0.73257
0.826688 0.938979 0.73666
0.920699 0.942931 0.728557
0.895293 0.916991 0.674113
0.587823 0.877638 0.757946
0.577783 0.871626 0.753063
0.586999 0.876631 0.756527
0.611368 0.889143 0.765011
0.65359 0.907485 0.775158
0.729992 0.929763 0.785718
0.832563 0.941772 0.785367
0.914244 0.946578 0.78146
0.926528 0.947646 0.785458
0.0483864 0.00151064 0.375692
0.138613 0.007187 0.388464
0.275792 0.0163729 0.412848
0.454337 0.037171 0.432197
0.619852 0.0791028 0.462165
0.770855 0.114702 0.520348
0.866087 0.129747 0.595651
0.869673 0.145205 0.626535
0.887602 0.210224 0.67425
0.0168765 0.00015259 0.375021
0.0562142 0.00137331 0.382757
0.237995 0.0133059 0.413642
0.445701 0.0352331 0.433524
0.619104 0.078996 0.461387
0.766262 0.114626 0.51342
0.865614 0.12784 0.588159
0.869718 0.142473 0.62089
0.883177 0.19057 0.66183
0 0.00480659 0.37351
0 0.00155642 0.381826
0.075288 0.000106813 0.414923
0.436408 0.031281 0.468086
0.633265 0.0811322 0.47657
0.769375 0.114916 0.511269
0.865476 0.127367 0.585794
0.870344 0.145235 0.62504
0.894789 0.245548 0.688884
0 0.310582 0.494057
0 0.298558 0.494926
0 0.266728 0.495094
0.195834 0.218677 0.510475
0.652918 0.150164 0.504051
0.782864 0.116457 0.511543
0.863096 0.123751 0.565545
0.873945 0.150179 0.624949
0.90956 0.339345 0.714275
0.100191 0.595361 0.599008
0.099794 0.595041 0.598795
0.0977646 0.593301 0.597498
0.0899672 0.585138 0.589563
0.593484 0.619608 0.600198
0.847913 0.504723 0.563088
0.871015 0.111269 0.436027
0.879713 0.152361 0.598474
0.923598 0.450309 0.733013
0.282124 0.709163 0.648188
0.283238 0.709453 0.646952
0.287404 0.710842 0.64564
0.305257 0.715892 0.640986
0.444282 0.768994 0.654948
0.796109 0.813291 0.649607
0.976928 0.782986 0.649805
0.961379 0.570932 0.449134
0.924575 0.45005 0.695644
0.383719 0.756909 0.676173
0.384695 0.757137 0.675502
0.38996 0.759167 0.675593
0.407187 0.765484 0.675593
0.466621 0.788876 0.680888
0.672084 0.900267 0.729244
0.882353 0.938872 0.726223
0.931777 0.935286 0.712505
0.888228 0.815702 0.545388
0.417655 0.773999 0.686885
0.417914 0.773831 0.686229
0.421195 0.775158 0.686259
0.435859 0.781933 0.688472
0.511025 0.821576 0.710262
0.659983 0.898787 0.745632
0.825986 0.936446 0.751995
0.923003 0.942245 0.741024
0.920485 0.942855 0.727611
0.582071 0.877012 0.760815
0.574441 0.872526 0.757122
0.585611 0.878492 0.761349
0.61326 0.892287 0.771008
0.664378 0.913481 0.784527
0.733211 0.932311 0.792004
0.832517 0.943404 0.792096
0.911788 0.947707 0.788357
0.926452 0.947753 0.785809
0.0706798 0 0.504112
0.156527 0 0.518471
0.258427 0.0062562 0.537179
0.438926 0.039292 0.568276
0.624109 0.0607767 0.588983
0.769146 0.101442 0.618494
0.859007 0.147906 0.663584
0.857649 0.149126 0.68542
0.873091 0.174548 0.697124
0.0362249 0 0.501076
0.0741588 0 0.50547
0.21265 0.000823987 0.529809
0.419608 0.0372015 0.568383
0.618021 0.0597086 0.58703
0.76669 0.100496 0.616251
0.859632 0.148089 0.660853
0.857893 0.149264 0.683482
0.865873 0.161212 0.686931
0 0.000289921 0.514916
0 0.000259403 0.518242
0.067216 0 0.53106
0.382452 0.0353094 0.582101
0.638224 0.0684367 0.616968
0.772534 0.102739 0.621637
0.858854 0.147875 0.664118
0.858351 0.150011 0.685267
0.888472 0.218311 0.715831
0 0.163943 0.568658
0 0.145342 0.56817
0 0.10161 0.573297
0.024979 3.0518e-05 0.566552
0.606699 0.0714275 0.628428
0.801083 0.115373 0.6448
0.858839 0.147906 0.664378
0.859678 0.151598 0.683818
0.911589 0.347768 0.741482
0.0205997 0.569162 0.650538
0.0163577 0.56669 0.651408
0.00796521 0.561578 0.653971
0 0.539666 0.65832
0.500648 0.545327 0.700298
0.825162 0.436439 0.687968
0.863478 0.151308 0.65626
0.862318 0.154376 0.674632
0.925399 0.495125 0.757626
0.259922 0.69987 0.680629
0.259983 0.699916 0.680659
0.261265 0.700648 0.681132
0.265919 0.703365 0.683116
0.365286 0.745418 0.713359
0.767773 0.782132 0.718578
0.962844 0.733394 0.717357
0.918212 0.409857 0.646494
0.927199 0.487694 0.735882
0.373861 0.756008 0.696498
0.374289 0.7561 0.695979
0.376776 0.757275 0.695918
0.383536 0.760845 0.695399
0.425101 0.783001 0.701503
0.6869 0.91043 0.774395
0.890425 0.927901 0.770367
0.975006 0.915969 0.764706
0.977005 0.800412 0.685939
0.406882 0.774807 0.702846
0.406989 0.77467 0.702266
0.40943 0.775784 0.702174
0.418952 0.780499 0.702693
0.506355 0.831861 0.731365
0.680323 0.917647 0.78201
0.831601 0.941558 0.784863
0.92491 0.947082 0.782284
0.927886 0.946273 0.775601
0.564858 0.873243 0.766339
0.561502 0.871092 0.764462
0.576608 0.879057 0.770001
0.612039 0.895445 0.781704
0.67274 0.9187 0.797574
0.746944 0.937453 0.806302
0.837476 0.946212 0.804852
0.907897 0.949783 0.803113
0.924285 0.94966 0.796963
0 0.000137331 0.585916
0.0199435 0 0.583612
0.138872 0 0.595712
0.362737 0.0429236 0.631769
0.609613 0.0924086 0.668437
0.751934 0.0918746 0.673411
0.843976 0.138857 0.706081
0.842802 0.142061 0.712886
0.847852 0.144991 0.712901
0 0.000137331 0.585351
7.62951e-05 0.000122072 0.58262
0.0821393 0 0.587533
0.336019 0.0345159 0.626245
0.602457 0.0922866 0.667918
0.749859 0.0914015 0.672557
0.844663 0.139055 0.704784
0.842939 0.141558 0.712001
0.847395 0.14432 0.712276
0 9.15541e-05 0.596246
0 7.62951e-05 0.597818
0 4.57771e-05 0.602686
0.261341 0.014847 0.622538
0.592645 0.0979934 0.676204
0.758373 0.0949721 0.681453
0.842664 0.138994 0.708354
0.842954 0.142687 0.713741
0.854444 0.154376 0.719356
0 0.0704356 0.625559
0 0.0538338 0.624414
0 0.0250401 0.628443
0 1.5259e-05 0.626673
0.520836 0.0927749 0.671366
0.785473 0.108537 0.701381
0.841031 0.139666 0.710765
0.843153 0.143252 0.714488
0.881224 0.223224 0.745922
0 0.546563 0.693019
0 0.542565 0.694514
0 0.537545 0.698802
0 0.507805 0.709346
0.255848 0.436957 0.75227
0.785504 0.261891 0.754192
0.846479 0.142718 0.710567
0.843442 0.143572 0.714733
0.90631 0.385626 0.769039
0.218097 0.687266 0.702998
0.216266 0.686793 0.703609
0.214084 0.68632 0.704524
0.204181 0.683131 0.706249
0.165469 0.700206 0.748928
0.729534 0.751171 0.799603
0.941314 0.714992 0.787167
0.89691 0.274113 0.750637
0.902159 0.338369 0.762783
0.353246 0.75314 0.721309
0.353536 0.753307 0.721431
0.355337 0.754376 0.722225
0.360327 0.757183 0.724468
0.383215 0.770733 0.734722
0.679393 0.883741 0.814343
0.875456 0.896254 0.805173
0.95967 0.87747 0.807584
0.953735 0.73077 0.771862
0.401556 0.778927 0.727352
0.401663 0.778912 0.727031
0.40351 0.780041 0.727321
0.409216 0.783337 0.727855
0.469093 0.822217 0.752544
0.681544 0.921187 0.815412
0.834669 0.945586 0.821195
0.914565 0.94696 0.817838
0.923766 0.947372 0.81445
0.527779 0.858793 0.777569
0.527703 0.858717 0.777096
0.544457 0.867567 0.783001
0.58616 0.886931 0.796048
0.659312 0.914153 0.813733
0.753536 0.936202 0.824735
0.834623 0.944366 0.823941
0.901671 0.946899 0.820905
0.918044 0.94638 0.821149
0 0 0.630869
0 0 0.630549
0 0 0.625238
0.189883 0.00181582 0.625025
0.562036 0.102708 0.682826
0.772564 0.109041 0.702907
0.839689 0.139544 0.711757
0.840742 0.140719 0.712596
0.843748 0.143893 0.714977
0 0 0.627955
0 0 0.628672
0 0 0.626657
0.156771 0.000259403 0.62031
0.551415 0.101366 0.681498
0.769268 0.108354 0.702525
0.839673 0.139513 0.711742
0.84065 0.140612 0.712505
0.843381 0.143511 0.714687
0 1.5259e-05 0.627985
0 3.0518e-05 0.629023
0 0.000106813 0.634943
0 0 0.616587
0.506569 0.0939651 0.675669
0.776455 0.110185 0.70367
0.839796 0.139666 0.711833
0.841062 0.141054 0.71284
0.844846 0.145022 0.715846
0 0.161334 0.675608
0 0.153109 0.676265
0 0.182589 0.691646
0 0.14287 0.692149
0.309224 0.0430762 0.676173
0.749477 0.108293 0.702861
0.839933 0.139803 0.71194
0.841443 0.141466 0.713146
0.852064 0.153994 0.721401
0 0.560464 0.714
0 0.559182 0.715557
0 0.561913 0.719463
0 0.54815 0.729641
0.117922 0.530251 0.765332
0.746609 0.404532 0.772747
0.859968 0.166445 0.727672
0.841794 0.141833 0.713436
0.88687 0.248188 0.751095
0.198932 0.687373 0.716731
0.196796 0.687114 0.717403
0.193851 0.686961 0.718593
0.180713 0.684245 0.720729
0.130571 0.694743 0.753826
0.692699 0.744991 0.81561
0.919646 0.710277 0.808118
0.903624 0.360769 0.76643
0.878355 0.212512 0.743267
0.32665 0.743221 0.728191
0.326329 0.74316 0.728435
0.327855 0.744167 0.729564
0.333089 0.747478 0.733608
0.345708 0.756481 0.747478
0.644648 0.845121 0.835843
0.850187 0.869795 0.833844
0.940352 0.851209 0.829755
0.933989 0.699306 0.804883
0.39826 0.780758 0.74342
0.398444 0.78088 0.743496
0.399817 0.781796 0.744244
0.403571 0.784176 0.746075
0.457694 0.817716 0.772412
0.664332 0.90396 0.833082
0.82536 0.92752 0.837842
0.90309 0.929244 0.830777
0.914794 0.928512 0.831281
0.502846 0.84416 0.789014
0.504204 0.844923 0.789425
0.521447 0.853346 0.795544
0.563973 0.872282 0.809094
0.638285 0.899641 0.827314
0.734218 0.922881 0.83888
0.829816 0.934661 0.837018
0.89131 0.936629 0.831342
0.90837 0.936446 0.830854
0 0.0111391 0.646586
0 0.00268559 0.64097
0 0.000274662 0.640284
0 0 0.626352
0.469993 0.0846265 0.670604
0.761898 0.107774 0.702266
0.839048 0.138811 0.711254
0.84004 0.13994 0.712032
0.841932 0.14197 0.713542
0 0.00138857 0.637293
0 0.00141909 0.637873
0 0.000213626 0.638697
0 0 0.62533
0.469795 0.0844129 0.670146
0.759793 0.107469 0.701946
0.839017 0.138766 0.711238
0.840009 0.13991 0.712016
0.841764 0.141802 0.713405
0 0.0249332 0.65156
0 0.0280766 0.654169
0 0.238163 0.707927
0 0.143145 0.692195
0.226856 0.0225834 0.666194
0.729915 0.107881 0.70135
0.840543 0.140505 0.712428
0.840146 0.140063 0.712123
0.842557 0.142641 0.714031
0 0.328588 0.712077
0 0.336645 0.714855
0 0.430915 0.732631
0 0.49218 0.736538
0.0137789 0.42945 0.751278
0.727352 0.283696 0.756451
0.844266 0.144457 0.715389
0.840192 0.140108 0.712154
0.843381 0.143511 0.714687
0 0.59144 0.718318
0 0.593759 0.719387
0 0.609979 0.721248
0 0.620295 0.724315
0 0.638483 0.75845
0.698116 0.672282 0.802823
0.920836 0.53431 0.784512
0.840574 0.140551 0.712444
0.84445 0.144625 0.715541
0.205219 0.692317 0.722042
0.206409 0.693065 0.722683
0.210239 0.694881 0.723796
0.209003 0.695308 0.725597
0.201129 0.705455 0.744793
0.654673 0.767803 0.818647
0.892348 0.761654 0.81767
0.928237 0.625849 0.794827
0.844846 0.145022 0.715846
0.316976 0.739116 0.728359
0.317037 0.739208 0.728618
0.31989 0.740703 0.729809
0.328359 0.745708 0.734859
0.347829 0.757916 0.751049
0.646799 0.8486 0.837186
0.835798 0.871595 0.837049
0.938201 0.857557 0.831724
0.937377 0.745724 0.812512
0.39617 0.780377 0.749416
0.396185 0.780407 0.749599
0.397498 0.781247 0.750439
0.401053 0.783444 0.752514
0.458 0.817578 0.778485
0.654063 0.895659 0.835477
0.816815 0.920607 0.841901
0.897215 0.923659 0.833204
0.917082 0.91902 0.833005
0.494331 0.837217 0.792203
0.496056 0.838102 0.792782
0.514397 0.846922 0.799283
0.560815 0.867124 0.813855
0.635126 0.893797 0.831418
0.728893 0.916625 0.842725
0.823331 0.929854 0.841718
0.887572 0.93286 0.833997
0.905669 0.933379 0.832837
