presets/XH_G200_2.cube
TITLE "Generated by Resolve"
LUT_3D_SIZE 5
0.108629 0.113268 0.0928511
0.324056 0.0954757 0.0803998
0.637232 0.132204 0.260105
0.836515 0.182116 0.556649
0.829084 0.269505 0.672984
0.104265 0.29836 0.200504
0.256916 0.228992 0.0928511
0.645701 0.122927 0.181979
0.834363 0.170916 0.532952
0.843702 0.23473 0.660212
0.267918 0.604044 0.554223
0.290669 0.605524 0.539696
0.607111 0.635096 0.447852
0.822324 0.412558 0.341253
0.828931 0.26865 0.629175
0.388052 0.688685 0.664591
0.395209 0.690913 0.663325
0.475044 0.73695 0.663447
0.731319 0.849287 0.699306
0.744091 0.800275 0.625101
0.522805 0.811093 0.771038
0.507485 0.797559 0.757992
0.560327 0.832609 0.783841
0.706645 0.867674 0.8112
0.774655 0.875502 0.815961
0.0976577 0.106325 0.176913
0.304814 0.0974899 0.174853
0.6309 0.144579 0.350637
0.839689 0.190951 0.578134
0.823865 0.281163 0.677928
0.0978256 0.260243 0.275471
0.215885 0.207538 0.194598
0.638956 0.13257 0.261891
0.837583 0.184237 0.56051
0.812161 0.31696 0.682963
0.245182 0.603067 0.566705
0.267201 0.602823 0.551888
0.601251 0.627848 0.443259
0.824842 0.363821 0.310918
0.806607 0.351537 0.669276
0.386206 0.689357 0.667384
0.391608 0.690806 0.666102
0.452796 0.7205 0.655131
0.731197 0.849302 0.699321
0.750011 0.783551 0.603433
0.53051 0.817319 0.777554
0.529702 0.816251 0.775784
0.570047 0.839277 0.792264
0.704768 0.867628 0.811948
0.774533 0.875486 0.815991
0.133135 0.085008 0.457801
0.321645 0.0918746 0.486503
0.637079 0.148241 0.568261
0.844053 0.216495 0.664561
0.814786 0.301396 0.698238
0.0774548 0.0893873 0.460166
0.155367 0.0826429 0.489693
0.648264 0.15021 0.578897
0.845624 0.213626 0.659083
0.80647 0.33576 0.704494
0.174685 0.597635 0.636927
0.173632 0.59704 0.636316
0.556817 0.609186 0.632074
0.845701 0.215122 0.568826
0.794293 0.50573 0.739727
0.376394 0.690227 0.680247
0.380575 0.692149 0.679805
0.437049 0.723217 0.690349
0.738811 0.866941 0.756756
0.753017 0.758404 0.576318
0.527291 0.817685 0.782559
0.529549 0.818891 0.783078
0.581186 0.846479 0.805661
0.703014 0.869413 0.820218
0.774487 0.875593 0.816449
0.0917525 0.0858167 0.616526
0.206561 0.0843366 0.61799
0.639582 0.163607 0.715785
0.80882 0.235569 0.755154
0.805768 0.246571 0.758404
0.0909895 0.086183 0.628672
0.0906996 0.0862898 0.631983
0.627527 0.168994 0.722591
0.806516 0.236866 0.756954
0.802747 0.257847 0.759441
0.0399786 0.582757 0.717708
0.0244907 0.578714 0.723049
0.39382 0.510521 0.77113
0.807019 0.243137 0.757549
0.779034 0.461982 0.773678
0.35378 0.688746 0.725658
0.355016 0.689708 0.726528
0.375326 0.705943 0.741329
0.735775 0.828656 0.835004
0.805371 0.691249 0.789303
0.488304 0.797116 0.795514
0.501076 0.80592 0.802182
0.577752 0.844266 0.832441
0.704402 0.867857 0.848493
0.766857 0.871931 0.850523
0.0590677 0.133013 0.691356
0.0805371 0.0955673 0.674464
0.536004 0.169299 0.715892
0.801862 0.236271 0.759014
0.801511 0.244144 0.760021
0.0415351 0.165515 0.702327
0 0.410071 0.755779
0.34995 0.1449 0.711635
0.801648 0.241886 0.759747
0.801404 0.245151 0.760082
0.0436255 0.603494 0.741283
0.0610666 0.61178 0.743984
0.044358 0.629282 0.787518
0.782879 0.559655 0.792615
0.801221 0.247883 0.760388
0.330907 0.678187 0.735698
0.332952 0.679561 0.737285
0.35169 0.69247 0.75816
0.705715 0.804318 0.851392
0.78587 0.701411 0.825299
0.463416 0.771954 0.806165
0.478584 0.782055 0.814801
0.560769 0.823545 0.846754
0.695247 0.853346 0.861448
0.75671 0.858442 0.860243
