presets/XH_G200_6.cube
TITLE "Generated by Resolve"
LUT_3D_SIZE 5
0.119478 0.0297398 0
0.26273 0.0246433 0.000839246
0.58819 0.0285191 0.126558
0.747951 0.0733501 0.471229
0.775113 0.19147 0.67718
0.131563 0.222629 0.0898451
0.221241 0.160052 0
0.595575 0.0188754 0.0438239
0.745678 0.0594034 0.436591
0.771206 0.146792 0.639261
0.252827 0.589914 0.528481
0.269032 0.593423 0.508537
0.595056 0.628687 0.373251
0.789075 0.380728 0.235569
0.773785 0.188663 0.615808
0.377066 0.687953 0.689845
0.38616 0.68986 0.687861
0.483635 0.728664 0.683925
0.708934 0.817349 0.717144
0.717205 0.776242 0.622797
0.53315 0.7906 0.810956
0.519707 0.779736 0.796628
0.564126 0.807019 0.82359
0.690578 0.833387 0.849699
0.744778 0.839902 0.854185
0.110719 0.020676 0.0711376
0.248615 0.0262913 0.0810407
0.582071 0.0406348 0.223362
0.751842 0.0855421 0.503487
0.775891 0.206058 0.689754
0.116747 0.188632 0.177737
0.189273 0.140185 0.0920577
0.589502 0.0286717 0.128237
0.749111 0.0762493 0.477119
0.777554 0.251514 0.709484
0.238727 0.586694 0.544656
0.252369 0.588418 0.52491
0.589593 0.621103 0.366796
0.789654 0.310292 0.196506
0.778012 0.298772 0.698314
0.375158 0.688716 0.693477
0.381826 0.689906 0.691722
0.458351 0.715038 0.674846
0.708843 0.817349 0.717159
0.721553 0.762158 0.593484
0.539681 0.795453 0.818082
0.538964 0.794598 0.816083
0.572503 0.812253 0.832807
0.689113 0.833356 0.850599
0.744686 0.839902 0.854231
0.125628 0.000640879 0.419562
0.259998 0.0163119 0.458457
0.58352 0.0373846 0.498085
0.763729 0.122515 0.634852
0.775937 0.231739 0.723857
0.0856947 0.00302129 0.420615
0.138842 3.0518e-05 0.461189
0.591531 0.0383154 0.511391
0.763775 0.118502 0.625711
0.776959 0.27808 0.740368
0.204089 0.573587 0.635798
0.20354 0.572793 0.634699
0.551247 0.600641 0.634379
0.764431 0.118456 0.500496
0.764035 0.5028 0.777798
0.364157 0.690089 0.710414
0.369406 0.691798 0.709773
0.441276 0.718624 0.720195
0.715557 0.832197 0.785367
0.723262 0.740993 0.556085
0.537209 0.795972 0.824186
0.539055 0.796872 0.824628
0.582467 0.817838 0.847715
0.687724 0.83473 0.860075
0.744671 0.839994 0.85478
0.0852369 0 0.624598
0.180438 0.000366217 0.627237
0.581384 0.0505379 0.694148
0.744228 0.148592 0.76109
0.746777 0.163134 0.770672
0.0852522 0 0.640925
0.0852522 0 0.645319
0.572274 0.0567483 0.70367
0.742885 0.150195 0.76379
0.749432 0.177661 0.7776
0.129595 0.547402 0.731167
0.11725 0.542245 0.73727
0.377386 0.49546 0.81384
0.746227 0.158618 0.767865
0.755642 0.45153 0.821653
0.33959 0.689891 0.766781
0.341039 0.690776 0.767865
0.366827 0.706157 0.785626
0.712703 0.800381 0.8766
0.764202 0.682933 0.822828
0.503304 0.780804 0.842054
0.515328 0.787533 0.848768
0.579965 0.816281 0.87895
0.689143 0.833524 0.893034
0.738735 0.836866 0.894286
0.0817273 0.047837 0.715618
0.0851301 0.00555428 0.700526
0.49514 0.0626535 0.705318
0.738643 0.149096 0.765667
0.742031 0.159548 0.771008
0.0787213 0.0828717 0.724849
0.0656748 0.328862 0.779355
0.301976 0.0534218 0.726009
0.741085 0.156558 0.769467
0.742412 0.160891 0.771618
0.134051 0.571771 0.76144
0.145922 0.582406 0.766018
0.136995 0.60296 0.81915
0.751797 0.558602 0.834577
0.743542 0.164538 0.773495
0.314626 0.679789 0.778622
0.316884 0.681163 0.780499
0.338888 0.694224 0.805814
0.688197 0.780041 0.896025
0.749599 0.691905 0.864851
0.477287 0.7608 0.856275
0.493385 0.768627 0.865034
0.56492 0.799558 0.896162
0.681498 0.821408 0.907866
0.730541 0.825605 0.905699
