presets/XH_G200_4.cube
TITLE "Generated by Resolve"
LUT_3D_SIZE 9
0.0654307 0.00364691 0
0.0661784 0.00395209 0
0.154177 0.0132906 0
0.382849 0.0332036 0
0.560983 0.0918898 0.0831922
0.693034 0.184146 0.316487
0.762646 0.282383 0.501289
0.759686 0.313329 0.614481
0.765377 0.367117 0.696986
0.0656138 0.0120241 0
0.0653849 0.0104677 0
0.127245 0.0130007 0
0.37528 0.0308537 0
0.55523 0.0879988 0.0625162
0.687892 0.178042 0.293965
0.762387 0.278447 0.488258
0.7608 0.308263 0.594919
0.760006 0.335363 0.661204
0.0628977 0.139544 0
0.0644846 0.12874 0
0.110521 0.121431 0
0.364508 0.0865644 0
0.560021 0.0765698 0.00198367
0.688762 0.173114 0.239719
0.76228 0.273823 0.471077
0.761547 0.30663 0.586633
0.761242 0.336385 0.66041
0.0747997 0.370947 0.0477455
0.0772717 0.366476 0.0183566
0.0816052 0.349386 0
0.410086 0.355642 0.0556191
0.612284 0.307988 0.00794995
0.707774 0.170108 0.00309758
0.760678 0.256947 0.391745
0.763851 0.301106 0.558419
0.765377 0.340169 0.657328
0.122789 0.5776 0.303166
0.121798 0.576089 0.279057
0.121965 0.575875 0.20737
0.228489 0.587823 0.096437
0.717983 0.62266 0.219242
0.764157 0.652995 0.152773
0.807675 0.410727 0.0700847
0.769589 0.276555 0.435691
0.778531 0.358495 0.643351
0.191791 0.72636 0.525612
0.190265 0.724926 0.513268
0.188403 0.724514 0.491279
0.185489 0.724926 0.389639
0.582467 0.852583 0.375311
0.912337 0.860288 0.484321
0.919936 0.870039 0.365118
0.825116 0.791424 0.199878
0.802487 0.39118 0.319524
0.21738 0.769345 0.656123
0.217746 0.769833 0.646845
0.218326 0.770703 0.635721
0.220111 0.775402 0.589288
0.262882 0.830671 0.436469
0.645594 0.935363 0.498253
0.942962 0.933547 0.610803
0.963912 0.930358 0.590188
0.981155 0.903868 0.447318
0.233631 0.794385 0.713069
0.232883 0.793301 0.706767
0.233936 0.794934 0.70016
0.24004 0.80325 0.683116
0.280781 0.845289 0.687053
0.475074 0.892546 0.65684
0.767529 0.933547 0.733364
0.847684 0.934874 0.779248
0.951385 0.933684 0.626276
0.345983 0.87332 0.846326
0.320363 0.865629 0.830732
0.323033 0.86688 0.830732
0.341573 0.873274 0.83447
0.406699 0.886488 0.842115
0.561059 0.899504 0.844266
0.715724 0.911162 0.838407
0.793301 0.918532 0.852537
0.798779 0.91902 0.864271
0.0681468 0.0039826 0
0.0683757 0.00421149 0
0.158358 0.0131991 6.10361e-05
0.386572 0.0373846 0.00808728
0.563439 0.0958267 0.120256
0.694667 0.189029 0.348623
0.76286 0.286061 0.512932
0.759091 0.315389 0.622339
0.7664 0.375708 0.706554
0.066041 0.0104829 0
0.0661173 0.009308 0
0.15996 0.0176089 0
0.383322 0.0332799 0
0.560891 0.0918593 0.0830396
0.6916 0.182696 0.312978
0.762585 0.281514 0.498543
0.759976 0.311849 0.609277
0.763561 0.356207 0.685924
0.0614786 0.141833 0
0.0629892 0.136599 0
0.108629 0.118944 0
0.375799 0.0772717 0
0.563455 0.0835889 0.0188602
0.692943 0.1785 0.263233
0.7626 0.277134 0.482399
0.760616 0.310445 0.602625
0.765011 0.358892 0.687007
0.0730449 0.371633 0.0778973
0.0745098 0.370031 0.0486305
0.0812848 0.349554 0
0.406088 0.35256 0.0542306
0.61297 0.298787 0.00962844
0.702892 0.164157 0.0254215
0.76144 0.261326 0.414252
0.762844 0.306111 0.5794
0.769253 0.366644 0.689525
0.12343 0.577035 0.329152
0.122545 0.576944 0.303288
0.121462 0.575402 0.231159
0.192844 0.579278 0.0734417
0.715709 0.620417 0.218677
0.76582 0.646189 0.1579
0.80592 0.390921 0.0612345
0.775677 0.293034 0.465278
0.779675 0.389441 0.691142
0.192584 0.725933 0.537499
0.191638 0.725963 0.525521
0.189899 0.725353 0.506416
0.186069 0.725322 0.420478
0.572396 0.849714 0.375677
0.912245 0.86009 0.484092
0.916823 0.868498 0.363165
0.81323 0.774578 0.192248
0.791226 0.450416 0.641291
0.217609 0.769818 0.664256
0.217548 0.769604 0.656428
0.218296 0.770672 0.644419
0.220371 0.774975 0.603113
0.254841 0.824292 0.445457
0.637964 0.933364 0.495567
0.942962 0.933547 0.610803
0.96492 0.930022 0.587152
0.973541 0.894942 0.410437
0.234424 0.795544 0.71812
0.233783 0.794614 0.713268
0.234546 0.795804 0.707042
0.240406 0.803876 0.690288
0.2795 0.844327 0.695033
0.466102 0.89189 0.665812
0.764721 0.932433 0.734432
0.847791 0.93489 0.779126
0.951431 0.933669 0.626169
0.358923 0.876265 0.852537
0.348074 0.873869 0.847349
0.350744 0.874693 0.846799
0.365133 0.878569 0.84741
0.427115 0.88867 0.850843
0.563836 0.89958 0.848798
0.714153 0.911025 0.838788
0.79295 0.918471 0.852659
0.798779 0.91902 0.864271
0.0839857 0.00433356 0.0383307
0.0869917 0.0043946 0.0399786
0.172473 0.0182498 0.04065
0.409766 0.0520638 0.102892
0.572366 0.10544 0.207019
0.697185 0.196857 0.391531
0.762341 0.290379 0.529549
0.75845 0.317174 0.628977
0.766049 0.377584 0.709453
0.0744335 0.0100862 0.00250248
0.0843824 0.00463874 0.0458534
0.175723 0.0190738 0.0422065
0.403174 0.0464637 0.059678
0.567498 0.100694 0.168811
0.693385 0.189746 0.362127
0.762692 0.286305 0.514443
0.759289 0.313802 0.617227
0.763073 0.358022 0.689021
0.0620737 0.124437 0.0355535
0.0621195 0.123461 0.0348211
0.104723 0.111955 0.0241703
0.412192 0.0852216 0.0154879
0.563424 0.0931563 0.0859388
0.696361 0.187304 0.322576
0.763012 0.284337 0.506401
0.75906 0.31696 0.626871
0.771145 0.403662 0.732387
0.0726787 0.372091 0.157244
0.0719615 0.370794 0.129137
0.0724956 0.363729 0.058381
0.389593 0.340841 0.0592966
0.588586 0.283467 0.0221561
0.712062 0.183642 0.171633
0.76257 0.269276 0.449454
0.761196 0.312001 0.605234
0.773602 0.408225 0.732555
0.125933 0.576028 0.377844
0.123934 0.575082 0.355505
0.12105 0.572885 0.304646
0.139528 0.564584 0.0675975
0.703548 0.608209 0.215991
0.761242 0.627634 0.175799
0.804364 0.373037 0.0554208
0.776135 0.306371 0.513069
0.780407 0.420218 0.726925
0.192813 0.724163 0.554238
0.19234 0.724376 0.542916
0.19089 0.723995 0.525292
0.185168 0.722194 0.444114
0.54284 0.839155 0.37908
0.906142 0.85594 0.485405
0.907042 0.867475 0.390967
0.808606 0.766262 0.189166
0.793378 0.484672 0.665339
0.217945 0.770504 0.675608
0.217807 0.770199 0.66862
0.21854 0.77113 0.658686
0.221164 0.775631 0.621897
0.24593 0.815427 0.46894
0.623896 0.929534 0.495735
0.942885 0.933516 0.610697
0.962325 0.930892 0.595254
0.971923 0.893111 0.40235
0.234852 0.796094 0.72398
0.23415 0.795132 0.71928
0.234974 0.796399 0.714122
0.240543 0.804227 0.69836
0.278828 0.843885 0.704326
0.460563 0.891493 0.677928
0.760311 0.930037 0.73814
0.848325 0.935058 0.778134
0.950591 0.933852 0.628626
0.359762 0.87628 0.854307
0.348394 0.873823 0.848753
0.357168 0.875975 0.850889
0.369696 0.879423 0.850767
0.429816 0.888884 0.853315
0.563317 0.899504 0.850492
0.712886 0.910918 0.84033
0.792065 0.918334 0.853346
0.798611 0.919005 0.864271
0.1066 0.0107424 0.277501
0.119158 0.0134279 0.288457
0.241871 0.0437018 0.287449
0.424521 0.0708019 0.285649
0.582269 0.125597 0.375097
0.696895 0.214328 0.474739
0.75964 0.300084 0.572442
0.756329 0.323003 0.646983
0.765316 0.383688 0.718288
0.0984665 0.00967422 0.261067
0.108965 0.011841 0.294194
0.220569 0.0406958 0.310063
0.424994 0.070985 0.286366
0.58056 0.123323 0.365057
0.694331 0.207706 0.455238
0.76025 0.297414 0.560891
0.757168 0.319539 0.637659
0.76231 0.364874 0.699092
0.0644846 0.083711 0.227878
0.0649271 0.0746624 0.24921
0.0999313 0.0452888 0.319661
0.43714 0.0774395 0.300542
0.581186 0.121553 0.346761
0.696757 0.204883 0.433982
0.760906 0.296422 0.555062
0.756848 0.322545 0.645167
0.770794 0.409827 0.740734
0.075639 0.340063 0.329397
0.0755932 0.339742 0.329488
0.0749828 0.335164 0.325765
0.322881 0.357366 0.33283
0.602914 0.280049 0.289082
0.709682 0.200137 0.342031
0.76347 0.286778 0.512917
0.758862 0.323568 0.642161
0.782055 0.471794 0.783886
0.13225 0.573404 0.487556
0.132036 0.572976 0.476326
0.130648 0.570794 0.450156
0.1196 0.56434 0.34078
0.661097 0.600565 0.328603
0.737865 0.589731 0.254841
0.796719 0.292912 0.128786
0.772412 0.320089 0.579171
0.784695 0.476799 0.775982
0.191867 0.721813 0.612192
0.192004 0.721447 0.601083
0.191974 0.720928 0.583612
0.189929 0.719951 0.53225
0.370321 0.794354 0.334508
0.886259 0.843519 0.49984
0.878431 0.858686 0.448112
0.803159 0.74197 0.182925
0.792782 0.500618 0.725948
0.21915 0.772534 0.702022
0.218967 0.772229 0.69659
0.21973 0.773266 0.690761
0.222766 0.777752 0.663722
0.243427 0.811475 0.541253
0.560327 0.910552 0.49865
0.933547 0.935195 0.624063
0.953674 0.933211 0.620615
0.963958 0.886259 0.378546
0.236072 0.797452 0.73875
0.235508 0.796704 0.735103
0.236301 0.798032 0.731243
0.241428 0.805554 0.720287
0.277485 0.843336 0.728527
0.44596 0.890593 0.712612
0.747585 0.922866 0.74815
0.84979 0.935286 0.776379
0.944411 0.934859 0.643305
0.361639 0.87631 0.858991
0.349996 0.873762 0.853666
0.359487 0.87602 0.856016
0.385 0.88159 0.860533
0.437995 0.889509 0.860075
0.562509 0.899321 0.855802
0.710567 0.910613 0.845396
0.789517 0.918029 0.855726
0.798596 0.919005 0.864393
0.156268 0.0484474 0.48983
0.194064 0.0596475 0.496223
0.316823 0.0899519 0.50161
0.449607 0.111116 0.490043
0.573983 0.156802 0.504158
0.696468 0.243137 0.581735
0.750805 0.321065 0.654063
0.750179 0.34052 0.682765
0.765057 0.402472 0.742824
0.151156 0.0479133 0.492515
0.16112 0.0517128 0.498146
0.289708 0.0861219 0.509575
0.443656 0.110536 0.493309
0.573495 0.156329 0.503395
0.694331 0.238926 0.57554
0.751797 0.318608 0.647898
0.750759 0.336919 0.677455
0.761364 0.385412 0.726574
0.104814 0.0441901 0.49279
0.112963 0.0465858 0.506294
0.180652 0.0668498 0.535042
0.448753 0.123125 0.530114
0.582971 0.165438 0.518639
0.696941 0.240284 0.573999
0.752209 0.317968 0.645991
0.750942 0.340276 0.681559
0.77145 0.429603 0.76408
0.0692302 0.260609 0.528038
0.0691844 0.254078 0.53547
0.0696117 0.23592 0.548882
0.285039 0.236179 0.57937
0.597498 0.205188 0.542062
0.706859 0.248096 0.575235
0.754482 0.312734 0.629465
0.754513 0.344549 0.682902
0.78352 0.491676 0.80354
0.122545 0.546258 0.637095
0.122408 0.54583 0.636744
0.121691 0.543572 0.634684
0.119188 0.534646 0.624781
0.524041 0.585687 0.623011
0.73994 0.538643 0.596948
0.778073 0.315404 0.527428
0.765087 0.342657 0.662333
0.791714 0.558007 0.833005
0.188083 0.718242 0.710567
0.187823 0.717937 0.706111
0.187381 0.717357 0.699809
0.186297 0.715541 0.677607
0.288594 0.77705 0.624125
0.721111 0.822614 0.688807
0.820233 0.820874 0.649546
0.810819 0.60972 0.41088
0.791791 0.536934 0.785733
0.223438 0.77705 0.755779
0.223209 0.77702 0.752834
0.224155 0.778607 0.749371
0.227848 0.784894 0.735317
0.251774 0.817853 0.697307
0.471885 0.892439 0.676158
0.814282 0.935561 0.762539
0.896101 0.932586 0.750957
0.949096 0.873335 0.340993
0.239429 0.799802 0.77055
0.238926 0.799359 0.767727
0.239811 0.800931 0.765301
0.245579 0.809583 0.76231
0.282704 0.847272 0.781064
0.444602 0.891417 0.77438
0.7187 0.911208 0.772869
0.828412 0.930968 0.803845
0.851514 0.935561 0.774304
0.363241 0.875578 0.86978
0.354452 0.873671 0.866255
0.365667 0.87628 0.868681
0.394934 0.882078 0.873549
0.45948 0.890471 0.875929
0.566567 0.899168 0.869001
0.709484 0.91017 0.860166
0.784482 0.917571 0.863722
0.798398 0.91899 0.864713
0.231708 0.115358 0.625666
0.298634 0.128237 0.62562
0.386648 0.14873 0.624994
0.489265 0.175784 0.625406
0.57966 0.206836 0.62565
0.681529 0.284031 0.664652
0.740902 0.361212 0.719234
0.742519 0.382925 0.747127
0.753918 0.407919 0.766445
0.21915 0.113863 0.62707
0.233951 0.116243 0.62649
0.349737 0.139879 0.626307
0.481147 0.175586 0.628412
0.576226 0.204578 0.623926
0.679591 0.281285 0.662028
0.741009 0.358984 0.716091
0.742473 0.380987 0.744533
0.748531 0.390936 0.751019
0.173541 0.11516 0.64416
0.183032 0.119585 0.647745
0.250263 0.135622 0.652583
0.47303 0.186633 0.651286
0.59234 0.230091 0.656397
0.684184 0.287877 0.668299
0.740887 0.361639 0.71986
0.743008 0.383291 0.747082
0.766339 0.446448 0.797253
0.0945144 0.186435 0.668223
0.0962844 0.175219 0.669932
0.104265 0.156786 0.680278
0.265797 0.170169 0.69633
0.579767 0.236271 0.67454
0.704372 0.318013 0.695384
0.740902 0.361898 0.72018
0.743816 0.382681 0.745357
0.785473 0.523659 0.839826
0.137911 0.528466 0.746532
0.138247 0.526497 0.748211
0.139452 0.522805 0.753231
0.140612 0.505302 0.761593
0.505531 0.52697 0.784649
0.72871 0.485298 0.763821
0.744045 0.35819 0.712062
0.744793 0.374746 0.733471
0.794614 0.599023 0.867704
0.192432 0.71426 0.804883
0.19234 0.714061 0.80473
0.192081 0.713558 0.804395
0.191806 0.711955 0.803601
0.321889 0.746395 0.821851
0.677913 0.778027 0.815732
0.815732 0.763989 0.810452
0.793256 0.511788 0.731151
0.793606 0.577752 0.837842
0.22916 0.778683 0.825483
0.228992 0.778592 0.823941
0.229541 0.779492 0.822293
0.232517 0.784039 0.81796
0.252781 0.813443 0.818372
0.502937 0.889586 0.852079
0.774868 0.907591 0.845258
0.841398 0.908034 0.860273
0.825971 0.833463 0.719188
0.246204 0.802701 0.830259
0.24593 0.802457 0.828458
0.24683 0.803922 0.827176
0.251026 0.810056 0.824567
0.301198 0.853284 0.854505
0.479194 0.893217 0.86305
0.709575 0.910552 0.844251
0.798566 0.91902 0.860471
0.803983 0.919966 0.854566
0.367056 0.87425 0.894255
0.363043 0.87332 0.892378
0.377035 0.876585 0.894743
0.413046 0.883024 0.899138
0.485466 0.890974 0.901991
0.58822 0.899382 0.897963
0.715282 0.909728 0.891325
0.777432 0.916823 0.8916
0.791241 0.918425 0.879301
0.271962 0.19942 0.728573
0.289448 0.199588 0.726024
0.375463 0.215335 0.72311
0.49778 0.249088 0.72665
0.594064 0.284718 0.731731
0.668238 0.321218 0.732189
0.735561 0.403311 0.780362
0.736263 0.413657 0.790799
0.739483 0.415763 0.791104
0.263127 0.195789 0.726345
0.273457 0.196048 0.724804
0.333761 0.205722 0.723156
0.485557 0.243427 0.724697
0.591043 0.283665 0.731395
0.666712 0.319417 0.7308
0.735836 0.401663 0.778073
0.736156 0.412299 0.789517
0.739055 0.414588 0.790173
0.228717 0.197482 0.735073
0.235889 0.201404 0.737575
0.276432 0.221729 0.749249
0.457298 0.247974 0.736278
0.590494 0.298939 0.746899
0.673686 0.333883 0.744747
0.735134 0.406287 0.784009
0.736553 0.415076 0.792065
0.744701 0.429099 0.801511
0.137911 0.202777 0.74583
0.145449 0.203845 0.747707
0.167071 0.219059 0.759869
0.243748 0.246662 0.774884
0.563073 0.296727 0.751034
0.696483 0.374609 0.776364
0.734676 0.409491 0.787503
0.736858 0.416373 0.79321
0.764889 0.487282 0.840467
0.171603 0.532631 0.829129
0.172564 0.53019 0.831403
0.175998 0.528756 0.838834
0.180499 0.508415 0.852537
0.482765 0.495216 0.870024
0.715053 0.480018 0.851209
0.738079 0.411475 0.787564
0.737102 0.416876 0.793576
0.783047 0.565347 0.875349
0.213352 0.713054 0.878462
0.213779 0.712444 0.879866
0.214557 0.711971 0.882094
0.215137 0.707073 0.885542
0.303655 0.716457 0.908019
0.671183 0.753262 0.917876
0.802991 0.739971 0.908507
0.775235 0.507698 0.847623
0.780041 0.541848 0.865202
0.242893 0.788159 0.891615
0.243015 0.788296 0.891722
0.24387 0.789212 0.892546
0.247608 0.792935 0.895872
0.266835 0.808988 0.910796
0.583566 0.868696 0.944564
0.76817 0.885542 0.938643
0.81265 0.876188 0.92845
0.812238 0.754955 0.892378
0.262257 0.813245 0.892409
0.261921 0.813077 0.891646
0.262882 0.814359 0.891676
0.265324 0.817716 0.890883
0.317449 0.851667 0.921233
0.530251 0.890715 0.936767
0.71313 0.906447 0.931502
0.781445 0.913863 0.929671
0.78822 0.915648 0.921843
0.380758 0.870863 0.935347
0.37966 0.870817 0.93463
0.396674 0.874342 0.937026
0.436591 0.881025 0.940841
0.512306 0.888411 0.941619
0.614878 0.896757 0.938582
0.713649 0.904921 0.936492
0.771847 0.911696 0.935164
0.783078 0.912566 0.935882
0.255528 0.254505 0.779416
0.272312 0.25835 0.780377
0.287541 0.255238 0.775952
0.438209 0.265873 0.756329
0.582437 0.312291 0.761532
0.689265 0.372076 0.777798
0.734066 0.410498 0.788876
0.734905 0.412329 0.790249
0.737346 0.41738 0.793957
0.256046 0.249943 0.775937
0.260746 0.252338 0.777173
0.284398 0.255909 0.77705
0.421073 0.261997 0.756985
0.578363 0.310674 0.760983
0.687114 0.370443 0.77734
0.734051 0.410468 0.788846
0.734813 0.412161 0.790127
0.737041 0.41677 0.7935
0.229999 0.243244 0.773724
0.23473 0.246235 0.775387
0.247532 0.259525 0.783597
0.303471 0.251865 0.770184
0.562005 0.305425 0.760113
0.69192 0.374853 0.778958
0.734142 0.410681 0.788998
0.735164 0.412863 0.790631
0.738231 0.419226 0.795316
0.149981 0.283146 0.799344
0.153674 0.284901 0.801312
0.165347 0.315267 0.818677
0.186542 0.324285 0.824216
0.516716 0.340154 0.799817
0.675822 0.367086 0.778973
0.734249 0.410925 0.789197
0.73547 0.41352 0.791104
0.743709 0.431418 0.80441
0.196735 0.560464 0.872023
0.19855 0.560342 0.874372
0.204303 0.565789 0.88191
0.228046 0.563043 0.89131
0.449729 0.565133 0.891676
0.698131 0.537728 0.876982
0.749508 0.445457 0.81474
0.735759 0.414115 0.791547
0.768963 0.500633 0.846998
0.230137 0.719005 0.909926
0.231479 0.718883 0.910964
0.233967 0.719142 0.912947
0.237919 0.715801 0.915755
0.30074 0.717723 0.927367
0.651316 0.748409 0.925612
0.787198 0.733501 0.920577
0.781292 0.553445 0.870863
0.762951 0.481102 0.837293
0.257099 0.79115 0.922225
0.257481 0.791226 0.922866
0.258518 0.791791 0.924041
0.261158 0.792782 0.92694
0.287739 0.799741 0.940352
0.593484 0.828656 0.94902
0.743847 0.852186 0.94641
0.792569 0.84184 0.943755
0.793378 0.730053 0.918776
0.287358 0.821912 0.927138
0.287587 0.822065 0.927275
0.28957 0.823255 0.928405
0.294347 0.826062 0.93109
0.362707 0.848081 0.951263
0.566201 0.875029 0.957397
0.713008 0.891051 0.953719
0.772869 0.898558 0.951186
0.779965 0.898939 0.951186
0.409979 0.860243 0.955261
0.411185 0.860594 0.955352
0.430915 0.863462 0.956542
0.474083 0.868727 0.957519
0.539513 0.87538 0.957504
0.618997 0.884642 0.956115
0.713542 0.896101 0.953231
0.765194 0.903044 0.951415
0.776608 0.90454 0.951125
0.206622 0.265156 0.79028
0.225254 0.263325 0.787839
0.246784 0.268711 0.789975
0.285344 0.255848 0.776822
0.549737 0.303349 0.761868
0.682658 0.3682 0.777264
0.733562 0.4094 0.788083
0.73434 0.411109 0.789334
0.735866 0.414343 0.791714
0.225147 0.257374 0.783917
0.226383 0.258732 0.784726
0.248676 0.266377 0.788235
0.287739 0.255406 0.776043
0.549676 0.302068 0.760632
0.681285 0.36701 0.776837
0.733532 0.409339 0.788037
0.734325 0.411063 0.789303
0.735729 0.414054 0.791516
0.191867 0.265736 0.79176
0.192279 0.269963 0.794369
0.175357 0.350317 0.834867
0.186511 0.324361 0.824247
0.493004 0.336507 0.801297
0.664057 0.360143 0.777615
0.734737 0.411978 0.789975
0.734432 0.411292 0.789456
0.73637 0.415381 0.792477
0.155825 0.371954 0.837125
0.15967 0.379461 0.840482
0.194034 0.455909 0.868101
0.219913 0.512901 0.884474
0.408652 0.484016 0.873884
0.685039 0.478767 0.856397
0.737774 0.418265 0.794598
0.734462 0.411383 0.789532
0.737041 0.41677 0.7935
0.209918 0.594583 0.888899
0.214191 0.598245 0.891157
0.224948 0.618021 0.89865
0.237003 0.632273 0.906004
0.323445 0.659175 0.913436
0.666407 0.682948 0.913588
0.789319 0.637644 0.895613
0.734752 0.412024 0.78999
0.737926 0.41857 0.794842
0.241932 0.728862 0.920302
0.243351 0.730312 0.92166
0.245823 0.733593 0.924208
0.24918 0.734783 0.927443
0.273945 0.736721 0.93257
0.62092 0.77232 0.932708
0.774746 0.765286 0.929229
0.78967 0.685832 0.907195
0.738231 0.419226 0.795316
0.261341 0.791043 0.92784
0.261753 0.791135 0.928161
0.262821 0.791867 0.928634
0.266468 0.793256 0.930922
0.295613 0.800778 0.943221
0.594324 0.830823 0.949813
0.735027 0.852216 0.9467
0.790173 0.846281 0.94461
0.798047 0.760037 0.925551
0.299672 0.822782 0.936065
0.300084 0.822858 0.936324
0.302388 0.823896 0.937453
0.30811 0.826185 0.939986
0.3794 0.845853 0.954101
0.568231 0.868742 0.957671
0.708003 0.885466 0.954742
0.769375 0.893996 0.952621
0.780667 0.891646 0.95169
0.420279 0.854093 0.956329
0.422065 0.854429 0.95642
0.442237 0.857343 0.957305
0.488029 0.862806 0.958022
0.549203 0.869993 0.957946
0.621088 0.880217 0.957076
0.709636 0.892485 0.955352
0.763256 0.900435 0.953552
0.775174 0.902525 0.952941
