presets/XH_G200_5.cube
TITLE "Generated by Resolve"
LUT_3D_SIZE 33
0.0223697 0.0264286 0.0248264
0.0223697 0.0264286 0.0248264
0.0223697 0.0264286 0.0248264
0.022385 0.0265812 0.0248264
0.0231174 0.0272679 0.026276
0.0239414 0.0277104 0.0279545
0.0353857 0.0316472 0.0326543
0.06981 0.0407568 0.041001
0.125933 0.0507362 0.049958
0.20206 0.0587015 0.0544442
0.276402 0.0652628 0.0562905
0.33637 0.0737011 0.0624704
0.384695 0.083711 0.0696422
0.429038 0.0976883 0.0888685
0.472282 0.114931 0.115648
0.511833 0.13283 0.143069
0.545907 0.150835 0.171984
0.578973 0.17023 0.205936
0.610758 0.190326 0.243702
0.641764 0.211414 0.284977
0.672923 0.235279 0.326558
0.701946 0.261036 0.369406
0.732403 0.292393 0.41294
0.75079 0.316747 0.449073
0.752239 0.324025 0.470619
0.752789 0.331319 0.492699
0.752117 0.338369 0.5149
0.75172 0.344656 0.534722
0.75079 0.349905 0.551919
0.749767 0.354818 0.566247
0.751186 0.3635 0.580682
0.755764 0.377737 0.596506
0.760403 0.392905 0.61117
0.0223697 0.0264286 0.0248264
0.0223697 0.0264286 0.0248264
0.0223697 0.0264286 0.0248264
0.022385 0.0265812 0.0248264
0.0229801 0.0271305 0.0260166
0.0238193 0.0276493 0.0277104
0.0340276 0.0311742 0.0321813
0.0675975 0.040238 0.0404364
0.123308 0.0503548 0.0496223
0.200549 0.0585641 0.0543526
0.276402 0.0652628 0.0562905
0.33637 0.0737011 0.0624704
0.384695 0.083711 0.0696422
0.429038 0.0976883 0.0888685
0.472282 0.114931 0.115648
0.511833 0.13283 0.143069
0.545907 0.150835 0.171984
0.578668 0.170031 0.205478
0.609873 0.189685 0.242115
0.640269 0.21033 0.28278
0.671031 0.233661 0.323415
0.699748 0.258976 0.365408
0.729915 0.289448 0.408728
0.750698 0.315984 0.446189
0.752087 0.322927 0.467323
0.752941 0.330068 0.488457
0.752316 0.336889 0.510231
0.751919 0.343145 0.529732
0.751049 0.348333 0.546914
0.750301 0.352895 0.56109
0.749203 0.357198 0.572442
0.752987 0.368612 0.586877
0.756664 0.380743 0.599603
0.0223697 0.0264286 0.0248264
0.0223697 0.0264286 0.0248264
0.0223697 0.0264286 0.0248264
0.0223697 0.0264897 0.0247959
0.0225681 0.0268101 0.0251621
0.0232242 0.0273594 0.0264897
0.0257267 0.0284886 0.0290227
0.0521248 0.0365454 0.0368963
0.104631 0.0477607 0.0472572
0.181613 0.0569162 0.0534066
0.263478 0.0639048 0.055436
0.328283 0.0720073 0.0601205
0.380331 0.0823682 0.0677348
0.426673 0.0966964 0.0868391
0.470924 0.11429 0.114351
0.510079 0.131884 0.141009
0.54374 0.149569 0.169329
0.576577 0.168627 0.202335
0.608118 0.188418 0.238911
0.638392 0.208881 0.279469
0.669154 0.232013 0.320104
0.697749 0.25713 0.362112
0.727733 0.28687 0.405142
0.750607 0.315373 0.443992
0.752056 0.322301 0.465187
0.753185 0.329381 0.48571
0.75256 0.336049 0.50724
0.752132 0.342229 0.526375
0.751385 0.34725 0.542992
0.750546 0.351553 0.557061
0.749554 0.355627 0.568383
0.75108 0.362936 0.579843
0.754345 0.373083 0.591821
0.0225376 0.0272068 0.024979
0.0225376 0.0271458 0.0250095
0.0224765 0.026978 0.024918
0.0224918 0.0270542 0.0249332
0.0227817 0.0281071 0.0253147
0.0230411 0.0281834 0.025864
0.0235142 0.0280919 0.0269322
0.0403754 0.0337072 0.0335546
0.0876326 0.0453346 0.0446021
0.162493 0.0552071 0.0525368
0.249119 0.062562 0.0547189
0.319646 0.0703899 0.0582132
0.377279 0.0821393 0.0699474
0.422019 0.0949264 0.0832074
0.466896 0.112367 0.11046
0.507286 0.130297 0.137774
0.541314 0.148043 0.165896
0.574594 0.167208 0.19884
0.606302 0.187045 0.235233
0.636622 0.207523 0.276143
0.667353 0.230518 0.317006
0.695827 0.255299 0.358511
0.725444 0.284184 0.401495
0.750515 0.314748 0.441718
0.751842 0.321416 0.462776
0.753063 0.32842 0.482719
0.752651 0.334997 0.503975
0.752148 0.341054 0.52282
0.751492 0.346029 0.539208
0.750713 0.350286 0.553109
0.749996 0.354238 0.564569
0.749416 0.357992 0.573678
0.752499 0.367086 0.58497
0.0263523 0.0415198 0.0306249
0.0261387 0.0410315 0.0300908
0.0254826 0.0395361 0.0285344
0.0254368 0.0390326 0.0285649
0.0256657 0.0399329 0.0289311
0.0258335 0.0398413 0.0294804
0.025864 0.039292 0.0298009
0.0399023 0.0390784 0.0325475
0.0912337 0.0482338 0.0424964
0.164157 0.057435 0.0488746
0.246509 0.0630045 0.050782
0.315251 0.0692302 0.0543679
0.377722 0.0807202 0.0627909
0.425376 0.095201 0.0806592
0.469795 0.112825 0.108446
0.5066 0.128481 0.127749
0.540978 0.146731 0.157229
0.574411 0.166094 0.19089
0.606348 0.186084 0.227924
0.636728 0.206775 0.269795
0.667628 0.23006 0.312154
0.696101 0.254932 0.354803
0.72575 0.283986 0.398749
0.750332 0.314031 0.439368
0.751797 0.320806 0.460731
0.753017 0.327886 0.48101
0.752804 0.3346 0.502495
0.752224 0.34081 0.521843
0.751629 0.345846 0.538338
0.750835 0.350134 0.552438
0.750118 0.354116 0.564095
0.749706 0.358175 0.573617
0.752712 0.367239 0.584894
0.0300603 0.0601053 0.0366369
0.0299687 0.0596628 0.0364385
0.0290532 0.056611 0.0340124
0.0284276 0.0536202 0.0330053
0.0288548 0.0556344 0.0337224
0.0289769 0.0559091 0.0340887
0.0318151 0.0551461 0.0350042
0.044358 0.053727 0.0366674
0.0828107 0.0553445 0.041001
0.156268 0.0597086 0.0453651
0.250278 0.0649729 0.0471351
0.320836 0.0712139 0.0502174
0.375097 0.0780499 0.0566415
0.420584 0.092134 0.0712291
0.46949 0.110552 0.0971695
0.509651 0.129412 0.126925
0.540612 0.145235 0.148455
0.574121 0.164889 0.182666
0.606439 0.185077 0.220203
0.63679 0.205951 0.263127
0.667948 0.229557 0.307271
0.696422 0.254582 0.350866
0.725994 0.283711 0.395804
0.75024 0.313375 0.437003
0.75169 0.320089 0.458549
0.752972 0.327382 0.479438
0.752926 0.334249 0.501137
0.752346 0.340551 0.520775
0.751766 0.345617 0.537392
0.750927 0.349966 0.551751
0.75021 0.353964 0.563561
0.74992 0.358267 0.573419
0.752956 0.367422 0.584848
0.0328679 0.0901656 0.0436255
0.0328069 0.0893873 0.0433509
0.032517 0.085481 0.0416876
0.0321813 0.0817884 0.0398566
0.0322576 0.0825666 0.040238
0.0322881 0.082948 0.0403449
0.0355535 0.082826 0.0405585
0.0542 0.0813306 0.0414588
0.101152 0.0776226 0.0438239
0.154635 0.0797436 0.044892
0.234287 0.0776989 0.0428779
0.317128 0.0725567 0.041474
0.380484 0.0805066 0.0507362
0.425971 0.0903944 0.0604715
0.46363 0.104982 0.0821851
0.507118 0.125963 0.111803
0.543969 0.146349 0.146395
0.573602 0.163241 0.171786
0.606332 0.183734 0.210758
0.636851 0.204898 0.254627
0.668299 0.228885 0.301015
0.696696 0.254047 0.345907
0.726223 0.283284 0.392035
0.750027 0.31252 0.433967
0.751583 0.319295 0.456046
0.752926 0.32668 0.477165
0.753033 0.333654 0.499016
0.752468 0.340154 0.519234
0.751934 0.345373 0.536233
0.751049 0.349783 0.550896
0.750347 0.353811 0.562982
0.750134 0.358282 0.573068
0.753246 0.367636 0.584772
0.0332799 0.126711 0.050248
0.0332952 0.125978 0.0500038
0.0334173 0.122133 0.0483711
0.0335546 0.11841 0.0462806
0.0335699 0.118822 0.0460822
0.0335393 0.119158 0.0464942
0.0362402 0.118074 0.0458381
0.0501411 0.11632 0.0449683
0.0932326 0.120073 0.0448005
0.179431 0.114702 0.0467231
0.244236 0.108553 0.0460975
0.30486 0.102983 0.043534
0.368017 0.0953689 0.0415198
0.427817 0.0914778 0.0446174
0.474739 0.104738 0.0655375
0.508934 0.120073 0.088777
0.540413 0.141238 0.127474
0.576974 0.164065 0.166583
0.606043 0.181765 0.196963
0.636957 0.203342 0.242542
0.668605 0.227756 0.291936
0.696971 0.253208 0.338888
0.726558 0.282658 0.386557
0.749722 0.311391 0.429603
0.751476 0.318257 0.452552
0.752895 0.325734 0.474159
0.753246 0.332921 0.496208
0.752575 0.339544 0.517098
0.752132 0.345098 0.534905
0.751141 0.349447 0.549722
0.75053 0.353552 0.562066
0.750561 0.358511 0.572747
0.753597 0.36788 0.58468
0.0328374 0.168917 0.0579385
0.0328527 0.168414 0.0575875
0.0329137 0.164324 0.0551614
0.0330053 0.160067 0.0529488
0.0330816 0.158556 0.0497749
0.0330358 0.160266 0.0502937
0.0335851 0.159548 0.0510567
0.044358 0.157458 0.0486
0.079942 0.157183 0.0472114
0.151659 0.168002 0.0477913
0.256138 0.154391 0.0500343
0.328099 0.137789 0.0499275
0.370367 0.132784 0.0479744
0.420523 0.120623 0.0450752
0.470558 0.110414 0.0445563
0.517784 0.119203 0.0617838
0.547631 0.138293 0.100481
0.573465 0.158663 0.148196
0.609125 0.182147 0.188373
0.636912 0.201083 0.226413
0.668589 0.226001 0.278965
0.6972 0.251942 0.329168
0.726757 0.281621 0.3785
0.749187 0.309621 0.423102
0.751186 0.316777 0.447456
0.752804 0.324468 0.470253
0.753582 0.331975 0.492424
0.752895 0.338827 0.51426
0.752377 0.344503 0.532616
0.751385 0.349065 0.548074
0.750774 0.353262 0.560967
0.751171 0.358938 0.572457
0.75407 0.368215 0.584527
0.0347906 0.217838 0.0707713
0.0347448 0.217487 0.0704509
0.0343633 0.213504 0.0663462
0.0338903 0.209018 0.062211
0.0336461 0.207919 0.0583963
0.0332341 0.204868 0.0538338
0.0334325 0.207111 0.0552529
0.0405127 0.202594 0.0539559
0.0665599 0.201694 0.0507515
0.131334 0.207813 0.0522774
0.219669 0.220966 0.05449
0.323857 0.202029 0.0573434
0.394202 0.175402 0.0579385
0.432471 0.168795 0.0564889
0.471962 0.156619 0.0528572
0.515541 0.13991 0.0507668
0.552972 0.136248 0.0616159
0.580148 0.153796 0.102495
0.604379 0.176577 0.171603
0.637079 0.199008 0.21146
0.671 0.226596 0.272099
0.697108 0.249912 0.314611
0.726665 0.280034 0.367361
0.748486 0.30721 0.413962
0.750805 0.314702 0.440177
0.752636 0.322774 0.464759
0.753918 0.330709 0.487633
0.753262 0.337697 0.510094
0.752667 0.343771 0.52961
0.75169 0.348623 0.546059
0.751019 0.352895 0.559487
0.751949 0.359472 0.572
0.754849 0.368795 0.584375
0.0417792 0.271397 0.0914473
0.0417792 0.271397 0.0914473
0.0409552 0.267216 0.0855421
0.0400397 0.26247 0.0786297
0.0396277 0.261448 0.0739605
0.0381933 0.256413 0.0650797
0.0373541 0.253208 0.0600595
0.0382391 0.254795 0.0617533
0.0619669 0.248402 0.0580301
0.11165 0.254108 0.0580911
0.199756 0.262638 0.06215
0.290532 0.276631 0.0652476
0.386511 0.256596 0.0683452
0.45214 0.224201 0.069276
0.495003 0.210849 0.0684215
0.522866 0.203189 0.0656596
0.557687 0.184543 0.0628214
0.591745 0.163882 0.0678569
0.613108 0.170535 0.109438
0.62916 0.188159 0.166598
0.666468 0.219455 0.241428
0.700023 0.250721 0.30518
0.726665 0.277562 0.350179
0.747509 0.303685 0.399954
0.750134 0.311818 0.429618
0.752331 0.320333 0.456931
0.753887 0.32874 0.481285
0.753765 0.33637 0.505043
0.753048 0.342763 0.525551
0.752087 0.347845 0.542885
0.7514 0.352392 0.557168
0.752834 0.359869 0.571084
0.755795 0.369482 0.584024
0.0532998 0.327718 0.119249
0.0532998 0.327718 0.119249
0.0532082 0.325734 0.113573
0.0520333 0.32163 0.105959
0.0511025 0.318929 0.0966201
0.0504158 0.317143 0.0892348
0.0474556 0.308797 0.0751659
0.0466621 0.30663 0.0713664
0.0523079 0.303441 0.0687572
0.0989853 0.301823 0.0665904
0.175937 0.313436 0.0706035
0.270359 0.320119 0.074815
0.35906 0.336278 0.0777142
0.442603 0.319829 0.0808881
0.506554 0.288808 0.085069
0.549371 0.265629 0.0872816
0.578378 0.254536 0.0850233
0.604471 0.236652 0.0801251
0.633906 0.205402 0.0750896
0.647852 0.191028 0.114366
0.653803 0.202548 0.175799
0.69395 0.240711 0.265248
0.729549 0.278096 0.336706
0.746059 0.298772 0.377935
0.749081 0.307713 0.413382
0.751781 0.316823 0.444877
0.753552 0.325887 0.47248
0.754467 0.33463 0.498009
0.753536 0.341482 0.520363
0.752712 0.346914 0.538628
0.751812 0.351583 0.553918
0.754177 0.360601 0.569879
0.757076 0.37055 0.583642
0.0650797 0.380529 0.150378
0.0650797 0.380529 0.150378
0.0651255 0.379355 0.145892
0.0652781 0.377737 0.13846
0.0660258 0.377172 0.127718
0.0657206 0.37615 0.120592
0.0647135 0.372839 0.107561
0.0611124 0.362554 0.086305
0.0608682 0.362249 0.0841993
0.0799878 0.354406 0.0770733
0.155123 0.361364 0.0797284
0.245335 0.374807 0.0855268
0.341604 0.380987 0.0884718
0.422568 0.398093 0.0916457
0.492561 0.387549 0.094728
0.553613 0.361181 0.103441
0.599832 0.330678 0.111284
0.634348 0.310246 0.106813
0.656809 0.288151 0.0970016
0.68101 0.252476 0.0904707
0.692699 0.222004 0.11339
0.684993 0.223865 0.193515
0.720226 0.261631 0.277821
0.744274 0.293263 0.353643
0.747356 0.301259 0.385702
0.750683 0.311742 0.426108
0.753079 0.321752 0.459358
0.75523 0.331868 0.487297
0.754299 0.339635 0.513008
0.753475 0.345663 0.533181
0.753063 0.351415 0.55024
0.75584 0.361379 0.568124
0.758801 0.371893 0.583001
0.0772106 0.428824 0.183093
0.0772106 0.428824 0.183093
0.0772106 0.428153 0.179721
0.0772869 0.427054 0.173266
0.0779126 0.426841 0.163973
0.0786297 0.426657 0.154437
0.0795911 0.42739 0.145434
0.0793469 0.424552 0.125338
0.0771344 0.417792 0.104555
0.0762188 0.415427 0.0972305
0.119249 0.408865 0.0884718
0.223377 0.422004 0.0948806
0.313237 0.434256 0.0997177
0.405951 0.439994 0.101884
0.478798 0.458351 0.105699
0.534676 0.453483 0.109636
0.597559 0.432715 0.124071
0.647257 0.404883 0.13286
0.686809 0.367575 0.130495
0.715084 0.333989 0.114931
0.730983 0.300069 0.10547
0.737804 0.266285 0.123888
0.717067 0.248127 0.207553
0.738811 0.274342 0.266377
0.744823 0.293355 0.350683
0.748501 0.303395 0.392065
0.752194 0.315618 0.437659
0.754391 0.326589 0.472114
0.755489 0.336797 0.501823
0.754253 0.343786 0.525444
0.755657 0.352636 0.546868
0.758221 0.3626 0.565805
0.761257 0.373678 0.581857
0.0907912 0.475334 0.222339
0.0907912 0.475334 0.222339
0.0907149 0.474937 0.22002
0.0905776 0.474006 0.214328
0.0909438 0.47396 0.206577
0.09131 0.473625 0.196994
0.0918441 0.473564 0.18613
0.0927901 0.474311 0.173602
0.0939193 0.472755 0.144961
0.0927596 0.469047 0.119463
0.0946517 0.466011 0.112551
0.176944 0.466453 0.104158
0.297337 0.480262 0.110079
0.379705 0.493202 0.114031
0.464515 0.498131 0.116793
0.528496 0.518944 0.119631
0.577844 0.517052 0.125963
0.640513 0.502602 0.147051
0.693339 0.477104 0.158816
0.736782 0.434943 0.155169
0.770459 0.381964 0.136355
0.785595 0.344503 0.136645
0.779217 0.315557 0.149096
0.750072 0.27834 0.220142
0.74609 0.279713 0.25835
0.744457 0.291249 0.33901
0.749493 0.305013 0.396033
0.753368 0.319005 0.447242
0.756481 0.331991 0.48365
0.757244 0.343114 0.515373
0.75935 0.354314 0.541619
0.761669 0.365164 0.563134
0.764599 0.376699 0.580972
0.108217 0.520317 0.271641
0.108217 0.520317 0.271641
0.107973 0.519829 0.268208
0.107576 0.519051 0.262303
0.107607 0.518929 0.254963
0.107836 0.518624 0.246021
0.10811 0.518181 0.234272
0.108751 0.518441 0.221668
0.109407 0.518563 0.202029
0.110124 0.517784 0.165957
0.110155 0.51667 0.136095
0.132494 0.512428 0.116564
0.266224 0.527153 0.122652
0.373938 0.538079 0.124834
0.443839 0.55079 0.13193
0.517113 0.556207 0.136004
0.572824 0.577722 0.135012
0.620508 0.578546 0.145037
0.683833 0.57084 0.174838
0.733791 0.54963 0.189456
0.782742 0.510643 0.18114
0.815656 0.445594 0.173358
0.808499 0.397681 0.162799
0.797772 0.35642 0.154421
0.774441 0.300969 0.178943
0.748394 0.279103 0.23859
0.745449 0.290013 0.326055
0.752819 0.309102 0.399741
0.758511 0.326894 0.457908
0.763165 0.343755 0.499962
0.764248 0.356268 0.532799
0.76643 0.36875 0.558709
0.769146 0.381506 0.579324
0.131334 0.561715 0.32488
0.131334 0.561715 0.32488
0.130785 0.561044 0.32018
0.13019 0.560327 0.314824
0.129976 0.560342 0.308644
0.129671 0.560235 0.301381
0.129366 0.559884 0.29041
0.129137 0.559503 0.275349
0.129534 0.560098 0.261112
0.129717 0.55906 0.23035
0.130541 0.559548 0.18439
0.135012 0.561471 0.150713
0.214878 0.570047 0.136355
0.357992 0.583368 0.142077
0.439246 0.594766 0.142687
0.502647 0.607401 0.155138
0.566064 0.613489 0.164416
0.614832 0.631586 0.151446
0.666545 0.638697 0.167376
0.724346 0.639353 0.204944
0.771801 0.623621 0.222766
0.81149 0.588373 0.221225
0.82182 0.547692 0.208301
0.821637 0.488533 0.18764
0.811109 0.408804 0.166354
0.791638 0.335729 0.153948
0.761364 0.28716 0.206149
0.748775 0.288533 0.297658
0.757519 0.318151 0.422156
0.768307 0.340902 0.469337
0.771328 0.359396 0.517037
0.772808 0.374121 0.550668
0.774838 0.387839 0.575784
0.157244 0.600168 0.373922
0.157137 0.600092 0.373358
0.156237 0.599344 0.36878
0.155566 0.598703 0.364599
0.155215 0.598566 0.359182
0.154849 0.598474 0.35314
0.154284 0.59823 0.344686
0.153368 0.597772 0.331182
0.152697 0.597635 0.315068
0.152331 0.598001 0.297475
0.151247 0.596994 0.25658
0.152728 0.59913 0.194446
0.178424 0.609934 0.158221
0.312291 0.625467 0.160632
0.440299 0.637675 0.161669
0.493538 0.650339 0.165225
0.553979 0.66334 0.184497
0.613062 0.669932 0.200366
0.66244 0.684184 0.176593
0.711833 0.695872 0.194125
0.763439 0.700679 0.234806
0.802518 0.693294 0.255467
0.817685 0.671824 0.252262
0.815869 0.638453 0.23743
0.818418 0.587716 0.222827
0.822995 0.5084 0.194202
0.807492 0.393362 0.161685
0.778729 0.307851 0.170886
0.769131 0.295567 0.20354
0.76733 0.327413 0.411872
0.779263 0.361212 0.480003
0.780606 0.381613 0.535134
0.781933 0.396765 0.56878
0.180728 0.636164 0.417746
0.180407 0.635874 0.41593
0.179751 0.635279 0.412085
0.179171 0.634745 0.408667
0.178714 0.634638 0.404562
0.178271 0.634516 0.400351
0.177661 0.634394 0.393973
0.176791 0.634134 0.383993
0.17554 0.633753 0.369635
0.174701 0.633768 0.352987
0.173693 0.633814 0.330205
0.171313 0.632944 0.277272
0.177859 0.640497 0.212192
0.249638 0.66125 0.176898
0.399664 0.678569 0.186038
0.493965 0.691295 0.183566
0.539117 0.705684 0.195758
0.60116 0.71986 0.223835
0.66334 0.726665 0.248951
0.713664 0.739879 0.22565
0.756252 0.750698 0.233341
0.80058 0.75494 0.271626
0.824933 0.749432 0.282918
0.817838 0.734859 0.261692
0.813382 0.713024 0.24831
0.81532 0.674067 0.244343
0.816922 0.606653 0.228794
0.822003 0.493828 0.189395
0.792889 0.339376 0.153323
0.791653 0.33579 0.153918
0.778317 0.336873 0.376989
0.788251 0.387564 0.49424
0.789044 0.410239 0.554635
0.199802 0.666758 0.458885
0.199313 0.666346 0.456474
0.198734 0.665873 0.453483
0.19823 0.665324 0.450736
0.197925 0.665309 0.447745
0.197559 0.665187 0.444648
0.197116 0.66511 0.44036
0.196368 0.664942 0.433616
0.195361 0.664744 0.422736
0.19411 0.664515 0.407706
0.193256 0.664607 0.390616
0.191913 0.664561 0.360342
0.189532 0.664881 0.29015
0.213092 0.685115 0.221653
0.328969 0.711116 0.209247
0.467567 0.728573 0.213001
0.533135 0.742748 0.214725
0.577493 0.757214 0.236255
0.647257 0.771923 0.27068
0.711635 0.778714 0.303655
0.75816 0.790219 0.295171
0.799115 0.802502 0.286625
0.834592 0.804181 0.317861
0.838453 0.796399 0.304707
0.824506 0.779934 0.268467
0.814664 0.758404 0.25243
0.813977 0.735027 0.250599
0.814466 0.690898 0.246296
0.8177 0.59559 0.22533
0.806332 0.388937 0.160678
0.805432 0.385367 0.159915
0.792035 0.351751 0.337346
0.791196 0.413504 0.537377
0.215015 0.689311 0.496254
0.214435 0.688869 0.493538
0.213931 0.688441 0.49131
0.213443 0.68809 0.48896
0.213123 0.688014 0.48687
0.212802 0.687938 0.484703
0.212406 0.687892 0.481727
0.211765 0.687785 0.477089
0.210788 0.687602 0.469993
0.209613 0.687388 0.458503
0.20856 0.687449 0.443488
0.208179 0.687968 0.426291
0.207019 0.688106 0.388037
0.208286 0.694255 0.303792
0.26836 0.730571 0.242939
0.392218 0.755291 0.242832
0.506188 0.772534 0.238636
0.555505 0.787472 0.24976
0.606088 0.802625 0.275685
0.690913 0.81854 0.314351
0.751202 0.824384 0.35491
0.796521 0.835355 0.360693
0.834287 0.845609 0.359564
0.858198 0.844434 0.363943
0.853162 0.836393 0.333928
0.834272 0.817594 0.283925
0.819272 0.795529 0.263386
0.815549 0.775006 0.255192
0.814725 0.744793 0.251606
0.815122 0.678904 0.24506
0.819959 0.470924 0.182376
0.819287 0.464591 0.180804
0.807553 0.393454 0.332052
0.227726 0.706645 0.530999
0.227176 0.706264 0.528496
0.226673 0.705913 0.526146
0.226215 0.705562 0.524147
0.22591 0.705455 0.522316
0.225711 0.705455 0.520851
0.22536 0.705364 0.518624
0.224948 0.705379 0.515465
0.224262 0.705303 0.510704
0.223224 0.705165 0.503456
0.221698 0.704997 0.492363
0.220508 0.705272 0.476661
0.221866 0.707729 0.455985
0.222705 0.711177 0.400137
0.240635 0.732494 0.309529
0.313649 0.770123 0.285344
0.432532 0.792691 0.266957
0.516258 0.808392 0.261769
0.562402 0.822461 0.276249
0.621057 0.837476 0.302251
0.717067 0.85391 0.34049
0.780758 0.861585 0.384985
0.823987 0.871412 0.399756
0.854749 0.877394 0.405188
0.864012 0.874144 0.40528
0.861646 0.868482 0.378759
0.852598 0.857603 0.324575
0.833127 0.832517 0.286137
0.824704 0.811612 0.272206
0.815885 0.782269 0.25684
0.814206 0.736599 0.25095
0.819287 0.57731 0.219364
0.820081 0.566995 0.215549
0.239017 0.720989 0.560906
0.238727 0.720745 0.558862
0.238407 0.720455 0.556893
0.238117 0.720195 0.554742
0.237995 0.720119 0.553323
0.237903 0.720073 0.551827
0.237751 0.720043 0.550088
0.2374 0.719936 0.547784
0.236942 0.719875 0.544259
0.236316 0.719783 0.539071
0.236011 0.720562 0.530251
0.235737 0.721904 0.516808
0.235996 0.724178 0.497963
0.238193 0.727916 0.471763
0.240879 0.734844 0.397192
0.276204 0.771695 0.350729
0.353399 0.80029 0.313664
0.45655 0.819318 0.285664
0.514107 0.833448 0.288426
0.568841 0.845777 0.307759
0.651911 0.859403 0.340475
0.738262 0.873213 0.379019
0.798901 0.882918 0.411383
0.834882 0.889647 0.431846
0.855283 0.892073 0.444068
0.858091 0.890013 0.436179
0.857359 0.886976 0.41442
0.854368 0.882033 0.375021
0.855314 0.871809 0.343908
0.844739 0.851286 0.307149
0.827039 0.818158 0.276143
0.814771 0.774121 0.254093
0.815854 0.661433 0.242359
0.244114 0.727062 0.579599
0.24416 0.727108 0.57792
0.244205 0.727153 0.576318
0.24419 0.727138 0.574655
0.244205 0.727169 0.573373
0.24416 0.727169 0.572244
0.244083 0.727138 0.570596
0.244144 0.727321 0.568338
0.244373 0.72781 0.564858
0.244602 0.728389 0.559945
0.244785 0.729198 0.552911
0.24509 0.730663 0.54226
0.245884 0.733501 0.525002
0.247028 0.73698 0.500298
0.248386 0.740597 0.462959
0.267231 0.763806 0.404334
0.313039 0.796857 0.371344
0.402304 0.820111 0.314214
0.47953 0.834241 0.305425
0.542535 0.846067 0.3243
0.614832 0.857221 0.352712
0.694957 0.868833 0.382162
0.764263 0.880171 0.422309
0.811261 0.888365 0.454505
0.832776 0.891997 0.476677
0.842542 0.893385 0.481758
0.84387 0.893172 0.472694
0.844099 0.892424 0.45301
0.842695 0.890822 0.420508
0.851194 0.888762 0.391318
0.853941 0.879469 0.364279
0.8486 0.857588 0.316106
0.822629 0.807431 0.269215
0.24535 0.728664 0.592279
0.245457 0.728786 0.590555
0.245548 0.728893 0.5888
0.245655 0.72903 0.58703
0.245838 0.729259 0.585473
0.245975 0.729442 0.583871
0.246159 0.729717 0.582238
0.246433 0.730083 0.579797
0.246769 0.730556 0.576867
0.247105 0.731121 0.572808
0.24773 0.73228 0.566766
0.248783 0.734157 0.557382
0.249821 0.73669 0.543297
0.251087 0.740368 0.52105
0.252537 0.744533 0.486442
0.258228 0.753124 0.440955
0.293187 0.78706 0.421317
0.356481 0.813199 0.361395
0.450477 0.831907 0.326482
0.514702 0.843671 0.335851
0.588937 0.855344 0.362737
0.668467 0.866148 0.38761
0.733486 0.875822 0.41416
0.790921 0.885084 0.449821
0.825254 0.891081 0.477134
0.839597 0.893523 0.494438
0.841367 0.893767 0.494697
0.841138 0.893538 0.489006
0.840818 0.892882 0.470665
0.84033 0.89192 0.443336
0.840116 0.891447 0.433173
0.845426 0.890135 0.408576
0.85362 0.8813 0.369284
0.248585 0.73286 0.602792
0.248631 0.732906 0.601404
0.248692 0.732967 0.599908
0.248737 0.733013 0.598337
0.248951 0.733272 0.597086
0.249165 0.733532 0.595819
0.24947 0.733928 0.594095
0.249851 0.734417 0.591852
0.250385 0.735195 0.588952
0.250996 0.73608 0.585122
0.251759 0.737194 0.57995
0.252796 0.73872 0.572198
0.254551 0.741482 0.560998
0.256275 0.744915 0.543603
0.257404 0.748821 0.514031
0.264469 0.758953 0.475547
0.280735 0.776806 0.460945
0.327123 0.805295 0.424002
0.408789 0.827817 0.364614
0.4869 0.842054 0.358312
0.560067 0.853193 0.3785
0.648081 0.864851 0.404776
0.710552 0.873457 0.422339
0.764202 0.881483 0.446647
0.811536 0.889464 0.476585
0.834928 0.893172 0.499977
0.841871 0.894362 0.510536
0.841794 0.89427 0.507912
0.841474 0.893935 0.49897
0.840894 0.893172 0.479088
0.84062 0.892378 0.456092
0.840391 0.892103 0.448035
0.84036 0.891722 0.438788
0.25333 0.739162 0.61268
0.253346 0.739178 0.611353
0.25333 0.739147 0.609949
0.253361 0.739193 0.60856
0.253529 0.739422 0.607675
0.253758 0.739727 0.606546
0.254017 0.740047 0.605005
0.254337 0.740475 0.603021
0.254826 0.7411 0.600229
0.255604 0.742077 0.59675
0.25658 0.743297 0.592401
0.257862 0.744945 0.58648
0.259464 0.747097 0.577401
0.261707 0.750118 0.563912
0.265629 0.755962 0.544915
0.272084 0.765698 0.518273
0.28687 0.782345 0.509346
0.315618 0.801404 0.506081
0.368017 0.822766 0.458076
0.456062 0.841138 0.418936
0.535821 0.85301 0.427543
0.618677 0.863584 0.444526
0.692195 0.872694 0.45182
0.744778 0.879637 0.45832
