presets/XH_G200_4.cube
TITLE "Generated by Resolve"
LUT_3D_SIZE 33
0.0654307 0.00364691 0
0.0654307 0.00364691 0
0.0654307 0.00364691 0
0.0654002 0.00370794 0
0.0661784 0.00395209 0
0.0688487 0.00407416 0
0.0822003 0.00448615 0
0.111223 0.00747692 0
0.154177 0.0132906 0
0.213718 0.0186313 0
0.277195 0.0219272 0
0.333822 0.0266117 0
0.382849 0.0332036 0
0.431891 0.0437171 0
0.479469 0.0582437 0.0163577
0.523156 0.0746166 0.0435798
0.560983 0.0918898 0.0831922
0.596689 0.111513 0.130159
0.629786 0.133089 0.186862
0.661784 0.156786 0.251331
0.693034 0.184146 0.316487
0.72047 0.213779 0.37911
0.746761 0.247929 0.432349
0.761746 0.273671 0.473381
0.762646 0.282383 0.501289
0.762905 0.291417 0.530846
0.761913 0.299641 0.561593
0.760937 0.306844 0.589761
0.759686 0.313329 0.614481
0.758267 0.319799 0.635294
0.758862 0.330755 0.655512
0.762066 0.348257 0.676982
0.765377 0.367117 0.696986
0.0654307 0.00364691 0
0.0654307 0.00364691 0
0.0654307 0.00364691 0
0.0654002 0.00370794 0
0.0659342 0.00390631 0
0.0685588 0.0040589 0
0.080766 0.00444038 0
0.109529 0.00724804 0
0.152178 0.0130159 0
0.212512 0.018555 0
0.277195 0.0219272 0
0.333822 0.0266117 0
0.382849 0.0332036 0
0.431891 0.0437171 0
0.479469 0.0582437 0.0163577
0.523156 0.0746166 0.0435798
0.560983 0.0918898 0.0831922
0.596353 0.111299 0.129519
0.62887 0.132387 0.184405
0.660243 0.15555 0.247868
0.691188 0.182239 0.311635
0.718547 0.211414 0.37348
0.744671 0.244785 0.427375
0.761746 0.272801 0.469749
0.762524 0.28101 0.496941
0.763134 0.289937 0.525078
0.762142 0.297932 0.555016
0.761242 0.305043 0.582635
0.760113 0.311284 0.607233
0.758923 0.317205 0.627787
0.75758 0.322957 0.644236
0.760174 0.337118 0.663966
0.762692 0.351949 0.681208
0.0654307 0.00364691 0
0.0654307 0.00364691 0
0.0654307 0.00364691 0
0.0654002 0.00367742 0
0.0655222 0.00383001 0
0.067155 0.00399786 0
0.0719615 0.00424201 0
0.0977798 0.0056611 0
0.137896 0.0112154 0
0.197513 0.0175174 0
0.265568 0.0212558 0
0.32604 0.0255283 0
0.378119 0.0322118 0
0.429175 0.0429389 0
0.477928 0.0576944 0.0153353
0.521172 0.0737316 0.0407568
0.558633 0.0906539 0.0795605
0.594125 0.109819 0.125017
0.627024 0.130999 0.179522
0.65832 0.153918 0.242649
0.689357 0.180331 0.306508
0.716777 0.209308 0.368826
0.742824 0.242054 0.423178
0.761746 0.272114 0.466987
0.762524 0.280217 0.494133
0.763424 0.289113 0.521279
0.762387 0.296925 0.55079
0.761547 0.30399 0.577798
0.760479 0.309941 0.601602
0.759274 0.315465 0.621942
0.758022 0.320867 0.638361
0.758816 0.330053 0.654353
0.76109 0.342611 0.670665
0.0653849 0.0039826 0
0.0654154 0.00395209 0
0.0654002 0.00387579 0
0.0653849 0.00392157 0
0.0654154 0.0043946 0
0.0660105 0.00442512 0
0.068513 0.00436408 0
0.0877089 0.00492866 0
0.124849 0.00978103 0
0.182391 0.016434 0
0.253223 0.0205539 0
0.317708 0.024506 0
0.375021 0.032105 0
0.423911 0.0415503 0
0.473442 0.0559854 0.0122225
0.518013 0.0722057 0.0363165
0.555932 0.0891737 0.0747997
0.591989 0.108354 0.120058
0.625101 0.129488 0.173892
0.656504 0.152377 0.237415
0.687556 0.178592 0.301671
0.715068 0.207187 0.363684
0.740871 0.2392 0.418936
0.76173 0.271412 0.464134
0.762371 0.279179 0.49099
0.763394 0.287938 0.517296
0.762524 0.295705 0.546242
0.7617 0.302693 0.572747
0.760662 0.308492 0.596185
0.759579 0.313817 0.61622
0.758541 0.319005 0.632837
0.757702 0.323949 0.64596
0.759808 0.33521 0.661341
0.0656138 0.0120241 0
0.0655222 0.0115206 0
0.0652628 0.0100252 0
0.0652628 0.00952163 0
0.0653849 0.0104677 0
0.0662242 0.0104372 0
0.0675059 0.00999466 0
0.0867933 0.00820935 0
0.127245 0.0130007 0
0.18352 0.0192569 0
0.250797 0.0214542 0
0.313237 0.0236362 0
0.37528 0.0308537 0
0.427482 0.0416266 0
0.476478 0.0563516 0.0102846
0.516884 0.0705119 0.0244297
0.55523 0.0879988 0.0625162
0.591653 0.107195 0.108644
0.624994 0.128435 0.162631
0.656611 0.151492 0.227405
0.687892 0.178042 0.293965
0.715389 0.20676 0.357916
0.741238 0.238941 0.415305
0.761669 0.270619 0.461189
0.762387 0.278447 0.488258
0.763378 0.287266 0.514992
0.762661 0.295247 0.544152
0.761791 0.302403 0.571359
0.7608 0.308263 0.594919
0.759716 0.313619 0.615228
0.758648 0.318837 0.632136
0.757946 0.324132 0.645823
0.760006 0.335363 0.661204
0.0665293 0.03093 0
0.0665141 0.0304723 0
0.0663157 0.0272526 0
0.0661326 0.0242618 0
0.0665141 0.0263218 0
0.0672923 0.0266575 0
0.0717632 0.0255436 0
0.0871748 0.0222934 0
0.119982 0.0211948 0
0.176928 0.022446 0
0.25359 0.0237888 0
0.318212 0.0256657 0
0.372259 0.0281071 0
0.421805 0.0390173 0
0.47567 0.0542306 0.000335698
0.520165 0.0713207 0.023621
0.554437 0.0865644 0.0498207
0.591165 0.105943 0.0968643
0.624964 0.127337 0.150744
0.656657 0.15053 0.216892
0.688197 0.177432 0.286015
0.71577 0.206348 0.351797
0.741527 0.238605 0.411414
0.761685 0.269902 0.458198
0.762341 0.277607 0.485405
0.763363 0.286641 0.512871
0.762798 0.29482 0.542229
0.761944 0.302129 0.569802
0.760922 0.308003 0.593545
0.759808 0.31339 0.614221
0.758755 0.318608 0.631357
0.758144 0.324193 0.645502
0.76022 0.335546 0.661082
0.0664836 0.0610666 0
0.0664988 0.0602731 0
0.0666667 0.05626 0
0.066804 0.0524758 0
0.0669718 0.0532845 0
0.0676738 0.0536049 0
0.0719158 0.0530556 0
0.0912795 0.0495613 0
0.131655 0.0433814 0
0.173053 0.0436255 0
0.238453 0.0381933 0
0.313848 0.0277562 0
0.377218 0.0307164 0
0.4271 0.0366674 0
0.468666 0.0484321 0
0.516747 0.0679942 0.0101778
0.557885 0.087602 0.0465095
0.590402 0.10425 0.0813764
0.624643 0.125841 0.136187
0.656687 0.149294 0.20351
0.688533 0.176608 0.275792
0.716136 0.205722 0.344076
0.741848 0.238087 0.406455
0.761593 0.26894 0.454353
0.762325 0.276692 0.482109
0.763348 0.28574 0.509834
0.762966 0.294133 0.53933
0.762097 0.301671 0.56759
0.76109 0.307698 0.591867
0.75996 0.31313 0.612985
0.758892 0.318379 0.630503
0.758343 0.324193 0.644953
0.760494 0.335775 0.660914
0.0650034 0.0973678 0
0.0650645 0.0966354 0
0.0654765 0.092668 0
0.06598 0.088777 0
0.0660105 0.089189 0
0.0664225 0.0894484 0
0.0700389 0.0878462 0
0.0843366 0.0844282 0
0.124041 0.084184 0
0.189166 0.0783246 0
0.244785 0.0692454 0
0.300481 0.060029 0
0.36289 0.0479438 0
0.42771 0.0385901 0
0.479637 0.0472572 0
0.517693 0.0597238 0
0.553368 0.0819104 0.0231022
0.593668 0.105089 0.0734417
0.624155 0.123613 0.115892
0.656687 0.147448 0.184344
0.688777 0.17525 0.260914
0.716457 0.20473 0.332845
0.742306 0.237354 0.399191
0.761456 0.267659 0.448798
0.762356 0.275486 0.477516
0.763348 0.284566 0.505806
0.763241 0.293294 0.53547
0.762295 0.300999 0.564523
0.761288 0.307347 0.589944
0.760098 0.312688 0.611261
0.759091 0.318013 0.62916
0.758724 0.324407 0.644404
0.7608 0.336034 0.660716
0.0628977 0.139544 0
0.0629435 0.13904 0
0.063386 0.134874 0
0.0638895 0.13048 0
0.0644846 0.12874 0
0.0644388 0.13051 0
0.0656138 0.129381 0
0.076997 0.12549 0
0.110521 0.121431 0
0.180255 0.12549 0
0.251804 0.115724 0
0.321721 0.0946212 0
0.364508 0.0865644 0
0.418906 0.0706035 0
0.473335 0.0564279 0
0.526085 0.0593271 0
0.560021 0.0765698 0.00198367
0.589258 0.0980697 0.0451057
0.627298 0.123949 0.103258
0.656336 0.144808 0.158816
0.688762 0.173114 0.239719
0.716777 0.20325 0.31722
0.742687 0.236133 0.388128
0.761196 0.265675 0.440528
0.76228 0.273823 0.471077
0.763317 0.282994 0.500572
0.763638 0.29218 0.530266
0.7626 0.300175 0.56051
0.761547 0.30663 0.586633
0.760357 0.312169 0.608865
0.759335 0.317586 0.627543
0.759258 0.324849 0.643885
0.761242 0.336385 0.66041
0.0621195 0.190051 0
0.0621347 0.189685 0
0.0623636 0.185473 0
0.0626383 0.180652 0
0.0631113 0.179309 0
0.0635996 0.175952 0
0.0637675 0.178225 0
0.0712139 0.171908 0
0.096437 0.167422 0
0.152636 0.171405 0
0.239322 0.178164 0
0.31426 0.163104 0
0.389456 0.131029 0
0.432044 0.121721 0
0.475242 0.106462 0
0.522927 0.0856794 0
0.563806 0.0770581 0
0.595254 0.0919814 0
0.622278 0.116258 0.0758984
0.656397 0.142245 0.13576
0.691188 0.173739 0.228504
0.716899 0.200916 0.294148
0.74287 0.234302 0.37229
0.760845 0.263005 0.428885
0.762234 0.271534 0.461875
0.763272 0.280949 0.493294
0.76408 0.290715 0.523659
0.762982 0.298848 0.55462
0.761913 0.305791 0.5823
0.760693 0.311574 0.605905
0.759609 0.317082 0.62536
0.75996 0.325368 0.643061
0.761929 0.336996 0.660029
0.0639506 0.247807 0
0.0639506 0.247807 0
0.0641794 0.24329 0
0.0644541 0.238178 0
0.0648356 0.237034 0
0.0653086 0.231281 0
0.0655528 0.227771 0
0.0664378 0.229023 0
0.0888991 0.21828 0
0.135225 0.221637 0
0.221103 0.22771 9.15541e-05
0.297719 0.242359 0
0.37641 0.222309 0
0.453452 0.183261 0
0.501472 0.166674 0
0.531929 0.156786 0
0.568795 0.133867 0
0.604578 0.106798 0
0.629191 0.110048 0.00224308
0.647745 0.129686 0.0691081
0.686595 0.16527 0.181048
0.719722 0.201877 0.279133
0.743114 0.231571 0.34638
0.760357 0.259312 0.410925
0.761975 0.268299 0.448493
0.76321 0.278065 0.482948
0.764279 0.288396 0.515068
0.7635 0.297307 0.547448
0.762387 0.304662 0.576455
0.761105 0.310643 0.601297
0.760021 0.316381 0.621958
0.760769 0.325765 0.641566
0.762783 0.337682 0.659358
0.0686046 0.310338 0.0104829
0.0686046 0.310338 0.0104829
0.068925 0.307988 0.00350958
0.0692454 0.303548 0.00221256
0.0700389 0.30074 0.0010071
0.0707256 0.298924 0
0.0710765 0.289143 0
0.0711833 0.286732 0
0.0767987 0.281773 0
0.12105 0.276066 0
0.189868 0.290944 0.00595102
0.311849 0.286961 0.022034
0.359274 0.314626 0
0.436515 0.295781 0
0.512276 0.258137 0
0.560632 0.229908 0
0.591745 0.21651 0
0.618219 0.19498 0
0.647578 0.155291 0
0.66421 0.133181 0.00221256
0.671916 0.146517 0.0830091
0.713512 0.190005 0.221988
0.745785 0.232029 0.325139
0.759518 0.254108 0.382025
0.761532 0.263752 0.42771
0.763119 0.274067 0.46746
0.764202 0.284871 0.503273
0.764279 0.295293 0.537591
0.763012 0.303212 0.568948
0.761746 0.309514 0.595117
0.76051 0.315312 0.617197
0.762005 0.326482 0.639582
0.763897 0.338796 0.658564
0.0747997 0.370947 0.0477455
0.0747997 0.370947 0.0477455
0.0751659 0.369482 0.0419165
0.0758526 0.367422 0.0323033
0.0772717 0.366476 0.0183566
0.0783246 0.365393 0.013138
0.0799268 0.361761 0.00378424
0.0812695 0.34963 0
0.0816052 0.349386 0
0.10016 0.338293 0
0.172625 0.345998 0.00643931
0.253361 0.368856 0.0483711
0.410086 0.355642 0.0556191
0.434974 0.388098 0.00517281
0.490211 0.377035 0
0.561013 0.344976 0
0.612284 0.307988 0.00794995
0.647684 0.284764 0.00691234
0.670588 0.259434 0.00238041
0.694575 0.214359 0.000228885
0.707774 0.170108 0.00309758
0.702419 0.171405 0.115801
0.736477 0.213123 0.244938
0.758419 0.248417 0.34696
0.760678 0.256947 0.391745
0.762753 0.268376 0.443565
0.764019 0.279911 0.485847
0.765316 0.292103 0.522805
0.763851 0.301106 0.558419
0.762509 0.308019 0.587213
0.761746 0.314916 0.611673
0.763577 0.32723 0.636728
0.765377 0.340169 0.657328
0.0827802 0.425528 0.0920577
0.0827802 0.425528 0.0920577
0.0828565 0.424689 0.0872511
0.0830854 0.423331 0.0780804
0.0842145 0.422812 0.0655985
0.0858015 0.422278 0.0534676
0.0875563 0.422782 0.0420844
0.0907759 0.419272 0.0180819
0.0934005 0.411627 0.00161746
0.0944839 0.408988 0.000320439
0.136156 0.400427 3.0518e-05
0.239399 0.421942 0.0597086
0.336568 0.440482 0.0896925
0.500954 0.423178 0.0863355
0.511452 0.455604 0.0199741
0.536828 0.453758 0.000366217
0.604562 0.427985 0.0133669
0.655894 0.396658 0.0304112
0.6972 0.35639 0.0345159
0.725338 0.318853 0.0173953
0.741787 0.274266 0.00209049
0.750469 0.224338 0.0170596
0.732418 0.199222 0.136828
0.75314 0.227512 0.226566
0.759136 0.248707 0.341909
0.761715 0.259419 0.399664
0.763928 0.272877 0.457877
0.765118 0.285801 0.502464
0.765087 0.29781 0.542535
0.76347 0.305898 0.576043
0.764111 0.316182 0.60621
0.765789 0.328405 0.632914
0.767468 0.341939 0.655207
0.0924239 0.478264 0.148852
0.0924239 0.478264 0.148852
0.0923781 0.477806 0.145327
0.0922713 0.476692 0.136645
0.0929274 0.476493 0.125582
0.0937667 0.475853 0.112123
0.0948196 0.475517 0.0968948
0.096788 0.47599 0.0803082
0.101808 0.473213 0.0451209
0.106798 0.468544 0.016556
0.110124 0.465156 0.0101015
0.192889 0.467704 0.0428931
0.317433 0.497719 0.116487
0.450996 0.504067 0.133104
0.581811 0.488914 0.120409
0.589014 0.521859 0.057084
0.588495 0.528069 0.0202792
0.645167 0.5084 0.0432593
0.698009 0.4795 0.0644541
0.739666 0.435691 0.0684367
0.77084 0.381155 0.0493477
0.789212 0.325689 0.0327001
0.786877 0.282536 0.0400397
0.762875 0.232349 0.138781
0.759121 0.232929 0.210361
0.759213 0.246677 0.323995
0.762646 0.261341 0.404501
0.764843 0.276875 0.469718
0.766598 0.29221 0.517433
0.76643 0.30515 0.561028
0.767468 0.318212 0.597726
0.76878 0.331228 0.628229
0.77026 0.34522 0.653254
0.105379 0.5299 0.223453
0.105379 0.5299 0.223453
0.105211 0.529351 0.218296
0.104921 0.528511 0.20943
0.105013 0.528374 0.198352
0.105364 0.527977 0.184787
0.105821 0.527398 0.166934
0.10663 0.527596 0.147845
0.109117 0.527123 0.120775
0.114916 0.524834 0.0746319
0.121675 0.522622 0.0418708
0.146715 0.51812 0.0310521
0.289021 0.547509 0.121904
0.413184 0.571435 0.163256
0.565225 0.564416 0.184924
0.653101 0.555657 0.164431
0.667185 0.585214 0.107347
0.647089 0.598825 0.0605478
0.687846 0.589319 0.0818952
0.733028 0.56492 0.105592
0.774685 0.525017 0.107652
0.809354 0.456641 0.0847944
0.806302 0.395453 0.0630045
0.800671 0.335393 0.0452735
0.784451 0.260853 0.0738537
0.760494 0.232029 0.172549
0.760113 0.24535 0.305074
0.765881 0.266361 0.407919
0.769329 0.286244 0.481971
0.771969 0.306203 0.537743
0.771923 0.320668 0.583627
0.772839 0.335271 0.620401
0.774044 0.350912 0.649882
0.122789 0.5776 0.303166
0.122789 0.5776 0.303166
0.122377 0.576837 0.296193
0.12195 0.576043 0.288258
0.121798 0.576089 0.279057
0.121569 0.575982 0.268269
0.121431 0.575631 0.251759
0.121401 0.575219 0.228977
0.121965 0.575875 0.20737
0.12398 0.573983 0.161135
0.131746 0.57258 0.101656
0.14342 0.573709 0.0677653
0.228489 0.587823 0.096437
0.39556 0.626322 0.195972
0.520272 0.636942 0.207004
0.65243 0.627909 0.236423
0.717983 0.62266 0.219242
0.737514 0.643671 0.157427
0.715984 0.664973 0.112398
0.728908 0.671305 0.127749
0.764157 0.652995 0.152773
0.797543 0.618738 0.153841
0.809644 0.572992 0.129839
0.812284 0.506813 0.102968
0.807675 0.410727 0.0700847
0.797177 0.306462 0.0422522
0.772839 0.243046 0.114183
0.763394 0.243702 0.261036
0.769589 0.276555 0.435691
0.777249 0.303639 0.494133
0.778058 0.325048 0.559091
0.777981 0.342046 0.606653
0.778531 0.358495 0.643351
0.143099 0.622705 0.373007
0.143023 0.622599 0.372274
0.142336 0.621729 0.366354
0.141817 0.621012 0.360678
0.141558 0.62089 0.352972
0.141283 0.620798 0.34435
0.140856 0.620569 0.33225
0.140185 0.620096 0.312749
0.139803 0.619928 0.288441
0.139773 0.620356 0.261982
0.141039 0.61825 0.200946
0.15227 0.618112 0.120668
0.185885 0.629755 0.0956893
0.342153 0.66569 0.192966
0.501579 0.697505 0.247761
0.609476 0.698528 0.255924
0.722545 0.691981 0.290181
0.778164 0.687938 0.2822
0.797665 0.701228 0.208362
0.782406 0.725307 0.171084
0.776547 0.739284 0.181796
0.792569 0.734691 0.199145
0.803265 0.713695 0.190524
0.801968 0.676982 0.167636
0.805005 0.618997 0.148882
0.812497 0.529061 0.110918
0.805783 0.389364 0.0607004
0.787854 0.269612 0.0629129
0.780026 0.252964 0.107744
0.77821 0.28954 0.420478
0.784329 0.330327 0.507042
0.783536 0.352636 0.581765
0.78349 0.369726 0.630564
0.162295 0.665003 0.428077
0.162036 0.664668 0.425895
0.161501 0.663966 0.421256
0.161028 0.663355 0.417151
0.160678 0.663233 0.412192
0.160311 0.663096 0.407126
0.159854 0.662974 0.399191
0.159213 0.662699 0.386175
0.158297 0.662303 0.367559
0.157763 0.662379 0.343816
0.157198 0.662425 0.310491
0.157656 0.660243 0.232532
0.173632 0.665309 0.153079
0.261387 0.694011 0.157229
0.453483 0.739513 0.272374
0.579843 0.759136 0.290791
0.66743 0.762264 0.309346
0.776608 0.757214 0.349935
0.833478 0.752499 0.355947
0.854597 0.761395 0.284566
0.843839 0.780011 0.244099
0.82739 0.794385 0.248432
0.826017 0.795483 0.24683
0.817716 0.781628 0.212299
0.806592 0.75938 0.187289
0.802228 0.71632 0.177447
0.803265 0.640909 0.156573
0.812345 0.512734 0.105104
0.797971 0.311437 0.0417945
0.797177 0.306538 0.0422065
0.78613 0.306767 0.376745
0.788052 0.365332 0.525643
0.787503 0.387579 0.606561
0.178546 0.700496 0.478019
0.178134 0.700023 0.474922
0.177676 0.699474 0.471138
0.177234 0.698863 0.467826
0.177005 0.698848 0.464225
0.176715 0.698726 0.460487
0.176364 0.698665 0.455329
0.175769 0.698497 0.447196
0.174975 0.698283 0.433997
0.173983 0.697993 0.415717
0.173358 0.698085 0.394491
0.172519 0.698054 0.353826
0.173877 0.69691 0.25333
0.207324 0.71545 0.179507
0.3552 0.758709 0.245487
0.536721 0.802838 0.331426
0.621653 0.819104 0.341955
0.701366 0.823621 0.36788
0.819806 0.816648 0.408942
0.879835 0.810407 0.423499
0.900008 0.815274 0.382376
0.897414 0.828901 0.331197
0.879286 0.841489 0.330694
0.87071 0.838178 0.300526
0.859297 0.823468 0.242237
0.837903 0.803983 0.207828
0.818051 0.781903 0.195544
0.802747 0.735302 0.18143
0.804181 0.628107 0.152224
0.805188 0.382742 0.0584115
0.80473 0.377493 0.056733
0.795285 0.329152 0.318425
0.78819 0.393545 0.581262
0.191791 0.72636 0.525612
0.191318 0.725872 0.522042
0.190906 0.725399 0.519127
0.190524 0.725002 0.51603
0.190265 0.724926 0.513268
0.190021 0.724865 0.51043
0.1897 0.724804 0.506554
0.189197 0.724697 0.500526
0.188403 0.724514 0.491279
0.187381 0.724224 0.476707
0.186389 0.724163 0.457893
0.186084 0.724743 0.437018
0.185489 0.724926 0.389639
0.18938 0.728588 0.280064
0.266392 0.769177 0.228473
0.433265 0.813245 0.318288
0.582467 0.852583 0.375311
0.638453 0.869642 0.392386
0.710216 0.880079 0.417548
0.858457 0.867201 0.459846
0.912337 0.860288 0.484321
0.933959 0.862806 0.464958
0.936675 0.871077 0.434287
0.926375 0.877974 0.405341
0.919936 0.870039 0.365118
0.908721 0.852308 0.291264
0.884031 0.833097 0.251408
0.857404 0.818112 0.223651
0.825116 0.791424 0.199878
0.802396 0.721798 0.178805
0.81178 0.486625 0.0964218
0.811551 0.479301 0.0945449
0.802487 0.39118 0.319524
0.202716 0.745769 0.570794
0.202289 0.745373 0.567407
0.201907 0.745022 0.564233
0.201556 0.74464 0.561532
0.201343 0.744549 0.559045
0.201205 0.744549 0.557046
0.200931 0.744442 0.55404
0.200565 0.744427 0.549767
0.199985 0.744305 0.543313
0.19913 0.744183 0.53344
0.197879 0.743954 0.51838
0.196735 0.744076 0.497749
0.197223 0.745892 0.473304
0.198383 0.748882 0.408743
0.219394 0.770062 0.295521
0.308476 0.813077 0.293919
0.485893 0.856077 0.367803
0.59353 0.888747 0.404639
0.637827 0.907179 0.425803
0.709789 0.920012 0.452049
0.869596 0.907912 0.491127
0.937148 0.89929 0.527428
0.95996 0.900236 0.523476
0.968566 0.902922 0.502632
0.963867 0.902586 0.479805
0.959854 0.895705 0.442618
0.955428 0.883391 0.373053
0.932097 0.859937 0.311055
0.905241 0.8439 0.276051
0.867155 0.823468 0.232578
0.819104 0.783459 0.196429
0.806027 0.606958 0.14432
0.807172 0.595087 0.139483
0.212222 0.761318 0.611582
0.212009 0.761074 0.608682
0.211765 0.760784 0.60592
0.211551 0.760525 0.602899
0.211475 0.760479 0.60087
0.211429 0.760464 0.598764
0.211322 0.760433 0.596292
0.211063 0.760342 0.593011
0.210697 0.76025 0.587991
0.210178 0.760113 0.580606
0.209689 0.760494 0.568826
0.208911 0.76112 0.551171
0.208637 0.762768 0.527291
0.210208 0.766186 0.495552
0.213977 0.773999 0.408698
0.253178 0.813703 0.349828
0.349676 0.845991 0.347341
0.510842 0.884291 0.395621
0.582559 0.909758 0.424735
0.636225 0.928939 0.453956
0.734386 0.942931 0.489677
0.874632 0.932555 0.530007
0.946532 0.923903 0.557748
0.970367 0.923049 0.56173
0.978546 0.923156 0.554818
0.979065 0.920058 0.538964
0.980148 0.914549 0.507454
0.980957 0.905135 0.454368
0.972625 0.89424 0.40763
0.952636 0.876677 0.349401
0.913893 0.848615 0.286534
0.856596 0.817212 0.221881
0.802274 0.702388 0.17435
0.216541 0.76788 0.637995
0.216602 0.767941 0.635599
0.216648 0.768002 0.63331
0.216648 0.767971 0.63093
0.216678 0.768032 0.629114
0.216648 0.768032 0.627466
0.216602 0.768032 0.625101
0.216632 0.768154 0.622034
0.216754 0.76849 0.617456
0.216846 0.768826 0.610895
0.216815 0.769284 0.601328
0.216724 0.770153 0.586587
0.216922 0.772396 0.563531
0.217487 0.775418 0.532219
0.219287 0.779599 0.486717
0.238483 0.806119 0.414862
0.286854 0.840131 0.388388
0.4159 0.869307 0.377966
0.531716 0.900313 0.419165
0.600946 0.92253 0.455817
0.678889 0.94342 0.498695
0.786664 0.94786 0.531334
0.889189 0.938369 0.568643
0.939376 0.932174 0.593744
0.952407 0.932387 0.60473
0.960159 0.93164 0.604669
0.964385 0.930159 0.592767
0.971496 0.927062 0.566812
0.979538 0.920928 0.524437
0.98706 0.91249 0.482322
0.979522 0.901946 0.43946
0.959075 0.882033 0.364981
0.899992 0.840528 0.269078
0.21738 0.769345 0.656123
0.217472 0.769436 0.653758
0.217533 0.769528 0.651331
0.217624 0.76965 0.64892
0.217746 0.769833 0.646845
0.217838 0.769955 0.644724
0.217945 0.770123 0.642603
0.218112 0.770367 0.639475
0.218326 0.770703 0.635721
0.218509 0.771069 0.630472
0.218921 0.771954 0.622156
0.219593 0.773449 0.60885
0.220111 0.775402 0.589288
0.221088 0.778973 0.559365
0.222599 0.78349 0.515801
0.22884 0.793851 0.460777
0.262882 0.830671 0.436469
0.335637 0.85658 0.394171
0.478935 0.887175 0.413138
0.561593 0.911894 0.451057
0.645594 0.935363 0.498253
0.740001 0.950134 0.536049
0.833509 0.946868 0.562615
0.910826 0.936339 0.594537
0.942962 0.933547 0.610803
0.950988 0.933547 0.622827
0.95317 0.933318 0.621866
0.956024 0.932723 0.614282
0.963912 0.930358 0.590188
0.973144 0.925963 0.554696
0.975799 0.92401 0.541527
0.982605 0.917708 0.507744
0.981155 0.903868 0.447318
0.219364 0.772564 0.672221
0.219394 0.77258 0.670359
0.219455 0.772641 0.668345
0.219501 0.772671 0.666239
0.219654 0.7729 0.664591
0.219821 0.773144 0.662928
0.220066 0.77351 0.660655
0.220386 0.773983 0.657679
0.220813 0.77467 0.653819
0.221302 0.775464 0.648646
0.221897 0.776455 0.641642
0.22266 0.777768 0.631022
0.223941 0.78024 0.614618
0.22533 0.78352 0.589914
0.226703 0.787945 0.550713
0.233875 0.799924 0.502724
0.250233 0.82031 0.483177
0.295567 0.849271 0.45214
0.39678 0.871809 0.413825
0.511437 0.898665 0.447608
0.603418 0.92343 0.49575
0.704753 0.94789 0.549859
0.786816 0.95169 0.571633
0.867353 0.944259 0.592599
0.925551 0.935515 0.618967
0.941634 0.934936 0.633326
0.944793 0.934813 0.642573
0.946303 0.934615 0.639307
0.951003 0.933776 0.627573
0.960433 0.931517 0.601221
0.969162 0.928115 0.571206
0.971725 0.926787 0.5608
0.974395 0.925078 0.54873
0.223072 0.778317 0.686625
0.223072 0.778332 0.684825
0.223041 0.778271 0.682902
0.223072 0.778302 0.68101
0.223194 0.7785 0.67982
0.223377 0.77879 0.67834
0.22359 0.779095 0.676295
0.22385 0.779477 0.673686
0.224262 0.780102 0.669963
0.224903 0.781094 0.665339
0.225681 0.782315 0.659495
0.226688 0.783902 0.651301
0.227878 0.78587 0.63827
0.229755 0.788952 0.618585
0.233509 0.795483 0.591577
0.240513 0.806928 0.556222
0.255589 0.825895 0.545922
0.280812 0.845197 0.546944
0.332998 0.865919 0.501884
0.433387 0.883726 0.467842
0.542168 0.905043 0.505592
0.65272 0.930571 0.564767
0.744335 0.950591 0.598123
0.820203 0.950668 0.605371
0.882933 0.941421 0.627268
0.923919 0.936919 0.643427
0.925582 0.936782 0.67541
0.91606 0.937133 0.695491
0.924285 0.936782 0.682307
0.944518 0.934844 0.643091
0.958389 0.932204 0.607996
0.966217 0.92958 0.582803
0.967788 0.928847 0.57702
0.227924 0.785794 0.700282
0.227741 0.785519 0.698283
0.227649 0.785382 0.696529
0.227558 0.785229 0.694545
0.227726 0.785504 0.693217
0.227909 0.785794 0.691997
0.228107 0.786084 0.690501
0.228382 0.786511 0.688167
0.228763 0.787121 0.685252
