presets/XH_G200_1.cube
TITLE "Generated by Resolve"
LUT_3D_SIZE 5
0.0506752 0.0646677 0.068574
0.237491 0.105455 0.0879683
0.709285 0.209659 0.136004
0.919005 0.347265 0.675319
0.955337 0.462531 0.81059
0.00137331 0.165194 0.092256
0.138277 0.154528 0.0931411
0.705608 0.18822 0.0571603
0.91458 0.336583 0.642618
0.945235 0.420615 0.785519
0 0.60824 0.422415
0.000167849 0.613458 0.35169
0.698665 0.666133 0.339544
0.885313 0.514244 0.186511
0.94548 0.456321 0.777554
0.035584 0.772564 0.692424
0.0362249 0.773693 0.679789
0.172595 0.77702 0.440223
0.902449 0.883177 0.690349
0.947448 0.88716 0.555886
0.295415 0.833478 0.812375
0.244175 0.821317 0.794202
0.423331 0.857954 0.82977
0.878111 0.923201 0.852567
0.935134 0.937163 0.8766
0.0623941 0.0735027 0.139101
0.235966 0.111894 0.160952
0.718959 0.21355 0.217319
0.9234 0.357565 0.700679
0.958465 0.476081 0.818692
0.0111238 0.148669 0.157916
0.124269 0.157885 0.160082
0.711986 0.210727 0.137987
0.920119 0.350164 0.6804
0.964553 0.51458 0.832776
0 0.59913 0.479301
0 0.604425 0.416297
0.67924 0.649699 0.335561
0.885023 0.473991 0.188022
0.963958 0.543694 0.827512
0.035584 0.773693 0.704005
0.036347 0.773861 0.693431
0.0869154 0.785565 0.512108
0.902281 0.88307 0.690394
0.957275 0.887999 0.525444
0.32134 0.84004 0.821607
0.318059 0.838697 0.81886
0.451606 0.866011 0.839963
0.874067 0.923323 0.852247
0.935073 0.937148 0.876616
0.269841 0.191959 0.607172
0.431418 0.201801 0.616693
0.755093 0.230457 0.617151
0.938262 0.389761 0.775891
0.9664 0.505577 0.840009
0.185916 0.198215 0.625315
0.312352 0.207782 0.650401
0.767239 0.237568 0.633982
0.937209 0.387198 0.771374
0.971359 0.546365 0.85124
0.0170138 0.637003 0.690105
0.0180667 0.632883 0.686717
0.613321 0.661784 0.706447
0.928634 0.396826 0.704585
0.974884 0.691386 0.873503
0.0323339 0.784375 0.759045
0.0336767 0.784054 0.754162
0.0617838 0.786557 0.718364
0.908339 0.908217 0.802136
0.96907 0.887709 0.482002
0.316106 0.842954 0.831403
0.322393 0.843778 0.831525
0.481315 0.874922 0.85452
0.864973 0.925475 0.857084
0.935119 0.937301 0.877012
0.274937 0.263523 0.821302
0.48397 0.270329 0.79826
0.811429 0.286931 0.790219
0.96257 0.443046 0.849302
0.970321 0.46775 0.861234
0.181827 0.276051 0.835569
0.23743 0.269642 0.840452
0.807874 0.289128 0.797421
0.963653 0.445396 0.851514
0.976165 0.494331 0.870756
0.0415198 0.651698 0.859312
0.04448 0.647044 0.865782
0.507332 0.649119 0.834379
0.968093 0.460105 0.85771
0.982498 0.711757 0.899092
0.0263218 0.81033 0.852872
0.0272526 0.811185 0.853452
0.0491035 0.818936 0.855787
0.90341 0.914199 0.884215
0.958877 0.810208 0.879683
0.245487 0.850874 0.866606
0.279942 0.856199 0.871229
0.498482 0.885954 0.883772
0.854856 0.934142 0.885573
0.932616 0.947387 0.901747
0.000442512 0.390875 0.782666
0.0256352 0.351751 0.801831
0.751492 0.282567 0.809812
0.962722 0.44184 0.85156
0.968399 0.458839 0.859358
0.00187686 0.407614 0.782864
0.0939956 0.503166 0.87892
0.645777 0.403861 0.852384
0.966812 0.453269 0.857053
0.968994 0.46096 0.860212
0.0314336 0.704631 0.895445
0.0248112 0.724193 0.901396
0.122515 0.720745 0.882994
0.97644 0.757519 0.902724
0.970901 0.467979 0.863035
0.0187533 0.806302 0.867247
0.0192721 0.807553 0.868391
0.0400244 0.821653 0.880888
0.880964 0.914824 0.905898
0.957992 0.841184 0.906981
0.194888 0.853284 0.885771
0.235233 0.859434 0.891279
0.471794 0.887434 0.90193
0.851499 0.937209 0.904692
0.928328 0.952422 0.911238
