presets/XH_G200_6.cube
TITLE "Generated by Resolve"
LUT_3D_SIZE 33
0.119478 0.0297398 0
0.119478 0.0297398 0
0.119478 0.0297398 0
0.119493 0.0298619 0
0.133883 0.0276341 0
0.156451 0.0263218 0
0.192569 0.0250858 0
0.228992 0.0246738 9.15541e-05
0.26273 0.0246433 0.000839246
0.302937 0.0248112 0.00230411
0.350393 0.0250401 0.00521859
0.40296 0.0248875 0.0128328
0.456809 0.0240482 0.0221561
0.504097 0.0243687 0.0442054
0.539986 0.025391 0.0729686
0.567071 0.0267338 0.0996872
0.58819 0.0285191 0.126558
0.606546 0.0306706 0.156039
0.624674 0.0330205 0.192264
0.645121 0.0352331 0.237476
0.670192 0.0361639 0.290639
0.698268 0.0370642 0.347295
0.728603 0.0443885 0.400244
0.744869 0.059617 0.439185
0.747951 0.0733501 0.471229
0.752651 0.087068 0.505074
0.75758 0.0967422 0.539147
0.761868 0.104936 0.568048
0.764874 0.113481 0.592645
0.766873 0.122469 0.613718
0.769543 0.137896 0.634806
0.772946 0.163226 0.657221
0.775113 0.19147 0.67718
0.119478 0.0297398 0
0.119478 0.0297398 0
0.119478 0.0297398 0
0.119402 0.0298772 0
0.132448 0.0276799 0
0.154269 0.0264439 0
0.190051 0.0251164 0
0.227405 0.0246891 4.57771e-05
0.261402 0.0246281 0.000793469
0.302174 0.0248112 0.00225834
0.350393 0.0250401 0.00521859
0.40296 0.0248875 0.0128328
0.456809 0.0240482 0.0221561
0.504097 0.0243687 0.0442054
0.539986 0.025391 0.0729686
0.567071 0.0267338 0.0996872
0.58819 0.0285191 0.126558
0.606394 0.0306401 0.155612
0.624186 0.0328527 0.190509
0.644068 0.035111 0.234821
0.668544 0.035996 0.286275
0.696178 0.03682 0.341939
0.726238 0.0430915 0.395331
0.744732 0.0581064 0.435004
0.747387 0.0710918 0.466209
0.751858 0.0851759 0.498512
0.756466 0.0948501 0.531975
0.760876 0.102785 0.560876
0.764141 0.110628 0.585382
0.766278 0.118883 0.605982
0.767636 0.126909 0.622965
0.771084 0.147143 0.643503
0.773434 0.168826 0.661631
0.119478 0.0297398 0
0.119478 0.0297398 0
0.119478 0.0297398 0
0.119448 0.0298161 0
0.129549 0.0281071 0
0.143786 0.0270695 0
0.174685 0.0255131 0
0.215991 0.0247044 0
0.251652 0.0246128 0.000503548
0.292332 0.0247044 0.00172427
0.341222 0.0249485 0.00436408
0.39556 0.0248569 0.010132
0.452323 0.0240024 0.0200809
0.501854 0.0242313 0.041825
0.539055 0.0252995 0.0715648
0.566094 0.026566 0.0975662
0.587106 0.0282902 0.124041
0.605341 0.0303655 0.15259
0.623255 0.032578 0.18706
0.642786 0.0348516 0.230732
0.666957 0.0358129 0.281682
0.694255 0.0366827 0.337636
0.724102 0.0420386 0.391226
0.744595 0.0569467 0.431815
0.747143 0.069688 0.462913
0.751431 0.0840314 0.494163
0.75581 0.0937057 0.527306
0.760235 0.101595 0.555886
0.763485 0.108858 0.579736
0.765667 0.116472 0.600107
0.767117 0.12401 0.616892
0.76939 0.13698 0.633585
0.772168 0.154955 0.650645
0.11873 0.0304417 0
0.118837 0.0303502 0
0.11928 0.0301671 0
0.119417 0.0301976 0
0.126055 0.0294957 0
0.134661 0.0282444 0
0.157733 0.0266117 0
0.202731 0.024979 0
0.242039 0.0247044 0.000228885
0.282429 0.0246281 0.00125124
0.332418 0.0247807 0.00361639
0.387472 0.0248264 0.00825513
0.447456 0.0243992 0.0224308
0.497414 0.0240177 0.0375067
0.5364 0.0250401 0.0673381
0.564523 0.0262913 0.0943618
0.585931 0.027985 0.120638
0.604425 0.030045 0.149157
0.622324 0.0322118 0.183017
0.641627 0.0345922 0.226749
0.665522 0.0355993 0.277363
0.692393 0.0364538 0.332799
0.721843 0.0410315 0.387137
0.744488 0.0557717 0.428534
0.746746 0.0680552 0.459327
0.750942 0.0820935 0.489647
0.755001 0.0923781 0.522347
0.759441 0.100145 0.550713
0.762722 0.107057 0.574426
0.765057 0.114199 0.5944
0.766705 0.121386 0.61117
0.767941 0.128328 0.62475
0.770611 0.144366 0.640787
0.112413 0.0422217 0
0.112749 0.0416571 0
0.114305 0.0395819 0
0.11693 0.0372168 0
0.119753 0.0366827 0
0.131533 0.0352483 0
0.151644 0.0326238 0
0.197131 0.0272068 0
0.243305 0.0251164 0
0.283162 0.0247349 0.000350958
0.332769 0.0242924 0.00192264
0.38555 0.0241093 0.00614939
0.45153 0.0234836 0.0149233
0.502358 0.0235447 0.0347753
0.539559 0.0246433 0.0648051
0.565881 0.0250248 0.0825971
0.587015 0.0268254 0.110185
0.60531 0.0288243 0.139696
0.623102 0.0309453 0.173693
0.642359 0.0333867 0.218021
0.666285 0.0345006 0.269459
0.692973 0.035462 0.326284
0.722301 0.0401465 0.3823
0.744396 0.054612 0.425177
0.746548 0.066804 0.456214
0.750652 0.0809644 0.487022
0.754681 0.0919051 0.520043
0.759258 0.099855 0.549279
0.7626 0.106783 0.573144
0.764996 0.113924 0.593378
0.76669 0.121141 0.610422
0.768093 0.128588 0.624521
0.770703 0.144671 0.640574
0.112749 0.0642863 0
0.112825 0.0636454 0
0.11397 0.0595254 0
0.116594 0.0527504 0
0.121935 0.0527199 0
0.1346 0.0512551 0
0.159197 0.0469062 0
0.193133 0.0404669 0
0.231846 0.0321508 0
0.277607 0.0248722 0
0.335836 0.0239872 0.000732433
0.3935 0.0232242 0.00352483
0.451148 0.0224765 0.0105592
0.49984 0.0226291 0.0241855
0.542184 0.0233005 0.0518349
0.568307 0.0247196 0.0811017
0.587976 0.0255894 0.0996719
0.606165 0.0275731 0.129931
0.623987 0.0295872 0.16376
0.643091 0.0321355 0.20885
0.667018 0.033402 0.261341
0.693629 0.0344091 0.31928
0.722728 0.0392004 0.377096
0.744381 0.0534524 0.421729
0.746303 0.0655222 0.452995
0.750362 0.0799115 0.484596
0.754437 0.0914321 0.517906
0.759075 0.0995651 0.547692
0.762448 0.106447 0.571771
0.764904 0.113603 0.592371
0.766644 0.120821 0.609613
0.768185 0.12874 0.62414
0.770794 0.145037 0.640345
0.115297 0.105333 0.00474556
0.115282 0.104082 0.00444038
0.115526 0.0970779 0.00271611
0.116564 0.0879988 0.000946059
0.120867 0.0833753 0
0.132845 0.0810559 0
0.154253 0.0774701 0
0.194003 0.0699931 0
0.23389 0.0534981 0
0.268284 0.0449378 0
0.321904 0.0327916 0
0.394095 0.0214084 4.57771e-05
0.4598 0.0210574 0.00505074
0.509102 0.0208286 0.0139467
0.539849 0.0218967 0.0366217
0.568887 0.0229953 0.0633402
0.590478 0.0250248 0.0961624
0.607217 0.0259251 0.117006
0.624887 0.027924 0.151583
0.644022 0.030518 0.197131
0.667872 0.0319829 0.250874
0.694362 0.0331121 0.310491
0.723201 0.037995 0.370459
0.74435 0.052018 0.417288
0.746059 0.0640726 0.449287
0.74995 0.0784009 0.481117
0.754101 0.0905776 0.514656
0.758785 0.0991073 0.545403
0.76228 0.106081 0.570092
0.764828 0.113252 0.591119
0.766613 0.120531 0.608728
0.768215 0.128847 0.62356
0.770916 0.14548 0.64007
0.121462 0.159548 0.0293431
0.121386 0.15816 0.0279088
0.121172 0.150637 0.0200198
0.12134 0.142901 0.0123445
0.121523 0.131563 0.00149538
0.129381 0.125246 0
0.149096 0.11873 0
0.185382 0.114534 0
0.233143 0.107485 0
0.280415 0.081529 0
0.326223 0.0624704 0
0.378958 0.0442969 0
0.448463 0.0274815 0
0.514809 0.0169223 0.000457771
0.551354 0.0190127 0.0167544
0.571756 0.020325 0.0409247
0.590036 0.0225834 0.0753185
0.609979 0.0248264 0.109224
0.626108 0.0258335 0.134524
0.645319 0.028275 0.180453
0.668956 0.0299535 0.235706
0.695277 0.0313115 0.297337
0.72398 0.0362249 0.360693
0.744427 0.0500496 0.410773
0.7458 0.0621347 0.444083
0.749401 0.0764782 0.476478
0.753689 0.0894636 0.510277
0.758358 0.098436 0.54229
0.762081 0.105653 0.56817
0.764645 0.112703 0.589395
0.766552 0.120027 0.607309
0.768383 0.129229 0.622934
0.771054 0.145983 0.63975
0.131563 0.222629 0.0898451
0.131518 0.221775 0.0881361
0.131044 0.213809 0.0726787
0.130648 0.205554 0.0573281
0.13106 0.193393 0.0285496
0.131594 0.182803 0.0118257
0.143099 0.165698 0
0.174456 0.165148 0
0.221241 0.160052 0
0.2822 0.153185 0
0.346807 0.115602 0
0.409262 0.0796216 0
0.455589 0.06215 0
0.507515 0.0337682 0
0.551965 0.0159304 0
0.580499 0.0148928 0.00466926
0.595575 0.0188754 0.0438239
0.607904 0.0222934 0.0888838
0.629236 0.0240787 0.122499
0.646723 0.0255436 0.158389
0.670268 0.0272679 0.214542
0.696437 0.0288396 0.278981
0.724971 0.0337072 0.346105
0.744533 0.0471504 0.401099
0.745678 0.0594034 0.436591
0.748638 0.073991 0.470497
0.753155 0.0879988 0.504356
0.757794 0.0975509 0.537881
0.761685 0.104829 0.564889
0.764477 0.112001 0.586969
0.766506 0.119463 0.605615
0.768597 0.129946 0.622248
0.771206 0.146792 0.639261
0.143526 0.292897 0.164965
0.143526 0.292561 0.164141
0.143481 0.286702 0.150317
0.143465 0.279255 0.132769
0.144854 0.276371 0.116594
0.144549 0.256016 0.0715496
0.146624 0.239155 0.0424964
0.171099 0.216526 0.00613413
0.206653 0.220935 0.00189212
0.264424 0.214649 0.00154116
0.347036 0.208057 0.0115358
0.429221 0.159182 0.0037995
0.489204 0.109255 0
0.525139 0.0862898 0
0.55555 0.0547799 0
0.583703 0.0213474 0
0.602686 0.0109712 0.00131228
0.614252 0.0162203 0.0319524
0.624613 0.0215763 0.102922
0.647959 0.022858 0.138323
0.673198 0.0253758 0.20206
0.697734 0.0257267 0.25275
0.726268 0.0303502 0.325521
0.744839 0.0432746 0.38677
0.745586 0.0556344 0.425895
0.748074 0.0704662 0.462135
0.752453 0.0861219 0.496895
0.756909 0.0961624 0.531441
0.761166 0.103929 0.560449
0.764248 0.111192 0.583978
0.766354 0.118761 0.603387
0.768841 0.130861 0.621195
0.771527 0.14786 0.638575
0.155215 0.356222 0.232578
0.155215 0.356222 0.232578
0.155856 0.353384 0.222217
0.15668 0.350271 0.209918
0.158343 0.351476 0.202411
0.160906 0.34789 0.178103
0.160494 0.324315 0.123598
0.165331 0.291707 0.0654307
0.202121 0.281178 0.0347448
0.243687 0.286946 0.0233768
0.317327 0.278904 0.0253452
0.420356 0.272725 0.0415198
0.506325 0.211536 0.0388495
0.546624 0.15436 0.00657664
0.574304 0.11957 0
0.591043 0.0948959 0
0.609857 0.0536507 0
0.626123 0.0132601 9.15541e-05
0.632441 0.0133822 0.0252689
0.641062 0.0180972 0.0888838
0.669795 0.021149 0.161227
0.701686 0.0229953 0.234134
0.727855 0.0258183 0.293431
0.745632 0.0378882 0.362905
0.745632 0.0505989 0.4103
0.747356 0.0657054 0.450401
0.751598 0.0824445 0.487175
0.755886 0.0945602 0.523613
0.760449 0.102785 0.554437
0.763729 0.110094 0.579416
0.76611 0.11783 0.599939
0.768978 0.131792 0.619455
0.771817 0.149294 0.637491
0.168795 0.415213 0.297902
0.168795 0.415213 0.297902
0.169329 0.413947 0.291691
0.170428 0.412451 0.282002
0.172793 0.413397 0.271748
0.174868 0.414618 0.26389
0.1785 0.413809 0.24036
0.178317 0.392035 0.18143
0.193317 0.358572 0.105196
0.236164 0.357168 0.0832074
0.289448 0.363699 0.0675822
0.378515 0.353674 0.0641184
0.489265 0.350408 0.079881
0.560281 0.284443 0.0964828
0.583246 0.225467 0.0569009
0.604852 0.176028 0.0388647
0.62118 0.145495 0.0254063
0.63595 0.106508 0.00851453
0.653544 0.0433051 0.000122072
0.658213 0.00805676 0.0110018
0.657984 0.0162356 0.0925154
0.692561 0.0187533 0.183215
0.731838 0.0222019 0.266163
0.746914 0.0305638 0.323812
0.746197 0.043595 0.385183
0.746899 0.0590066 0.432517
0.750088 0.0766461 0.473747
0.754788 0.0920882 0.512596
0.759533 0.101335 0.546731
0.763104 0.108705 0.57322
0.765713 0.116411 0.595178
0.769268 0.133242 0.61709
0.772091 0.151522 0.636179
0.185214 0.466361 0.358221
0.185214 0.466361 0.358221
0.185672 0.465797 0.354467
0.186587 0.465156 0.348455
0.188769 0.46598 0.341039
0.190768 0.467292 0.335256
0.193805 0.46836 0.323552
0.198886 0.467536 0.293675
0.200931 0.452094 0.236042
0.226673 0.430014 0.162905
0.280613 0.431373 0.141711
0.343359 0.436973 0.120073
0.446357 0.429374 0.111177
0.536126 0.430472 0.126329
0.593851 0.382071 0.151797
0.618906 0.324422 0.153323
0.630045 0.263752 0.114382
0.649775 0.213687 0.0894942
0.665263 0.17023 0.0634318
0.684001 0.0991226 0.030869
0.698375 0.0117037 0.00476081
0.681697 0.0136721 0.109392
0.714916 0.0160678 0.195712
0.746777 0.0240482 0.280461
0.747982 0.033463 0.336919
0.747066 0.0497749 0.404517
0.748653 0.0682231 0.453864
0.753414 0.0878157 0.495949
0.75816 0.0991531 0.5355
0.76228 0.106905 0.565347
0.765576 0.116152 0.589548
0.769558 0.134859 0.613764
0.772427 0.154482 0.634226
0.20293 0.507469 0.407675
0.20293 0.507469 0.407675
0.20325 0.507195 0.405814
0.203998 0.506889 0.40238
0.205768 0.507576 0.397971
0.207584 0.508309 0.39321
0.209751 0.509758 0.38938
0.213535 0.510567 0.375784
0.218799 0.5084 0.341665
0.224857 0.500771 0.285298
0.262776 0.489677 0.228351
0.334829 0.49192 0.202396
0.404639 0.497673 0.17911
0.502098 0.493614 0.165682
0.568322 0.497795 0.179278
0.61651 0.473915 0.200458
0.65449 0.425422 0.240269
0.665187 0.378119 0.220081
0.678782 0.308415 0.167483
0.703685 0.240269 0.128695
0.724239 0.163745 0.0910506
0.746593 0.049012 0.0450446
0.713985 0.00872816 0.116457
0.733455 0.0109865 0.175494
0.748211 0.0234684 0.274449
0.748974 0.0360571 0.347753
0.748119 0.0560616 0.421454
0.751049 0.0776989 0.472938
0.756054 0.095552 0.518135
0.760967 0.104799 0.553948
0.765911 0.118639 0.583795
0.770001 0.13724 0.609247
0.772931 0.158175 0.631098
0.220813 0.540429 0.451759
0.220813 0.540429 0.451759
0.221057 0.540307 0.450782
0.221653 0.540063 0.448371
0.223026 0.540581 0.445701
0.224521 0.541009 0.442191
0.226368 0.541711 0.438453
0.229313 0.542962 0.432166
0.234714 0.543587 0.413108
0.241886 0.543709 0.387228
0.251606 0.540642 0.340383
0.306508 0.537331 0.295583
0.396872 0.540505 0.264012
0.466789 0.548272 0.244221
0.543145 0.545617 0.231006
0.592355 0.549569 0.23856
0.63711 0.539086 0.253803
0.678859 0.510781 0.297887
0.706279 0.474937 0.315328
0.722942 0.418585 0.265675
0.750057 0.330617 0.194553
0.779568 0.222156 0.149279
0.790341 0.115053 0.111162
0.761181 0.00723278 0.100862
0.741756 0.00888075 0.16054
0.748913 0.0209812 0.254154
0.750088 0.0379034 0.354376
0.749325 0.0621347 0.43537
0.753964 0.0873579 0.489891
0.760174 0.105013 0.538155
0.766094 0.12285 0.574853
0.770382 0.142733 0.603922
0.773526 0.164477 0.62797
0.235416 0.566522 0.492378
0.235416 0.566522 0.492378
0.235782 0.566384 0.491142
0.236469 0.566201 0.489036
0.237827 0.566522 0.486824
0.240284 0.567147 0.482811
0.243397 0.567895 0.477531
0.24715 0.569146 0.472282
0.251225 0.570336 0.465309
0.258366 0.571435 0.449271
0.272129 0.573037 0.418906
0.292714 0.574121 0.380835
0.375586 0.576516 0.353155
0.464775 0.581338 0.319905
0.514122 0.589731 0.313985
0.571923 0.588525 0.300786
0.611734 0.589639 0.29778
0.654307 0.586389 0.312306
0.702907 0.570794 0.354955
0.740383 0.550179 0.373739
0.777142 0.516716 0.365164
0.792996 0.447623 0.287282
0.788586 0.354147 0.217945
0.792508 0.232593 0.162478
0.797345 0.0457771 0.086183
0.749722 0.00619516 0.127962
0.749355 0.0181735 0.232639
0.754788 0.0420539 0.359396
0.754879 0.0742046 0.450065
0.760464 0.106935 0.512139
0.765911 0.128145 0.560128
0.770596 0.150271 0.595514
0.773816 0.174929 0.623407
0.252827 0.589914 0.528481
0.252827 0.589914 0.528481
0.253925 0.589914 0.526513
0.255131 0.589914 0.524315
0.256855 0.590311 0.522393
0.258778 0.590707 0.520073
0.261372 0.591241 0.516762
0.264973 0.592081 0.512383
0.269032 0.593423 0.508537
0.275059 0.59443 0.498665
0.285084 0.595651 0.479912
0.305318 0.600336 0.451347
0.347158 0.606653 0.422873
0.450187 0.612619 0.401831
0.510597 0.61941 0.381369
0.549325 0.62855 0.381247
0.595056 0.628687 0.373251
0.629084 0.624506 0.354192
0.671199 0.626261 0.370108
0.723781 0.620691 0.405066
0.76759 0.606394 0.418723
0.804959 0.585046 0.418418
0.815061 0.554955 0.400671
0.806714 0.502159 0.350149
0.789075 0.380728 0.235569
0.796658 0.167559 0.141115
0.780804 0.0142061 0.0852522
0.753994 0.0137179 0.189807
0.757244 0.0553902 0.39588
0.763531 0.0975662 0.465354
0.766064 0.134966 0.533959
0.770077 0.161761 0.581125
0.773785 0.188663 0.615808
0.26952 0.610712 0.562173
0.269627 0.610697 0.561959
0.270512 0.610605 0.560174
0.271351 0.610559 0.558633
0.272969 0.610941 0.557061
0.27483 0.611383 0.555261
0.277424 0.611963 0.552666
0.281468 0.612848 0.548455
0.286229 0.614054 0.543862
0.291752 0.615702 0.539284
0.300404 0.617121 0.528283
0.313832 0.618326 0.507301
0.343389 0.627955 0.485328
0.414969 0.639414 0.469703
0.510063 0.647105 0.446845
0.54229 0.654429 0.440452
0.575418 0.664607 0.445136
0.616312 0.66537 0.437842
0.647639 0.658198 0.41091
0.687648 0.659785 0.422354
0.740414 0.659007 0.448493
0.778592 0.651301 0.458228
0.797452 0.638254 0.451255
0.804105 0.618433 0.435492
0.812207 0.584985 0.418341
0.811597 0.521172 0.371695
0.788586 0.342992 0.211566
0.799039 0.0671397 0.0962844
0.791455 0.0274815 0.093431
0.769985 0.0703746 0.383917
0.769818 0.134844 0.479744
0.769451 0.177172 0.555001
0.772931 0.207828 0.602213
0.288228 0.62974 0.593729
0.28864 0.62974 0.593057
0.28957 0.62977 0.591638
0.290471 0.629831 0.590372
0.292042 0.630198 0.589105
0.293721 0.630594 0.587777
0.296162 0.631189 0.58584
0.299672 0.631998 0.582834
0.304845 0.633158 0.578332
0.310811 0.634714 0.57377
0.317983 0.636484 0.567956
0.328405 0.63769 0.555718
0.349081 0.642222 0.53782
0.3935 0.656123 0.52314
0.484031 0.672541 0.519387
0.543664 0.678889 0.499886
0.565682 0.688197 0.50605
0.596902 0.698573 0.511162
0.635294 0.699809 0.501701
0.668025 0.693675 0.475608
0.703426 0.690593 0.474189
0.751904 0.689708 0.490471
0.777981 0.684398 0.491783
0.776852 0.674372 0.473732
0.78146 0.661173 0.458518
0.795514 0.639033 0.446387
0.809857 0.59826 0.425361
0.808011 0.507225 0.355901
0.795972 0.179965 0.14551
0.796643 0.167758 0.141176
0.780926 0.098436 0.345937
0.772183 0.191394 0.499474
0.770825 0.236225 0.576806
0.307958 0.646265 0.621607
0.308492 0.646265 0.620676
0.309361 0.646326 0.619562
0.310124 0.646357 0.61854
0.311635 0.646754 0.617746
0.313115 0.64712 0.616861
0.315343 0.6477 0.615656
0.318639 0.648508 0.613672
0.323461 0.649577 0.610422
0.329625 0.650797 0.605783
0.336309 0.652247 0.600961
0.34551 0.654047 0.593393
0.357992 0.655055 0.578943
0.389242 0.665293 0.569268
0.456245 0.687053 0.570489
0.530953 0.702693 0.56495
0.564263 0.709224 0.558694
0.583322 0.719905 0.570397
0.615274 0.730236 0.572595
0.652354 0.732616 0.560235
0.684016 0.728374 0.539651
0.715679 0.72076 0.525338
0.758175 0.719158 0.53431
0.765866 0.711315 0.522225
0.758618 0.698131 0.495766
0.761532 0.685771 0.477028
0.772702 0.673259 0.466621
0.790036 0.6486 0.451591
0.81117 0.590509 0.421271
0.789029 0.329595 0.205341
0.78938 0.319097 0.200504
0.792752 0.134417 0.297612
0.770062 0.243503 0.551583
0.330159 0.660349 0.645747
0.330907 0.660395 0.644831
0.331518 0.66041 0.644053
0.332235 0.660471 0.643259
0.333486 0.660777 0.642725
0.334737 0.661082 0.642145
0.336522 0.66154 0.641367
0.339254 0.662211 0.640131
0.34316 0.663096 0.638132
0.348653 0.664134 0.634684
0.355795 0.665431 0.63006
0.363302 0.666926 0.624964
0.374151 0.668833 0.614664
0.391257 0.672206 0.601709
0.440558 0.691569 0.6056
0.505989 0.716426 0.614878
0.556634 0.729213 0.609735
0.57673 0.737758 0.616312
0.596078 0.749203 0.629877
0.631312 0.759457 0.628962
0.666499 0.763745 0.617777
0.6981 0.761929 0.600931
0.728161 0.756832 0.588006
0.756313 0.749187 0.578988
0.752636 0.73817 0.558297
0.740734 0.719402 0.523857
0.740917 0.705333 0.500526
0.751873 0.694408 0.486366
0.768688 0.678462 0.470619
0.794018 0.641794 0.447974
0.801495 0.481941 0.326238
0.799435 0.474037 0.316869
0.795163 0.261357 0.334188
0.349554 0.671885 0.664347
0.350362 0.671946 0.663645
0.351141 0.672023 0.663005
0.351827 0.672084 0.66244
0.353048 0.672389 0.662074
0.354223 0.672679 0.661799
0.355688 0.67303 0.661295
0.357824 0.673533 0.660517
0.360952 0.67422 0.659266
0.365515 0.675151 0.657252
0.371954 0.676326 0.653742
0.37998 0.677668 0.648722
0.388098 0.679149 0.643305
0.399786 0.680964 0.630243
0.427802 0.691615 0.628687
0.488579 0.720119 0.646113
0.53698 0.741817 0.651484
0.568658 0.752483 0.652674
0.585412 0.762448 0.663783
0.606973 0.77348 0.67512
0.643549 0.782559 0.673045
0.677104 0.789395 0.666102
0.706081 0.790356 0.654688
0.7308 0.786786 0.641932
0.74374 0.780102 0.630655
0.739895 0.768841 0.608545
0.728908 0.750301 0.573175
0.725582 0.729213 0.535882
0.733257 0.714763 0.51371
0.747097 0.698299 0.491005
0.772198 0.674113 0.467338
0.813352 0.577585 0.414328
0.813901 0.569696 0.409659
0.367315 0.681239 0.678462
0.368093 0.681346 0.677989
0.368765 0.681407 0.677501
0.369589 0.681514 0.676982
0.37055 0.681743 0.676722
0.371557 0.681956 0.676448
0.372824 0.682246 0.676112
0.374502 0.682612 0.675547
0.376928 0.683116 0.674678
0.380377 0.683772 0.67332
0.385595 0.684749 0.671122
0.393027 0.685969 0.667414
0.401587 0.687419 0.662074
0.409339 0.688899 0.655146
0.421988 0.692256 0.642222
0.471809 0.717006 0.662318
0.520684 0.74403 0.674754
0.555962 0.76173 0.679408
0.575845 0.772396 0.687953
0.593057 0.782361 0.698482
0.620554 0.791501 0.704036
0.654398 0.799268 0.7028
0.686519 0.8065 0.699046
0.709941 0.809079 0.6916
0.727428 0.807858 0.683772
0.730114 0.802899 0.673671
0.726665 0.793011 0.654688
0.718593 0.778012 0.626169
0.721721 0.763699 0.596567
0.723293 0.743938 0.561273
0.730312 0.718959 0.519905
0.751598 0.693874 0.485344
0.799054 0.631815 0.442649
0.374426 0.685649 0.685527
0.375341 0.685802 0.685237
0.376226 0.685954 0.684962
0.377203 0.686137 0.684688
0.378241 0.686381 0.684504
0.379095 0.686595 0.684291
0.380255 0.686839 0.683986
0.381781 0.687205 0.683635
0.384024 0.687709 0.683162
0.386969 0.688334 0.682368
0.391043 0.689128 0.680934
0.39675 0.690089 0.678248
0.404685 0.691249 0.673396
0.413397 0.692668 0.666407
0.421195 0.694224 0.657267
0.451133 0.708675 0.661814
0.504402 0.738399 0.68365
0.542855 0.762737 0.69276
0.566857 0.775845 0.699535
0.585992 0.786511 0.709255
0.608927 0.795438 0.716365
0.637552 0.801312 0.715938
0.669673 0.809018 0.716289
0.697353 0.814557 0.71339
0.713436 0.815991 0.711681
0.720348 0.815839 0.708659
0.720378 0.81387 0.702861
0.717357 0.808438 0.689632
0.710292 0.797528 0.667765
0.71252 0.787137 0.644633
0.718105 0.773754 0.6177
0.722622 0.749294 0.570626
0.734157 0.712108 0.50959
0.377066 0.687953 0.689845
0.377874 0.688075 0.689555
0.378622 0.688182 0.689235
0.379431 0.688304 0.68893
0.380392 0.688502 0.688746
0.381308 0.688685 0.688533
0.382452 0.68896 0.68838
0.384131 0.689357 0.688151
0.38616 0.68986 0.687861
0.388785 0.690471 0.687373
0.392416 0.691249 0.686412
0.397253 0.692149 0.684596
0.4038 0.693156 0.680949
0.412787 0.694392 0.674784
0.422034 0.696025 0.665431
0.434714 0.700969 0.659663
0.483635 0.728664 0.683925
0.527764 0.756603 0.698619
0.558145 0.77644 0.707195
0.577798 0.787701 0.715709
0.600565 0.797513 0.723568
0.628183 0.803571 0.724376
0.655375 0.808392 0.722454
0.686732 0.815198 0.721263
0.708934 0.817349 0.717144
0.719814 0.818692 0.717708
0.720867 0.818433 0.716594
0.719905 0.817182 0.713115
0.716976 0.812741 0.70132
0.71191 0.804791 0.683162
0.710033 0.80148 0.67657
0.710536 0.793469 0.658961
0.717205 0.776242 0.622797
0.382391 0.691157 0.694743
0.383017 0.691249 0.69453
0.383703 0.691341 0.694286
0.38436 0.691432 0.694026
0.38529 0.691646 0.69395
0.386145 0.691844 0.693843
0.387304 0.692103 0.693721
0.388815 0.692454 0.693538
0.390768 0.692927 0.693263
0.393118 0.693462 0.692836
0.396109 0.694133 0.692195
0.400214 0.694972 0.691096
0.405631 0.69601 0.688624
0.41297 0.697078 0.684199
0.422675 0.698436 0.676066
0.438025 0.704295 0.670665
0.464195 0.719066 0.680751
0.510109 0.747524 0.702388
0.546304 0.773877 0.714946
0.569787 0.789197 0.724208
0.591241 0.799695 0.732021
0.621103 0.807706 0.735225
0.646525 0.811093 0.732296
0.672374 0.814954 0.729244
0.700023 0.819242 0.725368
0.717769 0.820645 0.724254
0.723217 0.821698 0.725841
0.722881 0.82121 0.724453
0.721508 0.819348 0.719188
0.718303 0.814847 0.706828
0.714397 0.808667 0.691661
0.712779 0.806256 0.686275
0.711177 0.803311 0.680171
0.388678 0.694713 0.699947
0.389227 0.694774 0.699702
0.389731 0.694804 0.699428
0.390326 0.694881 0.699184
0.391012 0.695033 0.699123
0.391836 0.695232 0.699046
0.392844 0.69546 0.698909
0.394125 0.69575 0.698741
0.39588 0.696147 0.698451
0.398199 0.696727 0.698177
0.401038 0.697429 0.697826
0.404532 0.698253 0.697139
0.408988 0.699184 0.695552
0.415106 0.700267 0.692699
0.425666 0.702724 0.688884
0.442283 0.708843 0.685191
0.467384 0.723278 0.693202
0.496147 0.742885 0.710018
0.530678 0.767681 0.726528
0.561395 0.790311 0.738659
0.584207 0.804105 0.747555
0.611658 0.813443 0.751934
0.640635 0.816876 0.747692
0.664408 0.8177 0.739788
0.688594 0.820844 0.736446
0.711589 0.822507 0.731991
0.725673 0.826795 0.740902
0.729732 0.83006 0.749767
0.727657 0.827848 0.743481
0.723247 0.821775 0.72607
0.719203 0.816144 0.710201
0.716014 0.811307 0.697627
0.715312 0.809995 0.694606
0.395773 0.698756 0.70544
0.395941 0.698634 0.705013
0.396216 0.698589 0.704692
0.396536 0.698543 0.704341
0.397284 0.698711 0.704265
0.397986 0.698878 0.704204
0.398795 0.699077 0.704128
0.4 0.699351 0.703975
0.401587 0.699718 0.703792
