presets/XH_G200_1.cube
TITLE "Generated by Resolve"
LUT_3D_SIZE 9
0.0506752 0.0646677 0.068574
0.072282 0.0691386 0.0717174
0.237491 0.105455 0.0879683
0.497993 0.154177 0.0868086
0.709285 0.209659 0.136004
0.853468 0.264088 0.386114
0.919005 0.347265 0.675319
0.935409 0.387442 0.757061
0.955337 0.462531 0.81059
0.0373236 0.0705425 0.0713512
0.051667 0.0743572 0.0700236
0.206729 0.100999 0.080415
0.488853 0.151232 0.0818799
0.703136 0.207523 0.12546
0.848768 0.260136 0.35407
0.916884 0.341833 0.661494
0.932738 0.380728 0.746075
0.945006 0.418082 0.785641
0.00137331 0.165194 0.092256
0.00726329 0.150103 0.0767681
0.138277 0.154528 0.0931411
0.466194 0.19649 0.0830396
0.705608 0.18822 0.0571603
0.84802 0.256779 0.287846
0.91458 0.336583 0.642618
0.931792 0.378698 0.741436
0.945235 0.420615 0.785519
0 0.427085 0.235416
0 0.425086 0.213291
0.0091249 0.382727 0.116884
0.359792 0.367636 0.190249
0.714519 0.396979 0.0997024
0.835355 0.272999 0.105837
0.906386 0.315953 0.535286
0.928496 0.372168 0.723445
0.945678 0.428534 0.784405
0 0.60824 0.422415
0 0.609079 0.403189
0.000167849 0.613458 0.35169
0.173358 0.544915 0.167987
0.698665 0.666133 0.339544
0.900114 0.70544 0.19678
0.885313 0.514244 0.186511
0.914702 0.3458 0.609491
0.94548 0.456321 0.777554
0.0243076 0.748348 0.623819
0.0241398 0.749081 0.613687
0.0255436 0.752728 0.59292
0.0435035 0.762448 0.474006
0.648051 0.725078 0.387167
0.847395 0.815549 0.533791
0.954925 0.858473 0.443809
0.965667 0.811322 0.278614
0.915236 0.468238 0.478874
0.035584 0.772564 0.692424
0.0357519 0.772854 0.686793
0.0362249 0.773693 0.679789
0.0368658 0.776898 0.646876
0.172595 0.77702 0.440223
0.741543 0.807416 0.566369
0.902449 0.883177 0.690349
0.916762 0.886824 0.663539
0.947448 0.88716 0.555886
0.042298 0.784436 0.73019
0.0422065 0.78352 0.72575
0.0431678 0.783261 0.721294
0.0480354 0.783734 0.710826
0.143313 0.786358 0.697383
0.577707 0.870726 0.752346
0.875761 0.90013 0.791745
0.92755 0.917678 0.805783
0.914977 0.889937 0.69366
0.295415 0.833478 0.812375
0.236103 0.820233 0.793378
0.244175 0.821317 0.794202
0.293355 0.830396 0.803891
0.423331 0.857954 0.82977
0.646723 0.901991 0.847059
0.878111 0.923201 0.852567
0.930739 0.933394 0.868711
0.935134 0.937163 0.8766
0.0508888 0.0647593 0.077409
0.0721141 0.0689708 0.0805982
0.237964 0.106752 0.106111
0.496269 0.156359 0.110185
0.710979 0.210788 0.157504
0.855497 0.267979 0.430503
0.921096 0.352499 0.686427
0.936477 0.38996 0.761196
0.957809 0.474113 0.8168
0.0386816 0.0694438 0.0764019
0.0525673 0.0729534 0.0784161
0.241337 0.109438 0.092256
0.498604 0.154299 0.0868238
0.709178 0.209705 0.136065
0.852232 0.263142 0.38056
0.918532 0.346044 0.672511
0.934646 0.385565 0.754253
0.95227 0.4477 0.803235
0.00167849 0.166659 0.11458
0.00236515 0.16083 0.0915084
0.136599 0.152865 0.0928054
0.483314 0.192615 0.0860456
0.712154 0.196948 0.0811475
0.852277 0.259754 0.317586
0.916228 0.340597 0.655619
0.933867 0.383917 0.750668
0.952804 0.452247 0.804013
0 0.423178 0.254307
0 0.426032 0.235904
0.00135805 0.400504 0.142794
0.356756 0.364858 0.189014
0.716716 0.388922 0.104387
0.841154 0.257923 0.104768
0.908522 0.322454 0.569268
0.931258 0.378561 0.737255
0.954101 0.465141 0.805692
0 0.605081 0.441657
0 0.607874 0.420859
0 0.611978 0.367712
0.12488 0.550958 0.164523
0.695552 0.663523 0.338811
0.897749 0.700771 0.196002
0.884779 0.493492 0.186496
0.920226 0.368917 0.648753
0.955505 0.500465 0.805646
0.0243992 0.747036 0.632319
0.0243076 0.748287 0.623468
0.0249332 0.751247 0.60647
0.0379034 0.76199 0.509087
0.634592 0.720714 0.384451
0.847349 0.815442 0.533516
0.954726 0.856519 0.438529
0.959197 0.792447 0.254459
0.947158 0.56347 0.764752
0.0355993 0.773053 0.697246
0.0356909 0.772747 0.692531
0.0361639 0.773526 0.685023
0.0370489 0.776196 0.657877
0.132601 0.78114 0.46508
0.736248 0.805692 0.564248
0.902449 0.883177 0.690349
0.917006 0.886595 0.66096
0.955322 0.887572 0.530297
0.0424964 0.785229 0.733745
0.042359 0.784512 0.730327
0.043183 0.784146 0.726116
0.0479896 0.784405 0.71548
0.137972 0.787015 0.703502
0.565667 0.869184 0.756191
0.874968 0.900359 0.792721
0.927535 0.917662 0.805692
0.914977 0.889937 0.693584
0.320745 0.839551 0.820356
0.299931 0.834501 0.813718
0.30634 0.835615 0.814359
0.339208 0.841886 0.819883
0.449256 0.865125 0.838361
0.648615 0.902434 0.849042
0.875929 0.923156 0.852155
0.930617 0.933394 0.868864
0.935134 0.937163 0.8766
0.0623941 0.0735027 0.139101
0.106966 0.0818952 0.149325
0.235966 0.111894 0.160952
0.502007 0.162493 0.170993
0.718959 0.21355 0.217319
0.859098 0.275257 0.493965
0.9234 0.357565 0.700679
0.937392 0.39202 0.764752
0.958465 0.476081 0.818692
0.0395666 0.0732586 0.109895
0.0660716 0.0749981 0.145052
0.239048 0.113069 0.162905
0.503212 0.160494 0.142947
0.713726 0.211704 0.187106
0.85481 0.268956 0.44831
0.921233 0.352773 0.687724
0.935668 0.387854 0.758404
0.952941 0.449531 0.80528
0.0111238 0.148669 0.157916
0.0128023 0.146654 0.156527
0.124269 0.157885 0.160082
0.531014 0.214084 0.179706
0.711986 0.210727 0.137987
0.856306 0.266209 0.396567
0.920119 0.350164 0.6804
0.93727 0.392172 0.76376
0.964553 0.51458 0.832776
0 0.40734 0.299107
0 0.411826 0.283009
0 0.412497 0.230442
0.350698 0.362264 0.197162
0.694102 0.374533 0.122881
0.864973 0.257954 0.210956
0.912444 0.332189 0.617304
0.934569 0.386572 0.752544
0.964813 0.523003 0.832532
0 0.59913 0.479301
0 0.600534 0.460029
0 0.604425 0.416297
0.0427253 0.571328 0.19585
0.67924 0.649699 0.335561
0.882017 0.685954 0.208576
0.885023 0.473991 0.188022
0.926375 0.385336 0.69276
0.963958 0.543694 0.827512
0.0247501 0.745388 0.643305
0.0243381 0.745846 0.635706
0.0244755 0.748211 0.621637
0.0331121 0.758373 0.537148
0.59379 0.709209 0.380758
0.842359 0.811551 0.5337
0.947311 0.843763 0.433204
0.956115 0.784421 0.245029
0.950149 0.599008 0.77351
0.035584 0.773693 0.704005
0.0356451 0.773388 0.699809
0.036347 0.773861 0.693431
0.0376745 0.77612 0.670649
0.0869154 0.785565 0.512108
0.72604 0.80441 0.568872
0.902281 0.88307 0.690394
0.916442 0.88719 0.667826
0.957275 0.887999 0.525444
0.0423743 0.786007 0.737713
0.0422675 0.785245 0.734524
0.0430457 0.785016 0.731029
0.047715 0.785092 0.720668
0.134859 0.787915 0.710292
0.556756 0.868635 0.762127
0.874907 0.901396 0.795605
0.927413 0.917494 0.805035
0.914977 0.890211 0.695521
0.32134 0.84004 0.821607
0.299626 0.834775 0.814588
0.318059 0.838697 0.81886
0.346731 0.844022 0.82324
0.451606 0.866011 0.839963
0.647028 0.902251 0.849821
0.874067 0.923323 0.852247
0.930419 0.933547 0.869596
0.935073 0.937148 0.876616
0.135439 0.12285 0.369528
0.178973 0.131868 0.37673
0.290929 0.147936 0.382925
0.501717 0.173114 0.344411
0.73254 0.219257 0.413275
0.865721 0.290486 0.611246
0.928496 0.367971 0.730983
0.940154 0.398566 0.774838
0.960571 0.482795 0.824506
0.108248 0.116197 0.356863
0.143404 0.127321 0.387121
0.278309 0.150607 0.404501
0.50251 0.173373 0.34519
0.729213 0.21828 0.397421
0.861265 0.285939 0.585275
0.926955 0.364691 0.723384
0.938552 0.394476 0.769406
0.955413 0.456947 0.811978
0.00234989 0.15642 0.301839
0.00357061 0.158206 0.322454
0.179675 0.173999 0.449851
0.530434 0.191333 0.380285
0.729854 0.218921 0.373846
0.861646 0.284215 0.557961
0.926482 0.364065 0.719615
0.939986 0.398535 0.773877
0.966323 0.521996 0.837842
0 0.365652 0.405982
0 0.365393 0.406027
0.00137331 0.356695 0.397086
0.349065 0.40827 0.447623
0.733486 0.366384 0.429633
0.867658 0.275746 0.433524
0.921553 0.353979 0.686885
0.940398 0.401556 0.773098
0.97406 0.608911 0.857466
0 0.601282 0.566491
0 0.599008 0.557336
0 0.59472 0.532494
0.000320439 0.593347 0.414572
0.61973 0.615869 0.418051
0.835691 0.653269 0.298939
0.897841 0.366766 0.310674
0.934386 0.402411 0.73994
0.972229 0.616449 0.85185
0.0263218 0.746349 0.680339
0.026215 0.745647 0.67335
0.0262608 0.74609 0.661158
0.0269322 0.749935 0.619516
0.403906 0.712551 0.365576
0.82501 0.798932 0.547387
0.931136 0.822156 0.454963
0.950668 0.765499 0.220584
0.96054 0.629602 0.814557
0.0350652 0.776242 0.721447
0.0353094 0.775723 0.717754
0.0362249 0.776196 0.713634
0.0384985 0.776959 0.696468
0.0607614 0.784192 0.595544
0.680461 0.813642 0.59736
0.89984 0.883864 0.703319
0.915236 0.889387 0.68896
0.962448 0.88806 0.507317
0.0419165 0.788128 0.747311
0.0418708 0.787503 0.744945
0.0426947 0.78735 0.742504
0.047303 0.787564 0.735149
0.129244 0.790951 0.726955
0.530526 0.866316 0.778058
0.875257 0.904494 0.804166
0.92723 0.917128 0.803708
0.915053 0.892134 0.707225
0.321767 0.84123 0.824765
0.299626 0.83595 0.817868
0.319402 0.84007 0.822431
0.369284 0.850538 0.832883
0.45951 0.868727 0.844526
0.643214 0.901854 0.852232
0.869917 0.923827 0.852964
0.92987 0.934066 0.871519
0.935088 0.937179 0.876692
0.269841 0.191959 0.607172
0.325567 0.196567 0.60856
0.431418 0.201801 0.616693
0.606409 0.197665 0.598306
0.755093 0.230457 0.617151
0.881422 0.30782 0.703685
0.938262 0.389761 0.775891
0.946685 0.413962 0.797436
0.9664 0.505577 0.840009
0.253315 0.191531 0.612497
0.279316 0.195117 0.615274
0.407446 0.203143 0.62388
0.599191 0.197803 0.602167
0.754376 0.230167 0.616266
0.877989 0.304494 0.697993
0.937331 0.387335 0.772259
0.945373 0.41059 0.793698
0.962036 0.480232 0.830045
0.185916 0.198215 0.625315
0.198138 0.201022 0.637964
0.312352 0.207782 0.650401
0.614862 0.204135 0.641581
0.767239 0.237568 0.633982
0.879927 0.306004 0.697917
0.937209 0.387198 0.771374
0.946731 0.414664 0.796918
0.971359 0.546365 0.85124
0.0317388 0.340276 0.597681
0.0347143 0.336019 0.60444
0.0347601 0.328634 0.610666
0.359258 0.358633 0.701076
0.768734 0.310842 0.673182
0.888777 0.314763 0.703502
0.935012 0.382147 0.762493
0.948745 0.423957 0.799268
0.976394 0.630335 0.866041
0.0170138 0.637003 0.690105
0.0172427 0.636255 0.689448
0.0180667 0.632883 0.686717
0.0263676 0.615457 0.672114
0.613321 0.661784 0.706447
0.887327 0.629633 0.697124
0.928634 0.396826 0.704585
0.946715 0.431449 0.787503
0.974884 0.691386 0.873503
0.0232853 0.756863 0.744396
0.0235294 0.756176 0.741375
0.0244297 0.755978 0.737224
0.0296483 0.753445 0.720317
0.231418 0.739895 0.68275
0.813138 0.816373 0.749874
0.918669 0.8215 0.648936
0.908095 0.667689 0.432624
0.968994 0.671962 0.850217
0.0323339 0.784375 0.759045
0.0326085 0.78381 0.756741
0.0336767 0.784054 0.754162
0.0372473 0.784375 0.744595
0.0617838 0.786557 0.718364
0.570901 0.871839 0.762936
0.908339 0.908217 0.802136
0.927749 0.909606 0.776165
0.96907 0.887709 0.482002
0.0404822 0.793866 0.768292
0.0405127 0.793225 0.766415
0.0416419 0.793057 0.764569
0.0480049 0.794003 0.761517
0.137072 0.799802 0.757733
0.513573 0.869963 0.808789
0.875563 0.912062 0.823789
0.930236 0.922393 0.824033
0.927016 0.916716 0.802136
0.316106 0.842954 0.831403
0.299428 0.839124 0.826505
0.322393 0.843778 0.831525
0.377539 0.855024 0.842344
0.481315 0.874922 0.85452
0.642954 0.902144 0.857816
0.864973 0.925475 0.857084
0.929107 0.935744 0.876738
0.935119 0.937301 0.877012
0.353475 0.233692 0.729824
0.426062 0.234073 0.727275
0.519615 0.232822 0.728038
0.673365 0.227802 0.724239
0.784588 0.250492 0.720668
0.890501 0.327047 0.761929
0.949981 0.417502 0.816571
0.959304 0.440925 0.836759
0.970153 0.490105 0.854124
0.328237 0.233616 0.733043
0.356558 0.233967 0.730358
0.47921 0.233173 0.727474
0.660502 0.22887 0.727703
0.780789 0.248508 0.719402
0.888334 0.324742 0.759716
0.949264 0.415854 0.814527
0.958587 0.439078 0.835081
0.964202 0.46154 0.843
0.226703 0.24567 0.762371
0.233082 0.244968 0.764797
0.364294 0.242618 0.753124
0.643229 0.236606 0.745983
0.801495 0.264469 0.743175
0.893477 0.330343 0.765072
0.950179 0.418021 0.817075
0.95967 0.442313 0.837095
0.977768 0.556176 0.870054
0.0185245 0.371984 0.68629
0.0186618 0.36791 0.68867
0.0191196 0.360891 0.70103
0.358511 0.298329 0.796796
0.788266 0.271275 0.760098
0.916274 0.360967 0.78941
0.950332 0.418357 0.817349
0.959823 0.443427 0.836591
0.980209 0.662547 0.881514
0.0302586 0.655314 0.795666
0.0306554 0.65333 0.797238
0.0316625 0.649592 0.80174
0.0352789 0.631586 0.810422
0.571649 0.63888 0.802563
0.917586 0.621683 0.826123
0.951308 0.422934 0.81503
0.957488 0.438697 0.829923
0.97554 0.724514 0.8869
0.0223087 0.772045 0.816266
0.0224613 0.772061 0.816266
0.0235447 0.77232 0.816419
0.0287785 0.771771 0.815641
0.229343 0.750454 0.794766
0.793378 0.809552 0.824979
0.950301 0.792981 0.822797
0.960815 0.639704 0.816632
0.973434 0.705959 0.874281
0.027985 0.800504 0.812085
0.0281224 0.800275 0.811048
0.0288853 0.800656 0.810117
0.0312963 0.801419 0.806516
0.0536049 0.805539 0.796262
0.562112 0.878508 0.848356
0.910201 0.914931 0.856031
0.938949 0.918944 0.839277
0.925795 0.840162 0.711208
0.0369421 0.80737 0.808652
0.0369726 0.806958 0.807523
0.0378424 0.806973 0.80618
0.0423896 0.807538 0.802502
0.161212 0.818173 0.804105
0.519066 0.881071 0.852033
0.868818 0.923629 0.852293
0.934218 0.935912 0.873701
0.935012 0.934295 0.867704
0.297353 0.846998 0.845731
0.289967 0.845319 0.843534
0.319112 0.850614 0.848707
0.386236 0.86276 0.858534
0.503426 0.881758 0.867247
0.664302 0.905699 0.869535
0.86508 0.929412 0.867979
0.927703 0.939467 0.886503
0.934646 0.940322 0.885405
0.274937 0.263523 0.821302
0.362737 0.267781 0.808377
0.48397 0.270329 0.79826
0.675013 0.260349 0.790997
0.811429 0.286931 0.790219
0.893172 0.339513 0.80032
0.96257 0.443046 0.849302
0.968261 0.458824 0.8589
0.970321 0.46775 0.861234
0.254719 0.262852 0.82327
0.289647 0.262669 0.816449
0.427848 0.270268 0.802029
0.654536 0.260044 0.7906
0.80766 0.285344 0.790127
0.891493 0.337697 0.799207
0.962005 0.441825 0.848081
0.967712 0.457267 0.857939
0.969711 0.46569 0.860319
0.181827 0.276051 0.835569
0.187213 0.274907 0.837125
0.23743 0.269642 0.840452
0.606912 0.2663 0.797909
0.807874 0.289128 0.797421
0.901656 0.349905 0.808911
0.963653 0.445396 0.851514
0.968948 0.461021 0.860029
0.976165 0.494331 0.870756
0.0089723 0.394659 0.753552
0.00851453 0.388464 0.755642
0.00553903 0.382345 0.764843
0.176242 0.312734 0.851057
0.771542 0.285512 0.805844
0.934096 0.393606 0.837018
0.964889 0.448218 0.854002
0.969589 0.463218 0.861112
0.986755 0.614435 0.894362
0.0415198 0.651698 0.859312
0.0426032 0.649058 0.86099
0.04448 0.647044 0.865782
0.0530556 0.629191 0.87483
0.507332 0.649119 0.834379
0.932952 0.634485 0.879469
0.968093 0.460105 0.85771
0.969879 0.46424 0.861524
0.982498 0.711757 0.899092
0.0154574 0.775097 0.861769
0.0153353 0.775158 0.86302
0.0151675 0.775402 0.864805
0.0147707 0.774563 0.869078
0.102983 0.770397 0.871611
0.776501 0.805508 0.878981
0.959777 0.807904 0.890867
0.984909 0.648051 0.892134
0.984131 0.690654 0.897246
0.0263218 0.81033 0.852872
0.0264591 0.810452 0.852949
0.0272526 0.811185 0.853452
0.0300145 0.81297 0.854414
0.0491035 0.818936 0.855787
0.590402 0.874952 0.884642
0.90341 0.914199 0.884215
0.936095 0.91519 0.878859
0.958877 0.810208 0.879683
0.0362554 0.817975 0.844465
0.0362554 0.817899 0.844083
0.037232 0.818372 0.843824
0.0404364 0.819562 0.842527
0.124926 0.832959 0.847593
0.538964 0.890166 0.881682
0.853986 0.933303 0.882612
0.930236 0.9449 0.8981
0.933852 0.944564 0.897246
0.245487 0.850874 0.866606
0.24506 0.850599 0.866087
0.279942 0.856199 0.871229
0.360052 0.868559 0.880461
0.498482 0.885954 0.883772
0.688609 0.909667 0.885771
0.854856 0.934142 0.885573
0.92491 0.94522 0.898024
0.932616 0.947387 0.901747
0.0809033 0.320485 0.826947
0.119432 0.305562 0.843091
0.173922 0.285786 0.856916
0.572641 0.275731 0.809354
0.798062 0.289082 0.804166
0.922393 0.37499 0.82948
0.964294 0.446159 0.853635
0.967208 0.454536 0.857618
0.970199 0.4654 0.861997
0.0990158 0.312932 0.832227
0.105028 0.31075 0.835355
0.164065 0.288624 0.856672
0.542077 0.279301 0.812543
0.792737 0.28716 0.803937
0.920516 0.372869 0.828855
0.964202 0.44593 0.853513
0.967102 0.454154 0.857466
0.969818 0.463981 0.861433
0.0522927 0.335653 0.807095
0.0552682 0.334051 0.809964
0.0495003 0.337728 0.811948
0.26009 0.27837 0.850309
0.770718 0.281727 0.804974
0.929397 0.386084 0.835767
0.964508 0.446754 0.85391
0.967514 0.455634 0.858061
0.971298 0.469459 0.86363
0.065919 0.45658 0.835523
0.0646982 0.456046 0.835386
0.0814527 0.475257 0.859251
0.0730449 0.469764 0.854673
0.68368 0.40032 0.849744
0.917937 0.379858 0.837186
0.965103 0.448478 0.854749
0.967895 0.456977 0.85861
0.976883 0.49514 0.872465
0.0410163 0.674098 0.885603
0.0415503 0.673777 0.887114
0.0410925 0.678248 0.891875
0.0459297 0.671885 0.899275
0.422126 0.644831 0.857633
0.896132 0.689387 0.884993
0.981353 0.524834 0.880613
0.968246 0.458335 0.859144
0.986816 0.638651 0.896178
0.0125124 0.783139 0.883894
0.0123598 0.783413 0.884978
0.0121004 0.78407 0.886778
0.0115358 0.784039 0.891096
0.0728466 0.783337 0.893141
0.742061 0.809873 0.884367
0.957229 0.817563 0.903929
0.983566 0.702571 0.898665
0.986664 0.601694 0.893278
0.0210422 0.808682 0.866438
0.0210117 0.808743 0.866804
0.0214694 0.809598 0.867811
0.0234379 0.812543 0.871092
0.0393225 0.820142 0.878309
0.566125 0.866957 0.901335
0.891157 0.914473 0.903487
0.939803 0.913817 0.901518
0.963333 0.815244 0.905531
0.0370031 0.822049 0.860883
0.0371252 0.822126 0.860914
0.0381323 0.82269 0.861234
0.0415503 0.824201 0.862043
0.118608 0.840314 0.870939
0.529595 0.891066 0.897612
0.852811 0.934173 0.901411
0.924956 0.947967 0.907881
0.930617 0.949599 0.910552
0.207111 0.85272 0.880934
0.209766 0.853086 0.881193
0.245167 0.858579 0.886336
0.33051 0.871061 0.895644
0.472908 0.886656 0.897887
0.668666 0.908202 0.898039
0.856275 0.937346 0.899794
0.920241 0.94934 0.906004
0.929335 0.951492 0.909514
0.000442512 0.390875 0.782666
0.00962844 0.368688 0.78909
0.0256352 0.351751 0.801831
0.166583 0.287922 0.856764
0.751492 0.282567 0.809812
0.921233 0.377447 0.833555
0.962722 0.44184 0.85156
0.965347 0.449134 0.855055
0.968399 0.458839 0.859358
0.0141756 0.361669 0.790234
0.0138705 0.36199 0.790539
0.0352026 0.346151 0.806424
0.173846 0.285847 0.856977
0.752239 0.279576 0.806882
0.919402 0.375158 0.832502
0.962585 0.441428 0.851362
0.96524 0.448844 0.854917
0.968215 0.458198 0.859098
0.00187686 0.407614 0.782864
0.00263981 0.41207 0.784649
0.0939956 0.503166 0.87892
0.0731365 0.469856 0.85478
0.645777 0.403861 0.852384
0.905241 0.368734 0.834058
0.966812 0.453269 0.857053
0.965576 0.449775 0.85536
0.968994 0.46096 0.860212
0.0878157 0.532631 0.878325
0.0876478 0.53785 0.879957
0.0759747 0.592813 0.889555
0.0628824 0.632959 0.896666
0.393454 0.622705 0.829923
0.896559 0.639399 0.879561
0.970687 0.46714 0.862699
0.965789 0.450416 0.85568
0.969818 0.463981 0.861433
0.0314336 0.704631 0.895445
0.0305638 0.707454 0.897002
0.0248112 0.724193 0.901396
0.0208896 0.736065 0.906493
0.122515 0.720745 0.882994
0.790066 0.76466 0.893217
0.97644 0.757519 0.902724
0.96669 0.452934 0.85687
0.970901 0.467979 0.863035
0.0116274 0.788769 0.889204
0.0115663 0.789441 0.889677
0.0115053 0.790768 0.890181
0.0111849 0.791913 0.892454
0.0385138 0.800092 0.897917
0.691234 0.819287 0.897017
0.93933 0.84271 0.903593
0.970489 0.785367 0.904448
0.971298 0.469459 0.86363
0.0187533 0.806302 0.867247
0.0187533 0.806424 0.867491
0.0192721 0.807553 0.868391
0.0215763 0.811521 0.87245
0.0400244 0.821653 0.880888
0.565621 0.869291 0.90193
0.880964 0.914824 0.905898
0.93817 0.918975 0.903151
0.957992 0.841184 0.906981
0.0386053 0.823819 0.866957
0.0387121 0.823896 0.867124
0.0397345 0.824475 0.867567
0.0434424 0.826017 0.868544
0.12726 0.842756 0.876982
0.516472 0.889281 0.901015
0.845151 0.931914 0.905516
0.922286 0.94818 0.909545
0.930571 0.948287 0.912352
0.194888 0.853284 0.885771
0.198352 0.853788 0.886198
0.235233 0.859434 0.891279
0.328679 0.872679 0.900832
0.471794 0.887434 0.90193
0.664683 0.907881 0.901549
0.851499 0.937209 0.904692
0.918517 0.950439 0.908202
0.928328 0.952422 0.911238
