presets/XH_G200_6.cube
TITLE "Generated by Resolve"
LUT_3D_SIZE 9
0.119478 0.0297398 0
0.133883 0.0276341 0
0.26273 0.0246433 0.000839246
0.456809 0.0240482 0.0221561
0.58819 0.0285191 0.126558
0.670192 0.0361639 0.290639
0.747951 0.0733501 0.471229
0.764874 0.113481 0.592645
0.775113 0.19147 0.67718
0.112413 0.0422217 0
0.119753 0.0366827 0
0.243305 0.0251164 0
0.45153 0.0234836 0.0149233
0.587015 0.0268254 0.110185
0.666285 0.0345006 0.269459
0.746548 0.066804 0.456214
0.7626 0.106783 0.573144
0.770703 0.144671 0.640574
0.131563 0.222629 0.0898451
0.13106 0.193393 0.0285496
0.221241 0.160052 0
0.455589 0.06215 0
0.595575 0.0188754 0.0438239
0.670268 0.0272679 0.214542
0.745678 0.0594034 0.436591
0.761685 0.104829 0.564889
0.771206 0.146792 0.639261
0.185214 0.466361 0.358221
0.188769 0.46598 0.341039
0.200931 0.452094 0.236042
0.446357 0.429374 0.111177
0.630045 0.263752 0.114382
0.698375 0.0117037 0.00476081
0.747982 0.033463 0.336919
0.75816 0.0991531 0.5355
0.772427 0.154482 0.634226
0.252827 0.589914 0.528481
0.256855 0.590311 0.522393
0.269032 0.593423 0.508537
0.347158 0.606653 0.422873
0.595056 0.628687 0.373251
0.76759 0.606394 0.418723
0.789075 0.380728 0.235569
0.757244 0.0553902 0.39588
0.773785 0.188663 0.615808
0.330159 0.660349 0.645747
0.333486 0.660777 0.642725
0.34316 0.663096 0.638132
0.374151 0.668833 0.614664
0.556634 0.729213 0.609735
0.666499 0.763745 0.617777
0.752636 0.73817 0.558297
0.768688 0.678462 0.470619
0.795163 0.261357 0.334188
0.377066 0.687953 0.689845
0.380392 0.688502 0.688746
0.38616 0.68986 0.687861
0.4038 0.693156 0.680949
0.483635 0.728664 0.683925
0.600565 0.797513 0.723568
0.708934 0.817349 0.717144
0.716976 0.812741 0.70132
0.717205 0.776242 0.622797
0.403876 0.703365 0.711116
0.404013 0.702831 0.709712
0.407691 0.703792 0.709392
0.421668 0.708232 0.710216
0.487495 0.743236 0.731716
0.5823 0.804532 0.779217
0.683604 0.831235 0.78616
0.738888 0.834821 0.788067
0.721279 0.81915 0.718639
0.53315 0.7906 0.810956
0.517128 0.778058 0.795148
0.519707 0.779736 0.796628
0.532891 0.788708 0.805173
0.564126 0.807019 0.82359
0.621836 0.82446 0.842847
0.690578 0.833387 0.849699
0.738643 0.838392 0.845502
0.744778 0.839902 0.854185
0.11725 0.0289921 0
0.131899 0.0275273 0
0.257084 0.025742 0.00508125
0.445594 0.0274815 0.0582284
0.585321 0.0323339 0.157092
0.670634 0.0403754 0.323461
0.749844 0.0791943 0.484672
0.765621 0.11632 0.600534
0.775891 0.204105 0.68658
0.110689 0.0394598 0
0.116625 0.0344549 0
0.262806 0.0256352 0.000717174
0.457282 0.0240482 0.0223087
0.588159 0.0285191 0.126421
0.668894 0.0360723 0.28751
0.74757 0.0719463 0.468055
0.76434 0.111437 0.587442
0.774121 0.175189 0.666453
0.126421 0.219242 0.127077
0.130282 0.214694 0.0806287
0.218708 0.157076 0
0.46569 0.0510109 0
0.595041 0.0217594 0.074052
0.672969 0.029099 0.235737
0.746456 0.0645609 0.449653
0.763699 0.109682 0.580774
0.774594 0.180209 0.666773
0.180591 0.463981 0.371588
0.184665 0.465476 0.358099
0.199145 0.462074 0.273976
0.44358 0.426246 0.109331
0.629572 0.251652 0.111666
0.692317 0.0049897 0.0212558
0.747173 0.039704 0.367361
0.761196 0.104692 0.557382
0.775784 0.194995 0.667033
0.247807 0.588632 0.533776
0.253056 0.589822 0.52781
0.265171 0.592264 0.512581
0.330251 0.604791 0.427985
0.594217 0.627619 0.372244
0.770092 0.602502 0.420371
0.788479 0.346166 0.213031
0.762966 0.0787976 0.43299
0.777127 0.242451 0.663203
0.326055 0.659403 0.647822
0.330114 0.660288 0.645563
0.338537 0.662333 0.641733
0.369039 0.668238 0.621256
0.552163 0.729107 0.612284
0.666514 0.763607 0.617517
0.754147 0.736812 0.556634
0.77554 0.669291 0.4636
0.767941 0.356603 0.603464
0.376349 0.688304 0.691386
0.377722 0.688228 0.690089
0.383673 0.689555 0.689113
0.400626 0.693049 0.684062
0.473289 0.722896 0.67985
0.598459 0.797269 0.723995
0.708934 0.817349 0.717144
0.716686 0.812161 0.699794
0.720882 0.764645 0.598611
0.404166 0.703975 0.712398
0.404105 0.703487 0.711238
0.407187 0.704234 0.710826
0.421241 0.708766 0.711788
0.485496 0.74255 0.733257
0.579568 0.803418 0.779889
0.68278 0.831037 0.787045
0.738888 0.834836 0.788022
0.721263 0.819135 0.718593
0.539605 0.795193 0.817197
0.53434 0.79147 0.812085
0.536095 0.792416 0.812696
0.544579 0.797391 0.817273
0.571572 0.811536 0.831174
0.623072 0.825269 0.845167
0.689723 0.833295 0.849836
0.738476 0.838392 0.845747
0.744778 0.839902 0.854185
0.110719 0.020676 0.0711376
0.152972 0.0225071 0.0704967
0.248615 0.0262913 0.0810407
0.439612 0.0339971 0.146151
0.582071 0.0406348 0.223362
0.672847 0.0476081 0.369558
0.751842 0.0855421 0.503487
0.76614 0.118761 0.607279
0.775891 0.206058 0.689754
0.09897 0.0276036 0.0352178
0.112383 0.0206455 0.0770581
0.250111 0.0265507 0.0824598
0.443595 0.0315404 0.1131
0.582452 0.0370031 0.194736
0.669062 0.0429084 0.337728
0.749889 0.0797131 0.486427
0.765026 0.114107 0.595438
0.774075 0.177157 0.670069
0.116747 0.188632 0.177737
0.116472 0.184436 0.171176
0.189273 0.140185 0.0920577
0.47892 0.0583352 0.0594492
0.589502 0.0286717 0.128237
0.67335 0.0360876 0.295918
0.749111 0.0762493 0.477119
0.766247 0.118563 0.60502
0.777554 0.251514 0.709484
0.170291 0.45742 0.402609
0.173037 0.458732 0.391516
0.180484 0.454643 0.345663
0.423484 0.412421 0.129473
0.614389 0.246632 0.127504
0.695216 0.0139467 0.137896
0.746441 0.0514992 0.411414
0.764385 0.11194 0.583276
0.777996 0.263844 0.708202
0.238727 0.586694 0.544656
0.242557 0.586923 0.538354
0.252369 0.588418 0.52491
0.300572 0.596429 0.446723
0.589593 0.621103 0.366796
0.765026 0.592721 0.427604
0.789654 0.310292 0.196506
0.762554 0.104463 0.485206
0.778012 0.298772 0.698314
0.319554 0.657847 0.650263
0.322911 0.658381 0.648127
0.330388 0.660197 0.644816
0.360769 0.666209 0.625391
0.537789 0.728313 0.620188
0.665568 0.76173 0.615778
0.764385 0.739727 0.56791
0.778393 0.664897 0.460563
0.766598 0.415808 0.623819
0.375158 0.688716 0.693477
0.376272 0.688609 0.692287
0.381826 0.689906 0.691722
0.398352 0.693568 0.688197
0.458351 0.715038 0.674846
0.595102 0.798352 0.727413
0.708843 0.817349 0.717159
0.717601 0.813703 0.703853
0.721553 0.762158 0.593484
0.403403 0.704173 0.713542
0.403326 0.703716 0.712383
0.406271 0.704509 0.712169
0.420325 0.709163 0.713375
0.484184 0.742428 0.735424
0.577966 0.802777 0.781353
0.682277 0.830732 0.789181
0.73875 0.834913 0.78761
0.721599 0.819516 0.719676
0.539681 0.795453 0.818082
0.534203 0.791592 0.81268
0.538964 0.794598 0.816083
0.546532 0.798962 0.819867
0.572503 0.812253 0.832807
0.62295 0.825452 0.845869
0.689113 0.833356 0.850599
0.73814 0.838453 0.846754
0.744686 0.839902 0.854231
0.11577 0.0139162 0.239063
0.160632 0.0216983 0.253162
0.262562 0.027863 0.27631
0.433509 0.0365301 0.291859
0.577966 0.0551766 0.36463
0.677378 0.0653239 0.461234
0.757992 0.0960555 0.550423
0.767163 0.12665 0.626184
0.775952 0.212497 0.699062
0.0968185 0.0102083 0.225513
0.117418 0.0134585 0.251087
0.244282 0.0272679 0.289021
0.434043 0.0365606 0.29247
0.576776 0.0551461 0.354589
0.673213 0.0631266 0.441093
0.756161 0.0932631 0.538293
0.766491 0.121981 0.616342
0.774319 0.184955 0.681239
0.0914321 0.124849 0.291691
0.0877852 0.108553 0.294392
0.136721 0.0483558 0.293355
0.450004 0.0395819 0.307836
0.57821 0.0545968 0.338201
0.67483 0.0580606 0.418158
0.75552 0.0925154 0.531975
0.767285 0.126223 0.624063
0.777325 0.257755 0.717937
0.148241 0.423407 0.468101
0.148165 0.423133 0.468086
0.146273 0.411627 0.45626
0.380194 0.402777 0.416098
0.606607 0.250736 0.341985
0.687602 0.0349279 0.311482
0.750484 0.0801099 0.484672
0.768154 0.128008 0.620615
0.774487 0.375952 0.747555
0.223087 0.585245 0.580056
0.224598 0.585321 0.57557
0.229175 0.585534 0.5635
0.257572 0.588418 0.514504
0.579065 0.613138 0.452781
0.734401 0.576013 0.468971
0.799756 0.111528 0.167758
0.76556 0.127443 0.555581
0.773205 0.39913 0.736294
0.303853 0.65594 0.661097
0.306355 0.656092 0.658839
0.313603 0.657526 0.655894
0.337346 0.66305 0.645991
0.486824 0.714977 0.636744
0.662791 0.756695 0.614481
0.785122 0.740627 0.600031
0.78822 0.651957 0.453513
0.768719 0.447807 0.681392
0.371496 0.689357 0.698344
0.372778 0.689433 0.697459
0.378271 0.691051 0.697673
0.393668 0.694804 0.696361
0.448844 0.711757 0.68397
0.585351 0.802319 0.741726
0.708431 0.819669 0.724117
0.720745 0.818235 0.715999
0.722362 0.753902 0.578698
0.401282 0.704555 0.716472
0.401205 0.704204 0.715572
0.40415 0.70515 0.715572
0.418067 0.710246 0.717662
0.482033 0.743099 0.741894
0.574334 0.801511 0.786282
0.681239 0.829496 0.795468
0.738735 0.835035 0.786801
0.723262 0.821805 0.726162
0.539696 0.796078 0.82031
0.533944 0.792096 0.814862
0.539101 0.795346 0.818601
0.552331 0.803281 0.827436
0.575341 0.814206 0.837461
0.622858 0.826062 0.848203
0.687968 0.833616 0.852995
0.737194 0.838712 0.849775
0.744701 0.839918 0.854353
0.125628 0.000640879 0.419562
0.17525 0.00697337 0.434928
0.259998 0.0163119 0.458457
0.446708 0.0215763 0.470848
0.58352 0.0373846 0.498085
0.688533 0.0735943 0.563745
0.763729 0.122515 0.634852
0.766796 0.146029 0.668605
0.775937 0.231739 0.723857
0.107988 0 0.417884
0.129488 0.000534066 0.427482
0.235874 0.0137179 0.459358
0.436774 0.0209659 0.472313
0.583078 0.0373999 0.497383
0.684581 0.0727092 0.557412
0.763653 0.119142 0.627817
0.766751 0.142596 0.662318
0.774716 0.206546 0.70988
0.0856947 0.00302129 0.420615
0.0856794 0.000335698 0.428717
0.138842 3.0518e-05 0.461189
0.430701 0.0173648 0.503426
0.591531 0.0383154 0.511391
0.687617 0.0727855 0.556176
0.763775 0.118502 0.625711
0.767269 0.146212 0.667033
0.776959 0.27808 0.740368
0.0945754 0.313405 0.542382
0.0906844 0.302266 0.543938
0.0827497 0.272725 0.545846
0.261387 0.236896 0.556588
0.600519 0.144533 0.547036
0.700359 0.0759136 0.558984
0.763363 0.111437 0.608316
0.769741 0.153246 0.667414
0.772152 0.396231 0.763012
0.204089 0.573587 0.635798
0.204059 0.573526 0.635691
0.20354 0.572793 0.634699
0.20177 0.569406 0.629099
0.551247 0.600641 0.634379
0.707881 0.536141 0.606439
0.764431 0.118456 0.500496
0.772793 0.157702 0.639673
0.764035 0.5028 0.777798
0.289326 0.652247 0.683207
0.289723 0.652445 0.682017
0.29218 0.653742 0.680995
0.302724 0.658686 0.677226
0.438148 0.708949 0.70251
0.660533 0.741054 0.706828
0.784604 0.718151 0.704387
0.78851 0.577127 0.500114
0.76672 0.499352 0.735439
0.364157 0.690089 0.710414
0.364904 0.690181 0.709636
0.369406 0.691798 0.709773
0.383856 0.696818 0.710155
0.441276 0.718624 0.720195
0.581582 0.804257 0.782254
0.715557 0.832197 0.785367
0.748226 0.834211 0.770718
0.723262 0.740993 0.556085
0.39556 0.704875 0.72343
0.395682 0.704677 0.722652
0.398901 0.705867 0.72285
0.414557 0.712383 0.726619
0.485328 0.750759 0.759686
0.576944 0.80531 0.802258
0.682292 0.828092 0.813519
0.740414 0.834119 0.800824
0.73872 0.835187 0.78584
0.537209 0.795972 0.824186
0.53283 0.793057 0.820172
0.539055 0.796872 0.824628
0.554162 0.805524 0.83476
0.582467 0.817838 0.847715
0.624887 0.827695 0.854917
0.687724 0.83473 0.860075
0.735866 0.839628 0.857939
0.744671 0.839994 0.85478
0.129427 0 0.542885
0.187961 0.000549325 0.555032
0.261326 0.0132753 0.567529
0.452216 0.0255283 0.589685
0.588708 0.0255741 0.606928
0.683864 0.0638132 0.649897
0.759594 0.148333 0.710246
0.759197 0.157214 0.739055
0.767819 0.191608 0.753048
0.107759 0 0.540139
0.131563 0 0.544076
0.228733 0.00631724 0.563088
0.431128 0.026627 0.590433
0.585443 0.0252232 0.605112
0.681804 0.0627298 0.647105
0.759915 0.147982 0.706737
0.759457 0.156847 0.736584
0.765118 0.173297 0.741451
0.08542 0 0.559808
0.08542 0 0.561944
0.124361 0 0.56672
0.391104 0.0303502 0.603967
0.596536 0.0305333 0.634058
0.686732 0.0654154 0.653849
0.759579 0.148486 0.710994
0.759793 0.158434 0.738994
0.77171 0.247349 0.772976
0.0676738 0.197681 0.618158
0.0690776 0.180362 0.618463
0.0727092 0.140551 0.625086
0.0977035 0.00202945 0.60914
0.580774 0.0353094 0.650477
0.711574 0.0844282 0.683772
0.759609 0.148653 0.711376
0.760937 0.160266 0.737316
0.76817 0.409873 0.792935
0.18323 0.560891 0.687617
0.181109 0.55938 0.688441
0.176165 0.556298 0.690913
0.157534 0.543145 0.695201
0.506401 0.557595 0.736782
0.698375 0.486549 0.730404
0.763577 0.15407 0.702586
0.763378 0.161288 0.72575
0.760235 0.53579 0.806165
0.274067 0.64715 0.719875
0.274174 0.647227 0.719982
0.275349 0.64802 0.720913
0.279576 0.651118 0.724605
0.375555 0.691142 0.766857
0.644099 0.715679 0.774395
0.774182 0.685573 0.764767
0.768017 0.464088 0.685527
0.763058 0.529412 0.780713
0.352499 0.690455 0.733898
0.352865 0.690547 0.733272
0.355047 0.691707 0.733318
0.362814 0.695247 0.733715
0.406989 0.715679 0.743694
0.597787 0.813901 0.835798
0.723293 0.826429 0.839246
0.780407 0.81915 0.833783
0.784039 0.732723 0.740658
0.385077 0.706676 0.742611
0.385183 0.706538 0.741924
0.387518 0.707454 0.741878
0.397528 0.711894 0.743069
0.484886 0.761654 0.787442
0.591287 0.819715 0.844007
0.687373 0.833448 0.852415
0.743618 0.839384 0.850599
0.745251 0.838682 0.842496
0.52813 0.793286 0.830793
0.525979 0.791867 0.828717
0.53492 0.797147 0.834684
0.554208 0.807614 0.846845
0.588235 0.820523 0.861952
0.633844 0.83061 0.870268
0.690929 0.836301 0.874098
0.733272 0.840406 0.874495
0.743053 0.841154 0.867491
0.0852369 0 0.624598
0.0948501 0 0.617563
0.180438 0.000366217 0.627237
0.388113 0.039765 0.660243
0.581384 0.0505379 0.694148
0.667353 0.0502327 0.705257
0.744228 0.148592 0.76109
0.742855 0.159319 0.770306
0.746777 0.163134 0.770672
0.0852369 0 0.625177
0.0853132 0 0.620111
0.134844 0 0.619379
0.358465 0.0343023 0.653361
0.577646 0.0507362 0.693492
0.665721 0.0495155 0.703944
0.74493 0.148226 0.759548
0.74316 0.157961 0.769268
0.746563 0.161746 0.769909
0.0852522 0 0.640925
0.0852522 0 0.642344
0.0852522 0 0.645319
0.285664 0.0189975 0.649409
0.572274 0.0567483 0.70367
0.672129 0.0561074 0.716045
0.742885 0.150195 0.76379
0.742779 0.160739 0.771313
0.749432 0.177661 0.7776
0.074052 0.129137 0.686992
0.076051 0.107973 0.686046
0.0797131 0.0687724 0.692302
0.0852827 0.000274662 0.679744
0.529686 0.060502 0.703227
0.694072 0.0854963 0.745693
0.741268 0.152895 0.76672
0.742763 0.161959 0.772198
0.758007 0.259663 0.803693
0.129595 0.547402 0.731167
0.12517 0.545144 0.732677
0.11725 0.542245 0.73727
0.0912795 0.524437 0.748837
0.377386 0.49546 0.81384
0.683055 0.320836 0.81593
0.746227 0.158618 0.767865
0.742931 0.1626 0.772503
0.755642 0.45153 0.821653
0.247456 0.636057 0.744625
0.246708 0.635721 0.745418
0.245808 0.635416 0.746624
0.241703 0.633204 0.748837
0.234531 0.652018 0.811612
0.62031 0.69221 0.844358
0.755535 0.671977 0.838376
0.765759 0.324437 0.808728
0.75877 0.402823 0.816999
0.33959 0.689891 0.766781
0.339788 0.690013 0.766918
0.341039 0.690776 0.767865
0.344808 0.693187 0.770809
0.366827 0.706157 0.785626
0.594781 0.791623 0.87631
0.712703 0.800381 0.8766
0.765072 0.790097 0.875502
0.764202 0.682933 0.822828
0.380041 0.710307 0.773068
0.380163 0.710307 0.772671
0.382239 0.711284 0.773037
0.388449 0.714168 0.773816
0.453758 0.752834 0.811795
0.59321 0.820371 0.88014
0.689204 0.834638 0.890394
0.736843 0.837507 0.890776
0.742367 0.838392 0.887098
0.503304 0.780804 0.842054
0.503227 0.780804 0.84152
0.515328 0.787533 0.848768
0.53962 0.800793 0.862776
0.579965 0.816281 0.87895
0.638117 0.828489 0.889876
0.689143 0.833524 0.893034
0.729198 0.836744 0.893797
0.738735 0.836866 0.894286
0.0853895 0 0.685252
0.0853285 0 0.683665
0.0851759 0 0.67512
0.233112 0.00521859 0.656031
0.555886 0.0642557 0.712077
0.680873 0.0824598 0.742565
0.739605 0.152117 0.767163
0.741314 0.157183 0.769818
0.743114 0.163149 0.772793
0.0853132 0 0.68101
0.0853285 0 0.681743
0.0851911 0 0.677317
0.205386 0.00114443 0.6533
0.549722 0.0639811 0.710948
0.678233 0.0813001 0.741939
0.739559 0.151995 0.767086
0.741253 0.157 0.769711
0.742901 0.162478 0.772442
0.0851911 0.00225834 0.683803
0.0852064 0.00207523 0.684779
0.0852674 0.00274662 0.692332
0.0851911 0 0.660822
0.522011 0.0632334 0.707042
0.685512 0.0867628 0.746609
0.739742 0.152575 0.767376
0.741512 0.15787 0.770138
0.74377 0.16524 0.773877
0.0654154 0.246555 0.74699
0.0660563 0.240085 0.748791
0.0662852 0.274586 0.765347
0.070573 0.239475 0.770138
0.369451 0.0696574 0.73341
0.664607 0.0838178 0.746029
0.740078 0.15346 0.767895
0.741741 0.158663 0.77052
0.747051 0.17911 0.779782
0.116747 0.554711 0.754849
0.11429 0.553948 0.756497
0.112093 0.555306 0.760906
0.0958572 0.547402 0.77145
0.271153 0.546578 0.829358
0.643091 0.477195 0.826612
0.749737 0.194354 0.785229
0.741955 0.159304 0.770871
0.759976 0.290929 0.8094
0.240467 0.636332 0.763195
0.239658 0.636149 0.764111
0.23856 0.636027 0.765728
0.233555 0.634119 0.768704
0.216953 0.645411 0.8159
0.599176 0.686397 0.86244
0.739361 0.668482 0.858625
0.756542 0.428214 0.819684
0.756634 0.246403 0.80058
0.320958 0.683101 0.777874
0.320729 0.68304 0.778225
0.321874 0.683803 0.779599
0.325673 0.686213 0.784573
0.33698 0.693217 0.801724
0.575677 0.762051 0.896773
0.695735 0.7794 0.893584
0.748898 0.769253 0.89189
0.749844 0.66128 0.85568
0.376989 0.711101 0.792752
0.377188 0.711223 0.792874
0.378759 0.712093 0.793896
0.383169 0.714595 0.796689
0.443259 0.746502 0.834165
0.582071 0.806317 0.897612
0.68304 0.82005 0.904387
0.729122 0.822934 0.903243
0.73579 0.822889 0.904082
0.483803 0.766857 0.853025
0.484871 0.767452 0.853498
0.498558 0.774395 0.861494
0.526818 0.788937 0.877531
0.566842 0.804486 0.89247
0.624949 0.818128 0.903243
0.685832 0.825284 0.904479
0.722576 0.82771 0.903578
0.732357 0.828214 0.903868
0.0817273 0.047837 0.715618
0.0841382 0.0181735 0.704433
0.0851301 0.00555428 0.700526
0.0851911 0 0.676814
0.49514 0.0626535 0.705318
0.673762 0.0824903 0.744228
0.738643 0.149096 0.765667
0.74023 0.153964 0.768124
0.742031 0.159548 0.771008
0.0846418 0.0116426 0.698909
0.0846265 0.0118257 0.699611
0.0851911 0.00440986 0.697932
0.0851759 0 0.675227
0.495918 0.0618601 0.703899
0.672023 0.0816052 0.74345
0.738567 0.148898 0.765545
0.740169 0.153811 0.768032
0.741939 0.159243 0.77084
0.0787213 0.0828717 0.724849
0.0781872 0.0903639 0.728588
0.0656748 0.328862 0.779355
0.0705577 0.23975 0.770184
0.301976 0.0534218 0.726009
0.649851 0.0807813 0.742977
0.741085 0.156558 0.769467
0.740368 0.154452 0.768353
0.742412 0.160891 0.771618
0.0609751 0.39791 0.771786
0.0611276 0.405066 0.774014
0.0644846 0.474617 0.780072
0.0733654 0.514733 0.778454
0.234073 0.484398 0.818036
0.641443 0.35172 0.817151
0.74342 0.164309 0.773312
0.74049 0.154772 0.768536
0.742901 0.162478 0.772442
0.134051 0.571771 0.76144
0.134646 0.573022 0.762875
0.145922 0.582406 0.766018
0.150958 0.588296 0.770031
0.136995 0.60296 0.81915
0.602029 0.641306 0.845731
0.751797 0.558602 0.834577
0.741039 0.156542 0.769406
0.743542 0.164538 0.773495
0.242939 0.639826 0.770138
0.243534 0.640421 0.770993
0.245304 0.641855 0.772457
0.244831 0.642191 0.774838
0.244709 0.652689 0.802976
0.581033 0.702388 0.869978
0.718547 0.70277 0.86865
0.750118 0.61445 0.844312
0.74377 0.16524 0.773877
0.314626 0.679789 0.778622
0.314733 0.679866 0.778973
0.316884 0.681163 0.780499
0.322835 0.68484 0.786297
0.338888 0.694224 0.805814
0.576623 0.76466 0.898421
0.688197 0.780041 0.896025
0.747265 0.773922 0.894606
0.749599 0.691905 0.864851
0.375708 0.711147 0.800748
0.375738 0.711192 0.800992
0.377188 0.712032 0.802152
0.381598 0.714488 0.805386
0.444495 0.745586 0.840742
0.576242 0.800183 0.899855
0.67744 0.814786 0.906859
0.725261 0.818296 0.905135
0.736461 0.816114 0.905379
0.477287 0.7608 0.856275
0.478706 0.761517 0.856977
0.493385 0.768627 0.865034
0.524834 0.784161 0.882063
0.56492 0.799558 0.896162
0.621241 0.813336 0.906691
0.681498 0.821408 0.907866
0.720195 0.824445 0.905837
0.730541 0.825605 0.905699
