presets/XH_G200_3.cube
TITLE "Generated by Resolve"
LUT_3D_SIZE 5
0.0214542 0.0242924 0.0605478
0.269947 0.0128939 0.0510262
0.636942 0.0561227 0.184649
0.847181 0.0926223 0.413581
0.884871 0.178698 0.633158
0.0246128 0.217426 0.115221
0.185229 0.146914 0.0345922
0.64918 0.0471962 0.12842
0.845518 0.0839399 0.381811
0.876234 0.144717 0.59823
0.219562 0.624079 0.496788
0.237583 0.626337 0.479011
0.682246 0.657801 0.348379
0.918166 0.297169 0.225513
0.886732 0.174136 0.572961
0.404913 0.755703 0.65565
0.414191 0.758129 0.653223
0.515007 0.801144 0.650294
0.871565 0.9093 0.66566
0.884993 0.859815 0.599802
0.57731 0.86981 0.750057
0.555947 0.855055 0.737911
0.634806 0.89633 0.762707
0.836713 0.941421 0.782116
0.926665 0.947646 0.785321
0.013489 0.0168154 0.138811
0.252293 0.0141604 0.131304
0.630091 0.0677043 0.245594
0.84921 0.102129 0.445441
0.886732 0.190478 0.644434
0.00872816 0.184009 0.185519
0.147601 0.123659 0.119432
0.639338 0.0565957 0.185916
0.848005 0.0943313 0.419226
0.892866 0.226276 0.662242
0.197436 0.620325 0.511269
0.214282 0.620706 0.493935
0.670634 0.646647 0.340719
0.917525 0.239475 0.205646
0.899901 0.262104 0.652476
0.402792 0.75642 0.659754
0.409598 0.757931 0.657282
0.485374 0.785992 0.64332
0.871397 0.90927 0.665644
0.889387 0.841123 0.576165
0.588281 0.876921 0.756191
0.587335 0.875792 0.754574
0.649073 0.904479 0.771008
0.834287 0.941375 0.783017
0.926497 0.947646 0.785351
0.0483864 0.00151064 0.375692
0.275792 0.0163729 0.412848
0.619852 0.0791028 0.462165
0.866087 0.129747 0.595651
0.887602 0.210224 0.67425
0 0.00480659 0.37351
0.075288 0.000106813 0.414923
0.633265 0.0811322 0.47657
0.865476 0.127367 0.585794
0.894789 0.245548 0.688884
0.100191 0.595361 0.599008
0.0977646 0.593301 0.597498
0.593484 0.619608 0.600198
0.871015 0.111269 0.436027
0.923598 0.450309 0.733013
0.383719 0.756909 0.676173
0.38996 0.759167 0.675593
0.466621 0.788876 0.680888
0.882353 0.938872 0.726223
0.888228 0.815702 0.545388
0.582071 0.877012 0.760815
0.585611 0.878492 0.761349
0.664378 0.913481 0.784527
0.832517 0.943404 0.792096
0.926452 0.947753 0.785809
0 0.000137331 0.585916
0.138872 0 0.595712
0.609613 0.0924086 0.668437
0.843976 0.138857 0.706081
0.847852 0.144991 0.712901
0 9.15541e-05 0.596246
0 4.57771e-05 0.602686
0.592645 0.0979934 0.676204
0.842664 0.138994 0.708354
0.854444 0.154376 0.719356
0 0.546563 0.693019
0 0.537545 0.698802
0.255848 0.436957 0.75227
0.846479 0.142718 0.710567
0.90631 0.385626 0.769039
0.353246 0.75314 0.721309
0.355337 0.754376 0.722225
0.383215 0.770733 0.734722
0.875456 0.896254 0.805173
0.953735 0.73077 0.771862
0.527779 0.858793 0.777569
0.544457 0.867567 0.783001
0.659312 0.914153 0.813733
0.834623 0.944366 0.823941
0.918044 0.94638 0.821149
0 0.0111391 0.646586
0 0.000274662 0.640284
0.469993 0.0846265 0.670604
0.839048 0.138811 0.711254
0.841932 0.14197 0.713542
0 0.0249332 0.65156
0 0.238163 0.707927
0.226856 0.0225834 0.666194
0.840543 0.140505 0.712428
0.842557 0.142641 0.714031
0 0.59144 0.718318
0 0.609979 0.721248
0 0.638483 0.75845
0.920836 0.53431 0.784512
0.84445 0.144625 0.715541
0.316976 0.739116 0.728359
0.31989 0.740703 0.729809
0.347829 0.757916 0.751049
0.835798 0.871595 0.837049
0.937377 0.745724 0.812512
0.494331 0.837217 0.792203
0.514397 0.846922 0.799283
0.635126 0.893797 0.831418
0.823331 0.929854 0.841718
0.905669 0.933379 0.832837
