presets/XH_G200_5.cube
TITLE "Generated by Resolve"
LUT_3D_SIZE 5
0.0223697 0.0264286 0.0248264
0.125933 0.0507362 0.049958
0.545907 0.150835 0.171984
0.752239 0.324025 0.470619
0.760403 0.392905 0.61117
0.0328374 0.168917 0.0579385
0.079942 0.157183 0.0472114
0.547631 0.138293 0.100481
0.751186 0.316777 0.447456
0.75407 0.368215 0.584527
0.131334 0.561715 0.32488
0.129534 0.560098 0.261112
0.566064 0.613489 0.164416
0.811109 0.408804 0.166354
0.774838 0.387839 0.575784
0.24535 0.728664 0.592279
0.246769 0.730556 0.576867
0.293187 0.78706 0.421317
0.825254 0.891081 0.477134
0.85362 0.8813 0.369284
0.388357 0.832792 0.732631
0.362951 0.825406 0.719814
0.45127 0.846571 0.728115
0.764294 0.885237 0.742733
0.842206 0.894453 0.75819
0.0499886 0.0404822 0.111009
0.152209 0.0586252 0.119814
0.555642 0.16495 0.256596
0.75227 0.330556 0.49163
0.761608 0.401114 0.620066
0.0329137 0.155444 0.120668
0.0838178 0.143496 0.113054
0.548165 0.152102 0.173953
0.752605 0.325582 0.474525
0.768124 0.423194 0.636713
0.135439 0.56051 0.377707
0.12903 0.557641 0.325826
0.556115 0.600732 0.165118
0.804685 0.3823 0.159319
0.78117 0.438819 0.635187
0.246265 0.730053 0.605875
0.247196 0.730999 0.593378
0.276066 0.772335 0.4495
0.825116 0.891051 0.47689
0.855024 0.870695 0.340185
0.40325 0.83621 0.739178
0.400381 0.835767 0.736278
0.473747 0.849577 0.737881
0.761318 0.884871 0.743862
0.842084 0.894453 0.758236
0.157977 0.0967117 0.444968
0.332326 0.144366 0.458076
0.55938 0.211215 0.466972
0.742306 0.355062 0.57882
0.76022 0.421164 0.643198
0.0909438 0.0883192 0.44715
0.186648 0.115709 0.481392
0.567575 0.218647 0.477974
0.74342 0.352758 0.573144
0.768444 0.444389 0.659144
0.131792 0.53669 0.577417
0.130632 0.534356 0.575616
0.543633 0.568994 0.562188
0.770459 0.350942 0.494011
0.797909 0.553613 0.714763
0.252903 0.736858 0.665278
0.254246 0.738918 0.660258
0.285908 0.776272 0.620066
0.817014 0.893614 0.626612
0.842069 0.847654 0.301976
0.407095 0.835859 0.752453
0.409644 0.836591 0.751461
0.502785 0.852537 0.7579
0.757519 0.884169 0.758236
0.84213 0.894514 0.758862
0.290059 0.235996 0.625299
0.387091 0.251789 0.62118
0.577661 0.313466 0.629938
0.728756 0.420951 0.670588
0.732967 0.431983 0.679301
0.243458 0.233417 0.631022
0.293477 0.254108 0.641077
0.574685 0.324346 0.641123
0.728313 0.423697 0.673732
0.739269 0.444526 0.688197
0.186862 0.521752 0.719203
0.191684 0.518227 0.726619
0.495796 0.489189 0.743282
0.73135 0.427848 0.676158
0.787503 0.564431 0.750301
0.269902 0.744305 0.770031
0.271565 0.745968 0.771298
0.296208 0.766598 0.7879
0.818235 0.865492 0.82771
0.83122 0.729427 0.769345
0.416159 0.831159 0.80975
0.431754 0.835218 0.811414
0.54548 0.853284 0.816785
0.75993 0.880995 0.821225
0.841764 0.892012 0.823804
0.215641 0.287785 0.675944
0.260136 0.291005 0.67451
0.538201 0.327443 0.651667
0.726848 0.427924 0.678508
0.72874 0.431266 0.680659
0.198779 0.288167 0.677699
0.178073 0.357763 0.716945
0.493202 0.353002 0.682475
0.727459 0.42916 0.679271
0.72932 0.432242 0.6813
0.226688 0.573358 0.769619
0.242176 0.593133 0.7785
0.353765 0.629725 0.790295
0.799603 0.625437 0.769268
0.731106 0.435203 0.683268
0.286915 0.747112 0.801221
0.288563 0.747951 0.802045
0.326162 0.75967 0.817533
0.772259 0.82739 0.831403
0.819135 0.738689 0.801358
0.451621 0.816938 0.83154
0.472236 0.82092 0.832868
0.574029 0.838056 0.836469
0.751766 0.868513 0.841108
0.834546 0.883757 0.842893
