presets/XH_G200_2.cube
TITLE "Generated by Resolve"
LUT_3D_SIZE 9
0.108629 0.113268 0.0928511
0.127779 0.110994 0.090547
0.324056 0.0954757 0.0803998
0.501457 0.104845 0.137194
0.637232 0.132204 0.260105
0.738994 0.148898 0.416968
0.836515 0.182116 0.556649
0.848661 0.210315 0.636316
0.829084 0.269505 0.672984
0.101717 0.122606 0.0920119
0.11014 0.118181 0.0878004
0.295369 0.0975357 0.0685893
0.497185 0.10338 0.128649
0.635538 0.130159 0.244114
0.733898 0.146944 0.399512
0.835203 0.177035 0.546685
0.847898 0.20557 0.623758
0.843931 0.233112 0.66186
0.104265 0.29836 0.200504
0.118898 0.264973 0.138552
0.256916 0.228992 0.0928511
0.503609 0.14287 0.0879683
0.645701 0.122927 0.181979
0.737316 0.140185 0.351293
0.834363 0.170916 0.532952
0.847333 0.204227 0.618173
0.843702 0.23473 0.660212
0.140002 0.513039 0.442542
0.147112 0.512123 0.430213
0.171481 0.49958 0.35375
0.461021 0.466651 0.250095
0.651194 0.343877 0.242588
0.769879 0.125994 0.158923
0.835386 0.147555 0.45774
0.844282 0.200488 0.598123
0.84181 0.240787 0.653849
0.267918 0.604044 0.554223
0.273838 0.603967 0.549752
0.290669 0.605524 0.539696
0.372839 0.613642 0.477668
0.607111 0.635096 0.447852
0.796078 0.613489 0.467079
0.822324 0.412558 0.341253
0.848478 0.166842 0.502327
0.828931 0.26865 0.629175
0.351156 0.66157 0.631525
0.354253 0.661967 0.629328
0.362844 0.664286 0.626001
0.388891 0.670329 0.609277
0.557977 0.742214 0.611948
0.681926 0.785458 0.62089
0.789471 0.755016 0.577554
0.79942 0.68954 0.5093
0.835981 0.326818 0.411582
0.388052 0.688685 0.664591
0.390738 0.689357 0.663859
0.395209 0.690913 0.663325
0.409232 0.694789 0.658228
0.475044 0.73695 0.663447
0.603998 0.823575 0.701625
0.731319 0.849287 0.699306
0.741878 0.843778 0.686625
0.744091 0.800275 0.625101
0.40763 0.705318 0.681743
0.407843 0.704784 0.680613
0.410773 0.705928 0.680491
0.421622 0.711147 0.681575
0.476936 0.753353 0.702007
0.582544 0.830961 0.747066
0.698665 0.86566 0.756863
0.768063 0.869993 0.759075
0.746746 0.851377 0.700587
0.522805 0.811093 0.771038
0.504662 0.795377 0.756542
0.507485 0.797559 0.757992
0.522698 0.808927 0.766125
0.560327 0.832609 0.783841
0.624659 0.856016 0.803357
0.706645 0.867674 0.8112
0.767224 0.873854 0.808484
0.774655 0.875502 0.815961
0.105959 0.112718 0.101183
0.125704 0.110796 0.0998398
0.316915 0.0966201 0.104295
0.492439 0.107347 0.171984
0.63389 0.135805 0.289204
0.740719 0.153262 0.443214
0.838132 0.186389 0.56556
0.84863 0.212345 0.641306
0.824659 0.279576 0.676036
0.0989242 0.120607 0.0971084
0.105623 0.116625 0.0965591
0.32491 0.0961471 0.0791943
0.501839 0.104906 0.137423
0.637186 0.132189 0.259968
0.737423 0.14873 0.414359
0.836179 0.181064 0.554543
0.848661 0.20885 0.633066
0.834714 0.256657 0.670039
0.0978103 0.294469 0.234272
0.106661 0.289281 0.190723
0.253773 0.22565 0.0923018
0.510552 0.13286 0.0898451
0.645365 0.126024 0.210254
0.74081 0.142077 0.370443
0.835157 0.175235 0.542245
0.848417 0.207614 0.628641
0.833188 0.26067 0.668666
0.130953 0.511849 0.452293
0.138949 0.512428 0.442496
0.167803 0.507424 0.382208
0.458885 0.464363 0.248081
0.653574 0.334401 0.241169
0.760555 0.119509 0.170397
0.83537 0.15317 0.480842
0.846632 0.204242 0.61268
0.828504 0.272511 0.664225
0.260151 0.60354 0.558312
0.268238 0.603952 0.553735
0.285603 0.604852 0.542565
0.357702 0.612161 0.481209
0.60618 0.634073 0.447059
0.800336 0.60914 0.468818
0.821439 0.388495 0.324254
0.853559 0.185458 0.528771
0.814603 0.311116 0.649241
0.347387 0.6607 0.633112
0.351125 0.661509 0.631403
0.358679 0.663493 0.628611
0.384649 0.669657 0.613993
0.552422 0.741802 0.613474
0.681956 0.785306 0.620706
0.791363 0.753429 0.576288
0.806409 0.679896 0.502235
0.795163 0.394827 0.599161
0.387335 0.688991 0.665782
0.38854 0.688975 0.66479
0.393225 0.690532 0.664195
0.406607 0.69453 0.660487
0.465553 0.729961 0.659663
0.601678 0.823209 0.701869
0.731319 0.849287 0.699306
0.741558 0.843076 0.685389
0.749126 0.786511 0.607279
0.407767 0.705959 0.682734
0.407797 0.705455 0.681834
0.410269 0.706355 0.681605
0.421225 0.711681 0.68278
0.474983 0.752438 0.70309
0.579522 0.829541 0.747524
0.697627 0.8654 0.75758
0.768063 0.870008 0.75903
0.746731 0.851362 0.700542
0.530449 0.816999 0.776791
0.524193 0.812207 0.772061
0.526314 0.813443 0.772702
0.536522 0.819959 0.777142
0.568994 0.838392 0.790799
0.626032 0.856977 0.805463
0.705562 0.867567 0.811307
0.76701 0.873838 0.808682
0.774655 0.875502 0.815961
0.0976577 0.106325 0.176913
0.157092 0.104784 0.173938
0.304814 0.0974899 0.174853
0.48658 0.114427 0.25565
0.6309 0.144579 0.350637
0.744915 0.160708 0.478843
0.839689 0.190951 0.578134
0.848402 0.214069 0.645548
0.823865 0.281163 0.677928
0.0825055 0.112352 0.147005
0.100038 0.106142 0.181811
0.307134 0.0975662 0.176074
0.490257 0.111925 0.224262
0.630716 0.140536 0.324285
0.739452 0.155734 0.454261
0.838117 0.18677 0.566766
0.84863 0.210742 0.638193
0.833814 0.258167 0.672145
0.0978256 0.260243 0.275471
0.0995499 0.255558 0.269093
0.215885 0.207538 0.194598
0.523217 0.144152 0.185336
0.638956 0.13257 0.261891
0.742794 0.149004 0.421424
0.837583 0.184237 0.56051
0.8486 0.213977 0.643961
0.812161 0.31696 0.682963
0.110475 0.508247 0.475776
0.115953 0.508873 0.467231
0.131029 0.504555 0.433906
0.442374 0.453727 0.262715
0.637903 0.330556 0.255421
0.765209 0.128435 0.280217
0.835203 0.163882 0.514046
0.8486 0.209262 0.629877
0.809842 0.326421 0.679774
0.245182 0.603067 0.566705
0.251698 0.602731 0.561975
0.267201 0.602823 0.551888
0.328527 0.606043 0.495354
0.601251 0.627848 0.443259
0.796994 0.598444 0.476265
0.824842 0.363821 0.310918
0.847761 0.204547 0.561486
0.806607 0.351537 0.669276
0.341115 0.659281 0.634974
0.344427 0.65977 0.633402
0.351431 0.661402 0.630869
0.377935 0.667536 0.616831
0.534737 0.740154 0.618296
0.680903 0.783078 0.619486
0.80412 0.757168 0.584298
0.809445 0.67512 0.499336
0.794965 0.437247 0.614359
0.386206 0.689357 0.667384
0.387198 0.689296 0.666484
0.391608 0.690806 0.666102
0.404578 0.694972 0.6636
0.452796 0.7205 0.655131
0.597848 0.824323 0.704463
0.731197 0.849302 0.699321
0.74255 0.844953 0.688655
0.750011 0.783551 0.603433
0.407095 0.706127 0.683589
0.407111 0.705653 0.682704
0.40943 0.706584 0.682612
0.420432 0.712047 0.684001
0.473655 0.752178 0.704723
0.577798 0.828687 0.748806
0.697017 0.865019 0.759304
0.76788 0.870115 0.758679
0.747127 0.85182 0.701427
0.53051 0.817319 0.777554
0.523995 0.812345 0.772564
0.529702 0.816251 0.775784
0.538872 0.821942 0.779522
0.570047 0.839277 0.792264
0.625895 0.857176 0.806104
0.704768 0.867628 0.811948
0.766552 0.873915 0.809552
0.774533 0.875486 0.815991
0.108446 0.0983749 0.323171
0.173785 0.100649 0.331609
0.324331 0.0976425 0.346639
0.479744 0.119753 0.382177
0.629084 0.1617 0.46566
0.751369 0.177401 0.548714
0.84509 0.198001 0.609598
0.846693 0.219608 0.657038
0.821454 0.286351 0.683421
0.0805219 0.0969253 0.31313
0.11133 0.0977646 0.332845
0.299565 0.0979324 0.355795
0.480171 0.11989 0.382773
0.627344 0.161303 0.457923
0.746624 0.17528 0.533837
0.843397 0.196185 0.601373
0.847608 0.216297 0.651225
0.830808 0.264164 0.678187
0.0865187 0.192294 0.365209
0.0826886 0.17702 0.366629
0.148363 0.12285 0.364599
0.493172 0.125444 0.397986
0.628946 0.160525 0.445624
0.748638 0.170809 0.516396
0.842786 0.195712 0.597055
0.846983 0.219303 0.655634
0.810269 0.321569 0.688701
0.0725719 0.483665 0.525444
0.0724346 0.483452 0.525429
0.0703746 0.474571 0.516258
0.40354 0.445029 0.469184
0.624842 0.331472 0.420905
0.760037 0.148486 0.434913
0.838804 0.187045 0.565454
0.847379 0.220691 0.652613
0.79971 0.40473 0.70779
0.214786 0.604608 0.593713
0.21796 0.604364 0.590311
0.227253 0.603677 0.581079
0.274693 0.602197 0.544564
0.59028 0.621103 0.504845
0.765438 0.581292 0.512657
0.893019 0.209796 0.314839
0.844373 0.221485 0.605386
0.799405 0.422095 0.699351
0.325139 0.657572 0.643061
0.327855 0.657618 0.641276
0.335119 0.658671 0.638834
0.357443 0.664118 0.631571
0.479225 0.722271 0.62739
0.677913 0.777234 0.61857
0.827726 0.759396 0.605539
0.82118 0.660899 0.492515
0.798108 0.460975 0.658091
0.382879 0.689845 0.671016
0.383978 0.689982 0.670344
0.388357 0.691798 0.670588
0.400458 0.696025 0.669795
0.444617 0.716442 0.661891
0.586618 0.828519 0.715862
0.730617 0.852033 0.705135
0.746136 0.850324 0.698451
0.751385 0.773709 0.592691
0.405264 0.706386 0.685786
0.405264 0.706035 0.6851
0.407538 0.707118 0.685161
0.41828 0.713069 0.687221
0.471275 0.752789 0.709926
0.573434 0.826825 0.752712
0.695888 0.863478 0.76463
0.767834 0.870268 0.757977
0.749126 0.854505 0.706737
0.530449 0.818067 0.779492
0.523568 0.81294 0.774411
0.529778 0.817151 0.777966
0.545907 0.82742 0.786511
0.573281 0.841794 0.796399
0.625742 0.857877 0.808164
0.703334 0.867964 0.814008
0.76524 0.874189 0.812085
0.774563 0.875502 0.816098
0.133135 0.085008 0.457801
0.202548 0.0878462 0.466819
0.321645 0.0918746 0.486503
0.488197 0.113878 0.523186
0.637079 0.148241 0.568261
0.766323 0.184451 0.62295
0.844053 0.216495 0.664561
0.838254 0.233967 0.681819
0.814786 0.301396 0.698238
0.108248 0.0846723 0.457374
0.1393 0.0846265 0.463722
0.288655 0.0897993 0.485695
0.479927 0.112047 0.522774
0.636469 0.148211 0.567712
0.761624 0.183825 0.61825
0.845212 0.214084 0.660426
0.839673 0.231388 0.678218
0.821836 0.2813 0.693584
0.0774548 0.0893873 0.460166
0.0778668 0.0866255 0.46685
0.155367 0.0826429 0.489693
0.474281 0.109422 0.546639
0.648264 0.15021 0.578897
0.765133 0.18381 0.61738
0.845624 0.213626 0.659083
0.838758 0.234073 0.680568
0.80647 0.33576 0.704494
0.0093843 0.395697 0.573175
0.00585946 0.38587 0.573404
0.00277714 0.357412 0.571923
0.27837 0.321508 0.577142
0.648081 0.243198 0.59443
0.779873 0.185931 0.619364
0.847593 0.208591 0.648371
0.838758 0.239414 0.678386
0.797391 0.419394 0.721309
0.174685 0.597635 0.636927
0.174609 0.597604 0.636881
0.173632 0.59704 0.636316
0.170184 0.594446 0.632593
0.556817 0.609186 0.632074
0.732677 0.542947 0.6094
0.845701 0.215122 0.568826
0.840848 0.243244 0.656748
0.794293 0.50573 0.739727
0.308919 0.654398 0.660655
0.309331 0.654566 0.659648
0.31191 0.655543 0.658564
0.323491 0.659998 0.65536
0.43534 0.712795 0.676127
0.67599 0.759167 0.690822
0.830488 0.732448 0.687678
0.833387 0.579232 0.533593
0.798367 0.503349 0.704402
0.376394 0.690227 0.680247
0.377005 0.690364 0.679652
0.380575 0.692149 0.679805
0.392035 0.69778 0.6804
0.437049 0.723217 0.690349
0.581872 0.830625 0.749752
0.738811 0.866941 0.756756
0.780041 0.869139 0.744198
0.753017 0.758404 0.576318
0.40029 0.706233 0.691096
0.400473 0.70605 0.690471
0.40296 0.707439 0.6907
0.415 0.715068 0.694286
0.473594 0.761669 0.724697
0.576028 0.831418 0.766491
0.696742 0.861616 0.780163
0.770031 0.869062 0.770016
0.767788 0.870451 0.757153
0.527291 0.817685 0.782559
0.522042 0.813962 0.778836
0.529549 0.818891 0.783078
0.547875 0.830121 0.792813
0.581186 0.846479 0.805661
0.627878 0.859907 0.814038
0.703014 0.869413 0.820218
0.763272 0.875135 0.818998
0.774487 0.875593 0.816449
0.148531 0.0825055 0.554971
0.221637 0.0819104 0.56289
0.318181 0.0941024 0.576455
0.49337 0.124849 0.617166
0.644511 0.139879 0.648096
0.762539 0.176257 0.687465
0.828153 0.235462 0.713283
0.823392 0.241733 0.733501
0.81915 0.26836 0.733715
0.120348 0.0838178 0.553445
0.151293 0.0823987 0.55584
0.274861 0.0875868 0.570138
0.475364 0.123522 0.615045
0.639902 0.1393 0.646311
0.760204 0.175387 0.685466
0.828779 0.235279 0.710597
0.823911 0.241459 0.731609
0.823789 0.254032 0.730159
0.0914473 0.0851148 0.569314
0.0915236 0.0851301 0.570947
0.143114 0.0831159 0.573816
0.44181 0.123461 0.621241
0.656352 0.145373 0.669978
0.765789 0.177478 0.690257
0.828046 0.235569 0.713832
0.82359 0.242664 0.733043
0.805188 0.312245 0.735866
0 0.279789 0.620249
0.00888075 0.261418 0.620691
0.0306859 0.219547 0.626673
0.107805 0.0882429 0.605539
0.636072 0.148974 0.681254
0.792203 0.190555 0.710613
0.828016 0.235691 0.714076
0.824247 0.244068 0.731075
0.792279 0.429145 0.746777
0.131075 0.58941 0.679011
0.126802 0.588464 0.679957
0.117037 0.586587 0.682597
0.0823377 0.577615 0.688228
0.505653 0.566873 0.710552
0.716182 0.496971 0.701915
0.83064 0.239796 0.705257
0.82707 0.244892 0.721309
0.791897 0.536522 0.766262
0.289784 0.650141 0.690669
0.289921 0.650217 0.690745
0.291417 0.650874 0.691356
0.296422 0.653025 0.693706
0.38471 0.69099 0.727153
0.657526 0.729412 0.746914
0.818753 0.694392 0.739757
0.798306 0.47393 0.662165
0.795499 0.530755 0.744289
0.366033 0.690135 0.69897
0.366369 0.690242 0.698497
0.368063 0.691432 0.698558
0.374075 0.695079 0.698695
0.407965 0.717983 0.707546
0.598947 0.842405 0.796429
0.748165 0.859709 0.802823
0.821607 0.850843 0.798627
0.829786 0.749187 0.718334
0.391348 0.707668 0.706279
0.391455 0.707546 0.705699
0.393225 0.708583 0.705653
0.400641 0.713619 0.706798
0.471962 0.773922 0.747814
0.591089 0.849088 0.80296
0.702602 0.867765 0.813489
0.773388 0.874922 0.812894
0.775692 0.87422 0.805997
0.516121 0.813794 0.787488
0.513726 0.811978 0.785565
0.524163 0.818814 0.791333
0.54757 0.832486 0.803204
0.58735 0.850034 0.81828
0.637659 0.86363 0.827695
0.706523 0.871321 0.83209
0.760159 0.876234 0.833387
0.772488 0.877073 0.827405
0.0917525 0.0858167 0.616526
0.104585 0.0855116 0.61149
0.206561 0.0843366 0.61799
0.438514 0.135363 0.665476
0.639582 0.163607 0.715785
0.744457 0.163882 0.729992
0.80882 0.235569 0.755154
0.802609 0.243915 0.759487
0.805768 0.246571 0.758404
0.0917372 0.085832 0.616953
0.0920729 0.0857099 0.613214
0.153643 0.084062 0.61265
0.41149 0.126635 0.655634
0.634531 0.163653 0.714946
0.742596 0.163256 0.728923
0.809827 0.235264 0.753979
0.803571 0.242847 0.75906
0.806119 0.245518 0.758236
0.0909895 0.086183 0.628672
0.0909285 0.0862135 0.629725
0.0906996 0.0862898 0.631983
0.338689 0.105516 0.641871
0.627527 0.168994 0.722591
0.749706 0.168978 0.738552
0.806516 0.236866 0.756954
0.801907 0.245014 0.759854
0.802747 0.257847 0.759441
0.0250706 0.210224 0.672831
0.036347 0.189181 0.671778
0.0542916 0.151507 0.674846
0.0869459 0.0883497 0.657923
0.573831 0.16997 0.717891
0.77145 0.19086 0.76025
0.803418 0.239048 0.758602
0.801373 0.245945 0.760189
0.78555 0.321843 0.76022
0.0399786 0.582757 0.717708
0.0343175 0.580972 0.719066
0.0244907 0.578714 0.723049
0.00178531 0.564569 0.733608
0.39382 0.510521 0.77113
0.692546 0.371969 0.769482
0.807019 0.243137 0.757549
0.801312 0.246433 0.76022
0.779034 0.461982 0.773678
0.252689 0.642176 0.712734
0.251499 0.641962 0.713481
0.25008 0.641779 0.71458
0.243763 0.640253 0.71693
0.226841 0.657084 0.768429
0.630625 0.7019 0.805814
0.794156 0.678874 0.802365
0.787961 0.36762 0.759243
0.780209 0.424155 0.767269
0.35378 0.688746 0.725658
0.353948 0.688884 0.72578
0.355016 0.689708 0.726528
0.358114 0.69218 0.728985
0.375326 0.705943 0.741329
0.596506 0.815976 0.831464
0.735775 0.828656 0.835004
0.802472 0.816327 0.834363
0.805371 0.691249 0.789303
0.386023 0.710811 0.731044
0.38613 0.710811 0.730724
0.387717 0.71194 0.731106
0.392584 0.715297 0.732036
0.443091 0.761334 0.766476
0.59266 0.84976 0.834211
0.704417 0.86923 0.846082
0.76463 0.87277 0.84744
0.77171 0.873838 0.844327
0.488304 0.797116 0.795514
0.488243 0.797101 0.795056
0.501076 0.80592 0.802182
0.529366 0.823392 0.81593
0.577752 0.844266 0.832441
0.642466 0.861204 0.844511
0.704402 0.867857 0.848493
0.754803 0.871794 0.849989
0.766857 0.871931 0.850523
0.0861982 0.0886854 0.661997
0.0865187 0.0881514 0.6607
0.0877852 0.0871748 0.654246
0.270527 0.0915236 0.641489
0.60589 0.174914 0.727779
0.756512 0.189288 0.757885
0.80174 0.23856 0.759274
0.801663 0.242359 0.759838
0.801297 0.246845 0.760281
0.0868391 0.0881819 0.658793
0.0867323 0.0881971 0.659312
0.0875257 0.0872358 0.655894
0.234073 0.0870375 0.638148
0.598215 0.174365 0.726238
0.753689 0.188586 0.757519
0.80174 0.238468 0.759258
0.801663 0.242222 0.759823
0.801312 0.246342 0.76022
0.085008 0.0912184 0.661173
0.0849928 0.0909895 0.661936
0.0834669 0.0921645 0.667765
0.0893721 0.0867018 0.64358
0.56495 0.171939 0.720394
0.761166 0.192325 0.760693
0.801709 0.238911 0.759304
0.801602 0.242878 0.759869
0.801205 0.248402 0.760464
0 0.333883 0.722347
0 0.327489 0.723415
0 0.361227 0.740108
0 0.326299 0.742229
0.420172 0.166278 0.726345
0.737667 0.190875 0.760266
0.80174 0.239567 0.759441
0.801541 0.243488 0.75993
0.799237 0.25919 0.760891
0.0226596 0.589456 0.737026
0.0196536 0.588891 0.73846
0.0165713 0.590204 0.742061
0.00303655 0.583581 0.751614
0.283452 0.558816 0.786419
0.651225 0.490364 0.783261
0.795911 0.271351 0.760327
0.801526 0.243961 0.759991
0.783322 0.34432 0.761593
0.240726 0.643061 0.728634
0.239292 0.643 0.729488
0.237263 0.643015 0.730953
0.228397 0.642023 0.734081
0.194659 0.653727 0.774685
0.607569 0.694728 0.820844
0.773373 0.675166 0.819806
0.778576 0.443275 0.770535
0.786526 0.312169 0.759655
0.336812 0.68159 0.735027
0.336583 0.681544 0.735332
0.33756 0.682277 0.736538
0.340688 0.684504 0.740337
0.350134 0.691417 0.75462
0.57615 0.780041 0.848371
0.715038 0.803586 0.849271
0.782483 0.791608 0.848402
0.78674 0.666926 0.817136
0.38291 0.711345 0.747387
0.383047 0.711467 0.747478
0.384176 0.712413 0.748302
0.387594 0.715236 0.750805
0.434073 0.753323 0.785306
0.580758 0.832609 0.848936
0.697337 0.851698 0.858518
0.755077 0.855238 0.858137
0.763546 0.855192 0.85893
0.469322 0.77937 0.803647
0.470314 0.780133 0.804135
0.483574 0.789136 0.812055
0.514199 0.808377 0.827893
0.562982 0.829511 0.843549
0.627771 0.848341 0.855833
0.700557 0.857969 0.858671
0.746471 0.860899 0.858305
0.758877 0.861555 0.858717
0.0590677 0.133013 0.691356
0.0741436 0.10663 0.679072
0.0805371 0.0955673 0.674464
0.0875868 0.0872206 0.655512
0.536004 0.169299 0.715892
0.748638 0.1897 0.759319
0.801862 0.236271 0.759014
0.801709 0.239933 0.759472
0.801511 0.244144 0.760021
0.0779736 0.100999 0.673854
0.0777752 0.101167 0.674434
0.0816205 0.0942397 0.672297
0.0877699 0.0871748 0.654337
0.536736 0.168612 0.714809
0.746746 0.189075 0.758709
0.801862 0.236118 0.758984
0.801709 0.239826 0.759457
0.801526 0.243915 0.759991
0.0415351 0.165515 0.702327
0.0373999 0.172702 0.70602
0 0.410071 0.755779
0 0.326574 0.74229
0.34995 0.1449 0.711635
0.721996 0.189303 0.757717
0.801648 0.241886 0.759747
0.801678 0.240314 0.759503
0.801404 0.245151 0.760082
0 0.466255 0.753048
0 0.471809 0.75523
0 0.525673 0.761288
0 0.556939 0.759228
0.224048 0.512657 0.780606
0.647013 0.396124 0.77145
0.801175 0.247715 0.760327
0.801694 0.240558 0.759564
0.801312 0.246342 0.76022
0.0436255 0.603494 0.741283
0.0445106 0.604486 0.742336
0.0610666 0.61178 0.743984
0.0681315 0.616663 0.746883
0.044358 0.629282 0.787518
0.612039 0.646571 0.806348
0.782879 0.559655 0.792615
0.801602 0.241886 0.759701
0.801221 0.247883 0.760388
0.244831 0.645548 0.733852
0.245655 0.645991 0.734508
0.248203 0.647044 0.735546
0.247425 0.647334 0.737575
0.245472 0.656352 0.76054
0.586404 0.712077 0.826566
0.746624 0.714153 0.828351
0.785443 0.616678 0.805264
0.801205 0.248402 0.760464
0.330907 0.678187 0.735698
0.330983 0.678264 0.736004
0.332952 0.679561 0.737285
0.338293 0.683162 0.742123
0.35169 0.69247 0.75816
0.577111 0.783139 0.849821
0.705715 0.804318 0.851392
0.780163 0.797116 0.85066
0.78587 0.701411 0.825299
0.381643 0.711192 0.754101
0.381659 0.711238 0.754299
0.382696 0.712139 0.755261
0.386191 0.714961 0.758236
0.435187 0.7523 0.791074
0.574228 0.824948 0.85066
0.690547 0.845365 0.860487
0.750378 0.849714 0.859678
0.764782 0.84712 0.860044
0.463416 0.771954 0.806165
0.464714 0.772869 0.806882
0.478584 0.782055 0.814801
0.512016 0.802625 0.831785
0.560769 0.823545 0.846754
0.623865 0.842496 0.858717
0.695247 0.853346 0.861448
0.743572 0.856992 0.860151
0.75671 0.858442 0.860243
