presets/XH_G200_3.cube
TITLE "Generated by Resolve"
LUT_3D_SIZE 33
0.0214542 0.0242924 0.0605478
0.0214542 0.0242924 0.0605478
0.0214542 0.0242924 0.0605478
0.0215305 0.0244144 0.0603494
0.0494392 0.0213626 0.056611
0.0864118 0.0190738 0.0528267
0.147448 0.0163882 0.0481422
0.211353 0.014374 0.0469215
0.269947 0.0128939 0.0510262
0.328649 0.0125429 0.0583658
0.381262 0.0140688 0.0683909
0.428 0.0179599 0.0823987
0.472953 0.0234226 0.0950942
0.517342 0.031693 0.118669
0.559411 0.0409247 0.143328
0.59942 0.0490883 0.164599
0.636942 0.0561227 0.184649
0.670939 0.0625467 0.205814
0.700496 0.0680858 0.229252
0.728542 0.0724804 0.255879
0.758679 0.0759289 0.285466
0.790158 0.0776074 0.317021
0.824491 0.0787366 0.351141
0.844877 0.0845045 0.384161
0.847181 0.0926223 0.413581
0.849928 0.102678 0.446921
0.853162 0.112551 0.483009
0.858122 0.119615 0.516579
0.863569 0.124636 0.546181
0.867994 0.129305 0.570977
0.873426 0.13875 0.593957
0.879713 0.156786 0.615274
0.884871 0.178698 0.633158
0.0214542 0.0242924 0.0605478
0.0214542 0.0242924 0.0605478
0.0214542 0.0242924 0.0605478
0.0213626 0.024445 0.0603799
0.0470741 0.0214694 0.0567025
0.082826 0.0192874 0.0530709
0.143099 0.0165255 0.0483406
0.208499 0.0144656 0.0467231
0.267689 0.0129244 0.0507362
0.327596 0.0125277 0.0581521
0.381262 0.0140688 0.0683909
0.428 0.0179599 0.0823987
0.472953 0.0234226 0.0950942
0.517342 0.031693 0.118669
0.559411 0.0409247 0.143328
0.59942 0.0490883 0.164599
0.636942 0.0561227 0.184649
0.670665 0.0624857 0.205539
0.699763 0.0678721 0.228183
0.727169 0.0722515 0.254322
0.756756 0.0756695 0.283024
0.787793 0.077348 0.313939
0.821714 0.0783703 0.347433
0.844846 0.0835584 0.380392
0.846815 0.0912947 0.408911
0.849561 0.100664 0.440131
0.852384 0.110582 0.475257
0.856703 0.118013 0.508034
0.861967 0.123247 0.537591
0.866499 0.127352 0.561898
0.869856 0.131777 0.581781
0.876097 0.144961 0.60267
0.880766 0.161044 0.619211
0.0214542 0.0242924 0.0605478
0.0214542 0.0242924 0.0605478
0.0214542 0.0242924 0.0605478
0.0214237 0.0243687 0.0604257
0.0415351 0.0220951 0.0565347
0.0656291 0.0203861 0.0540627
0.116518 0.0175326 0.0488746
0.188144 0.0150759 0.0457771
0.251179 0.0132753 0.0487984
0.314275 0.0124666 0.0556344
0.372137 0.0135195 0.0656443
0.42179 0.0172122 0.0794995
0.468956 0.0226749 0.0928206
0.515114 0.0311284 0.116533
0.558221 0.0406043 0.142245
0.597711 0.048661 0.163088
0.634836 0.0556191 0.18291
0.668788 0.0620127 0.203525
0.698283 0.0674754 0.226139
0.725475 0.07187 0.251957
0.754879 0.0753948 0.280507
0.785611 0.0771954 0.311528
0.819242 0.0780957 0.344366
0.8448 0.082826 0.377523
0.846693 0.0904402 0.40589
0.849485 0.0993362 0.43563
0.851987 0.109331 0.470222
0.856031 0.116808 0.502205
0.860838 0.122118 0.530785
0.865232 0.126131 0.554971
0.86862 0.130159 0.574685
0.873121 0.13817 0.592691
0.877943 0.150607 0.609293
0.0202182 0.0250553 0.0601358
0.0204318 0.0249638 0.0602121
0.0212558 0.0247501 0.06009
0.0215457 0.0247807 0.059968
0.0352178 0.0237278 0.0565499
0.0508736 0.0220493 0.05449
0.0885023 0.0193942 0.0500038
0.164889 0.0159915 0.0450294
0.234668 0.0137942 0.0466011
0.300954 0.0124208 0.0531472
0.362478 0.0131228 0.0630961
0.415015 0.0163882 0.0763867
0.464958 0.0225071 0.0943465
0.510658 0.0300603 0.112596
0.554772 0.0396582 0.13904
0.594965 0.0479591 0.160769
0.632547 0.055024 0.180591
0.667109 0.0614939 0.201266
0.696803 0.0670024 0.223728
0.723949 0.071519 0.249653
0.75317 0.0751049 0.278126
0.78352 0.0769665 0.308782
0.816617 0.0778821 0.34136
0.84477 0.0820935 0.374563
0.846372 0.0895247 0.402579
0.84918 0.0980087 0.43125
0.851408 0.107988 0.464881
0.855131 0.115526 0.496208
0.859571 0.120974 0.524315
0.863951 0.125002 0.548241
0.867567 0.12871 0.567987
0.870405 0.132631 0.583749
0.875319 0.143069 0.599954
0.0120699 0.0372931 0.0562295
0.0126345 0.036759 0.0554513
0.0157473 0.0347448 0.0530556
0.0221103 0.0322728 0.0525216
0.0282292 0.0316167 0.051133
0.0471962 0.0295872 0.0487221
0.079408 0.0260624 0.043534
0.155306 0.0192111 0.0372473
0.236454 0.0146181 0.0390478
0.300893 0.0129091 0.0453803
0.362234 0.0127718 0.0559396
0.413291 0.0154269 0.0703746
0.468284 0.021973 0.0885023
0.515587 0.0303807 0.11107
0.558755 0.0399481 0.137713
0.596674 0.046952 0.153185
0.633875 0.0541238 0.174121
0.668254 0.0604715 0.195483
0.697658 0.0659648 0.218311
0.72462 0.0705119 0.244739
0.753735 0.0742046 0.273838
0.783978 0.076173 0.304921
0.81709 0.0771649 0.338003
0.844633 0.0813458 0.371588
0.846265 0.088716 0.399695
0.849012 0.0972305 0.428717
0.85124 0.107393 0.462379
0.854963 0.115206 0.49453
0.859358 0.12076 0.522759
0.863798 0.124865 0.547036
0.867475 0.128573 0.567117
0.870619 0.132769 0.58349
0.875456 0.143282 0.59971
0.0110323 0.0589609 0.0500649
0.0112764 0.0583505 0.0500038
0.0137484 0.0543832 0.0470741
0.0206302 0.0476997 0.046128
0.0305333 0.047364 0.0435187
0.0521401 0.0449073 0.0408484
0.0940719 0.0390326 0.0378119
0.150942 0.0316167 0.0352789
0.217762 0.0219883 0.032929
0.29247 0.0135805 0.035874
0.364935 0.0127413 0.0491188
0.419165 0.0153964 0.0636301
0.46836 0.0206912 0.0823682
0.512993 0.0287785 0.102373
0.561868 0.0389868 0.129229
0.600702 0.0472572 0.152514
0.635111 0.0531472 0.167529
0.669291 0.0594034 0.189517
0.698604 0.0648814 0.212589
0.725277 0.0694591 0.239612
0.754299 0.0732891 0.269429
0.784497 0.0753185 0.300832
0.817472 0.0764172 0.334462
0.844602 0.0805829 0.368536
0.846067 0.087892 0.396689
0.848859 0.0965286 0.426383
0.851118 0.106798 0.460105
0.85478 0.11487 0.492653
0.859129 0.120516 0.521096
0.863615 0.124697 0.545815
0.867353 0.128405 0.566155
0.870726 0.13286 0.583062
0.875593 0.143526 0.599466
0.0170443 0.0986496 0.0517281
0.0169833 0.0974594 0.0511788
0.0175174 0.090837 0.0471351
0.0202335 0.0823835 0.0411536
0.0297704 0.0778058 0.0376593
0.0527962 0.0737774 0.0344396
0.0893568 0.0681773 0.0316014
0.153063 0.0588235 0.031281
0.223056 0.0414435 0.0311894
0.277943 0.0328222 0.0309453
0.347753 0.0214542 0.0342412
0.41854 0.0138247 0.0473487
0.474754 0.0202792 0.0725719
0.522789 0.028336 0.0938735
0.55903 0.0365606 0.117662
0.600946 0.0454719 0.14078
0.639536 0.0531624 0.165606
0.670527 0.0579843 0.181659
0.699504 0.0635538 0.205631
0.726085 0.0681468 0.233127
0.754955 0.0721141 0.263752
0.785 0.0742809 0.29572
0.817868 0.0754864 0.329961
0.844495 0.0796521 0.364706
0.845884 0.0869306 0.39324
0.84863 0.0955062 0.423011
0.850996 0.105806 0.456718
0.854505 0.114366 0.489982
0.858854 0.120241 0.519036
0.863416 0.124529 0.544335
0.867231 0.128237 0.565103
0.870726 0.132952 0.58233
0.875776 0.143816 0.599145
0.025864 0.151858 0.0719615
0.0259098 0.1505 0.0707866
0.0266575 0.143114 0.0634928
0.0282139 0.135546 0.0545968
0.0315557 0.125658 0.0438697
0.0484474 0.118578 0.0379034
0.0831159 0.10959 0.0299535
0.136507 0.102281 0.0285649
0.211688 0.0934615 0.0330968
0.29453 0.0658885 0.035996
0.348028 0.0500191 0.0354314
0.400839 0.0361944 0.0345464
0.461189 0.0258335 0.0440833
0.526925 0.0251774 0.0685435
0.573892 0.0358434 0.102617
0.606546 0.0431373 0.125048
0.638285 0.0505531 0.151217
0.674846 0.0574197 0.177203
0.700786 0.0617227 0.195529
0.727169 0.0663615 0.223896
0.755688 0.0704662 0.255604
0.785534 0.0729076 0.288472
0.818448 0.0741283 0.323384
0.844434 0.0784161 0.359274
0.845716 0.0856184 0.388403
0.848341 0.0941482 0.418524
0.850889 0.104448 0.45214
0.854063 0.11368 0.486336
0.858534 0.119921 0.516701
0.86305 0.124269 0.542306
0.867033 0.127962 0.563455
0.870909 0.133196 0.581552
0.87599 0.144152 0.598779
0.0246128 0.217426 0.115221
0.0248875 0.21651 0.113954
0.0274815 0.208164 0.102663
0.0301976 0.199527 0.0914015
0.0370336 0.187564 0.0705425
0.0433051 0.1776 0.0585489
0.0695048 0.159976 0.0415351
0.117891 0.153918 0.0327916
0.185229 0.146914 0.0345922
0.273136 0.141024 0.0432136
0.360494 0.102342 0.04654
0.419776 0.0725872 0.0431067
0.460777 0.0607156 0.0418097
0.514076 0.0416419 0.045716
0.569711 0.032517 0.0632029
0.618753 0.0390021 0.0950942
0.64918 0.0471962 0.12842
0.672755 0.0541543 0.160815
0.704845 0.0604868 0.18851
0.728328 0.0641489 0.211337
0.75642 0.0682383 0.244419
0.786114 0.071046 0.278508
0.819028 0.072343 0.314092
0.844251 0.0766003 0.351263
0.845518 0.0839399 0.381811
0.847898 0.0924239 0.412741
0.850797 0.102617 0.445975
0.853788 0.11252 0.481514
0.857908 0.119356 0.512688
0.862654 0.123919 0.539422
0.866819 0.127657 0.561456
0.871229 0.133654 0.580697
0.876234 0.144717 0.59823
0.00453193 0.291752 0.176989
0.00468452 0.291402 0.176349
0.00750744 0.285222 0.165606
0.0119783 0.277333 0.152026
0.0168002 0.273945 0.139879
0.0294957 0.252659 0.105699
0.0432746 0.235904 0.0847334
0.0948348 0.2103 0.0525673
0.149432 0.209995 0.0467384
0.237583 0.204273 0.0520638
0.329656 0.203326 0.0623026
0.4224 0.155627 0.0660716
0.484779 0.110643 0.0574807
0.526452 0.0936599 0.0552529
0.568917 0.0691234 0.051957
0.616571 0.0452735 0.0613107
0.657023 0.0406195 0.0877394
0.684077 0.047837 0.120806
0.702296 0.0566567 0.168521
0.729732 0.0619364 0.199222
0.759472 0.0666667 0.237446
0.786725 0.0684062 0.264332
0.819547 0.0701305 0.301717
0.843931 0.0741741 0.340108
0.845304 0.0815595 0.372412
0.847547 0.0902571 0.40499
0.850599 0.100328 0.438209
0.8533 0.110811 0.474495
0.857343 0.118395 0.507439
0.862181 0.123491 0.535851
0.866468 0.127291 0.558801
0.871611 0.134249 0.579431
0.876753 0.145403 0.597482
0.000900282 0.355154 0.232593
0.000900282 0.355154 0.232593
0.00158694 0.352209 0.224552
0.00234989 0.348943 0.215045
0.0041352 0.349981 0.209598
0.0110628 0.345815 0.191577
0.0216831 0.320287 0.149355
0.0471504 0.288029 0.105592
0.113848 0.272602 0.0787518
0.185412 0.275395 0.0727703
0.293736 0.268605 0.0800336
0.393561 0.269505 0.0907149
0.489815 0.215976 0.0981613
0.551263 0.160662 0.0807965
0.596994 0.129763 0.0745098
0.627466 0.108721 0.0680552
0.663661 0.0741894 0.066041
0.695293 0.0454566 0.0816663
0.71371 0.0472725 0.114885
0.727214 0.0550698 0.155612
0.757153 0.0621958 0.211276
0.790692 0.0658427 0.253437
0.820172 0.0668956 0.283253
0.843198 0.0708171 0.323217
0.84506 0.0783856 0.359121
0.847013 0.0872358 0.39411
0.850065 0.0973526 0.428641
0.852766 0.108751 0.465965
0.856657 0.117037 0.500389
0.861357 0.122683 0.530266
0.865934 0.126818 0.554711
0.871839 0.13489 0.57734
0.877302 0.14638 0.596323
0.0107729 0.413642 0.286213
0.0107729 0.413642 0.286213
0.0113985 0.412253 0.281392
0.0139315 0.410559 0.273945
0.0188602 0.4112 0.266148
0.0231174 0.412161 0.260182
0.0312657 0.410697 0.242618
0.0337224 0.385199 0.196414
0.0706798 0.348653 0.135958
0.147662 0.341619 0.114977
0.240681 0.345983 0.107454
0.356771 0.337087 0.112535
0.461341 0.339193 0.121233
0.558343 0.283116 0.133227
0.615961 0.22501 0.114946
0.659968 0.177737 0.105409
0.687922 0.149508 0.0965744
0.709865 0.116106 0.0855116
0.732738 0.0643931 0.0780041
0.742199 0.0477302 0.118318
0.74963 0.0542153 0.156481
0.785122 0.0606851 0.218494
0.82385 0.0637827 0.267659
0.842268 0.0665446 0.298939
0.844846 0.0739605 0.339117
0.84651 0.0830396 0.378103
0.849119 0.0933852 0.415686
0.85243 0.105547 0.454215
0.855802 0.115297 0.491341
0.860349 0.121614 0.522713
0.865095 0.126101 0.549035
0.872358 0.135836 0.574533
0.878065 0.147967 0.594949
0.0426184 0.465476 0.332387
0.0426184 0.465476 0.332387
0.043473 0.464775 0.329427
0.045243 0.46392 0.324681
0.0496986 0.46453 0.318791
0.0539559 0.465705 0.31429
0.0603189 0.466453 0.305257
0.0702983 0.464652 0.283436
0.0714885 0.44387 0.238865
0.115862 0.412985 0.176318
0.212024 0.409903 0.15668
0.310109 0.414038 0.146029
0.428046 0.405707 0.147906
0.53135 0.40853 0.157076
0.623926 0.359136 0.172076
0.675334 0.30219 0.16112
0.709972 0.24213 0.145953
0.737942 0.196262 0.13225
0.755657 0.15848 0.116701
0.775769 0.101381 0.102037
0.785687 0.0459602 0.107683
0.778241 0.0530709 0.164584
0.813184 0.0572518 0.219181
0.840681 0.0626841 0.274495
0.843732 0.0678721 0.307012
0.846174 0.0773022 0.354345
0.848127 0.0881514 0.397162
0.852186 0.100328 0.43679
0.854902 0.112474 0.478691
0.859037 0.120272 0.513115
0.864744 0.125963 0.542245
0.872969 0.136873 0.570642
0.879011 0.150042 0.592935
0.0834211 0.510536 0.373007
0.0834211 0.510536 0.373007
0.0840009 0.510216 0.371267
0.0853742 0.509789 0.368048
0.089128 0.510521 0.364034
0.09308 0.51133 0.359823
0.0978866 0.512963 0.356374
0.105882 0.513634 0.344945
0.113497 0.509209 0.319844
0.119295 0.494957 0.276936
0.177569 0.47219 0.221149
0.290486 0.472435 0.201328
0.381064 0.477943 0.190585
0.497597 0.471656 0.189487
0.599496 0.476951 0.200732
0.675746 0.444343 0.209613
0.737087 0.380926 0.227115
0.751156 0.328801 0.196689
0.780163 0.258595 0.174243
0.809033 0.201877 0.154696
0.828336 0.143328 0.134844
0.843397 0.0623331 0.118349
0.811856 0.0502174 0.171069
0.835599 0.0520333 0.203983
0.841672 0.062089 0.271397
0.845045 0.068986 0.313603
0.84744 0.0805829 0.368307
0.850187 0.0932021 0.414664
0.85391 0.107713 0.459648
0.857725 0.117708 0.499626
0.865553 0.127123 0.535149
0.874006 0.138323 0.565499
0.880369 0.15259 0.589761
0.129107 0.552422 0.414481
0.129107 0.552422 0.414481
0.129442 0.552239 0.413474
0.130312 0.551812 0.411032
0.133242 0.552453 0.408316
0.136416 0.552956 0.404761
0.140444 0.553841 0.400946
0.146441 0.555245 0.395132
0.156146 0.555169 0.377997
0.166537 0.55404 0.356878
0.176135 0.54374 0.316579
0.253849 0.530846 0.271443
0.370184 0.533059 0.250111
0.450324 0.542748 0.241413
0.565072 0.537682 0.238819
0.660304 0.544976 0.248356
0.720745 0.525872 0.250263
0.787182 0.470451 0.281163
0.812192 0.419348 0.273625
0.828534 0.348837 0.228061
0.865492 0.26186 0.196704
0.899992 0.17763 0.177005
0.905303 0.102876 0.154009
0.856016 0.0468452 0.168139
0.845533 0.0496681 0.194995
0.841947 0.0603799 0.260716
0.846265 0.0696422 0.317556
0.848722 0.0836957 0.380331
0.853483 0.0986801 0.430381
0.858259 0.114733 0.48098
0.866712 0.128466 0.523949
0.875334 0.141665 0.559106
0.882261 0.15697 0.586557
0.176303 0.590356 0.456657
0.176303 0.590356 0.456657
0.176806 0.590158 0.45539
0.177783 0.589853 0.453254
0.180209 0.590249 0.451072
0.183261 0.5906 0.447608
0.187152 0.591028 0.443046
0.192294 0.592157 0.438666
0.198901 0.593591 0.43209
0.210193 0.594781 0.416541
0.227039 0.594186 0.386175
0.249378 0.588586 0.345006
0.351141 0.587396 0.317906
0.451164 0.593683 0.299367
0.519432 0.60473 0.298116
0.628702 0.600855 0.29218
0.708171 0.605798 0.297124
0.757977 0.598474 0.297093
0.821363 0.563882 0.319432
0.874754 0.519844 0.339422
0.904768 0.462791 0.311681
0.921843 0.365042 0.25095
0.917372 0.273503 0.2168
0.91873 0.18262 0.188098
0.904707 0.0581826 0.144778
0.849714 0.0474403 0.180453
0.843519 0.0581674 0.248356
0.851072 0.0702678 0.320607
0.855497 0.0875257 0.391699
0.862562 0.1093 0.451148
0.868528 0.129061 0.505653
0.877119 0.145663 0.548882
0.884352 0.164385 0.581476
0.219562 0.624079 0.496788
0.219562 0.624079 0.496788
0.220264 0.623774 0.495079
0.221103 0.623468 0.493172
0.223194 0.623804 0.491569
0.225422 0.624094 0.489632
0.228275 0.624414 0.486671
0.232136 0.624933 0.482734
0.237583 0.626337 0.479011
0.246281 0.627543 0.468605
0.260304 0.629099 0.449546
0.284642 0.6318 0.418265
0.330831 0.634775 0.384054
0.437888 0.641138 0.366995
0.518868 0.65005 0.354665
0.588113 0.660594 0.354772
0.682246 0.657801 0.348379
0.743358 0.65687 0.343709
0.792538 0.657206 0.347997
0.852079 0.645655 0.364279
0.913695 0.619715 0.379721
0.968994 0.580179 0.387976
0.972335 0.525856 0.360067
0.940612 0.437308 0.292988
0.918166 0.297169 0.225513
0.919188 0.136995 0.173434
0.877455 0.0474556 0.155688
0.849317 0.0537575 0.223545
0.856565 0.0758526 0.345647
0.868696 0.0956283 0.40061
0.873106 0.126772 0.473289
0.87982 0.15172 0.531487
0.886732 0.174136 0.572961
0.254047 0.652354 0.533974
0.254139 0.652308 0.533776
0.254826 0.651957 0.532158
0.255421 0.651682 0.530785
0.257221 0.651942 0.529366
0.259632 0.652354 0.527672
0.262898 0.652873 0.525246
0.267903 0.653681 0.52137
0.273472 0.654902 0.517189
0.279988 0.656657 0.512978
0.290455 0.658152 0.501167
0.307652 0.659831 0.479011
0.340307 0.668437 0.453101
0.408423 0.680232 0.435706
0.520058 0.689387 0.418006
0.579187 0.699489 0.415
0.648478 0.710765 0.417044
0.723232 0.709346 0.410239
0.773892 0.703395 0.395499
0.822873 0.705669 0.401495
0.87982 0.705257 0.413474
0.930388 0.694118 0.421118
0.958877 0.674235 0.417014
0.969299 0.640208 0.404135
0.979492 0.580499 0.389242
0.951797 0.467857 0.31545
0.917235 0.264225 0.213626
0.910704 0.0701762 0.147829
0.893156 0.0507057 0.154391
0.872435 0.0762341 0.328481
0.882704 0.117205 0.410559
0.88423 0.156924 0.49836
0.889509 0.186725 0.557031
0.286946 0.678111 0.565621
0.287343 0.678035 0.564996
0.288258 0.677913 0.563684
0.289158 0.677836 0.562509
0.29099 0.678157 0.561379
0.292927 0.678508 0.560204
0.295735 0.679057 0.558526
0.299641 0.67982 0.555947
0.305318 0.68098 0.552132
0.311757 0.682597 0.548379
0.31931 0.684474 0.543603
0.331182 0.685863 0.531518
0.356374 0.691554 0.511498
0.399985 0.70631 0.493965
0.4869 0.72462 0.491737
0.584344 0.733532 0.475807
0.632303 0.745296 0.482017
0.694224 0.756878 0.484932
0.755901 0.756588 0.476051
0.804929 0.74966 0.458549
0.849134 0.747845 0.45745
0.900816 0.748898 0.461799
0.933028 0.742824 0.460655
0.930434 0.729778 0.443488
0.935088 0.711009 0.426673
0.955215 0.676066 0.412451
0.97792 0.604562 0.396918
0.943572 0.445441 0.298955
0.919326 0.145556 0.17641
0.919203 0.137133 0.173465
0.890074 0.0861982 0.292302
0.894301 0.156207 0.429206
0.893172 0.202945 0.525521
0.320043 0.701198 0.591318
0.320516 0.701106 0.59057
0.321324 0.701076 0.589639
0.32195 0.700999 0.588739
0.323537 0.701396 0.588067
0.325063 0.701717 0.587289
0.327382 0.702281 0.586282
0.33077 0.703059 0.584634
0.335561 0.704082 0.582116
0.341527 0.705318 0.578759
0.348013 0.70695 0.575418
0.356832 0.708843 0.569986
0.370398 0.709865 0.556863
0.404425 0.722454 0.545052
0.464454 0.745769 0.546014
0.563668 0.76466 0.541405
0.632685 0.773648 0.535485
0.672496 0.786297 0.544762
0.728023 0.797681 0.545388
0.784375 0.798428 0.534325
0.830808 0.793118 0.520729
0.870893 0.786648 0.510918
0.916396 0.78706 0.511696
0.923858 0.779065 0.499321
0.913359 0.763867 0.475227
0.913573 0.747631 0.454108
0.92517 0.729198 0.438468
0.946715 0.69163 0.417807
0.978821 0.590463 0.392538
0.917342 0.254108 0.2103
0.917433 0.246159 0.207736
0.909895 0.116152 0.264607
0.895903 0.202808 0.493065
0.347967 0.719646 0.612131
0.348669 0.719615 0.611337
0.349233 0.71957 0.610651
0.34992 0.71957 0.609964
0.351263 0.719905 0.609522
0.352544 0.720226 0.609064
0.354391 0.720699 0.608438
0.357198 0.721401 0.60737
0.361166 0.722332 0.605661
0.366445 0.723476 0.602808
0.373114 0.725002 0.599283
0.380331 0.726879 0.596078
0.390311 0.72871 0.589258
0.408499 0.732677 0.577966
0.45655 0.754482 0.579263
0.530694 0.781964 0.587198
0.621958 0.798825 0.580896
0.664225 0.809796 0.585489
0.699474 0.82327 0.594995
0.75433 0.834455 0.592035
0.805905 0.836896 0.581582
0.851102 0.833844 0.571969
0.890822 0.828855 0.564569
0.923537 0.822492 0.556008
0.917739 0.810544 0.540383
0.901366 0.790066 0.511711
0.897658 0.77438 0.488273
0.905226 0.760082 0.468162
0.920867 0.737011 0.444389
0.952865 0.680568 0.414023
0.932616 0.408591 0.275105
0.930144 0.398001 0.269215
0.925917 0.205951 0.289189
0.3738 0.735271 0.629999
0.374624 0.735317 0.629297
0.375402 0.735378 0.628672
0.376089 0.735409 0.628107
0.377371 0.735729 0.627726
0.378576 0.736065 0.627466
0.380087 0.736416 0.626993
0.382284 0.736965 0.626352
0.385428 0.737713 0.625269
0.389807 0.73875 0.623514
0.395697 0.740124 0.620676
0.402625 0.741756 0.616953
0.409522 0.743572 0.613169
0.419989 0.745464 0.604517
0.44918 0.757717 0.602274
0.513344 0.788342 0.615717
0.591012 0.81445 0.618616
0.652628 0.828534 0.617426
0.684215 0.841215 0.625483
0.72015 0.855299 0.633661
0.774243 0.865202 0.629419
0.822736 0.86981 0.620859
0.865354 0.869657 0.614099
0.900603 0.86569 0.607538
0.916411 0.859022 0.599603
0.910231 0.846952 0.584237
0.895674 0.826215 0.55848
0.889479 0.802716 0.528695
0.893782 0.785946 0.505516
0.901244 0.765194 0.474922
0.924651 0.730465 0.43946
0.97969 0.567178 0.384222
0.977157 0.552728 0.376089
0.393408 0.747158 0.643793
0.39411 0.74725 0.643275
0.39469 0.747311 0.642756
0.395438 0.747402 0.642191
0.396399 0.747662 0.641886
0.397391 0.747936 0.641581
0.398688 0.748302 0.641215
0.400397 0.748745 0.640681
0.402838 0.749355 0.639872
0.406256 0.750195 0.638666
0.411383 0.751431 0.636896
0.418296 0.752941 0.633829
0.425681 0.754742 0.629664
0.432837 0.756634 0.62504
0.445686 0.759991 0.616617
0.49781 0.78706 0.631479
0.566659 0.818509 0.641611
0.633234 0.840467 0.6421
0.670604 0.854612 0.64802
0.700465 0.867674 0.655985
0.742107 0.879072 0.65864
0.790936 0.887022 0.654643
0.836423 0.89218 0.648234
0.871046 0.893614 0.643336
0.897429 0.892164 0.639445
0.900862 0.886213 0.632334
0.897215 0.876677 0.620768
0.886885 0.861845 0.60235
0.889616 0.843061 0.578561
0.888655 0.81912 0.549615
0.892103 0.791104 0.512779
0.904799 0.759441 0.467201
0.960937 0.663615 0.409384
0.402182 0.753155 0.651392
0.403082 0.753384 0.651072
0.403967 0.753613 0.650767
0.404929 0.753857 0.650446
0.405982 0.754192 0.650248
0.406867 0.754452 0.650034
0.408057 0.754788 0.649714
0.409644 0.75523 0.649332
0.412009 0.755871 0.648783
0.415137 0.75668 0.647929
0.41944 0.757733 0.646647
0.425177 0.759091 0.64448
0.432639 0.760739 0.640482
0.440574 0.762585 0.635233
0.447288 0.764019 0.628977
0.477958 0.77937 0.633173
0.542535 0.812619 0.650339
0.611032 0.841764 0.654978
0.655924 0.858137 0.658076
0.689311 0.872221 0.665125
0.725139 0.883818 0.669444
0.767056 0.89073 0.666926
0.812375 0.899062 0.66479
0.852964 0.904494 0.661677
0.878721 0.9075 0.661952
0.889586 0.907347 0.660151
0.889235 0.904082 0.655787
0.884733 0.896925 0.646891
0.876204 0.88603 0.634028
0.880644 0.874052 0.617716
0.885817 0.856504 0.595621
0.888655 0.825513 0.557366
0.893996 0.782956 0.501106
0.404913 0.755703 0.65565
0.405737 0.755886 0.655314
0.4065 0.756039 0.654963
0.40734 0.756222 0.654643
0.408316 0.756497 0.654414
0.409232 0.756725 0.654154
0.410391 0.757061 0.653941
0.4121 0.757534 0.653605
0.414191 0.758129 0.653223
0.416953 0.758892 0.652613
0.420829 0.759945 0.651621
0.426047 0.761303 0.649927
0.432898 0.762936 0.646967
0.441428 0.764736 0.641993
0.449836 0.766644 0.635248
0.461921 0.771618 0.631586
0.515007 0.801144 0.650294
0.582742 0.833951 0.661143
0.640421 0.857893 0.664317
0.675486 0.872496 0.669993
0.71281 0.885939 0.675532
0.753384 0.8934 0.673976
0.791959 0.89897 0.670588
0.836728 0.905531 0.667353
0.871565 0.9093 0.66566
0.889281 0.912047 0.667155
0.890959 0.911742 0.666407
0.889342 0.90985 0.663722
0.884657 0.903517 0.655406
0.877623 0.893996 0.644022
0.875395 0.89073 0.640146
0.877226 0.881498 0.628046
0.884993 0.859815 0.599802
0.409827 0.759213 0.660441
0.410483 0.759335 0.660166
0.411215 0.759472 0.659861
0.411917 0.759579 0.659525
0.412879 0.759854 0.659373
0.413733 0.760098 0.65919
0.414923 0.760449 0.658961
0.416449 0.760876 0.658656
0.418418 0.761486 0.658274
0.420829 0.762188 0.657694
0.423987 0.763073 0.65687
0.428489 0.764263 0.655543
0.434424 0.765698 0.653559
0.44239 0.767422 0.649912
0.451514 0.769375 0.643259
0.465812 0.775448 0.639704
0.491844 0.790356 0.647745
0.552834 0.823072 0.664652
0.61886 0.854856 0.671809
0.661936 0.873976 0.677119
0.698604 0.888426 0.68278
0.743297 0.898726 0.683314
0.779416 0.90277 0.679042
0.8159 0.907012 0.674998
0.857694 0.912047 0.671489
0.886198 0.914977 0.672053
0.895171 0.916823 0.673838
0.894514 0.916045 0.672633
0.892073 0.913161 0.668437
0.886732 0.906462 0.659205
0.880919 0.898405 0.64918
0.878737 0.895582 0.645899
0.876768 0.892515 0.642237
0.415503 0.763455 0.665431
0.416114 0.763516 0.665125
0.416663 0.763561 0.664775
0.417319 0.763638 0.664454
0.418021 0.763836 0.664332
0.41886 0.76408 0.664195
0.419852 0.764355 0.663966
0.421149 0.764721 0.663691
0.422904 0.765179 0.663264
0.425223 0.76582 0.662791
0.428092 0.766613 0.662181
0.431785 0.76759 0.661295
0.436759 0.768795 0.659754
0.443519 0.770321 0.657115
0.454078 0.773419 0.653452
0.469627 0.779767 0.650462
0.496437 0.795407 0.657725
0.532769 0.817304 0.670817
0.590082 0.847883 0.683589
0.646357 0.876631 0.690562
