presets/XH_G200_1.cube
TITLE "Generated by Resolve"
LUT_3D_SIZE 33
0.0506752 0.0646677 0.068574
0.0506752 0.0646677 0.068574
0.0506752 0.0646677 0.068574
0.0506294 0.0647593 0.0684977
0.072282 0.0691386 0.0717174
0.0986801 0.0742504 0.0722362
0.141176 0.0835889 0.0756847
0.187701 0.0945144 0.0818189
0.237491 0.105455 0.0879683
0.297368 0.118273 0.0929274
0.364981 0.130968 0.0934005
0.433371 0.142626 0.0908522
0.497993 0.154177 0.0868086
0.561929 0.167239 0.0915389
0.617105 0.181064 0.102525
0.665476 0.195361 0.116594
0.709285 0.209659 0.136004
0.74902 0.223316 0.166827
0.787045 0.23624 0.215549
0.823651 0.248127 0.290913
0.853468 0.264088 0.386114
0.877089 0.28571 0.491066
0.899825 0.313191 0.585122
0.914412 0.335668 0.644587
0.919005 0.347265 0.675319
0.924071 0.35964 0.702235
0.928069 0.369085 0.724895
0.932006 0.378698 0.743038
0.935409 0.387442 0.757061
0.938628 0.395605 0.768521
0.943328 0.411078 0.781598
0.949569 0.436194 0.796811
0.955337 0.462531 0.81059
0.0506752 0.0646677 0.068574
0.0506752 0.0646677 0.068574
0.0506752 0.0646677 0.068574
0.0504921 0.0647288 0.0684977
0.0705882 0.0687419 0.0714733
0.0961013 0.0737469 0.0720836
0.138186 0.0828565 0.0751965
0.185473 0.0939956 0.0814221
0.235401 0.104982 0.0876783
0.296208 0.118013 0.0927901
0.364981 0.130968 0.0934005
0.433371 0.142626 0.0908522
0.497993 0.154177 0.0868086
0.561929 0.167239 0.0915389
0.617105 0.181064 0.102525
0.665476 0.195361 0.116594
0.709285 0.209659 0.136004
0.748653 0.223194 0.1664
0.785916 0.235843 0.213138
0.822034 0.24744 0.286427
0.851865 0.262837 0.378515
0.875471 0.283742 0.481834
0.897917 0.310597 0.57705
0.913909 0.334524 0.640299
0.918257 0.345312 0.670787
0.923323 0.357992 0.697612
0.927199 0.367102 0.720317
0.931044 0.376257 0.738705
0.934356 0.384833 0.75317
0.937392 0.392416 0.764248
0.940169 0.39968 0.773693
0.945678 0.420523 0.787472
0.95079 0.441489 0.799802
0.0506752 0.0646677 0.068574
0.0506752 0.0646677 0.068574
0.0506752 0.0646677 0.068574
0.0505837 0.0646982 0.0684977
0.0661326 0.0678416 0.0699931
0.0836652 0.0713664 0.0711833
0.119783 0.0785992 0.0719615
0.169757 0.090425 0.079057
0.220233 0.101823 0.0859236
0.281575 0.114839 0.0912184
0.352041 0.128588 0.0931106
0.423758 0.140826 0.0904402
0.491997 0.15285 0.0861372
0.558343 0.166369 0.0904555
0.615442 0.18056 0.101823
0.66334 0.194659 0.115328
0.706706 0.208835 0.133974
0.746181 0.222263 0.163195
0.783673 0.235126 0.209049
0.819974 0.246555 0.279957
0.850248 0.261616 0.370748
0.873991 0.282094 0.474159
0.896254 0.30837 0.570123
0.913512 0.333608 0.637003
0.91783 0.344167 0.667781
0.922911 0.357076 0.694621
0.926711 0.365881 0.717403
0.930449 0.374807 0.735637
0.933639 0.382986 0.749966
0.936492 0.390204 0.761074
0.939147 0.397009 0.770291
0.943038 0.410178 0.780835
0.947662 0.428367 0.792309
0.0492714 0.0648966 0.0684062
0.0495003 0.0648814 0.0684825
0.0502022 0.0649271 0.0684672
0.0503853 0.0650034 0.0684825
0.0606088 0.0677501 0.069337
0.0725872 0.0700389 0.0703593
0.0996262 0.0749065 0.070222
0.152804 0.0867018 0.0760052
0.205646 0.0989242 0.0839246
0.26688 0.11162 0.0896162
0.338918 0.125978 0.0923171
0.413153 0.138857 0.0900893
0.487419 0.1523 0.0886397
0.551446 0.164904 0.0888838
0.61062 0.179004 0.0995041
0.659953 0.193347 0.112932
0.703746 0.207813 0.131441
0.743801 0.221393 0.159808
0.781323 0.234363 0.204334
0.817929 0.245838 0.273762
0.84863 0.260533 0.363516
0.872541 0.280369 0.465812
0.894514 0.306111 0.563058
0.913115 0.332708 0.633631
0.917281 0.342763 0.664347
0.922225 0.355505 0.690898
0.926085 0.364462 0.714214
0.929717 0.373053 0.732341
0.932876 0.381003 0.746777
0.935653 0.388098 0.757992
0.938262 0.394675 0.767147
0.940612 0.401205 0.774853
0.944961 0.4177 0.785672
0.0373236 0.0705425 0.0713512
0.0376898 0.0705119 0.070634
0.0401617 0.0708324 0.0687114
0.0463722 0.0724651 0.0694591
0.051667 0.0743572 0.0700236
0.0667277 0.0765698 0.0696117
0.0919203 0.0802472 0.0678264
0.145205 0.0889906 0.0727092
0.206729 0.100999 0.080415
0.267277 0.113588 0.0869001
0.337163 0.126024 0.0881056
0.407614 0.13698 0.0853132
0.488853 0.151232 0.0818799
0.556252 0.165057 0.0854047
0.614374 0.179355 0.0968948
0.659297 0.192233 0.10515
0.703136 0.207523 0.12546
0.743236 0.221027 0.152651
0.780697 0.234012 0.195682
0.817365 0.24567 0.263386
0.848768 0.260136 0.35407
0.872694 0.279713 0.457877
0.89456 0.305577 0.557946
0.912734 0.331914 0.630182
0.916884 0.341833 0.661494
0.921843 0.354574 0.688746
0.925841 0.363973 0.712795
0.929549 0.372702 0.731456
0.932738 0.380728 0.746075
0.935546 0.387884 0.757488
0.93817 0.394491 0.766781
0.940703 0.401602 0.774884
0.945006 0.418082 0.785641
0.0304723 0.0772564 0.0746929
0.0307927 0.0771496 0.0745098
0.0327001 0.0766461 0.0714885
0.0406806 0.0775311 0.0713512
0.0482338 0.0800031 0.071458
0.0638743 0.0829023 0.0704204
0.0944991 0.0882582 0.069688
0.136431 0.0951705 0.0729076
0.189899 0.103563 0.078645
0.258885 0.114076 0.0829633
0.340642 0.128206 0.0854353
0.414771 0.139315 0.0811627
0.483803 0.147097 0.0729229
0.54905 0.16228 0.0782025
0.614588 0.177447 0.0870375
0.663035 0.192844 0.103456
0.702434 0.206592 0.118151
0.742489 0.2206 0.14519
0.780087 0.233692 0.186587
0.816693 0.245502 0.252598
0.848814 0.259709 0.344305
0.872877 0.279057 0.449485
0.894575 0.304952 0.552392
0.912398 0.331197 0.626719
0.916457 0.340871 0.658473
0.921477 0.353674 0.686763
0.925628 0.363531 0.711406
0.929366 0.372366 0.730495
0.932586 0.380377 0.745312
0.935424 0.387625 0.75697
0.938048 0.394232 0.766354
0.940734 0.401892 0.774777
0.945052 0.418509 0.785626
0.0194705 0.0922713 0.0784619
0.0198367 0.0918746 0.078172
0.0223239 0.0899977 0.076112
0.0273442 0.0887617 0.0737469
0.0364996 0.0906996 0.0735943
0.0526894 0.0943618 0.0716869
0.0792859 0.099382 0.071397
0.127703 0.107469 0.0734264
0.189349 0.115663 0.0800793
0.242329 0.124392 0.0849622
0.319509 0.134249 0.0839704
0.409567 0.13959 0.0720531
0.489998 0.150469 0.0687419
0.554574 0.158831 0.0634012
0.605585 0.170565 0.0721904
0.659327 0.190112 0.0918746
0.706218 0.207385 0.115663
0.74136 0.22005 0.1355
0.779034 0.233204 0.175448
0.815824 0.245319 0.238941
0.848829 0.259083 0.33167
0.87303 0.278187 0.438865
0.89453 0.304128 0.545251
0.91194 0.33019 0.621973
0.915984 0.339803 0.655024
0.920943 0.352392 0.683894
0.925292 0.36289 0.709148
0.929091 0.371801 0.729091
0.932403 0.379995 0.744381
0.935286 0.38735 0.756344
0.937942 0.394003 0.765896
0.940719 0.402121 0.774548
0.945098 0.419043 0.785611
0.00747692 0.120867 0.0833295
0.0078584 0.120195 0.082948
0.00999466 0.116716 0.080354
0.0124056 0.113466 0.0768444
0.0193484 0.112276 0.0751354
0.0348211 0.11458 0.0737926
0.0643473 0.118059 0.0733196
0.106935 0.123095 0.079469
0.159136 0.135882 0.0780346
0.246021 0.14992 0.0851606
0.317205 0.157168 0.0909743
0.38851 0.162493 0.0863203
0.469368 0.164004 0.0711528
0.550469 0.161028 0.051667
0.614511 0.168139 0.0538643
0.658335 0.176196 0.0588235
0.70103 0.200641 0.0942855
0.744381 0.220615 0.130465
0.77734 0.232288 0.160693
0.814572 0.244846 0.220645
0.848615 0.258137 0.313313
0.873182 0.276829 0.422553
0.894484 0.302968 0.534844
0.911345 0.32874 0.614725
0.915373 0.33846 0.650156
0.920287 0.350774 0.680125
0.92488 0.362066 0.706142
0.928679 0.371008 0.727138
0.932204 0.379568 0.743313
0.935042 0.386877 0.755444
0.937758 0.393622 0.765164
0.94081 0.402731 0.774426
0.945174 0.419669 0.78558
0.00137331 0.165194 0.092256
0.00146487 0.164599 0.0917372
0.00241093 0.159503 0.0877546
0.00361639 0.154391 0.0839551
0.00726329 0.150103 0.0767681
0.0133211 0.148501 0.074876
0.0425879 0.147448 0.0737926
0.0866255 0.149355 0.0781262
0.138277 0.154528 0.0931411
0.200595 0.172854 0.0863661
0.314611 0.192737 0.0859388
0.409415 0.19501 0.091783
0.466194 0.19649 0.0830396
0.535286 0.190951 0.0697795
0.599771 0.18204 0.0524605
0.660044 0.176791 0.0415351
0.705608 0.18822 0.0571603
0.739269 0.208576 0.0959335
0.779782 0.232624 0.151247
0.81268 0.243793 0.198001
0.84802 0.256779 0.287846
0.873304 0.274907 0.399893
0.894331 0.301015 0.518425
0.910445 0.32665 0.603937
0.91458 0.336583 0.642618
0.919402 0.348669 0.675212
0.924346 0.360998 0.702113
0.928237 0.370108 0.724422
0.931792 0.378698 0.741436
0.934768 0.386297 0.754223
0.93756 0.393194 0.764309
0.940932 0.403662 0.774319
0.945235 0.420615 0.785519
0 0.226703 0.11107
0 0.226276 0.110613
4.57771e-05 0.220523 0.104219
0.000228885 0.21387 0.0974899
0.000640879 0.211597 0.0912795
0.00289921 0.200809 0.0794995
0.0143587 0.196094 0.076051
0.0669871 0.18732 0.0765545
0.116121 0.187549 0.0884413
0.176989 0.193973 0.113512
0.254047 0.216373 0.0925002
0.385733 0.238453 0.0790265
0.489754 0.234836 0.087129
0.542519 0.233295 0.0792401
0.593347 0.225513 0.0699016
0.648493 0.211261 0.0587472
0.698589 0.197711 0.0455634
0.740291 0.198276 0.052018
0.774685 0.216587 0.102327
0.811475 0.241489 0.174502
0.849958 0.256764 0.275624
0.873152 0.272068 0.367437
0.894057 0.298039 0.494224
0.909285 0.323751 0.58822
0.913497 0.334127 0.631891
0.918288 0.345983 0.667674
0.923613 0.359609 0.696971
0.92752 0.368719 0.720378
0.931289 0.377646 0.738766
0.934432 0.385641 0.752697
0.937285 0.39263 0.763165
0.941039 0.404807 0.774075
0.945403 0.421958 0.785489
0 0.294972 0.145052
0 0.294972 0.145052
0 0.289891 0.136172
0 0.284169 0.125902
0 0.283406 0.11957
0.000137331 0.276768 0.105928
0.00180056 0.260014 0.0863203
0.0254826 0.243839 0.075639
0.0910658 0.233066 0.0837568
0.151232 0.232288 0.10341
0.225589 0.241947 0.134585
0.315572 0.265766 0.0983139
0.452949 0.287587 0.0682078
0.558297 0.279271 0.0772412
0.614939 0.273564 0.0751965
0.649134 0.268956 0.0701457
0.690852 0.255009 0.0655833
0.734279 0.229664 0.0569619
0.77322 0.211475 0.0542306
0.80145 0.222309 0.0940719
0.843214 0.249302 0.209308
0.875166 0.271305 0.348455
0.893568 0.293187 0.456474
0.907622 0.319265 0.562692
0.91194 0.330632 0.615305
0.916777 0.342489 0.65687
0.922484 0.356863 0.689509
0.926696 0.367132 0.715496
0.930602 0.376257 0.735088
0.933883 0.384482 0.750103
0.936904 0.391897 0.761456
0.941009 0.405951 0.773449
0.94551 0.423545 0.785275
0 0.364538 0.192859
0 0.364538 0.192859
0 0.362676 0.186282
0 0.358633 0.176028
0 0.356649 0.164004
0 0.355566 0.154574
0 0.34728 0.133822
0.00227359 0.322606 0.100725
0.04477 0.294438 0.0800793
0.120821 0.28394 0.0959029
0.197116 0.285863 0.124987
0.28307 0.298558 0.159045
0.388251 0.325261 0.1075
0.515358 0.348669 0.0611582
0.614908 0.340566 0.0723735
0.673243 0.327047 0.0826123
0.706462 0.32015 0.0830243
0.73492 0.30721 0.080415
0.768139 0.276997 0.0724804
0.80441 0.236149 0.0708171
0.826551 0.231861 0.10779
0.869596 0.256733 0.257359
0.894942 0.290547 0.427924
0.905074 0.311452 0.518471
0.909728 0.325444 0.587869
0.914778 0.337865 0.63946
0.920516 0.352087 0.678508
0.925643 0.365118 0.708309
0.929717 0.374487 0.730373
0.933211 0.383047 0.746654
0.936309 0.390738 0.75903
0.941054 0.407736 0.772671
0.945617 0.425711 0.78497
0 0.427085 0.235416
0 0.427085 0.235416
0 0.426078 0.23093
0 0.424781 0.223575
0 0.425086 0.213291
0 0.424674 0.205188
0 0.422202 0.18999
0.000167849 0.410971 0.158328
0.0091249 0.382727 0.116884
0.0695811 0.347448 0.0910353
0.165225 0.339208 0.116655
0.253666 0.344854 0.153048
0.359792 0.367636 0.190249
0.47187 0.401679 0.137026
0.579843 0.427085 0.0749828
0.657633 0.422263 0.080293
0.714519 0.396979 0.0997024
0.752865 0.379385 0.106126
0.777829 0.361944 0.103944
0.805951 0.327382 0.10367
0.835355 0.272999 0.105837
0.856321 0.243793 0.145739
0.887755 0.265126 0.304509
0.902998 0.302434 0.466865
0.906386 0.315953 0.535286
0.912001 0.331518 0.610178
0.917815 0.345663 0.660761
0.924025 0.362158 0.696864
0.928496 0.372168 0.723445
0.932311 0.381201 0.742229
0.935958 0.391073 0.756558
0.941024 0.409735 0.771481
0.945678 0.428534 0.784405
0 0.480186 0.274464
0 0.480186 0.274464
0 0.479942 0.271473
0 0.479744 0.265858
0 0.480476 0.257771
0 0.480735 0.249195
0 0.481971 0.241306
0 0.47924 0.22034
0.000823987 0.463661 0.179187
0.0179599 0.434058 0.128191
0.105425 0.400519 0.110338
0.227588 0.396063 0.148196
0.331716 0.412558 0.192996
0.45034 0.446784 0.227726
0.559319 0.485283 0.178042
0.646845 0.506325 0.113771
0.702388 0.502953 0.0987411
0.743999 0.479271 0.108614
0.785489 0.442206 0.127321
0.816632 0.413993 0.132616
0.839948 0.376516 0.137453
0.865736 0.313878 0.153017
0.882124 0.257969 0.197391
0.897093 0.271611 0.31043
0.90312 0.3028 0.461875
0.907515 0.319982 0.549142
0.914275 0.337453 0.629404
0.921035 0.354131 0.678492
0.926665 0.368719 0.712627
0.930999 0.378683 0.735271
0.936049 0.394202 0.754467
0.941009 0.412619 0.769909
0.945678 0.432105 0.783398
0 0.527276 0.318669
0 0.527276 0.318669
0 0.527214 0.31664
0 0.527108 0.31162
0 0.527962 0.30518
0 0.528634 0.2972
0 0.529717 0.288243
0 0.529992 0.27396
0 0.523705 0.236545
0.00169375 0.51043 0.193835
0.0313268 0.480827 0.142916
0.161471 0.452674 0.139147
0.317372 0.456672 0.193942
0.428061 0.488106 0.240909
0.541451 0.527169 0.266621
0.641047 0.566247 0.22298
0.717708 0.583688 0.163821
0.765087 0.580743 0.129335
0.792233 0.55967 0.129168
0.821302 0.519615 0.14081
0.852735 0.474067 0.158099
0.876509 0.421378 0.176928
0.887617 0.360357 0.195972
0.900267 0.278508 0.242176
0.900008 0.273823 0.305867
0.902602 0.299809 0.438987
0.9084 0.32314 0.558083
0.916304 0.342901 0.644114
0.923827 0.363073 0.692851
0.930053 0.379156 0.726375
0.935821 0.398367 0.750347
0.940978 0.417624 0.767941
0.94583 0.43772 0.782544
0 0.567483 0.370306
0 0.567483 0.370306
0 0.567468 0.367285
0 0.567498 0.362112
0 0.568338 0.355703
0 0.568795 0.344701
0 0.569162 0.33019
0 0.570062 0.314366
0 0.570001 0.293614
0.000335698 0.564797 0.252399
0.0150759 0.54522 0.193713
0.078584 0.51371 0.147158
0.269673 0.498619 0.183978
0.427924 0.523262 0.246281
0.522652 0.561059 0.286503
0.62414 0.599893 0.301137
0.722469 0.64509 0.26714
0.786755 0.658961 0.218555
0.829236 0.653452 0.177584
0.84979 0.639887 0.162997
0.868498 0.611978 0.158511
0.886122 0.55874 0.176669
0.884871 0.498222 0.186236
0.886351 0.430671 0.192065
0.899107 0.317067 0.222309
0.901778 0.273457 0.270726
0.902892 0.294957 0.411917
0.910277 0.331273 0.568734
0.920211 0.357336 0.661128
0.928435 0.383169 0.711086
0.93492 0.403128 0.742733
0.94078 0.424201 0.764614
0.945891 0.44593 0.780926
0 0.60824 0.422415
0 0.60824 0.422415
0 0.608225 0.416541
0 0.608209 0.41001
0 0.609079 0.403189
0 0.609888 0.395209
0 0.610712 0.383597
0 0.611795 0.367422
0.000167849 0.613458 0.35169
0.002121 0.612009 0.316564
0.0105592 0.603265 0.259724
0.0415656 0.577966 0.193271
0.173358 0.544915 0.167987
0.404608 0.554269 0.244099
0.525216 0.590936 0.290883
0.612467 0.630365 0.330373
0.698665 0.666133 0.339544
0.794018 0.715755 0.311437
0.846448 0.724437 0.270558
0.878553 0.714488 0.229725
0.900114 0.70544 0.19678
0.912337 0.688746 0.174395
0.906676 0.659098 0.167147
0.893141 0.605142 0.170871
0.885313 0.514244 0.186511
0.889403 0.392813 0.198779
0.90161 0.289906 0.238193
0.904005 0.289189 0.361685
0.914702 0.3458 0.609491
0.924315 0.382498 0.677485
0.932723 0.409461 0.727413
0.939635 0.432929 0.757382
0.94548 0.456321 0.777554
0.000427253 0.65272 0.481636
0.000427253 0.652689 0.48098
0.000427253 0.652537 0.475395
0.000427253 0.652491 0.470375
0.000656138 0.653269 0.464286
0.00105287 0.654063 0.457496
0.00167849 0.655024 0.44773
0.00299077 0.656275 0.431647
0.00541695 0.65771 0.412039
0.00859083 0.659663 0.389853
0.0162661 0.656504 0.338582
0.0306401 0.640452 0.259373
0.0918593 0.608423 0.193454
0.318883 0.583993 0.218051
0.530037 0.619348 0.298787
0.611688 0.65507 0.333471
0.689067 0.69218 0.373892
0.755322 0.71899 0.383383
0.841382 0.767102 0.359136
0.884031 0.775067 0.327031
0.910719 0.762676 0.279515
0.932143 0.755505 0.238453
0.940429 0.745266 0.206744
0.93402 0.725444 0.183658
0.918471 0.690791 0.169757
0.897551 0.624125 0.168475
0.88481 0.491783 0.186603
0.897078 0.331548 0.216526
0.90164 0.304311 0.251453
0.915618 0.365637 0.604227
0.927657 0.414282 0.689158
0.93695 0.444236 0.74139
0.944366 0.4701 0.770428
0.00753796 0.695415 0.53994
0.00762951 0.695384 0.53782
0.0078584 0.695399 0.533288
0.00807202 0.69546 0.529168
0.00854505 0.696193 0.524285
0.0090486 0.697002 0.519142
0.0099031 0.698161 0.511376
0.0113832 0.699687 0.498924
0.0138094 0.701381 0.480552
0.0173495 0.703227 0.45861
0.0222934 0.704692 0.427832
0.0339208 0.699245 0.357565
0.0632639 0.676768 0.262394
0.197009 0.633753 0.204959
0.469917 0.634012 0.28278
0.618418 0.678233 0.342702
0.679789 0.709102 0.377188
0.74342 0.740551 0.418997
0.793576 0.760403 0.438285
0.861479 0.796414 0.411643
0.904067 0.81059 0.381262
0.930861 0.800046 0.32755
0.950759 0.796643 0.288746
0.955596 0.793149 0.266316
0.954604 0.778744 0.237522
0.944488 0.748882 0.202441
0.924361 0.704494 0.17319
0.894301 0.610193 0.170245
0.88867 0.400046 0.196918
0.889387 0.392935 0.198703
0.913039 0.387808 0.569696
0.931289 0.4551 0.699321
0.941863 0.489204 0.754345
0.0167391 0.728695 0.587396
0.0167239 0.728725 0.584817
0.0167697 0.728771 0.581506
0.0169375 0.728817 0.578256
0.017319 0.729473 0.574746
0.0177157 0.730083 0.571008
0.0183261 0.731075 0.565728
0.0192416 0.732464 0.557336
0.0210269 0.734432 0.543374
0.0237583 0.736706 0.523507
0.0276646 0.738781 0.499901
0.0345312 0.740276 0.45774
0.0518196 0.732357 0.364233
0.108736 0.703517 0.260548
0.355871 0.660883 0.253178
0.580941 0.684764 0.34107
0.675395 0.722194 0.383398
0.722225 0.747066 0.420188
0.779156 0.777493 0.466499
0.822904 0.79237 0.486122
0.874601 0.813794 0.45655
0.921126 0.834913 0.426154
0.944549 0.830335 0.385214
0.956695 0.832319 0.359915
0.967681 0.839139 0.339208
0.970001 0.828351 0.305257
0.96202 0.800336 0.264347
0.94902 0.761105 0.215717
0.920806 0.696452 0.17116
0.884901 0.48452 0.187015
0.884962 0.478813 0.187488
0.912367 0.406332 0.511116
0.938354 0.492287 0.735164
0.0243076 0.748348 0.623819
0.0242161 0.74844 0.620981
0.0241398 0.748516 0.618585
0.0240787 0.748623 0.616083
0.0241398 0.749081 0.613687
0.0242771 0.749584 0.611093
0.0245212 0.750317 0.607431
0.024918 0.751308 0.601709
0.0255436 0.752728 0.59292
0.0270542 0.754788 0.57789
0.0298161 0.757549 0.556741
0.0340429 0.760159 0.530755
0.0435035 0.762448 0.474006
0.0705577 0.752758 0.36022
0.209323 0.711971 0.261265
0.48333 0.690547 0.317037
0.648051 0.725078 0.387167
0.704814 0.751553 0.421241
0.747036 0.775448 0.462074
0.808865 0.805768 0.509056
0.847395 0.815549 0.533791
0.886992 0.830762 0.5205
0.92137 0.84567 0.495735
0.94754 0.855009 0.465293
0.954925 0.858473 0.443809
0.970596 0.871626 0.424277
0.973877 0.866377 0.393515
0.973159 0.847974 0.344625
0.965667 0.811322 0.278614
0.945785 0.752331 0.206165
0.890303 0.58703 0.17409
0.889509 0.580285 0.17583
0.915236 0.468238 0.478874
0.029221 0.75996 0.651423
0.0291142 0.760113 0.649088
0.0290227 0.76025 0.646876
0.0289616 0.760388 0.644953
0.0289616 0.760708 0.643
0.0289921 0.761028 0.641367
0.0290227 0.761456 0.638788
0.0291142 0.762142 0.634852
0.0292668 0.763149 0.628809
0.0294957 0.764508 0.619471
0.0306554 0.76672 0.603433
0.0332952 0.769604 0.579461
0.0378882 0.772366 0.549752
0.0518502 0.774762 0.472511
0.10103 0.762844 0.355032
0.339864 0.720638 0.30106
0.568536 0.720363 0.373129
0.676555 0.750378 0.421363
0.721294 0.772915 0.456397
0.768078 0.797726 0.502495
0.83032 0.826841 0.563897
0.863951 0.840909 0.60914
0.895048 0.854047 0.601328
0.921126 0.864164 0.576532
0.934401 0.867658 0.553109
0.942626 0.8701 0.527352
0.961288 0.883482 0.497383
0.972763 0.885206 0.459861
0.973907 0.876478 0.425757
0.973922 0.856001 0.363897
0.96257 0.801953 0.266438
0.915328 0.683192 0.168307
0.912139 0.674739 0.167803
0.0326238 0.767361 0.671031
0.0325628 0.767498 0.669154
0.0325017 0.767575 0.667399
0.0324407 0.767681 0.665461
0.0324712 0.767895 0.664042
0.0324865 0.768093 0.662577
0.0325017 0.768399 0.660716
0.0325322 0.768856 0.658076
0.032517 0.769482 0.654002
0.0324865 0.770382 0.647868
0.0326238 0.771695 0.637385
0.0331579 0.773709 0.619867
0.0357519 0.776608 0.59292
0.0417487 0.779614 0.555764
0.0629129 0.78143 0.457176
0.179294 0.763195 0.354559
0.447181 0.732357 0.354192
0.624109 0.7458 0.419745
0.690593 0.769467 0.459052
0.736584 0.791913 0.501381
0.793484 0.820203 0.560433
0.845716 0.84828 0.629709
0.878447 0.863554 0.659983
0.903075 0.873671 0.652735
0.919936 0.879973 0.63679
0.923934 0.878874 0.620264
0.930404 0.878599 0.594308
0.945129 0.885542 0.559884
0.955764 0.887343 0.528389
0.967666 0.887724 0.487251
0.973938 0.879927 0.437156
0.973434 0.848035 0.343923
0.940826 0.740337 0.194797
0.034638 0.770748 0.683238
0.0346685 0.770855 0.681758
0.0347143 0.770962 0.680323
0.0347601 0.771115 0.678813
0.0348058 0.771313 0.677516
0.0348211 0.771511 0.676326
0.0348363 0.771771 0.674632
0.0348821 0.772091 0.672526
0.0349584 0.772519 0.669459
0.03505 0.773068 0.665019
0.0350958 0.773907 0.657862
0.0350652 0.775158 0.645792
0.0357366 0.777203 0.624598
0.0388342 0.780255 0.590646
0.0479438 0.783398 0.539223
0.0898146 0.783551 0.450721
0.299138 0.757992 0.369482
0.555596 0.746456 0.418082
0.655833 0.764981 0.464637
0.712596 0.787808 0.508812
0.765377 0.812299 0.560494
0.819287 0.839872 0.619867
0.862455 0.864057 0.670817
0.892042 0.876921 0.683238
0.908858 0.884993 0.680766
0.915999 0.887541 0.675914
0.916838 0.88629 0.666117
0.919814 0.884962 0.644617
0.930022 0.886763 0.611032
0.939315 0.887404 0.584802
0.949218 0.887205 0.54992
0.964996 0.887999 0.497765
0.974166 0.874586 0.418479
0.035584 0.772564 0.692424
0.0356298 0.772625 0.69099
0.0356451 0.772671 0.68954
0.0356756 0.772732 0.688075
0.0357519 0.772854 0.686793
0.0357977 0.772961 0.685481
0.0359045 0.773129 0.684153
0.0360571 0.773388 0.682185
0.0362249 0.773693 0.679789
0.0364233 0.774121 0.676356
0.0365759 0.774762 0.670909
0.0367437 0.77554 0.66215
0.0368658 0.776898 0.646876
0.0379797 0.779126 0.619623
0.0439002 0.782681 0.572686
0.0601358 0.785657 0.512016
0.172595 0.77702 0.440223
0.431312 0.759258 0.416022
0.614664 0.764279 0.473228
0.682231 0.783123 0.51487
0.741543 0.807416 0.566369
0.797543 0.832792 0.619715
0.841337 0.855451 0.663798
0.876112 0.871092 0.691615
0.902449 0.883177 0.690349
0.913649 0.889021 0.69192
0.915175 0.889509 0.690013
0.915373 0.888731 0.683803
0.916762 0.886824 0.663539
0.922972 0.886397 0.633509
0.926528 0.887068 0.623041
0.9337 0.886992 0.600183
0.947448 0.88716 0.555886
0.0366827 0.775067 0.701457
0.0367437 0.775067 0.700282
0.03682 0.775051 0.699016
0.0368811 0.775036 0.697688
0.0369879 0.775113 0.696635
0.0371099 0.775174 0.695628
0.0372625 0.775265 0.694255
0.0374609 0.775372 0.692439
0.0376745 0.775631 0.690227
0.0379034 0.775937 0.687221
0.0381781 0.776318 0.683116
0.038529 0.776791 0.676829
0.038941 0.777493 0.665858
0.039353 0.778729 0.647135
0.0416266 0.781201 0.610803
0.0548562 0.785138 0.559838
0.0960098 0.784802 0.523644
0.281529 0.776791 0.463066
0.530526 0.773022 0.480049
0.644587 0.784527 0.527718
0.712306 0.80557 0.576608
0.778805 0.83209 0.635065
0.823392 0.851347 0.670512
0.860014 0.867491 0.696117
0.891051 0.879835 0.705638
0.909346 0.888594 0.703624
0.915053 0.892027 0.706645
0.914931 0.891508 0.704097
0.915038 0.890105 0.694652
0.915999 0.887617 0.672908
0.919509 0.886244 0.647425
0.921538 0.886244 0.63856
0.924605 0.886687 0.628763
0.0381018 0.77792 0.71104
0.0381933 0.777813 0.709804
0.0382696 0.777691 0.708507
0.0383764 0.7776 0.707225
0.0384985 0.7776 0.706447
0.0386053 0.777676 0.705531
0.0387274 0.777737 0.70428
0.03888 0.777829 0.702708
0.0391089 0.777935 0.70045
0.0394903 0.778073 0.697749
0.0399786 0.778241 0.694377
0.040528 0.778515 0.689616
0.0410925 0.778897 0.681926
0.0420233 0.779355 0.668894
0.0442969 0.780758 0.647501
0.0540169 0.783276 0.612192
0.0922866 0.783703 0.588022
0.183627 0.783123 0.575067
0.37116 0.794324 0.551095
0.560235 0.807034 0.566461
0.664225 0.822354 0.613428
0.74435 0.841367 0.663432
0.807324 0.855711 0.695216
0.84654 0.866636 0.707362
0.874739 0.876188 0.72047
0.901732 0.887404 0.717708
0.915526 0.897017 0.732616
0.918914 0.901274 0.746029
0.917403 0.89868 0.73666
0.915053 0.892103 0.707057
0.915602 0.888121 0.67863
0.917235 0.88629 0.657282
0.918471 0.886305 0.652293
0.039765 0.780972 0.720684
0.039765 0.780774 0.719341
