presets/XH_G200_4.cube
TITLE "Generated by Resolve"
LUT_3D_SIZE 5
0.0654307 0.00364691 0
0.154177 0.0132906 0
0.560983 0.0918898 0.0831922
0.762646 0.282383 0.501289
0.765377 0.367117 0.696986
0.0628977 0.139544 0
0.110521 0.121431 0
0.560021 0.0765698 0.00198367
0.76228 0.273823 0.471077
0.761242 0.336385 0.66041
0.122789 0.5776 0.303166
0.121965 0.575875 0.20737
0.717983 0.62266 0.219242
0.807675 0.410727 0.0700847
0.778531 0.358495 0.643351
0.21738 0.769345 0.656123
0.218326 0.770703 0.635721
0.262882 0.830671 0.436469
0.942962 0.933547 0.610803
0.981155 0.903868 0.447318
0.345983 0.87332 0.846326
0.323033 0.86688 0.830732
0.406699 0.886488 0.842115
0.715724 0.911162 0.838407
0.798779 0.91902 0.864271
0.0839857 0.00433356 0.0383307
0.172473 0.0182498 0.04065
0.572366 0.10544 0.207019
0.762341 0.290379 0.529549
0.766049 0.377584 0.709453
0.0620737 0.124437 0.0355535
0.104723 0.111955 0.0241703
0.563424 0.0931563 0.0859388
0.763012 0.284337 0.506401
0.771145 0.403662 0.732387
0.125933 0.576028 0.377844
0.12105 0.572885 0.304646
0.703548 0.608209 0.215991
0.804364 0.373037 0.0554208
0.780407 0.420218 0.726925
0.217945 0.770504 0.675608
0.21854 0.77113 0.658686
0.24593 0.815427 0.46894
0.942885 0.933516 0.610697
0.971923 0.893111 0.40235
0.359762 0.87628 0.854307
0.357168 0.875975 0.850889
0.429816 0.888884 0.853315
0.712886 0.910918 0.84033
0.798611 0.919005 0.864271
0.156268 0.0484474 0.48983
0.316823 0.0899519 0.50161
0.573983 0.156802 0.504158
0.750805 0.321065 0.654063
0.765057 0.402472 0.742824
0.104814 0.0441901 0.49279
0.180652 0.0668498 0.535042
0.582971 0.165438 0.518639
0.752209 0.317968 0.645991
0.77145 0.429603 0.76408
0.122545 0.546258 0.637095
0.121691 0.543572 0.634684
0.524041 0.585687 0.623011
0.778073 0.315404 0.527428
0.791714 0.558007 0.833005
0.223438 0.77705 0.755779
0.224155 0.778607 0.749371
0.251774 0.817853 0.697307
0.814282 0.935561 0.762539
0.949096 0.873335 0.340993
0.363241 0.875578 0.86978
0.365667 0.87628 0.868681
0.45948 0.890471 0.875929
0.709484 0.91017 0.860166
0.798398 0.91899 0.864713
0.271962 0.19942 0.728573
0.375463 0.215335 0.72311
0.594064 0.284718 0.731731
0.735561 0.403311 0.780362
0.739483 0.415763 0.791104
0.228717 0.197482 0.735073
0.276432 0.221729 0.749249
0.590494 0.298939 0.746899
0.735134 0.406287 0.784009
0.744701 0.429099 0.801511
0.171603 0.532631 0.829129
0.175998 0.528756 0.838834
0.482765 0.495216 0.870024
0.738079 0.411475 0.787564
0.783047 0.565347 0.875349
0.242893 0.788159 0.891615
0.24387 0.789212 0.892546
0.266835 0.808988 0.910796
0.76817 0.885542 0.938643
0.812238 0.754955 0.892378
0.380758 0.870863 0.935347
0.396674 0.874342 0.937026
0.512306 0.888411 0.941619
0.713649 0.904921 0.936492
0.783078 0.912566 0.935882
0.206622 0.265156 0.79028
0.246784 0.268711 0.789975
0.549737 0.303349 0.761868
0.733562 0.4094 0.788083
0.735866 0.414343 0.791714
0.191867 0.265736 0.79176
0.175357 0.350317 0.834867
0.493004 0.336507 0.801297
0.734737 0.411978 0.789975
0.73637 0.415381 0.792477
0.209918 0.594583 0.888899
0.224948 0.618021 0.89865
0.323445 0.659175 0.913436
0.789319 0.637644 0.895613
0.737926 0.41857 0.794842
0.261341 0.791043 0.92784
0.262821 0.791867 0.928634
0.295613 0.800778 0.943221
0.735027 0.852216 0.9467
0.798047 0.760037 0.925551
0.420279 0.854093 0.956329
0.442237 0.857343 0.957305
0.549203 0.869993 0.957946
0.709636 0.892485 0.955352
0.775174 0.902525 0.952941
