presets/原 柯达5207 -1.cube
TITLE "YINGZEJUN Copyright"
# YINGZEJUN Copyright
# SP3000 & GOLD200 
# 20241106
# Created by: Adobe Photoshop Export Color Lookup Plugin
LUT_3D_SIZE 33
0.0542910000 0.0776980000 0.1103520000
0.0746656267 0.0777010705 0.1095439468
0.0911040196 0.0808624440 0.1066435162
0.1039749746 0.0861087264 0.1066330554
0.1262140353 0.0885032612 0.1101916488
0.1527016063 0.0892550208 0.1124095708
0.1854084259 0.0909650841 0.1121153360
0.2248400905 0.0932729558 0.1112612829
0.2674432863 0.0958559971 0.1103686084
0.3095522851 0.0980264048 0.1100469808
0.3524535803 0.1008701257 0.1095254537
0.3912950212 0.1035574456 0.1085766728
0.4275243330 0.1059470793 0.1077590047
0.4693450850 0.1079725788 0.1070025569
0.5113680994 0.1104957428 0.1051802816
0.5549578011 0.1138127788 0.1045064159
0.5980371397 0.1157988385 0.1038784793
0.6414522239 0.1190848698 0.1037934462
0.6792737483 0.1219967235 0.1038304295
0.7118920037 0.1243743960 0.1037898834
0.7440404068 0.1279526723 0.1040652219
0.7668825868 0.1300950181 0.1053394792
0.7857173138 0.1322754262 0.1069518696
0.8027362024 0.1356489092 0.1085356335
0.8176568076 0.1400278763 0.1101474829
0.8311590973 0.1429178897 0.1129065376
0.8437432446 0.1454147380 0.1170025680
0.8548781264 0.1490082450 0.1222666868
0.8645345292 0.1523555695 0.1265225295
0.8754675078 0.1562696090 0.1327520255
0.8843840585 0.1594444677 0.1376437804
0.8917134814 0.1633464995 0.1418992100
0.8988439920 0.1677636879 0.1475778415
0.0589295192 0.0877303404 0.1096202589
0.0706175944 0.0855153844 0.1057448552
0.0882598353 0.0883158840 0.1042386532
0.1029096971 0.0919740198 0.1044216316
0.1256187607 0.0951213681 0.1059212140
0.1490941695 0.0966931392 0.1064502566
0.1815064456 0.0993480094 0.1067772582
0.2218074638 0.1015672564 0.1069470202
0.2643507220 0.1030129026 0.1071357369
0.3084488158 0.1056672339 0.1068811061
0.3504498009 0.1078485415 0.1077062384
0.3906094444 0.1103362192 0.1076916737
0.4282935266 0.1128042041 0.1068339876
0.4703873567 0.1142763483 0.1066158032
0.5130828637 0.1171380289 0.1053595944
0.5569852973 0.1196435399 0.1045637118
0.6014815978 0.1218280551 0.1034165858
0.6400160226 0.1237694238 0.1026731530
0.6807010267 0.1267959269 0.1022409788
0.7145607381 0.1291103089 0.1019006527
0.7455052282 0.1324504760 0.1016183941
0.7683278553 0.1345733978 0.1024899544
0.7869751660 0.1361771268 0.1040937728
0.8039186441 0.1386508370 0.1059866105
0.8188850893 0.1416934219 0.1076632586
0.8320795794 0.1448544452 0.1097074458
0.8451342508 0.1477493164 0.1131140871
0.8566305766 0.1506233426 0.1179305481
0.8663698275 0.1536955122 0.1225679949
0.8775957418 0.1576296236 0.1287195172
0.8861785437 0.1607502823 0.1340715957
0.8936451830 0.1645979067 0.1385850792
0.9007241944 0.1692413427 0.1438379098
0.0662715946 0.1078495091 0.1165172454
0.0725346446 0.1010950027 0.1085203781
0.0856462472 0.1018067811 0.1057462492
0.1016364075 0.1048350931 0.1066483550
0.1226484014 0.1072218144 0.1067386826
0.1475206893 0.1093750829 0.1069753472
0.1774324250 0.1112979323 0.1067395911
0.2176097629 0.1138030404 0.1071657240
0.2593619722 0.1146773231 0.1079781314
0.3047965218 0.1165634167 0.1084695860
0.3487130055 0.1184967092 0.1087034335
0.3899117184 0.1206024639 0.1089053327
0.4288200249 0.1229363808 0.1083804498
0.4714596068 0.1244275221 0.1079342722
0.5148974381 0.1260276285 0.1067141235
0.5579745533 0.1293047467 0.1064400592
0.6016366050 0.1316990428 0.1055838857
0.6430590464 0.1323541559 0.1036626079
0.6825367762 0.1344326067 0.1025376150
0.7164868666 0.1362672200 0.1020286965
0.7453660044 0.1396127682 0.1013767516
0.7696443117 0.1418204015 0.1015331163
0.7879652811 0.1431659332 0.1019907841
0.8048882778 0.1447085308 0.1035198198
0.8201670714 0.1471319262 0.1052863306
0.8339489808 0.1496752838 0.1074647946
0.8459959269 0.1519716863 0.1099470702
0.8583863784 0.1547171357 0.1139520217
0.8684769073 0.1574780413 0.1187746755
0.8797136414 0.1610076339 0.1245105103
0.8886715337 0.1640742690 0.1297018357
0.8959964994 0.1669918776 0.1354045876
0.9030493801 0.1715292915 0.1410853828
0.0760473466 0.1322372432 0.1263302679
0.0771921889 0.1201527112 0.1139208181
0.0856142660 0.1169745548 0.1103312665
0.0987861873 0.1200086380 0.1107880564
0.1193683857 0.1215898612 0.1104903306
0.1441425152 0.1243168586 0.1099336715
0.1746678574 0.1272481151 0.1097380180
0.2129250289 0.1290714939 0.1095261367
0.2549660684 0.1303159985 0.1103219521
0.3013840451 0.1322967518 0.1108195761
0.3449477080 0.1335394007 0.1109733912
0.3885068280 0.1337727093 0.1106700791
0.4283494597 0.1361855822 0.1103027936
0.4724894673 0.1378227546 0.1101253525
0.5147005693 0.1397943880 0.1094464418
0.5603017779 0.1411191107 0.1082643938
0.6013524824 0.1445620116 0.1073611104
0.6447463830 0.1449632307 0.1053699515
0.6834528789 0.1455018887 0.1036403259
0.7182623009 0.1472185251 0.1020076205
0.7445045426 0.1489349414 0.1010379671
0.7688423273 0.1506755695 0.1007476289
0.7892580663 0.1517277139 0.1009576858
0.8055248827 0.1529849905 0.1011736804
0.8215075754 0.1547053025 0.1026933948
0.8355045801 0.1560912495 0.1046999487
0.8479955812 0.1576376562 0.1070676472
0.8598206252 0.1600794365 0.1102356875
0.8711945427 0.1624552984 0.1144613971
0.8819076004 0.1653735051 0.1194625016
0.8915546752 0.1684152475 0.1251577843
0.8988711896 0.1712473529 0.1304232662
0.9058522610 0.1747029403 0.1376730152
0.0824327624 0.1574628948 0.1308060772
0.0810025051 0.1420517451 0.1189047047
0.0855411180 0.1349281997 0.1143982026
0.0962690737 0.1348016382 0.1133275105
0.1150912378 0.1385653174 0.1131634068
0.1394928935 0.1412335249 0.1121932695
0.1686253452 0.1443800996 0.1116717331
0.2060493680 0.1472324924 0.1119344560
0.2484122891 0.1479447563 0.1120846469
0.2946926661 0.1506429247 0.1121968327
0.3375440636 0.1523524074 0.1124521277
0.3787734261 0.1533772669 0.1124046690
0.4247129742 0.1539259369 0.1125954510
0.4716480338 0.1557640248 0.1121038163
0.5130088019 0.1576516990 0.1115129784
0.5562559048 0.1593123421 0.1105504189
0.6029869645 0.1597192848 0.1089459399
0.6474329493 0.1617747455 0.1070225866
0.6845328603 0.1621630843 0.1051949992
0.7168092360 0.1626712824 0.1034514807
0.7455233114 0.1646560530 0.1020632868
0.7676544339 0.1654906522 0.1013390555
0.7883485702 0.1652475616 0.1008899294
0.8064119762 0.1655520544 0.1007162060
0.8219459071 0.1681684878 0.1012351260
0.8354956141 0.1675265304 0.1027138956
0.8486924140 0.1682924636 0.1045058460
0.8612074022 0.1697977086 0.1073573892
0.8738005942 0.1724178612 0.1112669146
0.8838605427 0.1740186524 0.1150524566
0.8937251307 0.1757564337 0.1206475300
0.9020338109 0.1781861145 0.1268800820
0.9089652706 0.1810466780 0.1332082160
0.0854376129 0.1883659835 0.1365433455
0.0832344694 0.1671352070 0.1248298249
0.0864234617 0.1552637847 0.1190376680
0.0947764948 0.1521585325 0.1171859153
0.1100784860 0.1547086725 0.1159830706
0.1322614658 0.1571778479 0.1147272989
0.1596596605 0.1614463028 0.1137541212
0.1944802548 0.1654715405 0.1136671147
0.2352384191 0.1671198419 0.1137150039
0.2799595817 0.1705275239 0.1137721629
0.3231881748 0.1716354914 0.1140660694
0.3658024539 0.1727680980 0.1143828833
0.4120496777 0.1749683556 0.1139122024
0.4593789521 0.1767327899 0.1138060160
0.5060121427 0.1779248030 0.1128782319
0.5518541694 0.1795902018 0.1121037509
0.5996276478 0.1810190026 0.1107558714
0.6411837195 0.1805041811 0.1086589049
0.6817318099 0.1810943129 0.1064779491
0.7155615243 0.1812905075 0.1046594824
0.7445585054 0.1825470580 0.1029622712
0.7664203219 0.1848112145 0.1022416398
0.7860179843 0.1849472352 0.1015332995
0.8044069410 0.1841881470 0.1009221379
0.8208408057 0.1844976178 0.1009763044
0.8360600493 0.1847071132 0.1015724842
0.8505255550 0.1838928502 0.1031628320
0.8639951938 0.1841662855 0.1051424510
0.8765147349 0.1854712940 0.1082960303
0.8869978090 0.1866916086 0.1115996637
0.8967378954 0.1882541684 0.1169087664
0.9054227580 0.1895219022 0.1228964362
0.9127771057 0.1913803938 0.1287835864
0.0885913760 0.2197478265 0.1407385909
0.0865751607 0.1961085457 0.1293455474
0.0881625390 0.1816627937 0.1227922906
0.0948651540 0.1758269600 0.1197114875
0.1075738849 0.1762448684 0.1184335503
0.1270995619 0.1776275848 0.1166073418
0.1501841296 0.1812655748 0.1156125189
0.1825316998 0.1864968791 0.1151252590
0.2222438313 0.1900252325 0.1154287551
0.2656517922 0.1948419801 0.1155185117
0.3117488779 0.1987294934 0.1159325763
0.3521399920 0.1979237707 0.1160249917
0.3962456855 0.1991337759 0.1159210103
0.4428891534 0.2007959101 0.1154324039
0.4896871924 0.2021049995 0.1142302804
0.5378956462 0.2020458059 0.1130806683
0.5862679253 0.2032524415 0.1116953273
0.6321760089 0.2020072888 0.1095108227
0.6730890487 0.2015678370 0.1072341486
0.7083489692 0.2012918615 0.1055584005
0.7375301879 0.2017851072 0.1039556520
0.7613253555 0.2046267447 0.1025906680
0.7826107905 0.2058810772 0.1024687821
0.8011710456 0.2059116056 0.1016906755
0.8191765416 0.2059811666 0.1017317232
0.8360443662 0.2035510689 0.1019470564
0.8515630061 0.2039481860 0.1029530054
0.8661220190 0.2032593174 0.1048867821
0.8790073002 0.2035323783 0.1072500573
0.8907314351 0.2045776861 0.1104132962
0.8998929718 0.2066011582 0.1150385106
0.9084072142 0.2075425081 0.1203666156
0.9157053921 0.2086255827 0.1255396028
0.0923769206 0.2521886332 0.1448715099
0.0906373919 0.2306674027 0.1338677760
0.0915114404 0.2138379206 0.1264558470
0.0961776600 0.2052309820 0.1222680022
0.1067754565 0.2037697153 0.1201416153
0.1241746606 0.2046310000 0.1187585945
0.1455476156 0.2070906865 0.1178363313
0.1726681575 0.2113687199 0.1174521043
0.2117402034 0.2146234461 0.1178197683
0.2542050419 0.2216495812 0.1181634684
0.2994525621 0.2262523491 0.1179610279
0.3433422941 0.2303304667 0.1177926785
0.3826967891 0.2293583423 0.1176890600
0.4279839195 0.2315497735 0.1171764878
0.4716368966 0.2325849667 0.1155671638
0.5188620588 0.2330445181 0.1139988806
0.5669609906 0.2315136619 0.1122832423
0.6145179511 0.2291027894 0.1104663137
0.6584722563 0.2268835880 0.1081733742
0.6963828528 0.2258193910 0.1058265916
0.7252983758 0.2250032856 0.1046927208
0.7502584074 0.2271546251 0.1036069231
0.7734471419 0.2279213245 0.1031272582
0.7941790981 0.2278860767 0.1023165656
0.8138856223 0.2290675757 0.1027444952
0.8327212893 0.2261300125 0.1028799656
0.8502447804 0.2249486789 0.1035192736
0.8659112346 0.2253591546 0.1044751584
0.8796114109 0.2248781714 0.1068058415
0.8921531238 0.2262040062 0.1099092853
0.9019786392 0.2280338423 0.1138654502
0.9113645448 0.2285273691 0.1188011145
0.9183051380 0.2292567856 0.1233532618
0.0967905244 0.2838682293 0.1499214117
0.0949103161 0.2659135906 0.1391362804
0.0953193893 0.2507903203 0.1308744103
0.0985842310 0.2395936012 0.1252347654
0.1074091844 0.2349750166 0.1220872827
0.1227772036 0.2367733762 0.1202758970
0.1417639026 0.2383215110 0.1202081366
0.1678503343 0.2412294075 0.1202025173
0.2040419124 0.2458785712 0.1199367389
0.2438286852 0.2514420254 0.1203769756
0.2882754924 0.2555721498 0.1200782693
0.3323650131 0.2593860057 0.1198568368
0.3747114778 0.2635481994 0.1196020132
0.4185054336 0.2658091028 0.1187794624
0.4600152560 0.2668280628 0.1174266665
0.5022743190 0.2669600728 0.1157737812
0.5493393761 0.2664701638 0.1134158727
0.5958960403 0.2641871445 0.1114513788
0.6398989570 0.2617190760 0.1098327460
0.6790400631 0.2591324182 0.1080563110
0.7119573298 0.2572030891 0.1061699143
0.7372599541 0.2561514009 0.1050495970
0.7605688140 0.2548824470 0.1046826470
0.7827968657 0.2542046545 0.1044213796
0.8037369630 0.2544193079 0.1038628794
0.8243693682 0.2519971237 0.1037255700
0.8438731429 0.2508168492 0.1042415898
0.8621698196 0.2503579058 0.1051713516
0.8783969687 0.2506100070 0.1067790532
0.8918010275 0.2510785934 0.1093820814
0.9026347362 0.2522625063 0.1130520171
0.9119006229 0.2530145958 0.1174623926
0.9210060327 0.2509745008 0.1230342201
0.1016776820 0.3130264141 0.1555272977
0.0997607129 0.3024697917 0.1453049745
0.0993396957 0.2890110477 0.1353427432
0.1023128027 0.2777019077 0.1284587751
0.1099163238 0.2704866120 0.1236939906
0.1224905785 0.2696239020 0.1216426792
0.1413895870 0.2733980448 0.1215569880
0.1653762661 0.2764268074 0.1221311725
0.1972981048 0.2800209295 0.1228463730
0.2354206555 0.2803100725 0.1232574739
0.2774557242 0.2858425858 0.1231033540
0.3212400047 0.2911718297 0.1229823725
0.3631425713 0.2965767808 0.1223241156
0.4066728406 0.2998031665 0.1218619183
0.4510514903 0.3020241653 0.1203398833
0.4948616778 0.3023375209 0.1181919027
0.5412895172 0.3021159961 0.1159890110
0.5876721906 0.3010963307 0.1131504383
0.6279770348 0.2990273139 0.1117935266
0.6659566878 0.2954199919 0.1103450272
0.7000828571 0.2906409991 0.1085058970
0.7282951851 0.2886074072 0.1074574434
0.7517887024 0.2869692405 0.1072859940
0.7739687583 0.2851334833 0.1067421338
0.7952719615 0.2842409927 0.1059491316
0.8167259514 0.2801557249 0.1050716908
0.8373893067 0.2792013889 0.1051431396
0.8566131128 0.2784145752 0.1057676449
0.8743728625 0.2773279111 0.1067319231
0.8890139748 0.2767981394 0.1089496497
0.9024047652 0.2757407189 0.1130661788
0.9124526726 0.2765208040 0.1178188723
0.9222595395 0.2776371412 0.1232305885
0.1075665282 0.3436944460 0.1636626168
0.1062115036 0.3356941825 0.1537136530
0.1048167452 0.3255190990 0.1427230479
0.1066111108 0.3163404748 0.1333723591
0.1125757365 0.3091702100 0.1264542980
0.1237474413 0.3069913966 0.1229452434
0.1399191292 0.3066167676 0.1227146286
0.1638723093 0.3103323661 0.1240820844
0.1945656052 0.3129404204 0.1262486858
0.2279249392 0.3139478624 0.1268092731
0.2686332449 0.3161386673 0.1273458654
0.3100613543 0.3212612401 0.1267186527
0.3528406650 0.3271398968 0.1261813688
0.3965000032 0.3318447479 0.1254949420
0.4413933002 0.3325255352 0.1250751039
0.4869616915 0.3344351003 0.1228086450
0.5336786965 0.3346800756 0.1203234004
0.5803224688 0.3343053373 0.1171939547
0.6235338835 0.3326654779 0.1150071166
0.6597318195 0.3310277217 0.1136557306
0.6931894606 0.3268615040 0.1120501564
0.7195637752 0.3252503601 0.1111425840
0.7438308739 0.3212360009 0.1100544776
0.7660358181 0.3191016077 0.1096300998
0.7869397631 0.3171167631 0.1084073416
0.8085932244 0.3140648204 0.1077961314
0.8298149721 0.3093317392 0.1068854429
0.8503909136 0.3088731013 0.1067494073
0.8698043592 0.3073166848 0.1073767311
0.8859624715 0.3041539734 0.1096986801
0.8987237288 0.3043076495 0.1133647560
0.9103064971 0.3029255991 0.1181834584
0.9207910128 0.3049094921 0.1239434504
0.1137865148 0.3726035621 0.1772332226
0.1127454539 0.3672481951 0.1652166423
0.1115750374 0.3599422826 0.1532023804
0.1118498350 0.3521637354 0.1406285612
0.1160409391 0.3459001304 0.1315634236
0.1249816606 0.3429196771 0.1261965831
0.1402167992 0.3429072971 0.1250243329
0.1620454311 0.3434492129 0.1268317139
0.1925277637 0.3458305296 0.1297484663
0.2246275623 0.3474142254 0.1313821786
0.2620333210 0.3491220670 0.1319336460
0.3031632452 0.3513554105 0.1317457119
0.3445306508 0.3563579514 0.1311368245
0.3889132635 0.3614123796 0.1309769287
0.4343066980 0.3646041654 0.1301415375
0.4806104414 0.3651501899 0.1287740516
0.5281827625 0.3667483125 0.1255552996
0.5755406024 0.3670383357 0.1220858733
0.6177570486 0.3660609392 0.1197390321
0.6567641965 0.3636229732 0.1177611389
0.6900085146 0.3625372700 0.1162849742
0.7160892252 0.3615306661 0.1153460301
0.7387611510 0.3587168383 0.1140457339
0.7606074170 0.3534006523 0.1128333202
0.7819156695 0.3519364928 0.1116917641
0.8028567888 0.3494470238 0.1107851576
0.8239885598 0.3449833291 0.1095063031
0.8445975136 0.3412691184 0.1087545853
0.8652650857 0.3397935180 0.1090547814
0.8823410156 0.3350472807 0.1110515934
0.8963938395 0.3335861014 0.1146914507
0.9075962723 0.3341673354 0.1194125917
0.9178691953 0.3351695475 0.1253355745
0.1195214939 0.3988390071 0.1922627954
0.1186355077 0.3954143729 0.1770193423
0.1177648671 0.3902601245 0.1632297577
0.1175111636 0.3843666025 0.1499426363
0.1201183781 0.3789020838 0.1378162685
0.1269955478 0.3759582794 0.1312805535
0.1399146950 0.3760367234 0.1289884673
0.1604124104 0.3783545632 0.1305186721
0.1900204391 0.3807681027 0.1336381193
0.2218209698 0.3821160511 0.1363541651
0.2593710609 0.3833929496 0.1378178508
0.2996675495 0.3842802424 0.1378790475
0.3413584048 0.3847725861 0.1371741943
0.3850980453 0.3894907129 0.1368854088
0.4315847340 0.3939587313 0.1367580580
0.4789639246 0.3979966474 0.1351085356
0.5277404572 0.4006442414 0.1323294342
0.5757612758 0.4019253185 0.1286482410
0.6169130859 0.4017894038 0.1260068774
0.6535668149 0.3999737000 0.1237921687
0.6876351412 0.3956737546 0.1214529259
0.7151630322 0.3948862140 0.1201194869
0.7384420343 0.3937964202 0.1188726967
0.7598920428 0.3911258697 0.1174907367
0.7809845855 0.3858111012 0.1155803191
0.8018165687 0.3844142032 0.1140508171
0.8225734353 0.3800681206 0.1125228297
0.8426219924 0.3756534165 0.1112460300
0.8609382791 0.3741243833 0.1113688369
0.8781324493 0.3685639795 0.1130112229
0.8930564438 0.3664490345 0.1166611147
0.9053712934 0.3670600093 0.1218225617
0.9157800413 0.3685744452 0.1279730159
0.1260018586 0.4265194593 0.2084344641
0.1255505977 0.4244338122 0.1974949807
0.1248400585 0.4218172772 0.1807151121
0.1242266399 0.4178205628 0.1653851080
0.1254726428 0.4149997926 0.1506010881
0.1302085243 0.4121843465 0.1406188970
0.1407305855 0.4115294609 0.1355627136
0.1595372627 0.4130704615 0.1360435424
0.1879261066 0.4150485866 0.1390968225
0.2193916968 0.4128663225 0.1413535746
0.2569311838 0.4142290469 0.1436458755
0.2973600423 0.4160357305 0.1442933118
0.3387691149 0.4174658540 0.1440011491
0.3830678454 0.4213698909 0.1439473193
0.4264792907 0.4253316119 0.1436352600
0.4733335523 0.4295921866 0.1427623012
0.5234766757 0.4331771054 0.1402452628
0.5728442740 0.4357587533 0.1372039116
0.6176464979 0.4344972896 0.1328328844
0.6543219206 0.4335434856 0.1300520556
0.6860188259 0.4319744857 0.1283728779
0.7135491294 0.4320983483 0.1267699918
0.7374356932 0.4292100680 0.1248546855
0.7593864630 0.4272347265 0.1230022711
0.7803573887 0.4251817182 0.1210205040
0.8009737480 0.4201514142 0.1186133022
0.8217903400 0.4190257143 0.1169679891
0.8429445102 0.4146387674 0.1151416865
0.8613829773 0.4094039392 0.1147776776
0.8758550055 0.4069520106 0.1163362259
0.8903732779 0.4023660622 0.1194254636
0.9029441683 0.4009999915 0.1241773329
0.9131908042 0.4024208572 0.1304160818
0.1319514815 0.4521222373 0.2272392021
0.1312965143 0.4491061923 0.2140238851
0.1312491289 0.4485932336 0.1978740640
0.1308264578 0.4464116003 0.1811941695
0.1318647081 0.4453414966 0.1640949661
0.1347465781 0.4438823902 0.1507450918
0.1425749394 0.4434065239 0.1437867571
0.1593224726 0.4445131149 0.1419297773
0.1860988246 0.4461767850 0.1443019738
0.2165435441 0.4463515711 0.1471006617
0.2537222285 0.4464971102 0.1500090013
0.2928686268 0.4481228552 0.1516540084
0.3333891338 0.4503222255 0.1519989930
0.3779158228 0.4530111433 0.1518659140
0.4247733267 0.4542995034 0.1510161609
0.4702979480 0.4578921407 0.1504502538
0.5211034544 0.4616946303 0.1490098577
0.5682859033 0.4644709535 0.1463417810
0.6148234643 0.4664028244 0.1427145264
0.6545044091 0.4649127201 0.1381085806
0.6856742221 0.4647580920 0.1357766699
0.7115533436 0.4660268511 0.1339213674
0.7360919621 0.4643996278 0.1314751876
0.7584416424 0.4621986553 0.1289614292
0.7799903654 0.4623796812 0.1269829723
0.8011384436 0.4584741897 0.1238719647
0.8224304050 0.4570324531 0.1215379773
0.8437625306 0.4550680645 0.1199853893
0.8616410204 0.4487655117 0.1193432212
0.8773229002 0.4437870927 0.1203990799
0.8896643112 0.4423224525 0.1232822471
0.9018368674 0.4389277696 0.1281090764
0.9121794969 0.4404493860 0.1352858896
0.1377671877 0.4749930391 0.2448808209
0.1375733749 0.4731917533 0.2316747082
0.1376613839 0.4726266977 0.2159458364
0.1375283277 0.4723158915 0.1978239187
0.1383021460 0.4722641659 0.1791721008
0.1406547551 0.4727781741 0.1633861405
0.1466657452 0.4732452847 0.1530099756
0.1591253680 0.4742909079 0.1490087118
0.1836194564 0.4756720094 0.1500257477
0.2139500780 0.4758915096 0.1530577559
0.2488582521 0.4769556024 0.1563988163
0.2890764612 0.4785555864 0.1588959781
0.3268520519 0.4805162122 0.1597524646
0.3711869732 0.4827014435 0.1596039528
0.4164526295 0.4842495765 0.1589402249
0.4651488147 0.4850401619 0.1581762597
0.5157771329 0.4883613338 0.1574495353
0.5636707524 0.4901728629 0.1552922204
0.6081265221 0.4921178143 0.1520574101
0.6493296610 0.4946488938 0.1481581893
0.6833761479 0.4945707565 0.1440415046
0.7087177559 0.4960292873 0.1413547717
0.7327024140 0.4957820142 0.1386704037
0.7552354539 0.4949169839 0.1361788129
0.7772399320 0.4963108026 0.1342023786
0.7991554111 0.4943113902 0.1313830650
0.8213699231 0.4946528766 0.1292253052
0.8442351652 0.4945866154 0.1271782854
0.8627339445 0.4903129459 0.1257236054
0.8793390373 0.4849131906 0.1266979132
0.8921477469 0.4822994281 0.1301201681
0.9027821165 0.4799228096 0.1350378648
0.9125391650 0.4802201972 0.1429486712
0.1439125989 0.4950337554 0.2583501362
0.1445531006 0.4957304846 0.2471472196
0.1451847381 0.4965419263 0.2336138140
0.1454492973 0.4972920028 0.2178038824
0.1460093986 0.4982154161 0.1988096533
0.1476594338 0.5003622907 0.1804301258
0.1516767393 0.5025705834 0.1660514171
0.1611115829 0.5042582699 0.1582168223
0.1801458880 0.5057905658 0.1565871856
0.2100046966 0.5039935090 0.1586651437
0.2437062208 0.5039019721 0.1620303169
0.2805081153 0.5053318941 0.1649116450
0.3220572591 0.5075115635 0.1664452275
0.3663165151 0.5097248946 0.1666458245
0.4095796076 0.5116095588 0.1662329639
0.4538460121 0.5135482411 0.1662067382
0.5033076338 0.5155467616 0.1661266062
0.5547916409 0.5153078243 0.1644300939
0.6000716239 0.5166227928 0.1614808506
0.6394313378 0.5195470322 0.1581642629
0.6751761199 0.5230369930 0.1539828097
0.7024509885 0.5232185570 0.1501322107
0.7264509190 0.5234774185 0.1472754272
0.7494044450 0.5241244170 0.1450438873
0.7715643440 0.5263767919 0.1434351112
0.7938062449 0.5254775275 0.1403774468
0.8166499860 0.5266653004 0.1374661762
0.8404413478 0.5282678640 0.1346141226
0.8616558672 0.5268183880 0.1324637180
0.8788404046 0.5242498602 0.1332517390
0.8934201434 0.5233953101 0.1367701257
0.9044858986 0.5226348871 0.1431445946
0.9136636765 0.5186592918 0.1515292959
0.1506650135 0.5137847652 0.2763955232
0.1516667458 0.5151610243 0.2660095259
0.1526448657 0.5165296604 0.2533068779
0.1536089535 0.5182292387 0.2384640684
0.1542092896 0.5200617197 0.2198544222
0.1554056057 0.5229013698 0.2004874651
0.1583157473 0.5262410160 0.1833374794
0.1648204864 0.5297250325 0.1703271348
0.1805657147 0.5322014926 0.1655936896
0.2042988910 0.5337936953 0.1645171237
0.2383111686 0.5318570992 0.1668910712
0.2743163251 0.5324254983 0.1694982046
0.3125398026 0.5345828581 0.1712035104
0.3561037405 0.5371420000 0.1716837754
0.4020944188 0.5391260463 0.1714074746
0.4457791477 0.5404265878 0.1713938398
0.4906020060 0.5413726762 0.1720816079
0.5408576156 0.5393522123 0.1713101754
0.5856741520 0.5405628102 0.1699791834
0.6270547646 0.5428148009 0.1669849975
0.6659483878 0.5452304166 0.1624111942
0.6938714479 0.5492101892 0.1603640162
0.7193382524 0.5505419412 0.1573046971
0.7427615243 0.5519833704 0.1548422621
0.7649387616 0.5546040807 0.1534124627
0.7871704812 0.5539477762 0.1505517439
0.8106638526 0.5532453549 0.1465060412
0.8344510803 0.5545971196 0.1424778532
0.8559307748 0.5560440465 0.1389982057
0.8752119268 0.5560137882 0.1386380578
0.8913128613 0.5577191357 0.1424216267
0.9034766048 0.5590732321 0.1495126301
0.9135069393 0.5576216899 0.1598776154
0.1582376338 0.5325753148 0.2894049706
0.1594471579 0.5342932163 0.2796964648
0.1607068294 0.5362639785 0.2682228252
0.1618961834 0.5384865883 0.2554898265
0.1631793146 0.5412630457 0.2393669227
0.1642167576 0.5446868366 0.2213925570
0.1665130108 0.5492281479 0.2015155007
0.1708041268 0.5535472654 0.1859466483
0.1818566992 0.5576297839 0.1759895448
0.2031778026 0.5588794249 0.1716978342
0.2312231282 0.5607858151 0.1724793465
0.2671582928 0.5605918833 0.1740643666
0.3035337740 0.5627469074 0.1753953690
0.3467129718 0.5656897786 0.1761916286
0.3924095496 0.5683549377 0.1761928193
0.4372129244 0.5689526774 0.1760754796
0.4796313940 0.5686319812 0.1766414452
