presets/原 柯达5207 -S.cube
TITLE "YINGZEJUN Copyright"
# YINGZEJUN Copyright
# SP3000 & GOLD200 
# 20241106
# Created by: Adobe Photoshop Export Color Lookup Plugin
LUT_3D_SIZE 5
0.0167240000 0.0366210000 0.0643310000
0.3237769330 0.0630838447 0.0651325911
0.6845961976 0.0932429720 0.0595245028
0.8661350977 0.1340151056 0.0831377640
0.9254977410 0.1702439636 0.1330585113
0.0657354801 0.2920730439 0.1208998804
0.2173221811 0.2659326089 0.0911601161
0.6254760084 0.2728729170 0.0708165482
0.8396750740 0.2724878588 0.0671925056
0.9375114708 0.2648150188 0.0904710391
0.1281460423 0.5291978030 0.2629940035
0.1766279707 0.5295962374 0.1407442680
0.5537074780 0.5476523346 0.1340548369
0.8076234094 0.5777907206 0.1195166474
0.9372466823 0.5732175600 0.1133946175
0.1949020044 0.6382788119 0.3888363672
0.2521066142 0.6869269326 0.3156233335
0.4714513380 0.7644511341 0.2332479785
0.7889727422 0.7852264353 0.2594241845
0.9480278740 0.8130656044 0.2451043365
0.2513627759 0.6923299525 0.4735647728
0.3129109670 0.7335204840 0.4640682015
0.4478386228 0.8221884092 0.4717703826
0.7058080519 0.9123788835 0.3705029064
0.9430570204 0.9492927437 0.4614162072
0.0750110277 0.0546279951 0.2682328324
0.3072950557 0.0723867894 0.2380712145
0.6309818354 0.1056281514 0.2291582488
0.8419393854 0.1383865273 0.2365224213
0.9274163771 0.1884189143 0.2871918524
0.0607984679 0.2534234704 0.3124388102
0.2231994036 0.2628733821 0.2708858118
0.6053770235 0.2621346659 0.2407048927
0.8214988381 0.2597147797 0.2385632319
0.9561444723 0.2429414235 0.2425428951
0.1174987916 0.5103667304 0.4446065254
0.1630057114 0.5103797567 0.3187136664
0.5312305219 0.5399630492 0.3055071572
0.7956055417 0.5687087931 0.3231106595
0.9623236087 0.5542636284 0.2636839818
0.1871020208 0.6348032511 0.4977569989
0.2288391970 0.6724820698 0.4479288309
0.4517615514 0.7512523079 0.4042211234
0.7674393138 0.7691682696 0.4172039505
0.9670769403 0.8245094541 0.3822380410
0.2373662291 0.6832367258 0.5219919889
0.2923312448 0.7209424097 0.5165220330
0.4340537090 0.8157879147 0.5434702034
0.6997821503 0.9203106684 0.4638576266
0.9519151280 0.9578184191 0.5004854542
0.1754625310 0.0786032327 0.4386931877
0.3415792617 0.0897729204 0.4320228066
0.6260904300 0.1081149903 0.4122982200
0.8327884873 0.1518888826 0.4228720624
0.9373968038 0.2325853027 0.4536951567
0.0933487494 0.2080274423 0.4951875557
0.2500481539 0.2359131151 0.4780993133
0.5887229384 0.2375126666 0.4481120549
0.8195034037 0.2689732387 0.4470053338
0.9586001976 0.3309144910 0.4797799547
0.1057795941 0.4909775784 0.5755905390
0.1627842578 0.4899881719 0.5522087101
0.5445138415 0.5389488907 0.5389116995
0.7889576168 0.5373878576 0.5115914185
0.9513199571 0.5321160496 0.5003192842
0.1883105347 0.6418325056 0.6136895881
0.2201264939 0.6718263264 0.6106764201
0.4203061582 0.7336449247 0.5855628819
0.7602800425 0.7597706007 0.5797618756
0.9569013988 0.7938080225 0.5762606374
0.2269222714 0.6772906970 0.6092459094
0.2675886087 0.7088648817 0.6089326318
0.4029813110 0.7965788910 0.6381334334
0.6681766711 0.9140912557 0.6263699789
0.9707622566 0.9768747506 0.6306996026
0.2638214132 0.1164964769 0.5711727627
0.3941322702 0.1204263329 0.5528523728
0.6050617577 0.1386765347 0.5562551052
0.8079691947 0.1803152970 0.5666024492
0.9164720320 0.2538971246 0.5749768614
0.1432310195 0.1659236756 0.6359130139
0.2914360171 0.1950287683 0.6266877966
0.5879344199 0.2348919919 0.6070560453
0.8192851283 0.2760487761 0.6001688143
0.9504143906 0.3376239147 0.6152996359
0.1302330116 0.4652362913 0.7528588146
0.2580241523 0.4859803715 0.7185268604
0.5514737938 0.5204778323 0.6922622923
0.7989034937 0.5329886253 0.6656231334
0.9557840852 0.5507830536 0.6711674607
0.1711832727 0.6477548447 0.7344303910
0.1994607491 0.6752326221 0.7601122743
0.4186293723 0.7208401376 0.7685179130
0.7745464472 0.7545454912 0.7425273344
0.9610005747 0.7680817715 0.7254722302
0.2226918302 0.6875387807 0.6827103639
0.2394402344 0.6999446665 0.6903603388
0.3471708090 0.7723402733 0.7156639208
0.5977269987 0.8913010489 0.7566872559
0.9778005326 0.9800577662 0.8118783130
0.3301795321 0.1615288149 0.6594586122
0.4373252971 0.1683720584 0.6536074197
0.6116120003 0.1910024863 0.6540997838
0.7870862548 0.2266222937 0.6700811600
0.9045315920 0.3252861480 0.6970459372
0.2312971479 0.2190731518 0.7607145653
0.3723212025 0.2186691224 0.7397094004
0.6215257874 0.2303796051 0.7229716870
0.8259137686 0.2738423485 0.7288762576
0.9341851937 0.3842117741 0.7419356609
0.0975083531 0.4425052028 0.9548097346
0.1742434452 0.4477262618 0.9483948115
0.5941445932 0.4378658934 0.8842403837
0.8838960356 0.4594541434 0.8549302582
0.9701064710 0.5436598912 0.8281197840
0.1505367665 0.6411206593 0.8774092106
0.1599530134 0.6567488401 0.9171841636
0.3034873138 0.7068135033 0.9618847216
0.8090313457 0.7479528074 0.9302845316
0.9697001009 0.7551002866 0.8913728547
0.2399693549 0.7119792173 0.7925888789
0.2399693549 0.7119792173 0.7925888789
0.3170937162 0.7626760474 0.8265588829
0.5447215113 0.8676366949 0.9209424785
0.9746700000 0.9600830000 0.9660950000
