presets/原 柯达5207 +1.cube
TITLE "YINGZEJUN Copyright"
# YINGZEJUN Copyright
# SP3000 & GOLD200 
# 20241106
# Created by: Adobe Photoshop Export Color Lookup Plugin
LUT_3D_SIZE 33
0.0054020000 0.0099490000 0.0421450000
0.0419423644 0.0222554872 0.0446377219
0.0801348071 0.0295786431 0.0505814420
0.1201207281 0.0347806513 0.0553095236
0.1762021107 0.0370620848 0.0527983121
0.2378219010 0.0374864145 0.0476677404
0.3094942386 0.0380542311 0.0429134713
0.3824975266 0.0399936966 0.0386450667
0.4431482120 0.0440536388 0.0342358182
0.4882303605 0.0490349874 0.0336396144
0.5255551510 0.0564802240 0.0324513119
0.5573427045 0.0643373227 0.0305762741
0.5836956348 0.0715234080 0.0298371731
0.6125617132 0.0771357988 0.0293565055
0.6396007511 0.0833898481 0.0287459875
0.6676375356 0.0904182282 0.0298251067
0.6952242292 0.0946548017 0.0316977593
0.7226690726 0.1014673317 0.0338972985
0.7472550836 0.1063686798 0.0366530777
0.7693794498 0.1113629467 0.0408536404
0.7897232676 0.1178807613 0.0457504201
0.8058155573 0.1224441107 0.0516675497
0.8200644792 0.1275250895 0.0583944382
0.8328206921 0.1339189316 0.0658188858
0.8453658775 0.1417480452 0.0710931837
0.8563222130 0.1482847391 0.0809388702
0.8658835342 0.1547202288 0.0928020349
0.8737973222 0.1616886964 0.1040743362
0.8810622804 0.1690753742 0.1123442822
0.8880649983 0.1772433506 0.1240659158
0.8938014115 0.1849288140 0.1341759876
0.8989932992 0.1925216004 0.1437291293
0.9037393629 0.2003879819 0.1544940453
0.0128788172 0.0547331352 0.0529800079
0.0357558671 0.0550394364 0.0471367250
0.0721074985 0.0609670932 0.0511451402
0.1126411495 0.0665131713 0.0515206374
0.1659354996 0.0693640484 0.0466676260
0.2187420525 0.0696139114 0.0430080163
0.2863125375 0.0710701371 0.0386882648
0.3554220530 0.0721298856 0.0360573816
0.4152087295 0.0733630651 0.0343248858
0.4644285660 0.0788992626 0.0323669390
0.5074372220 0.0820861895 0.0315782974
0.5441072295 0.0869013519 0.0300379592
0.5738999648 0.0916771498 0.0290493200
0.6048370579 0.0935141740 0.0292400013
0.6335434508 0.0990081591 0.0289512484
0.6627087487 0.1044551799 0.0292361490
0.6920457275 0.1083240251 0.0300133851
0.7184318292 0.1121586701 0.0311605545
0.7455832714 0.1173191841 0.0332997085
0.7691702165 0.1220517157 0.0361253639
0.7907397204 0.1276861427 0.0390983012
0.8074211512 0.1315826718 0.0441713747
0.8220353526 0.1350564969 0.0509094638
0.8352476486 0.1396396478 0.0586344418
0.8477305811 0.1460393674 0.0660218889
0.8589301322 0.1526559580 0.0738256151
0.8691419752 0.1596454199 0.0843741903
0.8776475888 0.1662791412 0.0958646169
0.8847504019 0.1728138224 0.1057003964
0.8918997378 0.1809197969 0.1175416985
0.8971101842 0.1880139686 0.1287731230
0.9022596287 0.1955629849 0.1385629932
0.9073338512 0.2036292658 0.1489078254
0.0202847913 0.1017522104 0.0714509058
0.0365753576 0.0935936656 0.0533332970
0.0650747705 0.0979219126 0.0511619765
0.1058666946 0.1035329078 0.0490928136
0.1555720829 0.1065345962 0.0448157720
0.2100450002 0.1070453993 0.0425219994
0.2721072344 0.1063669081 0.0403524668
0.3417524708 0.1070169439 0.0383370958
0.4001651809 0.1051353380 0.0377668774
0.4535610869 0.1072829677 0.0359102322
0.4981460762 0.1089157846 0.0347916335
0.5350397527 0.1113595533 0.0338306200
0.5666561668 0.1149315115 0.0321836143
0.5980732405 0.1161120127 0.0317654658
0.6288531380 0.1178038308 0.0305690220
0.6576005610 0.1237394462 0.0313565573
0.6867106953 0.1275891488 0.0317027716
0.7164326368 0.1291301211 0.0319665674
0.7432978855 0.1323654963 0.0328213339
0.7673203969 0.1359040491 0.0348924142
0.7885075946 0.1412693765 0.0378563682
0.8069855004 0.1449288777 0.0415280688
0.8224889063 0.1476707863 0.0456405038
0.8365258746 0.1506388762 0.0521803725
0.8492658730 0.1561862822 0.0600412878
0.8602773631 0.1616046473 0.0681675130
0.8702695882 0.1673760342 0.0764828960
0.8798455392 0.1739099929 0.0873651948
0.8873199495 0.1797894560 0.0981240816
0.8950765872 0.1871390955 0.1102634502
0.9009704536 0.1933355096 0.1213205060
0.9058462449 0.1996516588 0.1328474764
0.9108890218 0.2075580749 0.1438552647
0.0278497356 0.1447292326 0.0898534297
0.0371236731 0.1311626584 0.0623335313
0.0636499785 0.1333792752 0.0530149850
0.0980018435 0.1409664646 0.0496702969
0.1452953232 0.1436135231 0.0460012567
0.2001723171 0.1447959612 0.0446004378
0.2636720758 0.1445250819 0.0436673824
0.3317043657 0.1424759019 0.0427148383
0.3913818048 0.1406445907 0.0428795521
0.4460831569 0.1405468661 0.0414577637
0.4900970306 0.1401491288 0.0400544611
0.5287182883 0.1389813218 0.0387579180
0.5598810191 0.1414765914 0.0376786752
0.5923509801 0.1429750222 0.0366964621
0.6219426520 0.1447520017 0.0365818785
0.6542964980 0.1460470979 0.0345608682
0.6815092974 0.1511749287 0.0355117313
0.7124178055 0.1521120233 0.0349857292
0.7397240215 0.1528838937 0.0346714075
0.7653609797 0.1558519210 0.0357130124
0.7854165497 0.1586088399 0.0376518875
0.8044261221 0.1610927956 0.0399027973
0.8217684456 0.1626985061 0.0431488566
0.8367446330 0.1655365037 0.0469963343
0.8505223013 0.1698713957 0.0531328588
0.8614616564 0.1733752699 0.0609618701
0.8718571417 0.1778136858 0.0692196762
0.8815396125 0.1833926906 0.0784935865
0.8904175847 0.1885203204 0.0894169409
0.8985156024 0.1944344810 0.1012962368
0.9050190588 0.2002943449 0.1131600619
0.9103594012 0.2060123382 0.1241084453
0.9150098623 0.2124973208 0.1374725032
0.0358616139 0.1865827061 0.0959690613
0.0408793603 0.1716556767 0.0686087371
0.0612885147 0.1705220741 0.0555789130
0.0915783075 0.1751547236 0.0509674872
0.1341748538 0.1818793835 0.0479743088
0.1873524413 0.1831478646 0.0475396194
0.2508837999 0.1830391716 0.0474803560
0.3188323712 0.1809779654 0.0476830234
0.3810470416 0.1766336305 0.0482713625
0.4367709987 0.1774110364 0.0471725857
0.4799899340 0.1772356783 0.0464357793
0.5165542817 0.1759016759 0.0457607610
0.5515997784 0.1741619301 0.0458195772
0.5864074035 0.1748154484 0.0423334120
0.6153425855 0.1775068044 0.0422017041
0.6446718942 0.1790168563 0.0418350641
0.6776210430 0.1787356698 0.0399872626
0.7086970865 0.1822278096 0.0391406169
0.7351262523 0.1828399642 0.0385125693
0.7589323738 0.1834137845 0.0386378137
0.7817497830 0.1864605701 0.0399435038
0.8001771424 0.1874213113 0.0410552617
0.8183028744 0.1869730441 0.0431849709
0.8351480094 0.1880544587 0.0466511067
0.8488882626 0.1933680929 0.0507010206
0.8606870185 0.1932472023 0.0563505430
0.8717541427 0.1953368089 0.0636503742
0.8823267183 0.1990793826 0.0722329499
0.8924186773 0.2043377996 0.0823583332
0.8999958070 0.2070672738 0.0918484819
0.9074727561 0.2105683309 0.1035554426
0.9139922190 0.2155579971 0.1161990141
0.9190585793 0.2208612815 0.1278630127
0.0433130222 0.2309280533 0.1034279577
0.0449269085 0.2108372450 0.0778019842
0.0610809236 0.2050281838 0.0636065068
0.0861930236 0.2075962982 0.0581752832
0.1213238750 0.2132830686 0.0554951586
0.1686153642 0.2161178756 0.0529301603
0.2291800239 0.2182743548 0.0520193142
0.2979990817 0.2179377644 0.0514027248
0.3619317609 0.2143824251 0.0518416825
0.4171938056 0.2147554496 0.0527929696
0.4620144012 0.2122856192 0.0538510242
0.5011007295 0.2114427271 0.0539860950
0.5379281577 0.2117270962 0.0522947406
0.5716106949 0.2118055505 0.0510868243
0.6051327192 0.2121540110 0.0488786642
0.6360723776 0.2141422258 0.0477660664
0.6694539167 0.2164764214 0.0462768074
0.6990903862 0.2157903385 0.0446775501
0.7283093499 0.2169065286 0.0438755219
0.7536889166 0.2170694108 0.0434693052
0.7767128494 0.2192141458 0.0436186395
0.7953095597 0.2224980966 0.0451595761
0.8129701203 0.2230913628 0.0462011759
0.8301158247 0.2221855064 0.0482550968
0.8450365968 0.2228009159 0.0514984628
0.8587751824 0.2233111616 0.0548380370
0.8715152001 0.2214765567 0.0599888468
0.8829231683 0.2216107629 0.0668036052
0.8933465633 0.2241577234 0.0752306951
0.9013953047 0.2255326755 0.0835186789
0.9094444141 0.2270023869 0.0940155052
0.9169640490 0.2294115363 0.1056011644
0.9230204820 0.2326401502 0.1166592315
0.0512915500 0.2689670887 0.1119618250
0.0523940892 0.2501827367 0.0879557576
0.0627237465 0.2413639991 0.0730311455
0.0834492997 0.2412436858 0.0664725608
0.1130850244 0.2452013744 0.0641812590
0.1527986226 0.2470872174 0.0617884309
0.2029547822 0.2503299175 0.0595441284
0.2707943040 0.2517034240 0.0580741402
0.3398463954 0.2493678692 0.0575592450
0.3987614210 0.2512845846 0.0568221585
0.4476234571 0.2529296150 0.0579712153
0.4849336740 0.2492896218 0.0600238041
0.5212491961 0.2492122091 0.0586970394
0.5547459125 0.2495222355 0.0576486936
0.5881561878 0.2503847961 0.0549504141
0.6213643716 0.2501375327 0.0534596578
0.6552718398 0.2523761260 0.0521069906
0.6880135064 0.2522838886 0.0509706077
0.7180234900 0.2533190419 0.0495517172
0.7447205863 0.2533589268 0.0495026441
0.7681660472 0.2546939988 0.0495917964
0.7885031082 0.2604325566 0.0506717193
0.8071836857 0.2614998848 0.0523921256
0.8246903709 0.2625712084 0.0533960562
0.8409396924 0.2618874899 0.0554292927
0.8562050854 0.2568614144 0.0575702566
0.8698042241 0.2558867667 0.0605416430
0.8822283785 0.2527661398 0.0654653145
0.8928326024 0.2512439220 0.0714537543
0.9023441841 0.2514994967 0.0787222542
0.9103280973 0.2519988401 0.0874659226
0.9179735921 0.2522490314 0.0974044524
0.9244351360 0.2531631071 0.1066413925
0.0595529972 0.3026526632 0.1237223771
0.0607383389 0.2870802866 0.1008012547
0.0680349437 0.2777258049 0.0850351535
0.0827271347 0.2748755052 0.0759689771
0.1083491384 0.2777253983 0.0731279656
0.1427874118 0.2800739351 0.0706527692
0.1850424284 0.2818146738 0.0693383401
0.2419881438 0.2855817048 0.0664990009
0.3159546661 0.2836898226 0.0653832201
0.3783402674 0.2864298188 0.0631103202
0.4301032785 0.2876482105 0.0617786149
0.4718803989 0.2901921925 0.0619327344
0.5051958842 0.2874252484 0.0627140066
0.5382814834 0.2880566913 0.0622277468
0.5693747543 0.2886853064 0.0607018970
0.6029473727 0.2900156135 0.0584267672
0.6369108123 0.2900442057 0.0576947071
0.6713042085 0.2898946213 0.0574323013
0.7034096275 0.2904367252 0.0568458453
0.7321763834 0.2925276808 0.0563055168
0.7555052557 0.2930688937 0.0572702636
0.7773744354 0.2986301403 0.0577399620
0.7980892995 0.3015269162 0.0588778240
0.8170870319 0.3023716630 0.0604508141
0.8351773849 0.3037122109 0.0610205965
0.8522575934 0.2975731804 0.0620441558
0.8673528078 0.2933600253 0.0642825646
0.8804218578 0.2919029351 0.0674486089
0.8918614604 0.2878201332 0.0716462523
0.9019767526 0.2858957153 0.0774538463
0.9108405871 0.2856776386 0.0846424176
0.9191751476 0.2832917199 0.0932163169
0.9254801395 0.2824137408 0.1007319672
0.0676751233 0.3339078620 0.1379798050
0.0681607532 0.3209424931 0.1165546304
0.0739122507 0.3125320706 0.1005066367
0.0855709801 0.3086876748 0.0893132825
0.1051457368 0.3091487784 0.0826507765
0.1349097988 0.3134938545 0.0794809972
0.1726861070 0.3152960238 0.0788711505
0.2234745773 0.3163656916 0.0772112342
0.2919499165 0.3194552852 0.0713071779
0.3558424838 0.3214601010 0.0698314719
0.4115317971 0.3225143050 0.0678384086
0.4562673342 0.3238032398 0.0660557197
0.4932796626 0.3273034532 0.0645448347
0.5256413236 0.3288909764 0.0646650542
0.5550125140 0.3297711212 0.0642898239
0.5849384463 0.3308226610 0.0637425530
0.6185327940 0.3325293820 0.0622994234
0.6520186762 0.3325388241 0.0627692311
0.6838389694 0.3327936748 0.0639817353
0.7135221475 0.3335728937 0.0648358067
0.7407640106 0.3354434730 0.0649040160
0.7631350347 0.3377745687 0.0650527594
0.7841038503 0.3391023790 0.0663983959
0.8049233033 0.3402961034 0.0672342667
0.8243454357 0.3419272302 0.0676698167
0.8436286161 0.3387380505 0.0677171502
0.8608291362 0.3360469604 0.0693131590
0.8761708689 0.3335067242 0.0716673885
0.8896454209 0.3313876010 0.0746595981
0.9017466273 0.3290616756 0.0788602677
0.9115531049 0.3278136257 0.0842356775
0.9200024893 0.3247795568 0.0907975136
0.9281428504 0.3163914007 0.0988214216
0.0767971712 0.3627314892 0.1512489602
0.0769061878 0.3552855668 0.1328816574
0.0805497114 0.3478922301 0.1155467951
0.0896701415 0.3437014623 0.1023484521
0.1066869839 0.3427712961 0.0929116215
0.1312066036 0.3454169451 0.0883750982
0.1666937864 0.3501126469 0.0861852708
0.2117909794 0.3527741404 0.0847451789
0.2699465859 0.3552293488 0.0804257877
0.3353849339 0.3533524191 0.0762549586
0.3917173869 0.3561631364 0.0743095707
0.4391433808 0.3594556680 0.0721464576
0.4779340536 0.3638093173 0.0703710516
0.5116456742 0.3667687286 0.0707749479
0.5432746039 0.3694043280 0.0691729670
0.5741570590 0.3709370901 0.0682167089
0.6061759306 0.3724991053 0.0681760559
0.6391492329 0.3742457364 0.0673456220
0.6682104862 0.3747967675 0.0693311348
0.6970060177 0.3740241700 0.0706825913
0.7258104968 0.3731229793 0.0706033007
0.7505326290 0.3748715612 0.0711053639
0.7718291687 0.3763531543 0.0727978544
0.7934049534 0.3771011093 0.0738502805
0.8139068335 0.3785091057 0.0737584797
0.8344329214 0.3756106298 0.0735592223
0.8529897956 0.3747526945 0.0740854039
0.8698123784 0.3735898541 0.0758366059
0.8849805739 0.3712945683 0.0779808231
0.8993265798 0.3690851114 0.0809010856
0.9113489484 0.3644723780 0.0856614318
0.9209650018 0.3619412036 0.0916008901
0.9304763128 0.3593092078 0.0988995838
0.0860490578 0.3930863300 0.1683225519
0.0870100864 0.3880041027 0.1520096566
0.0888769023 0.3824216188 0.1321848472
0.0956111865 0.3786798277 0.1170186853
0.1095245817 0.3772312642 0.1046757144
0.1316460422 0.3790175150 0.0963791310
0.1620305804 0.3800398124 0.0931742752
0.2053645402 0.3842137598 0.0910912834
0.2578562265 0.3875953013 0.0889128862
0.3143226569 0.3874784527 0.0851994024
0.3722810939 0.3885633556 0.0824231047
0.4215720576 0.3921441765 0.0805717381
0.4633920800 0.3972509060 0.0792528499
0.4989701766 0.4017957615 0.0780448391
0.5319929166 0.4030358695 0.0778347191
0.5640149407 0.4063822666 0.0752251083
0.5958452543 0.4086111338 0.0745953226
0.6283818397 0.4108349873 0.0733925938
0.6594546370 0.4122954147 0.0744580350
0.6864645227 0.4133014518 0.0760730495
0.7143574906 0.4124551465 0.0763106253
0.7371025881 0.4139899685 0.0769384810
0.7599052596 0.4131117589 0.0773556894
0.7814996742 0.4136077758 0.0785800282
0.8021166115 0.4145092035 0.0785980132
0.8229826900 0.4131427618 0.0786776345
0.8431527098 0.4097774064 0.0787814238
0.8614643330 0.4096987169 0.0795060023
0.8784189570 0.4078212002 0.0808732966
0.8948306680 0.4035658404 0.0830462638
0.9072090258 0.4024864951 0.0873687471
0.9190184839 0.3984563102 0.0930099355
0.9286972795 0.3974897631 0.1000455695
0.0953782471 0.4215232318 0.1860270361
0.0966487332 0.4181480847 0.1693317085
0.0987826670 0.4140044922 0.1511284135
0.1033796794 0.4105835132 0.1311888071
0.1141951840 0.4089538954 0.1164852790
0.1328612685 0.4096050100 0.1051566987
0.1611108443 0.4112750527 0.0996456783
0.2004749088 0.4130909050 0.0975859228
0.2513388716 0.4171578123 0.0965340539
0.3025771414 0.4193868365 0.0944872985
0.3562801405 0.4213933110 0.0922952778
0.4072877121 0.4231582798 0.0905978599
0.4503287551 0.4275168864 0.0895694754
0.4880160206 0.4329868214 0.0884191860
0.5224800268 0.4370646577 0.0870747914
0.5555558262 0.4390465291 0.0856266333
0.5880831759 0.4428481074 0.0826587219
0.6208881115 0.4458943951 0.0806715375
0.6509987341 0.4479454231 0.0812509277
0.6798563980 0.4484184840 0.0823619015
0.7069944320 0.4504744418 0.0825871729
0.7296550597 0.4521809923 0.0830423693
0.7510657153 0.4520860894 0.0830314800
0.7727227494 0.4491472217 0.0827214030
0.7933769945 0.4496842412 0.0826846767
0.8137405233 0.4491356845 0.0831039379
0.8337728871 0.4461794590 0.0830320664
0.8527688951 0.4430780805 0.0829073710
0.8716006277 0.4421182082 0.0835190254
0.8889626903 0.4370758799 0.0851629097
0.9029161344 0.4348726646 0.0893243021
0.9142623319 0.4339218543 0.0949106296
0.9248379659 0.4332594969 0.1020547183
0.1035573737 0.4471640016 0.2025797558
0.1053373946 0.4450390793 0.1838239437
0.1080329737 0.4420142361 0.1654058444
0.1117944978 0.4389347185 0.1460433984
0.1202626077 0.4365898030 0.1269918330
0.1353206274 0.4363996277 0.1148223508
0.1599360208 0.4380736535 0.1079263937
0.1974430027 0.4416222746 0.1052402436
0.2471198281 0.4461177248 0.1046536703
0.2964001862 0.4497111643 0.1045629990
0.3482769265 0.4527127325 0.1038280511
0.3972970988 0.4544927169 0.1022810119
0.4414606854 0.4553028042 0.1006662152
0.4794808282 0.4602659655 0.0999296380
0.5147853746 0.4659329759 0.0988186546
0.5493214188 0.4715346737 0.0969296151
0.5835860873 0.4764178943 0.0940768878
0.6172573443 0.4806186620 0.0914441100
0.6467591027 0.4836258949 0.0915603312
0.6738027414 0.4849627871 0.0920092578
0.7016430032 0.4839517997 0.0908618591
0.7261988476 0.4859295982 0.0906611686
0.7484783104 0.4874657098 0.0904984983
0.7702004738 0.4869945920 0.0897315656
0.7910470556 0.4835038595 0.0886065205
0.8109434648 0.4833571121 0.0879646098
0.8302737240 0.4800014591 0.0871435112
0.8485470614 0.4764668125 0.0862665378
0.8652854276 0.4752071927 0.0866713168
0.8823524773 0.4701220281 0.0878885415
0.8971700792 0.4678135102 0.0917647642
0.9095539359 0.4671237734 0.0982046101
0.9202546855 0.4664597692 0.1059339951
0.1127102059 0.4740425528 0.2188176427
0.1137519483 0.4726656684 0.2054539673
0.1163156933 0.4706801845 0.1853308528
0.1194844841 0.4679696561 0.1652117593
0.1272047402 0.4658058449 0.1453686442
0.1395650928 0.4644631497 0.1295193339
0.1612597407 0.4652760700 0.1189459159
0.1966685475 0.4684116648 0.1142712238
0.2452940962 0.4730963481 0.1140482052
0.2940329441 0.4751406823 0.1134041403
0.3444992211 0.4791530552 0.1141008770
0.3922539860 0.4825528324 0.1134834339
0.4343366350 0.4850799112 0.1122352601
0.4720475346 0.4895088406 0.1114465219
0.5051119366 0.4941617668 0.1106016912
0.5388959857 0.4993356220 0.1093124680
0.5745896926 0.5050580110 0.1074705438
0.6099605488 0.5102695710 0.1050179707
0.6437716493 0.5129938278 0.1021760289
0.6717976635 0.5155039058 0.1023626362
0.6979876189 0.5174357418 0.1027032089
0.7233736317 0.5203410936 0.1020709990
0.7464308467 0.5201650421 0.1004507861
0.7686486108 0.5205030549 0.0991053472
0.7897565379 0.5201111038 0.0980267494
0.8098409270 0.5166569440 0.0961953550
0.8293647131 0.5160777158 0.0951579256
0.8481510551 0.5121864630 0.0934031890
0.8652831876 0.5075373235 0.0921041003
0.8798742415 0.5058987347 0.0934290252
0.8944368448 0.5005403244 0.0969174020
0.9071342855 0.4981569132 0.1030112251
0.9178964654 0.4972053918 0.1107348785
0.1231896830 0.4989837326 0.2388119384
0.1234400993 0.4963665804 0.2233823413
0.1251914260 0.4956144544 0.2036340223
0.1284651337 0.4932143513 0.1827242392
0.1347090762 0.4909525755 0.1612426917
0.1463409207 0.4890133097 0.1426487577
0.1645298069 0.4892655343 0.1305110548
0.1973746593 0.4917207410 0.1238017391
0.2454597126 0.4962222094 0.1234913760
0.2937187837 0.5006268270 0.1241077820
0.3425420202 0.5047214540 0.1256481448
0.3870381317 0.5088845983 0.1260062810
0.4268582680 0.5124497693 0.1252473763
0.4640516167 0.5162427113 0.1241737379
0.4990822161 0.5187617550 0.1227856876
0.5315454781 0.5230365756 0.1220557938
0.5670474379 0.5280648626 0.1209734982
0.6012000883 0.5332096002 0.1196075966
0.6368051239 0.5387045378 0.1178120270
0.6689062898 0.5413849450 0.1148449689
0.6958424333 0.5445577481 0.1146828156
0.7203708547 0.5484140057 0.1136520178
0.7442504810 0.5497025015 0.1115756913
0.7670852810 0.5502731746 0.1095928271
0.7888726189 0.5520224196 0.1085109311
0.8097074278 0.5499366062 0.1063116672
0.8300716330 0.5493329762 0.1046575049
0.8495576713 0.5473947732 0.1028591048
0.8671803302 0.5420535784 0.1005670706
0.8824893030 0.5372352496 0.1014309799
0.8951048582 0.5351084483 0.1045485935
0.9073697326 0.5305999434 0.1099287979
0.9177676338 0.5289920533 0.1180435071
0.1354743525 0.5205269058 0.2597663857
0.1354236126 0.5189737022 0.2440777111
0.1363863795 0.5183385057 0.2248158587
0.1389790503 0.5170314774 0.2019392555
0.1438645948 0.5150205558 0.1782127075
0.1539351798 0.5126153146 0.1569569563
0.1707634682 0.5119438137 0.1422938104
0.1972987404 0.5136763488 0.1338217152
0.2435077320 0.5176034671 0.1324204603
0.2930832389 0.5221006103 0.1340929910
0.3395789401 0.5272173716 0.1372605050
0.3845878340 0.5320200615 0.1389931862
0.4206886301 0.5357103071 0.1387638826
0.4570495406 0.5391957876 0.1374840148
0.4901760039 0.5421089382 0.1362419696
0.5240885682 0.5445997814 0.1350433431
0.5588415973 0.5488756174 0.1346485962
0.5930447538 0.5527379724 0.1337554081
0.6273822620 0.5579836134 0.1327552479
0.6609103719 0.5638549039 0.1305209471
0.6917422803 0.5675280662 0.1272545423
0.7163346527 0.5715527427 0.1252767405
0.7399901776 0.5741346728 0.1230487023
0.7633598207 0.5757760079 0.1207205281
0.7858727100 0.5786171474 0.1193647093
0.8074508260 0.5780700864 0.1169469752
0.8288249420 0.5789398742 0.1148739068
0.8495295372 0.5794197410 0.1123492141
0.8682532631 0.5761260796 0.1104566686
0.8850131479 0.5713294400 0.1104982894
0.8984347358 0.5680897438 0.1138417826
0.9099936665 0.5644967215 0.1192647116
0.9203529357 0.5623850581 0.1275250300
0.1479982072 0.5382299657 0.2768741948
0.1492133797 0.5390960621 0.2636045344
0.1506389920 0.5398459198 0.2473065829
0.1526664573 0.5398208418 0.2270696803
0.1564515919 0.5389579856 0.2019097269
0.1640407553 0.5368430646 0.1769758472
0.1768515993 0.5355101573 0.1575516416
0.1999184954 0.5363338315 0.1461462299
0.2379972828 0.5391089444 0.1421593208
0.2892821498 0.5417903218 0.1435038941
0.3358785893 0.5460262547 0.1476205040
0.3776205406 0.5507479669 0.1505988014
0.4177145542 0.5553184060 0.1514405893
0.4534290219 0.5590694820 0.1509261474
0.4844550378 0.5621498061 0.1500831632
0.5148686671 0.5655503387 0.1499812595
0.5476113756 0.5692209270 0.1496497279
0.5829706555 0.5716112754 0.1482572792
0.6179361205 0.5757418380 0.1475523848
0.6504159984 0.5810941158 0.1458594120
0.6826562300 0.5869300763 0.1413521084
0.7087374307 0.5904071406 0.1377723475
0.7329667910 0.5938524661 0.1350443711
0.7566043667 0.5969563307 0.1326696796
0.7796198236 0.6007666873 0.1308512045
0.8021598600 0.6015325650 0.1274531063
0.8242699450 0.6045040105 0.1241170527
0.8461532776 0.6063293840 0.1213407803
0.8670283353 0.6056610321 0.1189139047
0.8853938214 0.6038585154 0.1195763541
0.9006233895 0.6024148064 0.1233897431
0.9130803282 0.5999704791 0.1301651949
0.9234015124 0.5941698379 0.1384916697
0.1607199038 0.5530893880 0.2981029842
0.1621156356 0.5545281015 0.2866037063
0.1638353773 0.5558515098 0.2716805170
0.1662047568 0.5571883785 0.2534721057
0.1697950194 0.5577680153 0.2290307955
0.1759748809 0.5572189577 0.2025968406
0.1861090958 0.5563266311 0.1792707511
0.2039347939 0.5563160796 0.1618946896
0.2375466585 0.5585884334 0.1547645030
0.2804860445 0.5623568950 0.1526514478
0.3298926467 0.5651144518 0.1557937345
0.3721086639 0.5694137805 0.1596552804
0.4096265883 0.5740202086 0.1617817696
0.4456795996 0.5782825243 0.1620483242
0.4787189812 0.5815367864 0.1613509528
0.5085684396 0.5842818595 0.1609321146
0.5384016324 0.5873368444 0.1611862978
0.5719194666 0.5886885577 0.1595658974
0.6058896686 0.5922787301 0.1595264182
0.6391162056 0.5970860221 0.1580916386
0.6731701734 0.6024767128 0.1535661939
0.6998666424 0.6083223332 0.1515901644
0.7250963852 0.6123274953 0.1483827773
0.7491794385 0.6161032348 0.1456900414
0.7726108302 0.6206023066 0.1438917238
0.7957495626 0.6222058118 0.1401345890
0.8185469735 0.6237099692 0.1347426361
0.8407705441 0.6264854165 0.1303015857
0.8618022699 0.6287771972 0.1269013392
0.8819082873 0.6290438435 0.1265666965
0.8993052871 0.6301067111 0.1310914684
0.9132094828 0.6299058710 0.1390381964
0.9247589920 0.6265645883 0.1501715286
0.1744638429 0.5661513094 0.3131688316
0.1761212304 0.5678778387 0.3025271903
0.1782118986 0.5699821226 0.2895123418
0.1807873271 0.5720396554 0.2742331720
0.1843493494 0.5740499988 0.2537827594
0.1895068174 0.5754208594 0.2303625876
0.1987560103 0.5763059524 0.2039224760
0.2120685576 0.5768697096 0.1828384664
0.2378075924 0.5788860904 0.1699440705
0.2768413033 0.5808953217 0.1643179966
0.3186736836 0.5848979449 0.1658562981
0.3629393003 0.5882665627 0.1688117559
0.4001550392 0.5926257836 0.1712856691
0.4372617811 0.5970331932 0.1728193109
0.4707318939 0.6005088754 0.1725764472
0.5013189381 0.6029002609 0.1717852440
0.5292717848 0.6052318776 0.1711929840
