presets/原 柯达5207 -S.cube
TITLE "YINGZEJUN Copyright"
# YINGZEJUN Copyright
# SP3000 & GOLD200 
# 20241106
# Created by: Adobe Photoshop Export Color Lookup Plugin
LUT_3D_SIZE 33
0.0167240000 0.0366210000 0.0643310000
0.0397229644 0.0434023920 0.0669964785
0.0606320020 0.0502376640 0.0696478662
0.0845701035 0.0556022100 0.0731514959
0.1207929732 0.0578671092 0.0751534408
0.1637679786 0.0580095768 0.0733734221
0.2139421964 0.0584280797 0.0705783777
0.2679658756 0.0602451440 0.0679712597
0.3237769330 0.0630838447 0.0651325911
0.3737950415 0.0664097798 0.0644754485
0.4213927834 0.0702862597 0.0632969616
0.4664436008 0.0745672845 0.0622737967
0.5070226552 0.0783368939 0.0616480745
0.5535888107 0.0814203163 0.0607382426
0.5988249792 0.0850697736 0.0596062467
0.6435836347 0.0893979672 0.0592701613
0.6845961976 0.0932429720 0.0595245028
0.7221616406 0.1002411978 0.0613806341
0.7525699093 0.1045859115 0.0625656254
0.7781544910 0.1091599602 0.0646166508
0.8023926832 0.1147078908 0.0678248806
0.8221699112 0.1201423172 0.0718489264
0.8392019010 0.1245225146 0.0760966480
0.8537984370 0.1292497667 0.0805638006
0.8661350977 0.1340151056 0.0831377640
0.8771184546 0.1382558028 0.0892120322
0.8866089220 0.1424807424 0.0951531729
0.8944146209 0.1460938208 0.1010822231
0.9014072102 0.1505831995 0.1056635474
0.9090323771 0.1559792565 0.1130461567
0.9155358665 0.1605507308 0.1194128923
0.9208013191 0.1652013302 0.1254786280
0.9254977410 0.1702439636 0.1330585113
0.0229627373 0.0567481358 0.0675140933
0.0365990231 0.0557689597 0.0642393885
0.0569581228 0.0598816540 0.0663297387
0.0799638417 0.0645793698 0.0692919333
0.1141280344 0.0673155664 0.0700071730
0.1509471195 0.0684964148 0.0688833824
0.1976600047 0.0694588989 0.0665764765
0.2482776788 0.0711531830 0.0651344521
0.3015378492 0.0733830772 0.0639257157
0.3534637036 0.0774472971 0.0626581141
0.4043741479 0.0812451226 0.0621157176
0.4519772883 0.0853912451 0.0612352902
0.4955869830 0.0892761900 0.0603960766
0.5437452459 0.0910891435 0.0598866324
0.5910415995 0.0946091368 0.0591163997
0.6361220447 0.0982475380 0.0580236334
0.6787156674 0.1011191448 0.0576321715
0.7142161564 0.1059294698 0.0589008600
0.7484437930 0.1110616270 0.0600127443
0.7761325564 0.1148633478 0.0609575285
0.8016173556 0.1204813428 0.0628448266
0.8218360525 0.1251307650 0.0660342125
0.8393019491 0.1282106308 0.0701944290
0.8545098551 0.1313812820 0.0749886713
0.8669979786 0.1357483136 0.0790323273
0.8779802821 0.1398732874 0.0841629000
0.8880060210 0.1446393138 0.0895564009
0.8963549575 0.1488752578 0.0954024147
0.9033971670 0.1528892689 0.1005782750
0.9112204417 0.1580690556 0.1078115194
0.9174070108 0.1623618802 0.1149434876
0.9227385225 0.1674780237 0.1211436875
0.9276993825 0.1729994598 0.1279475056
0.0296622631 0.0842070091 0.0784911476
0.0373135810 0.0751065058 0.0657366655
0.0530959780 0.0766388818 0.0659781714
0.0762827174 0.0803931808 0.0681793633
0.1066897777 0.0843322327 0.0685254710
0.1431436210 0.0867269284 0.0680461648
0.1856060933 0.0880052662 0.0672172500
0.2357685672 0.0903763309 0.0665120567
0.2869677784 0.0907947582 0.0656510771
0.3417521704 0.0936646210 0.0644626624
0.3943498302 0.0966163934 0.0634289624
0.4429450590 0.0997071982 0.0626073845
0.4875824286 0.1030997833 0.0613569881
0.5362283115 0.1051612074 0.0606144332
0.5856285044 0.1066862989 0.0595757661
0.6296419912 0.1108514464 0.0590864651
0.6714204605 0.1134669668 0.0582541731
0.7099815622 0.1156760427 0.0580263108
0.7447373053 0.1199716400 0.0586846631
0.7734991707 0.1228013409 0.0590847079
0.7984599026 0.1279609113 0.0608327455
0.8206591860 0.1321205035 0.0629948264
0.8384227806 0.1353789105 0.0655356056
0.8541644233 0.1375460234 0.0697339582
0.8667068144 0.1416725950 0.0742221814
0.8778736467 0.1453153719 0.0792306831
0.8877816412 0.1493634528 0.0842674828
0.8972399040 0.1537637470 0.0896444965
0.9047775990 0.1574649088 0.0953195216
0.9129628116 0.1621972468 0.1022756410
0.9194845024 0.1660745731 0.1091396874
0.9246781935 0.1703481934 0.1167054842
0.9296773709 0.1758346313 0.1240180086
0.0362244430 0.1173140316 0.0905448866
0.0382540951 0.1014547057 0.0727952676
0.0517952873 0.0991198287 0.0682517897
0.0714545840 0.1037694936 0.0694851169
0.1000058604 0.1069305834 0.0692892066
0.1353388018 0.1102276293 0.0697337824
0.1788782164 0.1131218534 0.0699545064
0.2267826353 0.1141401643 0.0694970201
0.2783171535 0.1147359776 0.0689367693
0.3342979470 0.1162268152 0.0678039786
0.3862816207 0.1171771283 0.0664486230
0.4372811231 0.1177474919 0.0650420974
0.4825938544 0.1207133347 0.0640665064
0.5324568737 0.1229288858 0.0633506088
0.5799150068 0.1249792957 0.0625406738
0.6272716376 0.1257869477 0.0606293828
0.6658378584 0.1291574457 0.0600476958
0.7055866427 0.1300361462 0.0588926718
0.7405456491 0.1315846650 0.0585315602
0.7713175411 0.1351894847 0.0584032850
0.7948937085 0.1378096547 0.0590031940
0.8175598926 0.1408141631 0.0602481339
0.8372570672 0.1435935987 0.0626168444
0.8530730155 0.1468960088 0.0649677665
0.8657912037 0.1500376271 0.0686649312
0.8771250014 0.1524885057 0.0731335006
0.8876391842 0.1557280059 0.0782920493
0.8974066765 0.1598483691 0.0835694470
0.9064568064 0.1634203160 0.0892897223
0.9146328783 0.1674337585 0.0955642503
0.9215938250 0.1712659802 0.1029565819
0.9269955140 0.1751748985 0.1099013180
0.9320144627 0.1797744212 0.1190261339
0.0411797219 0.1517389890 0.0939194437
0.0404379598 0.1319285433 0.0782219760
0.0509952063 0.1257611256 0.0718404294
0.0682330114 0.1278341335 0.0709971348
0.0946640220 0.1336168813 0.0720786166
0.1286434020 0.1369108048 0.0729380059
0.1707169170 0.1406443666 0.0734272476
0.2188255841 0.1430788295 0.0733267991
0.2715887327 0.1423316662 0.0728412319
0.3289145011 0.1445895890 0.0719127578
0.3802601817 0.1455244762 0.0708758255
0.4289519485 0.1452049195 0.0695584768
0.4798385850 0.1451418391 0.0687626869
0.5319147323 0.1462693570 0.0668849665
0.5781345403 0.1487072050 0.0658903967
0.6218046517 0.1495407918 0.0644609514
0.6652712142 0.1488075547 0.0619791316
0.7037654618 0.1509047161 0.0601027222
0.7361186175 0.1514031995 0.0588538211
0.7648185998 0.1524011047 0.0584376189
0.7910139701 0.1555892484 0.0581613141
0.8123071441 0.1572623639 0.0586350326
0.8325365297 0.1583754438 0.0603713827
0.8502417367 0.1608987078 0.0627204933
0.8627188430 0.1653691719 0.0649321810
0.8744160785 0.1660693458 0.0686604484
0.8858783823 0.1679209092 0.0730284134
0.8966506854 0.1712217987 0.0784289351
0.9066237651 0.1754178177 0.0841477481
0.9149409636 0.1781507328 0.0893170730
0.9223832788 0.1803396448 0.0964614158
0.9288898057 0.1833476982 0.1041379712
0.9342353778 0.1872151372 0.1118466278
0.0464527030 0.1917065965 0.0984148328
0.0445618459 0.1664250158 0.0837505911
0.0522353864 0.1549629664 0.0767466081
0.0666910993 0.1543816209 0.0750284706
0.0888599503 0.1590992921 0.0765795130
0.1199702686 0.1628337134 0.0777517257
0.1594243386 0.1682410496 0.0779267978
0.2060134457 0.1731436022 0.0774659846
0.2583869812 0.1741706176 0.0764920599
0.3152107480 0.1769154464 0.0756517273
0.3681614179 0.1758085671 0.0755812997
0.4192951451 0.1759775360 0.0750534129
0.4726120822 0.1765959189 0.0733917917
0.5249126449 0.1765409803 0.0715720653
0.5761113457 0.1760771996 0.0687741468
0.6209524972 0.1769926277 0.0665948918
0.6636283928 0.1775174483 0.0639001391
0.6974769615 0.1757448281 0.0616346985
0.7310329004 0.1758813805 0.0599389094
0.7601631299 0.1756785731 0.0586736961
0.7864058753 0.1774853416 0.0579867959
0.8072321144 0.1806933860 0.0582976693
0.8259877941 0.1822025360 0.0591032739
0.8434254595 0.1827674459 0.0609620553
0.8575109580 0.1849274417 0.0630855250
0.8709466134 0.1867149118 0.0653008870
0.8839036028 0.1866009582 0.0689942070
0.8958107284 0.1879013563 0.0732552971
0.9062176341 0.1908176226 0.0787380839
0.9149407599 0.1931111997 0.0834335780
0.9233239349 0.1945480524 0.0900014341
0.9306500567 0.1962086254 0.0972694522
0.9361191293 0.1983514794 0.1042334073
0.0526823372 0.2281179855 0.1035343923
0.0508377670 0.2041114791 0.0890598806
0.0550157365 0.1901404627 0.0809374638
0.0667568841 0.1861788028 0.0790433025
0.0860277366 0.1881379620 0.0804234034
0.1136705433 0.1905211337 0.0824654728
0.1470326664 0.1954470200 0.0834824445
0.1916620550 0.2011933484 0.0827766426
0.2434058163 0.2041243993 0.0817656506
0.3015622283 0.2090862880 0.0799299495
0.3598388376 0.2117985826 0.0782843333
0.4094180228 0.2093202748 0.0783865440
0.4620306251 0.2098578140 0.0767731842
0.5154004462 0.2094049598 0.0749922697
0.5666524654 0.2085256636 0.0715557120
0.6136506499 0.2067471796 0.0686036550
0.6558658753 0.2068317915 0.0658724111
0.6918495094 0.2047440381 0.0633969644
0.7239843113 0.2038655172 0.0614026168
0.7532088483 0.2029142562 0.0601647041
0.7790370169 0.2033680644 0.0591803113
0.8013098240 0.2077804568 0.0591273788
0.8206636051 0.2093398651 0.0602238756
0.8366626655 0.2109213530 0.0613594055
0.8519073339 0.2118513514 0.0630594591
0.8671604082 0.2101455164 0.0647542184
0.8809048929 0.2111327989 0.0669630869
0.8935943921 0.2105379241 0.0705218501
0.9049572246 0.2109819236 0.0744642049
0.9141568588 0.2126930371 0.0789372371
0.9228223995 0.2142089566 0.0846897948
0.9305112172 0.2150441594 0.0913413921
0.9366931454 0.2162562214 0.0978801952
0.0591643224 0.2609185022 0.1112424714
0.0574711384 0.2411918883 0.0963877759
0.0599385670 0.2268601813 0.0873062874
0.0683795104 0.2202479041 0.0832904885
0.0852305623 0.2202949340 0.0848092208
0.1100499370 0.2222198248 0.0863468366
0.1401586955 0.2249399107 0.0881236517
0.1780379876 0.2308970121 0.0878213914
0.2296178971 0.2342584099 0.0867888928
0.2858714198 0.2398599669 0.0847648942
0.3457138667 0.2424755046 0.0818306620
0.4011203403 0.2444917950 0.0794240963
0.4494316160 0.2416980200 0.0779014580
0.5022631893 0.2416734677 0.0758726236
0.5519961377 0.2407502831 0.0733586440
0.5996793340 0.2399140286 0.0703528796
0.6427112745 0.2381695214 0.0685850133
0.6803501289 0.2359102106 0.0669655970
0.7140971141 0.2343018590 0.0650468121
0.7444617515 0.2340498779 0.0630797608
0.7693271800 0.2335065112 0.0626891679
0.7926417539 0.2371681736 0.0624547757
0.8136169213 0.2393106055 0.0626717421
0.8307345069 0.2404720194 0.0641851944
0.8466278614 0.2421574396 0.0650529695
0.8629944229 0.2390391419 0.0658780395
0.8782809209 0.2375620433 0.0673155955
0.8914415349 0.2380346830 0.0694507272
0.9026714720 0.2367551283 0.0720685927
0.9134795746 0.2374782331 0.0758806066
0.9223406855 0.2387239568 0.0809126894
0.9301767099 0.2382996484 0.0869824657
0.9362514312 0.2388943399 0.0928767169
0.0657354801 0.2920730439 0.1208998804
0.0640487588 0.2757155060 0.1063335911
0.0657138311 0.2629885097 0.0960946166
0.0723306408 0.2546935211 0.0910048555
0.0856485319 0.2526453347 0.0897647681
0.1069277073 0.2553847919 0.0908597724
0.1345525784 0.2570438399 0.0930904374
0.1699763269 0.2597403418 0.0933852234
0.2173221811 0.2659326089 0.0911601161
0.2704338333 0.2708225494 0.0893129943
0.3299281414 0.2728764792 0.0857914765
0.3864791705 0.2732912424 0.0815374080
0.4386462994 0.2745000803 0.0775286371
0.4894257862 0.2745196957 0.0752688102
0.5367385309 0.2739768100 0.0738715224
0.5813101988 0.2732948269 0.0724896570
0.6254760084 0.2728729170 0.0708165482
0.6647730652 0.2714779942 0.0701500852
0.6991990983 0.2702583265 0.0698839393
0.7302490566 0.2692543215 0.0691382454
0.7586126941 0.2689999751 0.0676869827
0.7816750909 0.2696599228 0.0666358567
0.8035615029 0.2701643151 0.0670147357
0.8222698176 0.2709414905 0.0669123335
0.8396750740 0.2724878588 0.0671925056
0.8569592808 0.2705123938 0.0673993511
0.8734452160 0.2694129161 0.0679603598
0.8882704921 0.2686464469 0.0693844686
0.9011833990 0.2686742060 0.0714054996
0.9127763275 0.2687507968 0.0744449296
0.9220111339 0.2697610485 0.0786210704
0.9297906052 0.2691478881 0.0838727127
0.9375114708 0.2648150188 0.0904710391
0.0734363792 0.3223244121 0.1305700300
0.0720949667 0.3115679194 0.1181214503
0.0724317804 0.2993936227 0.1061576622
0.0773664155 0.2904885067 0.0991436946
0.0888634091 0.2861196805 0.0958194118
0.1066155745 0.2868447145 0.0957302955
0.1326379330 0.2904057886 0.0971636760
0.1652354612 0.2934589174 0.0975956934
0.2061132095 0.2981842180 0.0960714122
0.2570658249 0.2998268865 0.0935896224
0.3138013189 0.3034302332 0.0898873994
0.3698396447 0.3056147549 0.0847284505
0.4214581858 0.3076675844 0.0800790783
0.4709415415 0.3084102922 0.0775133113
0.5212544986 0.3092164938 0.0750460276
0.5679219239 0.3093464358 0.0738694597
0.6125822456 0.3094983832 0.0736172910
0.6527002708 0.3098165703 0.0729137540
0.6855311950 0.3093535788 0.0736029284
0.7165657854 0.3072036738 0.0735703409
0.7460522724 0.3041592829 0.0723656536
0.7720470733 0.3039794839 0.0711933222
0.7946596283 0.3041350573 0.0711510433
0.8144245378 0.3042879148 0.0708276113
0.8331394569 0.3052937202 0.0700678087
0.8519642346 0.3030675769 0.0697117462
0.8692789079 0.3028481877 0.0697142383
0.8849628100 0.3025189035 0.0704579710
0.8987314115 0.3015271646 0.0717871505
0.9114863519 0.3012964076 0.0739619552
0.9219169781 0.2996320249 0.0778593001
0.9309207163 0.2997833466 0.0827768314
0.9388669446 0.2992149744 0.0886327302
0.0816044602 0.3554962176 0.1442377183
0.0808457413 0.3473543234 0.1325852701
0.0802844098 0.3372626610 0.1188536524
0.0834451108 0.3289145264 0.1092665815
0.0924816338 0.3232786803 0.1028125334
0.1084847401 0.3222124911 0.1001540137
0.1308916377 0.3219886276 0.1009344679
0.1620118195 0.3259080503 0.1013762567
0.1995433680 0.3303504603 0.1002986437
0.2435478020 0.3328152530 0.0981023909
0.2980060826 0.3348539704 0.0942365180
0.3522718811 0.3379589379 0.0895864835
0.4039862136 0.3413385263 0.0851842632
0.4537348535 0.3439885508 0.0819440919
0.5043812143 0.3431525593 0.0799766753
0.5537258291 0.3448530425 0.0778239978
0.5995513760 0.3455904865 0.0772751990
0.6411506670 0.3464016643 0.0766185206
0.6770558056 0.3465882746 0.0773046261
0.7069869032 0.3464227135 0.0777635884
0.7361143938 0.3433032359 0.0770861086
0.7606165636 0.3429795272 0.0764402465
0.7849132940 0.3403718386 0.0749957017
0.8053581004 0.3400249493 0.0744571687
0.8244483282 0.3403571095 0.0732827414
0.8441853193 0.3393290942 0.0726020400
0.8629668524 0.3364713834 0.0718421333
0.8801811169 0.3371357465 0.0717895626
0.8951923521 0.3361161712 0.0725107522
0.9093931216 0.3333115932 0.0743328897
0.9197908372 0.3342438130 0.0776180640
0.9298254823 0.3328274573 0.0823832600
0.9384792759 0.3343535371 0.0880541168
0.0904109896 0.3875418557 0.1602300596
0.0900119974 0.3820982224 0.1476518368
0.0897569544 0.3745169947 0.1345829522
0.0907346036 0.3663738531 0.1203846690
0.0970570402 0.3606036813 0.1114702598
0.1100391311 0.3582004188 0.1062584416
0.1305965373 0.3579616423 0.1050822614
0.1585662439 0.3585922914 0.1054156363
0.1945085670 0.3627369415 0.1050109126
0.2347344733 0.3660294617 0.1034507382
0.2844934260 0.3687922903 0.1002101652
0.3382327023 0.3701124760 0.0957933922
0.3894137680 0.3737735328 0.0923085194
0.4397153508 0.3779404003 0.0891897422
0.4905461768 0.3799538077 0.0866184213
0.5411213410 0.3796843540 0.0845791572
0.5888163715 0.3819802616 0.0829680544
0.6322948717 0.3834704520 0.0816565095
0.6683336295 0.3841877094 0.0821838385
0.7008974645 0.3830686874 0.0824842651
0.7296989395 0.3830711516 0.0819664902
0.7542389233 0.3831045179 0.0815234351
0.7769475356 0.3815377202 0.0801312770
0.7980224242 0.3774220212 0.0780577909
0.8172578678 0.3774993280 0.0765846764
0.8366321135 0.3772507756 0.0753585591
0.8558696588 0.3746378164 0.0743933355
0.8735100796 0.3720789337 0.0735957994
0.8900240205 0.3716737229 0.0731678917
0.9054446886 0.3674672884 0.0744443349
0.9172079280 0.3670991513 0.0776902760
0.9272046090 0.3686639415 0.0823039216
0.9366134126 0.3705838862 0.0881842540
0.0982607161 0.4164700615 0.1768352480
0.0986298064 0.4128925983 0.1616826047
0.0986586358 0.4072587148 0.1477868431
0.0987780021 0.4005554786 0.1333878960
0.1024647657 0.3944152730 0.1204107382
0.1124686269 0.3912149551 0.1137964065
0.1294536933 0.3909923721 0.1109785128
0.1551433237 0.3932955647 0.1107092273
0.1893424379 0.3967767666 0.1107129998
0.2275820643 0.4000908236 0.1100342886
0.2755060100 0.4029580261 0.1075871053
0.3283573953 0.4041580040 0.1036995183
0.3803381204 0.4039510611 0.0999598185
0.4303576813 0.4084239615 0.0975654800
0.4818824529 0.4129607993 0.0951225356
0.5335835157 0.4164674240 0.0927439880
0.5830259301 0.4196654885 0.0906619892
0.6280831974 0.4225809442 0.0893235878
0.6641716656 0.4243286772 0.0891154700
0.6954682156 0.4239079253 0.0890835431
0.7249887523 0.4204422049 0.0876704920
0.7514302978 0.4210203786 0.0868719519
0.7750116598 0.4216114693 0.0858132834
0.7951629234 0.4204776962 0.0835996137
0.8145867533 0.4161560991 0.0810719394
0.8333596668 0.4163819030 0.0789065530
0.8520993281 0.4134871578 0.0767421929
0.8696435980 0.4098984494 0.0752660443
0.8845887299 0.4093481290 0.0742651003
0.9002286216 0.4044452881 0.0750197602
0.9130325068 0.4036635694 0.0783418731
0.9242866814 0.4054282364 0.0834793616
0.9338435820 0.4072463730 0.0898628155
0.1064799320 0.4476932011 0.1956123222
0.1069116761 0.4455168905 0.1845086412
0.1079680579 0.4423970652 0.1680330982
0.1082040337 0.4374146720 0.1522357904
0.1108764942 0.4326816508 0.1373631584
0.1169014866 0.4281345079 0.1263755749
0.1302116123 0.4263727885 0.1199632494
0.1531093178 0.4275258508 0.1179878430
0.1852599214 0.4302245341 0.1180329476
0.2222228499 0.4300942550 0.1163488133
0.2687779586 0.4333646522 0.1151276622
0.3207583722 0.4363048276 0.1122916649
0.3720324230 0.4380896492 0.1091552207
0.4226024155 0.4420830505 0.1066431592
0.4709720551 0.4466023642 0.1047507468
0.5220008532 0.4511284961 0.1026400736
0.5738538994 0.4554654487 0.1008071670
0.6213081269 0.4599122999 0.0991735626
0.6622073711 0.4611501337 0.0971714442
0.6944871206 0.4618540600 0.0967984640
0.7225184158 0.4618200575 0.0964021395
0.7493636082 0.4638381114 0.0952362841
0.7733018013 0.4623600450 0.0930420386
0.7938167193 0.4621166949 0.0907388636
0.8132782529 0.4617249005 0.0881640767
0.8318733901 0.4574843170 0.0848933265
0.8507212165 0.4580371116 0.0822441713
0.8687856027 0.4540360027 0.0797796421
0.8845114142 0.4497565463 0.0775944496
0.8981172877 0.4487879411 0.0781559384
0.9111103218 0.4443753086 0.0806302503
0.9223102614 0.4436402713 0.0857646294
0.9320328671 0.4448590276 0.0926098603
0.1141155909 0.4775239324 0.2177876887
0.1144789648 0.4741125944 0.2043383697
0.1161750000 0.4732566302 0.1873209819
0.1169821780 0.4697756093 0.1704574933
0.1193874667 0.4668932999 0.1535098705
0.1234468428 0.4628609269 0.1392458168
0.1327280525 0.4603332670 0.1303863817
0.1523776080 0.4601871703 0.1259942348
0.1826046816 0.4619582459 0.1256203698
0.2178379579 0.4634609752 0.1252629714
0.2630420496 0.4657314946 0.1245243969
0.3122931395 0.4692205638 0.1227581490
0.3622331435 0.4723497006 0.1198654928
0.4130597844 0.4756780007 0.1168067051
0.4653634402 0.4775698626 0.1139492084
0.5155066680 0.4819764744 0.1121225170
0.5682915091 0.4870860733 0.1105854965
0.6144455901 0.4921470792 0.1094125543
0.6573890743 0.4974485035 0.1085291115
0.6935598432 0.4980463438 0.1063014856
0.7223837011 0.4995429996 0.1058496023
0.7480116343 0.5027891874 0.1044548987
0.7721606285 0.5027831424 0.1017355609
0.7931747716 0.5024976180 0.0990601831
0.8130388225 0.5048002918 0.0966401922
0.8324438593 0.5019675940 0.0927204349
0.8515734995 0.5016960272 0.0894746205
0.8701261739 0.5007172380 0.0860514363
0.8861625247 0.4949256138 0.0833156017
0.8998316409 0.4904039346 0.0827708751
0.9114781064 0.4895965300 0.0851861229
0.9223563601 0.4862491868 0.0903350909
0.9319258846 0.4869890525 0.0978192929
0.1209322552 0.5049659986 0.2419716996
0.1217658505 0.5028134108 0.2272553769
0.1234614627 0.5021184216 0.2094918979
0.1252076705 0.5011511088 0.1904004495
0.1275463820 0.4995468184 0.1707969775
0.1311880864 0.4972911861 0.1533204532
0.1381635477 0.4948927819 0.1415313408
0.1523200617 0.4938426845 0.1349692699
0.1795701300 0.4942431906 0.1328856413
0.2152611490 0.4947535461 0.1333342776
0.2581816046 0.4978309354 0.1342807105
0.3082717502 0.5017765053 0.1338840448
0.3543477291 0.5050395062 0.1318028556
0.4053993007 0.5081755934 0.1286588241
0.4557102869 0.5103178573 0.1254997075
0.5096024381 0.5120609276 0.1224695709
0.5628622045 0.5170088468 0.1213447332
0.6097723196 0.5213910574 0.1205713717
0.6513825807 0.5272370633 0.1201459695
0.6893015251 0.5333429258 0.1191721416
0.7215577891 0.5348784817 0.1164859782
0.7466646227 0.5377609816 0.1144597869
0.7700205164 0.5390592755 0.1117869389
0.7910493903 0.5402802995 0.1093217841
0.8113399174 0.5439325353 0.1073906159
0.8315952657 0.5429345784 0.1037042780
0.8517319609 0.5441089842 0.0999487930
0.8713008643 0.5453672833 0.0955358385
0.8885308726 0.5414585682 0.0918228664
0.9027325984 0.5360492798 0.0901923145
0.9149865882 0.5337848707 0.0919596472
0.9248362494 0.5315336206 0.0968058266
0.9344029338 0.5314326087 0.1051931562
0.1281460423 0.5291978030 0.2629940035
0.1298248829 0.5301296818 0.2501708858
0.1317760229 0.5311497211 0.2346013953
0.1337618973 0.5316261042 0.2161538873
0.1364173435 0.5316176846 0.1939041823
0.1396223091 0.5315630439 0.1723617081
0.1447545183 0.5310575285 0.1556918540
0.1551992244 0.5298942681 0.1453759683
0.1766279707 0.5295962374 0.1407442680
0.2126017946 0.5265301906 0.1406995285
0.2553111611 0.5277436700 0.1427315581
0.3017035980 0.5311503817 0.1435212713
0.3521616039 0.5350182264 0.1424056943
0.4025274851 0.5381128909 0.1400007244
0.4507878844 0.5407755045 0.1375500114
0.5008469950 0.5439421594 0.1354072567
0.5537074780 0.5476523346 0.1340548369
0.6041552424 0.5499207779 0.1327125064
0.6463844983 0.5551950039 0.1324680566
0.6824784680 0.5621695183 0.1322391118
0.7163414667 0.5685236543 0.1295820638
0.7424994064 0.5698944061 0.1265635363
0.7660591645 0.5709962037 0.1236374170
0.7874637708 0.5731469771 0.1213121794
0.8076234094 0.5777907206 0.1195166474
0.8283835691 0.5788028804 0.1156133660
0.8498178140 0.5817397074 0.1117426158
0.8702196674 0.5843009361 0.1061795256
0.8891540812 0.5830712727 0.1005512165
0.9047997894 0.5802894498 0.0986267591
0.9178187158 0.5794593465 0.1003613825
0.9283060329 0.5781130406 0.1056973802
0.9372466823 0.5732175600 0.1133946175
0.1358805035 0.5505630818 0.2884609170
0.1375188117 0.5521014994 0.2767874911
0.1395177174 0.5537130502 0.2619506753
0.1419803776 0.5555175106 0.2441229892
0.1449068772 0.5570158745 0.2208423315
0.1482684656 0.5586395234 0.1962680253
0.1526868610 0.5599152144 0.1746922095
0.1608264468 0.5606002562 0.1588331751
0.1790735599 0.5609596543 0.1505929351
0.2084349199 0.5611419028 0.1474558057
0.2525365908 0.5589975979 0.1487138023
0.2991341918 0.5608663415 0.1501017782
0.3462242234 0.5641681461 0.1500690360
0.3961292455 0.5674644414 0.1488978598
0.4469047322 0.5701003989 0.1474088775
0.4961792287 0.5726456400 0.1457983412
0.5456378424 0.5756122252 0.1447094093
0.5952584426 0.5763846276 0.1435613140
0.6368192173 0.5810160593 0.1436313414
0.6740647413 0.5871871524 0.1433900906
0.7093914602 0.5926444579 0.1415746971
0.7366091114 0.5979798919 0.1399690238
0.7612942656 0.5997816852 0.1369196747
0.7832006765 0.6025991898 0.1344086897
0.8031368708 0.6078076412 0.1328721365
0.8240783802 0.6097873211 0.1288556238
0.8458876224 0.6113186967 0.1233135800
0.8667245949 0.6147173428 0.1167428458
0.8863660356 0.6176622173 0.1101391450
0.9039280860 0.6174082257 0.1067292430
0.9185418549 0.6189221997 0.1076296610
0.9302864551 0.6193097268 0.1135835915
0.9393846639 0.6159435546 0.1237552963
0.1443330874 0.5696029688 0.3067277743
0.1460947531 0.5714337661 0.2958803390
0.1484138136 0.5736856265 0.2827982904
0.1509940010 0.5759902342 0.2675358044
0.1541726526 0.5785370456 0.2473727629
0.1576955356 0.5816457732 0.2243105683
0.1624923810 0.5852321894 0.1982241506
0.1684503072 0.5882005977 0.1772253865
0.1832615699 0.5904657633 0.1640813901
0.2104457458 0.5891415259 0.1554598214
0.2478926222 0.5900890865 0.1547222504
0.2951801932 0.5900738849 0.1556026338
0.3409049118 0.5930201324 0.1561862281
0.3910874936 0.5963881456 0.1562710973
0.4409334203 0.5989777144 0.1557945425
0.4904375079 0.6000390268 0.1552480028
0.5375274108 0.6011294360 0.1540917216
