presets/原 柯达5207 -2.cube
TITLE "YINGZEJUN Copyright"
# YINGZEJUN Copyright
# SP3000 & GOLD200 
# 20241106
# Created by: Adobe Photoshop Export Color Lookup Plugin
LUT_3D_SIZE 33
0.0835270000 0.1252750000 0.1803890000
0.0911992347 0.1232825712 0.1822308936
0.1026714268 0.1237207608 0.1823705526
0.1151174109 0.1263096087 0.1815014566
0.1261809036 0.1290120161 0.1837941444
0.1398253717 0.1304708787 0.1862364530
0.1576890851 0.1313591748 0.1867413935
0.1802505266 0.1319622227 0.1846499506
0.2059157416 0.1330347137 0.1822404295
0.2338269351 0.1341836249 0.1804500487
0.2651423767 0.1359133131 0.1790590038
0.2966977719 0.1378498795 0.1780919867
0.3266043948 0.1393927836 0.1778331145
0.3612212940 0.1408422829 0.1773835512
0.3964679954 0.1423175633 0.1770474691
0.4343565231 0.1440427081 0.1764921928
0.4767618569 0.1453753743 0.1759053276
0.5250179650 0.1471028838 0.1757504838
0.5708429901 0.1482728225 0.1751609011
0.6143622405 0.1498581071 0.1756638726
0.6558629942 0.1519458661 0.1760520586
0.6900993096 0.1543211195 0.1768133074
0.7206309401 0.1566815015 0.1779279821
0.7478930572 0.1590360332 0.1789150482
0.7727975232 0.1614166889 0.1793274444
0.7958081185 0.1637691670 0.1814966378
0.8164826547 0.1668400058 0.1856989907
0.8330979780 0.1699269975 0.1890764742
0.8467045646 0.1731800581 0.1916442014
0.8605278345 0.1776681684 0.1957562067
0.8721808836 0.1829287836 0.1998909400
0.8813565997 0.1884071226 0.2047367382
0.8895250079 0.1942910682 0.2098086560
0.0841343183 0.1236135824 0.1818196956
0.0878511020 0.1222436743 0.1767540964
0.0973301798 0.1235766617 0.1755914168
0.1115623894 0.1259576214 0.1742550735
0.1221042846 0.1279315252 0.1745776740
0.1328314019 0.1289740257 0.1765015279
0.1487629729 0.1305710719 0.1773363844
0.1705056863 0.1325972886 0.1777222482
0.1954071454 0.1345215574 0.1777067370
0.2241181632 0.1367288208 0.1776688871
0.2562276916 0.1389103602 0.1779176741
0.2896047401 0.1412930727 0.1777371527
0.3211460617 0.1434109196 0.1776877228
0.3564593036 0.1446073183 0.1779275614
0.3924708650 0.1462740957 0.1775332601
0.4297839452 0.1478798741 0.1767592826
0.4730569542 0.1486349578 0.1759034108
0.5171702650 0.1493530960 0.1751796741
0.5670814894 0.1506026956 0.1746975509
0.6129170797 0.1518045835 0.1745245851
0.6564491486 0.1539448900 0.1744669570
0.6910777922 0.1560256793 0.1749628514
0.7219212724 0.1579623115 0.1759912279
0.7499964668 0.1599741986 0.1768117761
0.7753547494 0.1620882845 0.1770399927
0.7980140923 0.1644278840 0.1783326603
0.8192380277 0.1677031543 0.1820022165
0.8361473397 0.1709626553 0.1859734022
0.8494725227 0.1742861905 0.1892459502
0.8633375736 0.1790845734 0.1933028557
0.8743183630 0.1843748998 0.1978123825
0.8834427628 0.1899662435 0.2023564304
0.8918879954 0.1961057097 0.2070763673
0.0865089798 0.1336393074 0.1882400462
0.0882086283 0.1284537207 0.1789534657
0.0948021191 0.1291101765 0.1758219456
0.1088827456 0.1314992989 0.1750508514
0.1202766653 0.1338487796 0.1750164610
0.1310193942 0.1351900453 0.1762769280
0.1450923157 0.1369841882 0.1774679565
0.1651096259 0.1390040879 0.1775551631
0.1890476406 0.1407068839 0.1782127491
0.2184409250 0.1430281760 0.1792390101
0.2519441689 0.1452122659 0.1795357052
0.2863889157 0.1476441629 0.1797684798
0.3190062888 0.1497970056 0.1799020682
0.3538920132 0.1505513176 0.1799205512
0.3906373212 0.1512244948 0.1791700518
0.4272399282 0.1527895187 0.1784670552
0.4691290461 0.1535130369 0.1774417013
0.5163503831 0.1533914821 0.1758597580
0.5653048178 0.1541821603 0.1751917510
0.6114281175 0.1548178953 0.1743948279
0.6545505148 0.1570716448 0.1743614545
0.6924255475 0.1590678108 0.1744208586
0.7232505573 0.1607222046 0.1743833957
0.7517162166 0.1623639361 0.1746593518
0.7773980515 0.1642567709 0.1750051786
0.8001630014 0.1665512632 0.1760392489
0.8197549248 0.1694511189 0.1787583322
0.8379341330 0.1729018628 0.1827242056
0.8518352239 0.1762822163 0.1864412780
0.8662328855 0.1813364338 0.1907962500
0.8769189609 0.1869082977 0.1952122238
0.8857818785 0.1921256164 0.1999595656
0.8942609740 0.1982944717 0.2048440480
0.0918143027 0.1537046401 0.1996076224
0.0908097127 0.1427321552 0.1858007006
0.0954101755 0.1406785558 0.1806306522
0.1071562108 0.1431833467 0.1802044757
0.1190180042 0.1451029376 0.1803001776
0.1300745911 0.1473834438 0.1820734400
0.1443206421 0.1494059973 0.1826977504
0.1631214037 0.1505600846 0.1822166204
0.1865911634 0.1518371296 0.1823422992
0.2158167966 0.1533542838 0.1826206501
0.2484688568 0.1543743385 0.1829223278
0.2847366488 0.1554416023 0.1829970117
0.3179116281 0.1572184874 0.1829723136
0.3536993904 0.1581025661 0.1827581137
0.3890540863 0.1586561180 0.1826030179
0.4279604601 0.1587825687 0.1809202276
0.4671843778 0.1599391751 0.1799642253
0.5159371609 0.1596057484 0.1782668250
0.5648835415 0.1592019632 0.1764577216
0.6132874221 0.1601325108 0.1755831615
0.6533136712 0.1614526012 0.1749119581
0.6914983192 0.1629588886 0.1742633890
0.7251499550 0.1642946994 0.1735935821
0.7532445453 0.1659111606 0.1725128965
0.7793126628 0.1672933293 0.1728586657
0.8018514616 0.1692567854 0.1734419121
0.8219681485 0.1719429519 0.1758211477
0.8395291410 0.1754663100 0.1792216200
0.8547754999 0.1791379158 0.1832898280
0.8690571153 0.1842828441 0.1877279420
0.8801071317 0.1901708515 0.1922731412
0.8888680923 0.1954775638 0.1965691487
0.8971411609 0.2011880187 0.2019165437
0.0965095194 0.1692477045 0.2052397116
0.0943676019 0.1596794627 0.1945296769
0.0978626408 0.1557664796 0.1879627341
0.1066615604 0.1558869821 0.1869655682
0.1175952146 0.1579339441 0.1885724820
0.1287891975 0.1594815271 0.1892121603
0.1432429422 0.1613606489 0.1890574661
0.1623022834 0.1631826456 0.1887357900
0.1854473301 0.1635681664 0.1878415400
0.2144527135 0.1651757097 0.1878224270
0.2456622312 0.1657915256 0.1874729512
0.2794236455 0.1661430151 0.1872431425
0.3171744050 0.1668442074 0.1874018612
0.3547495057 0.1675009081 0.1869209342
0.3896084681 0.1684173548 0.1865868672
0.4263236444 0.1684696336 0.1854194497
0.4701414012 0.1680594150 0.1832763617
0.5197666696 0.1683643557 0.1814454692
0.5672020868 0.1677247695 0.1792287516
0.6124070802 0.1675952196 0.1776192960
0.6569732324 0.1693263251 0.1762429079
0.6919637589 0.1702256699 0.1748579837
0.7252317330 0.1709026064 0.1736636794
0.7559055711 0.1723711000 0.1723902910
0.7811203017 0.1744386669 0.1714806502
0.8026962463 0.1756045230 0.1722083932
0.8230261677 0.1778917846 0.1736584421
0.8417649517 0.1815116338 0.1769286780
0.8584321345 0.1862467889 0.1809088144
0.8713103028 0.1904962558 0.1850172615
0.8821930401 0.1950147560 0.1889628311
0.8923149729 0.2007126322 0.1934815081
0.9005148797 0.2059892354 0.1977089561
0.1008223765 0.1867203600 0.2096935899
0.0981893321 0.1748260452 0.2019356532
0.1002843507 0.1686863056 0.1953568949
0.1076821298 0.1677372564 0.1940088950
0.1161010240 0.1685445634 0.1947961989
0.1264810051 0.1693477675 0.1953679053
0.1406461889 0.1722885798 0.1954783922
0.1593645744 0.1750321459 0.1945520585
0.1820176502 0.1762591757 0.1935333006
0.2093312020 0.1781572717 0.1929435371
0.2394137177 0.1780641162 0.1928201817
0.2733337378 0.1776150260 0.1922998846
0.3114542031 0.1788689294 0.1916938962
0.3492796780 0.1798187071 0.1913485548
0.3877392391 0.1801696489 0.1902468529
0.4267547827 0.1809363482 0.1887661358
0.4717047766 0.1814509112 0.1870096914
0.5168004893 0.1802088611 0.1848448542
0.5680908430 0.1794811652 0.1821334745
0.6153162657 0.1787788159 0.1799789436
0.6596093127 0.1797820249 0.1780580006
0.6948667044 0.1819178804 0.1765433003
0.7251616685 0.1823465817 0.1745205021
0.7551021170 0.1830785070 0.1732650836
0.7808810708 0.1841293548 0.1719855052
0.8047640906 0.1857453171 0.1716542044
0.8261332997 0.1873902941 0.1727948400
0.8450210574 0.1905240184 0.1750571504
0.8613421765 0.1947938433 0.1783142042
0.8743118579 0.1990312186 0.1822812773
0.8855628654 0.2034343655 0.1855056537
0.8958488127 0.2081180604 0.1892958551
0.9039183419 0.2130497663 0.1926393114
0.1044225076 0.2040457244 0.2132904882
0.1021718476 0.1912739027 0.2063372694
0.1032720979 0.1839106811 0.2016140893
0.1084988617 0.1811164840 0.1995934104
0.1163069054 0.1813460336 0.1997857406
0.1246262845 0.1813379146 0.1997695371
0.1367687912 0.1830177111 0.1992687642
0.1548572016 0.1866100844 0.1984845793
0.1771802887 0.1892993004 0.1976269283
0.2039096602 0.1932622467 0.1970055349
0.2352109225 0.1956524067 0.1964564190
0.2674601359 0.1953432964 0.1969970225
0.3041398167 0.1961657957 0.1960122410
0.3413674625 0.1969385740 0.1949793313
0.3796755161 0.1975493223 0.1939701303
0.4201747939 0.1970237532 0.1921489896
0.4653302748 0.1973480394 0.1901850394
0.5143967836 0.1958796366 0.1877162899
0.5650165078 0.1947028872 0.1849042426
0.6134874530 0.1937442487 0.1825158728
0.6568390739 0.1940025414 0.1803534922
0.6944636790 0.1962676675 0.1783536319
0.7257310570 0.1968690670 0.1767259595
0.7541780464 0.1975102225 0.1747366324
0.7811559934 0.1979983355 0.1737008527
0.8063746920 0.1976214227 0.1730583582
0.8282012013 0.1995937753 0.1734282302
0.8475671433 0.2020462092 0.1752418567
0.8638489757 0.2053966670 0.1767912361
0.8777511984 0.2100207007 0.1804478083
0.8888969791 0.2145243276 0.1825372313
0.8987957392 0.2188144303 0.1854093913
0.9069394307 0.2232137121 0.1882974934
0.1082878989 0.2225711500 0.2170231734
0.1062619708 0.2102469721 0.2103589666
0.1068216698 0.2016303702 0.2055466133
0.1102641811 0.1975588195 0.2029535728
0.1165173138 0.1967579695 0.2026726176
0.1244421497 0.1972596369 0.2024905292
0.1347043204 0.1981415631 0.2019444951
0.1498480001 0.2010081453 0.2003277077
0.1723857492 0.2031717599 0.1996635767
0.1979083315 0.2077104659 0.1990544963
0.2282129704 0.2111775699 0.1987557619
0.2630034860 0.2144068745 0.1990687049
0.2960422050 0.2142726263 0.1986639313
0.3330527171 0.2155544941 0.1978486415
0.3692793434 0.2164965179 0.1966813287
0.4087857153 0.2165601633 0.1950563331
0.4529314724 0.2158222333 0.1932714921
0.5028498638 0.2140124769 0.1909887655
0.5559424606 0.2121379328 0.1880166410
0.6065987655 0.2113835236 0.1848004849
0.6482062186 0.2108026745 0.1823675504
0.6864433981 0.2126925816 0.1800259836
0.7203764919 0.2133310521 0.1782430602
0.7501297434 0.2137479710 0.1770744281
0.7782038628 0.2150684133 0.1753434788
0.8052220835 0.2137119029 0.1744437435
0.8288883353 0.2145574457 0.1743506784
0.8491624652 0.2180336382 0.1752015349
0.8661006084 0.2204309352 0.1764902524
0.8801686618 0.2243605112 0.1779953221
0.8919364757 0.2291414777 0.1794521562
0.9016905361 0.2327707879 0.1814271119
0.9093037421 0.2363250247 0.1836041784
0.1120450844 0.2428280970 0.2210510366
0.1099942923 0.2309773772 0.2147890210
0.1103970944 0.2218902510 0.2098120878
0.1124143964 0.2159227066 0.2065774780
0.1174171712 0.2143060576 0.2050485328
0.1242999198 0.2154695882 0.2045366776
0.1335412827 0.2159858740 0.2043191843
0.1471094005 0.2170134873 0.2030661435
0.1671950695 0.2201473826 0.2011922458
0.1909185442 0.2243434468 0.2002861585
0.2204322362 0.2285787013 0.1998311860
0.2544143458 0.2320833685 0.1998354960
0.2903337461 0.2359187973 0.1993857252
0.3264680754 0.2385925710 0.1987082630
0.3604300512 0.2396169649 0.1974558151
0.3962494810 0.2398287006 0.1958176729
0.4383545092 0.2398202143 0.1941957852
0.4863941474 0.2380577111 0.1923577472
0.5380251156 0.2360153380 0.1901569066
0.5886004214 0.2343407864 0.1876763428
0.6348793187 0.2334429343 0.1847415316
0.6725693436 0.2330156489 0.1822541414
0.7065921226 0.2329304958 0.1810127737
0.7392457028 0.2327552213 0.1794164872
0.7693340442 0.2337212966 0.1776605433
0.7984165191 0.2333237918 0.1756586394
0.8248277295 0.2345056076 0.1749554791
0.8474930725 0.2366748206 0.1742944354
0.8665587538 0.2396759538 0.1741326718
0.8816159183 0.2433302246 0.1743524156
0.8933272337 0.2475106993 0.1748716187
0.9030980192 0.2508211464 0.1763017858
0.9121958515 0.2518428402 0.1786146347
0.1147908344 0.2647062993 0.2248029156
0.1138518577 0.2555423714 0.2195796056
0.1138518577 0.2468645874 0.2139766270
0.1148146043 0.2400286152 0.2101427431
0.1187166335 0.2364961088 0.2077253290
0.1250330733 0.2370168428 0.2067376314
0.1339363198 0.2398374734 0.2060499579
0.1461346845 0.2413250499 0.2046478324
0.1630935623 0.2430959910 0.2031195021
0.1854565481 0.2437637113 0.2015041518
0.2124828701 0.2479616767 0.2006596883
0.2453429545 0.2524177492 0.2006400815
0.2805571894 0.2577146411 0.2003275424
0.3162907675 0.2620948157 0.2001848999
0.3523013108 0.2650987432 0.1985595196
0.3886412661 0.2664487571 0.1970266308
0.4300558360 0.2671385453 0.1955020542
0.4761893019 0.2668976843 0.1935978596
0.5227290695 0.2651923081 0.1917468967
0.5710814031 0.2619939417 0.1894577902
0.6176797980 0.2584259673 0.1867595164
0.6593030061 0.2569627005 0.1840071490
0.6942149886 0.2561522010 0.1828036344
0.7282085687 0.2553945362 0.1810893134
0.7604731430 0.2557393713 0.1789953945
0.7920944050 0.2548363234 0.1768067532
0.8197043596 0.2560650539 0.1748665115
0.8435604976 0.2579684895 0.1733466100
0.8636611596 0.2596833402 0.1720895755
0.8797556207 0.2627870743 0.1712383695
0.8932386912 0.2650930061 0.1712524565
0.9040134097 0.2685201292 0.1721077314
0.9132319608 0.2715541279 0.1732214314
0.1176917937 0.2945786914 0.2303946823
0.1169363575 0.2869804515 0.2252886868
0.1163039221 0.2778627992 0.2193097727
0.1172879996 0.2702813078 0.2146352324
0.1204646161 0.2650001869 0.2110295839
0.1263105216 0.2639957402 0.2088895795
0.1340825849 0.2643815165 0.2079481868
0.1457629466 0.2674047133 0.2065717128
0.1615238641 0.2702048099 0.2052188902
0.1804300767 0.2707778605 0.2038811250
0.2062508600 0.2731143797 0.2027561950
0.2364838022 0.2771208240 0.2020179560
0.2709278882 0.2830163298 0.2017680947
0.3062929032 0.2884567072 0.2013170741
0.3428331832 0.2910528207 0.2008996854
0.3802938285 0.2941969218 0.1990209608
0.4211603796 0.2959462828 0.1974879670
0.4669520051 0.2967416942 0.1954416350
0.5156778525 0.2960783246 0.1934979493
0.5611561677 0.2946484325 0.1917549934
0.6060147477 0.2900325126 0.1891568696
0.6440344718 0.2876013735 0.1866374116
0.6798549931 0.2835489662 0.1846934188
0.7147133823 0.2819638721 0.1829883534
0.7478365306 0.2811130603 0.1807034502
0.7818636606 0.2811931230 0.1784085071
0.8118150683 0.2793039868 0.1751079351
0.8375187365 0.2815565548 0.1722624141
0.8591053664 0.2828352444 0.1698524720
0.8764400352 0.2830673789 0.1680417079
0.8893793400 0.2860122940 0.1675645119
0.9017386357 0.2879791950 0.1678148072
0.9112443288 0.2916022787 0.1681382262
0.1215575447 0.3274438258 0.2379700923
0.1205691480 0.3212306698 0.2322359572
0.1199455266 0.3134965466 0.2265182898
0.1199455266 0.3048362056 0.2201881702
0.1223297577 0.2988171163 0.2157323424
0.1274536673 0.2962332326 0.2126220632
0.1348235530 0.2961026374 0.2108811950
0.1456887891 0.2969520500 0.2096717917
0.1611227555 0.3002289701 0.2083495573
0.1786449610 0.3020258971 0.2072824702
0.2021059471 0.3040983805 0.2058247024
0.2310776919 0.3058827259 0.2045722826
0.2637585114 0.3100815818 0.2039033217
0.2987013164 0.3159233354 0.2034929712
0.3348240070 0.3208979518 0.2030027744
0.3726493011 0.3234425969 0.2020120633
0.4136808048 0.3270743931 0.2001564944
0.4600481580 0.3294598649 0.1980335882
0.5079323973 0.3303133926 0.1961871285
0.5564485324 0.3287410480 0.1943352697
0.6003626645 0.3266952609 0.1922763189
0.6375790085 0.3237571694 0.1899344856
0.6707016690 0.3194377965 0.1875818592
0.7047997523 0.3130481398 0.1853199196
0.7384792995 0.3113063061 0.1827401132
0.7718297196 0.3099640809 0.1797166354
0.8033193432 0.3085628940 0.1766378045
0.8302776757 0.3075744352 0.1729154613
0.8535852636 0.3086319166 0.1687904372
0.8720894086 0.3068857353 0.1660689292
0.8861622313 0.3078244978 0.1649360651
0.8977447271 0.3101469322 0.1644503769
0.9075884820 0.3129062174 0.1645726184
0.1253751335 0.3590963188 0.2470035596
0.1242787636 0.3545372899 0.2391958687
0.1234255845 0.3480062202 0.2328429367
0.1229452588 0.3403725237 0.2265406747
0.1243848300 0.3333798654 0.2203293821
0.1285484291 0.3297656971 0.2168283017
0.1350172056 0.3290350962 0.2145427352
0.1452994042 0.3312733666 0.2135137410
0.1603524749 0.3346307531 0.2126488642
0.1780683234 0.3370602270 0.2116578192
0.2007477420 0.3388547401 0.2101621967
0.2289756682 0.3395286104 0.2082004813
0.2606126175 0.3389042456 0.2068540509
0.2944698854 0.3431361011 0.2061605603
0.3303839479 0.3489260984 0.2058081038
0.3685967160 0.3549545438 0.2052743222
0.4103097083 0.3598524669 0.2039936347
0.4582965343 0.3642527350 0.2019587684
0.5064383519 0.3669996077 0.2002466876
0.5531218086 0.3667613771 0.1983827392
0.5981175177 0.3625323950 0.1959962689
0.6376878183 0.3594752546 0.1932735236
0.6722216858 0.3563306762 0.1907895936
0.7053686427 0.3517792724 0.1881252372
0.7382017560 0.3448832067 0.1848725474
0.7699359692 0.3429065852 0.1814916071
0.8003299924 0.3394352517 0.1773328608
0.8266267565 0.3375261897 0.1732245115
0.8474239364 0.3378091782 0.1687639462
0.8667592329 0.3350138497 0.1653879339
0.8818979278 0.3346190952 0.1635299512
0.8945133320 0.3359977819 0.1623740997
0.9042700775 0.3375213804 0.1625181183
0.1297595946 0.3915359126 0.2577648175
0.1289078881 0.3886690944 0.2520643872
0.1277299247 0.3846000534 0.2433380951
0.1268916690 0.3785818749 0.2358496515
0.1272269562 0.3733061684 0.2286435355
0.1300741228 0.3681550883 0.2230717070
0.1356699901 0.3659348633 0.2193729156
0.1451305707 0.3669313524 0.2176946809
0.1600428350 0.3691331364 0.2170455935
0.1776943187 0.3678798009 0.2154772965
0.1999394562 0.3697282107 0.2143148986
0.2279281463 0.3711591201 0.2126149114
0.2587010966 0.3717008601 0.2108757482
0.2916844925 0.3745937375 0.2095638241
0.3246908920 0.3790744988 0.2091597750
0.3613201566 0.3845250984 0.2088232203
0.4037529012 0.3909109225 0.2083036550
0.4521205211 0.3965297574 0.2071123307
0.5063672064 0.3993901523 0.2046270554
0.5556659519 0.4009414496 0.2024584088
0.5993362379 0.4002646861 0.2005166528
0.6406241654 0.3993148162 0.1975520855
0.6755154641 0.3942363566 0.1945845855
0.7079869173 0.3897680993 0.1915974238
0.7399617832 0.3847415644 0.1881609568
0.7705325291 0.3777115503 0.1840181073
0.8004277043 0.3762230584 0.1793894046
0.8265913627 0.3720041754 0.1738663140
0.8480811148 0.3695655584 0.1693668874
0.8646414454 0.3685012830 0.1661625098
0.8792510281 0.3642495513 0.1637443959
0.8917053454 0.3631406826 0.1627357927
0.9015430577 0.3637239175 0.1629266719
0.1340496276 0.4214665130 0.2696153485
0.1330079441 0.4171621100 0.2625640076
0.1322496211 0.4149174627 0.2540698481
0.1313111642 0.4105291807 0.2454802723
0.1312001891 0.4064405690 0.2366288108
0.1328955515 0.4019786582 0.2292702103
0.1372442265 0.3992798427 0.2247992025
0.1454307093 0.3989000237 0.2219109443
0.1601286904 0.4001383245 0.2208113674
0.1775120390 0.4011544858 0.2198151336
0.1994165194 0.4017676251 0.2186603644
0.2263606841 0.4032849769 0.2173603636
0.2560365113 0.4044872971 0.2157079161
0.2880581333 0.4062316928 0.2139562158
0.3225612972 0.4076966045 0.2127976069
0.3577491798 0.4127576115 0.2127651052
0.4000432837 0.4189133441 0.2126022181
0.4455269196 0.4250939984 0.2119277983
0.5010135809 0.4310462354 0.2099571426
0.5570183511 0.4328480968 0.2067669294
0.6028864605 0.4341753104 0.2045846990
0.6430715861 0.4354901661 0.2017877841
0.6789654364 0.4323030256 0.1985379702
0.7110769213 0.4275841793 0.1952666845
0.7424676048 0.4245869141 0.1919337190
0.7726957460 0.4173824949 0.1871345118
0.8015470457 0.4135936922 0.1817989019
0.8286911780 0.4114133957 0.1760637432
0.8487108549 0.4057715595 0.1711823410
0.8656384325 0.4011361993 0.1673505526
0.8785684650 0.3994157124 0.1655318105
0.8901750690 0.3948847031 0.1644466815
0.8997539848 0.3938188987 0.1647739752
0.1387854036 0.4483356868 0.2832832463
0.1376562671 0.4452010083 0.2752459787
0.1366488036 0.4429503516 0.2657607833
0.1358940778 0.4403498674 0.2562711264
0.1355725599 0.4373922276 0.2462974653
0.1364974730 0.4337124756 0.2370657413
0.1399078846 0.4311112244 0.2305209891
0.1462205771 0.4303198613 0.2266627202
0.1600616118 0.4308393769 0.2244589401
0.1772804936 0.4311843112 0.2233656258
0.1984553027 0.4329289347 0.2227405044
0.2261506950 0.4350721205 0.2221416430
0.2534763580 0.4364660824 0.2206114623
0.2851444738 0.4380340449 0.2189818623
0.3174900092 0.4393406075 0.2174043722
0.3543813791 0.4415600812 0.2166425832
0.3959081604 0.4471407739 0.2167234401
0.4409338665 0.4519128989 0.2161473581
0.4931383330 0.4579286602 0.2148915026
0.5517849297 0.4639276804 0.2118512672
0.6040729543 0.4656813228 0.2087753419
0.6443326259 0.4675646016 0.2059751213
0.6800207888 0.4664002199 0.2027619687
0.7123445312 0.4635105488 0.1997932867
0.7433852456 0.4620655895 0.1966702344
0.7732203776 0.4560368644 0.1920234722
0.8020906096 0.4525349092 0.1863011206
0.8286203996 0.4507364719 0.1801173298
0.8501006634 0.4450709040 0.1742364600
0.8666990648 0.4383569108 0.1698761805
0.8802787831 0.4345447771 0.1678759745
0.8901571123 0.4302388240 0.1667920960
0.8990617243 0.4282208221 0.1676558418
0.1431248470 0.4715562602 0.2945178126
0.1426582638 0.4712720685 0.2877638538
0.1419958582 0.4707232770 0.2794775705
0.1414928738 0.4699150613 0.2700304524
0.1411662581 0.4686921195 0.2591855790
0.1412808841 0.4664577907 0.2481893776
0.1433389492 0.4643438480 0.2390083394
0.1486611174 0.4632976636 0.2329094011
0.1595298021 0.4634354299 0.2290340951
0.1765890538 0.4611108004 0.2268352515
0.1975176873 0.4617472100 0.2264194254
0.2232102219 0.4639844147 0.2262054785
0.2535025919 0.4663723204 0.2251501528
0.2849120084 0.4680908409 0.2234543887
0.3154985354 0.4699971259 0.2221710315
0.3487416616 0.4729600774 0.2214538266
0.3884935978 0.4773399516 0.2211441847
0.4354385495 0.4798710371 0.2204897250
0.4869479737 0.4845276373 0.2192596288
0.5421509322 0.4901841803 0.2167365895
0.5971146082 0.4959673460 0.2136454903
0.6402780918 0.4970502884 0.2106199083
0.6776541156 0.4975115408 0.2081625643
0.7108746805 0.4968570755 0.2056756171
0.7418880249 0.4970290753 0.2031492732
0.7718696752 0.4924934186 0.1985918265
0.8001822394 0.4905074123 0.1927069275
0.8271042970 0.4883613024 0.1863464604
0.8498841706 0.4839481320 0.1787518592
0.8674431322 0.4780950725 0.1737737293
0.8813137167 0.4741429159 0.1707959020
0.8916702994 0.4702238176 0.1700909312
0.8998720726 0.4629166836 0.1708582816
0.1478925830 0.4936538850 0.3085547075
0.1476799931 0.4938737480 0.3018512450
0.1472960591 0.4939662505 0.2942586646
0.1470261502 0.4943786649 0.2852037696
0.1467675195 0.4944131716 0.2733439585
0.1469726766 0.4939991422 0.2608709877
0.1481970778 0.4932747930 0.2498256449
0.1523330318 0.4926524866 0.2410366561
0.1613350682 0.4927727772 0.2352124297
0.1754162358 0.4937453366 0.2310290366
0.1960927328 0.4919354075 0.2292222724
0.2217672273 0.4935394414 0.2289576263
0.2502645565 0.4961483197 0.2286336256
0.2817129755 0.4983651119 0.2275547691
0.3140977811 0.5000419865 0.2261983902
0.3464457494 0.5024530280 0.2252872301
0.3821771538 0.5058036144 0.2248889097
0.4268419005 0.5071581133 0.2242168120
0.4758923194 0.5112179784 0.2232048922
0.5299232493 0.5158936587 0.2212513251
0.5860831860 0.5199956354 0.2177489627
0.6316466944 0.5254668839 0.2158998029
0.6719674958 0.5268936087 0.2137919607
0.7071811854 0.5279113670 0.2119929764
0.7390056198 0.5300288460 0.2106052609
0.7693605223 0.5273037461 0.2068196101
0.7972839271 0.5232238945 0.2006919735
0.8234768806 0.5219683532 0.1933337838
0.8469930440 0.5205076583 0.1855269700
0.8659118006 0.5157987901 0.1789891123
0.8807585697 0.5131172895 0.1751896557
0.8923824108 0.5096212890 0.1740792279
0.9003097506 0.5032154602 0.1754257716
0.1527456220 0.5137044519 0.3207844946
0.1527323181 0.5144000863 0.3142630771
0.1527323181 0.5153250752 0.3065420990
0.1528083447 0.5164443944 0.2982232778
0.1530957159 0.5178994463 0.2879601108
0.1536125238 0.5190164038 0.2760262780
0.1547655649 0.5197678440 0.2621646354
0.1570072541 0.5203252971 0.2508428725
0.1640025944 0.5217935355 0.2429519068
0.1766320070 0.5213893953 0.2362974555
0.1940037056 0.5234942220 0.2334358527
0.2192327645 0.5242608996 0.2320890315
0.2468734940 0.5275073844 0.2317396763
0.2789392817 0.5308319258 0.2313480807
0.3111001523 0.5331196683 0.2301458211
0.3438296528 0.5338080433 0.2287106244
0.3768967432 0.5347963900 0.2274869884
