presets/原 柯达5207 -1.cube
TITLE "YINGZEJUN Copyright"
# YINGZEJUN Copyright
# SP3000 & GOLD200 
# 20241106
# Created by: Adobe Photoshop Export Color Lookup Plugin
LUT_3D_SIZE 5
0.0542910000 0.0776980000 0.1103520000
0.2674432863 0.0958559971 0.1103686084
0.5980371397 0.1157988385 0.1038784793
0.8176568076 0.1400278763 0.1101474829
0.8988439920 0.1677636879 0.1475778415
0.0967905244 0.2838682293 0.1499214117
0.2040419124 0.2458785712 0.1199367389
0.5493393761 0.2664701638 0.1134158727
0.8037369630 0.2544193079 0.1038628794
0.9210060327 0.2509745008 0.1230342201
0.1439125989 0.4950337554 0.2583501362
0.1801458880 0.5057905658 0.1565871856
0.5033076338 0.5155467616 0.1661266062
0.7715643440 0.5263767919 0.1434351112
0.9136636765 0.5186592918 0.1515292959
0.1999760402 0.6096348851 0.3616491658
0.2412669143 0.6566760505 0.2942237579
0.4036102443 0.7346508205 0.2241325462
0.7518409080 0.7497901827 0.2567245515
0.9141094324 0.7683688556 0.2547726837
0.2449506788 0.6651549676 0.4503693687
0.2904935677 0.7075259311 0.4367081271
0.3905467025 0.8001557774 0.4328254164
0.6500909801 0.8902528025 0.3449004628
0.9176876172 0.9279491001 0.4587790177
0.1002708007 0.0834606804 0.2746868444
0.2799730506 0.1009932819 0.2489823419
0.5801006328 0.1258437678 0.2389584932
0.8214507700 0.1532441196 0.2411509787
0.9126159895 0.1853038011 0.2814486281
0.0929631586 0.2486738276 0.2942137005
0.2090698729 0.2429105182 0.2573462244
0.5536013962 0.2553987364 0.2448164294
0.7995230425 0.2629088093 0.2450803978
0.9435447895 0.2419705310 0.2446869151
0.1355418994 0.4852999387 0.4272006049
0.1730188572 0.4832559804 0.3058877962
0.4944305595 0.5100731374 0.2841375086
0.7709214526 0.5293348618 0.2898961806
0.9462588484 0.5106966240 0.2708391485
0.1926423209 0.6039367601 0.4572127565
0.2266597456 0.6447862642 0.4222532254
0.4090911485 0.7259213357 0.3663496190
0.7443505915 0.7401325482 0.3877832300
0.9358528216 0.7842293636 0.3714617185
0.2293804216 0.6545431345 0.4992069776
0.2781029902 0.7009050968 0.5075814549
0.3897524600 0.7956596652 0.5175630804
0.6503523508 0.9053121572 0.4322243000
0.9269044814 0.9370223653 0.4958664878
0.1708027080 0.1012246376 0.4331699541
0.3139274311 0.1120686241 0.4239833265
0.5809865178 0.1282932344 0.4166206993
0.8109984454 0.1494393850 0.4055371715
0.9216029809 0.2162003480 0.4315289700
0.1118738907 0.1915222680 0.4750638700
0.2288040891 0.2155269308 0.4533686147
0.5494962476 0.2339222419 0.4338959189
0.7967982340 0.2616739109 0.4299704746
0.9505048479 0.3123677748 0.4625391911
0.1307493479 0.4786599852 0.5772885726
0.1719365017 0.4659363676 0.5320431932
0.5072425547 0.5043637486 0.5124321366
0.7688635752 0.4991947435 0.4802873559
0.9456088421 0.4996032506 0.4790696954
0.1927597670 0.6046818613 0.5657644914
0.2195492077 0.6372223996 0.5626419220
0.3954839190 0.7134303253 0.5647368814
0.7445044728 0.7342339083 0.5539942726
0.9406279224 0.7676787911 0.5540827115
0.2249883152 0.6431529130 0.5614751520
0.2590924185 0.6842767287 0.5740168866
0.3652590198 0.7818465265 0.6254438671
0.6456247389 0.9140919253 0.6003320985
0.9556078279 0.9645924834 0.6367958924
0.2517886177 0.1276815677 0.5482774219
0.3644225041 0.1307727949 0.5382879354
0.5672948405 0.1519849884 0.5446419401
0.7875547680 0.1774704833 0.5511684347
0.9022151591 0.2353776693 0.5438322877
0.1488581245 0.1599852510 0.6209216646
0.2748787812 0.1870813341 0.6056325409
0.5499084524 0.2269926304 0.5886157498
0.7975704202 0.2603525095 0.5785271377
0.9428166739 0.3107971155 0.5933815552
0.1467105496 0.4391162403 0.7217441604
0.2487682845 0.4572073500 0.6960719904
0.5194762792 0.4878982396 0.6678446804
0.7772899725 0.4932333362 0.6397462938
0.9550745329 0.5113764021 0.6540395003
0.1845963638 0.6198333704 0.7062686741
0.2076897632 0.6519709584 0.7222321294
0.3991692923 0.7038215316 0.7307269514
0.7588579312 0.7288014128 0.7117042344
0.9523099076 0.7426820836 0.6957534585
0.2243201502 0.6598790674 0.6478182118
0.2370252445 0.6727788450 0.6520108884
0.3293087419 0.7560087235 0.6992352171
0.5657761186 0.8942364990 0.7514099038
0.9680547933 0.9700964077 0.8036920067
0.3164935657 0.1666163167 0.6410809138
0.4101180982 0.1703539641 0.6306843573
0.5839297886 0.1840802908 0.6322450870
0.7596388065 0.2133815556 0.6444210180
0.8853033193 0.2947643016 0.6680546326
0.2165821215 0.2011826145 0.7285363535
0.3467809934 0.2045966422 0.7064558908
0.5773365398 0.2126104196 0.6910843901
0.7841783357 0.2464961594 0.6868189500
0.9149930491 0.3394855790 0.7055751483
0.1284789774 0.4208212099 0.8963678282
0.1859807007 0.4178158857 0.8946533093
0.5259104182 0.3943658406 0.8195435872
0.8334480823 0.4007560540 0.7862795242
0.9571149245 0.4812680374 0.7778624330
0.1712471840 0.6229826868 0.8303549164
0.1780019170 0.6385210338 0.8707393804
0.2839420895 0.6783868931 0.9279255705
0.7783865904 0.7080861680 0.9003098979
0.9593650800 0.6996980152 0.8520710454
0.2399770419 0.6916305506 0.7475178617
0.2399770419 0.6916305506 0.7475178617
0.3043309143 0.7441259995 0.7926136073
0.5059797091 0.8588526670 0.8992298963
0.9708860000 0.9531860000 0.9557500000
