presets/原 柯达5207 -2.cube
TITLE "YINGZEJUN Copyright"
# YINGZEJUN Copyright
# SP3000 & GOLD200 
# 20241106
# Created by: Adobe Photoshop Export Color Lookup Plugin
LUT_3D_SIZE 5
0.0835270000 0.1252750000 0.1803890000
0.2059157416 0.1330347137 0.1822404295
0.4767618569 0.1453753743 0.1759053276
0.7727975232 0.1614166889 0.1793274444
0.8895250079 0.1942910682 0.2098086560
0.1120450844 0.2428280970 0.2210510366
0.1671950695 0.2201473826 0.2011922458
0.4383545092 0.2398202143 0.1941957852
0.7693340442 0.2337212966 0.1776605433
0.9121958515 0.2518428402 0.1786146347
0.1431248470 0.4715562602 0.2945178126
0.1595298021 0.4634354299 0.2290340951
0.3884935978 0.4773399516 0.2211441847
0.7418880249 0.4970290753 0.2031492732
0.8998720726 0.4629166836 0.1708582816
0.1830675921 0.5941656143 0.3781766289
0.2043211266 0.6448277960 0.3191430008
0.3259482852 0.7363409182 0.2248395242
0.7198391347 0.7498476339 0.2617925332
0.9145490453 0.7713699917 0.2725790444
0.2106566247 0.6608131278 0.4390558674
0.2387035165 0.7058839679 0.4192180582
0.2961937979 0.8052870165 0.3750518906
0.5113322513 0.8766575925 0.2610732869
0.9035339416 0.9150103634 0.4373046456
0.1077894061 0.1270000259 0.2856723682
0.2028133933 0.1397909503 0.2712529407
0.4512455574 0.1516068340 0.2617988702
0.7697840948 0.1734735116 0.2681284851
0.9014289476 0.2155707200 0.3033608315
0.1070897175 0.2212297709 0.3113884734
0.1652838423 0.2189094524 0.2805605590
0.4453984331 0.2264353266 0.2687099174
0.7715371687 0.2321382299 0.2620578771
0.9327601649 0.2623715854 0.2659869388
0.1484564079 0.4744708246 0.4282027576
0.1605261842 0.4624915548 0.3339772953
0.3853197368 0.4728953475 0.2993105752
0.7324680127 0.4846041231 0.2912105784
0.9274312687 0.4479179621 0.2300707036
0.1859090435 0.5898033294 0.4632428452
0.2016538454 0.6372255014 0.4201576887
0.3264453370 0.7303947284 0.3394157223
0.6984230468 0.7401987298 0.3737971196
0.9291543933 0.7859341572 0.3644591371
0.2069579354 0.6566816196 0.4941035239
0.2329116129 0.7029512259 0.4824467848
0.3090160844 0.8041388676 0.4763530740
0.5243986079 0.8879262515 0.3594056884
0.9143477874 0.9246249497 0.4859355885
0.1451863085 0.1390381089 0.4400425194
0.2293292182 0.1492974963 0.4289886794
0.4696414200 0.1613266624 0.4265539099
0.7521755860 0.1758029804 0.4347801851
0.9099818364 0.2325207644 0.4550660601
0.1179779026 0.1909575482 0.4785311728
0.1755741788 0.2017226601 0.4602169804
0.4454456944 0.2150284670 0.4456006736
0.7653170833 0.2438120867 0.4538613311
0.9333927989 0.3134448132 0.4567283764
0.1432228599 0.4607522192 0.5760540994
0.1615209622 0.4515786622 0.5382438291
0.4069053142 0.4784104781 0.5119109727
0.7366347141 0.4682344825 0.4838583274
0.9364031147 0.4807918811 0.4409273634
0.1839586337 0.6043971817 0.5960766044
0.1995085004 0.6390230785 0.5917326620
0.3296321828 0.7186999405 0.5667718970
0.6968234186 0.7377895816 0.5556038137
0.9301118848 0.7565446865 0.5338527892
0.2039734099 0.6470994815 0.5920670257
0.2229164627 0.6863150235 0.5893598677
0.3090174067 0.7936771471 0.6241751813
0.5614160907 0.8970307667 0.6091983157
0.9369313822 0.9443029422 0.6623104410
0.1839701721 0.1509795008 0.5413460196
0.2721009720 0.1594185251 0.5412413755
0.4649363596 0.1731955203 0.5521793020
0.7440839880 0.1962448121 0.5858800942
0.8965104142 0.2377629030 0.5780569853
0.1311259039 0.1657442647 0.6130632188
0.1971880770 0.1792064436 0.6077055142
0.4480023595 0.2128774492 0.6045569100
0.7713734022 0.2453333383 0.6140255244
0.9250223605 0.2918201140 0.6025967880
0.1420304320 0.4182942482 0.7456983936
0.1982493065 0.4300115838 0.7234847045
0.4304588314 0.4634198136 0.6967667852
0.7580248387 0.4679256305 0.6666179203
0.9379947008 0.4792475322 0.6441064827
0.1789595922 0.6070503764 0.7290229001
0.1934367544 0.6493147406 0.7532049604
0.3360672414 0.7147886225 0.7641614852
0.7372590912 0.7380160528 0.7492857160
0.9453369551 0.7412166587 0.7075084589
0.1997704615 0.6573251268 0.6774770257
0.2083421238 0.6743540436 0.6848644601
0.2714175403 0.7642746387 0.7215558128
0.5000339914 0.8895029958 0.7646033548
0.9533825750 0.9501672332 0.8379716738
0.2212521909 0.1686014215 0.6385542656
0.3057719674 0.1755664225 0.6464740941
0.4753616757 0.1868630039 0.6489787666
0.7197001648 0.2112561292 0.6878816312
0.8822334387 0.2656192975 0.7120184579
0.1599197220 0.1819979500 0.7406725158
0.2472633064 0.1899865063 0.7244742155
0.4708010461 0.2058793085 0.7189305476
0.7540454533 0.2332687576 0.7320926441
0.9002377273 0.2940352257 0.7374840507
0.0977125603 0.3538336404 0.8860600228
0.1195204574 0.3425159625 0.8865159959
0.3981321798 0.3340302087 0.8430554602
0.8020568652 0.3388939547 0.8157868627
0.9286196822 0.4159368083 0.7938872925
0.1632486696 0.6118843487 0.8462956499
0.1610531717 0.6243736871 0.8778090528
0.2227942542 0.6734003275 0.9242654861
0.7307351316 0.6809180231 0.9045251816
0.9445247527 0.6835484408 0.8671969802
0.2151075947 0.6947892084 0.7789987567
0.2151075947 0.6947892084 0.7789987567
0.2579939170 0.7562525475 0.8160094461
0.4270828352 0.8673494486 0.8992544540
0.9600830000 0.9427190000 0.9480290000
