presets/原 柯达5207 +2.cube
TITLE "YINGZEJUN Copyright"
# YINGZEJUN Copyright
# SP3000 & GOLD200 
# 20241106
# Created by: Adobe Photoshop Export Color Lookup Plugin
LUT_3D_SIZE 33
0.0064090000 0.0214840000 0.0455930000
0.0583746108 0.0361682550 0.0482242389
0.1096989658 0.0452379159 0.0550823757
0.1633340326 0.0520139823 0.0613654657
0.2356558052 0.0550060990 0.0581709163
0.3137833921 0.0549051546 0.0503948462
0.3996855056 0.0558357302 0.0435262050
0.4738195471 0.0587611088 0.0385670981
0.5308356351 0.0642701484 0.0336886700
0.5678371123 0.0705832110 0.0333392490
0.5972427898 0.0795004030 0.0324562310
0.6221037902 0.0890560700 0.0311513641
0.6421092465 0.0978751122 0.0309199099
0.6635676559 0.1048301261 0.0310956155
0.6834797512 0.1128468221 0.0308478695
0.7062288722 0.1217232121 0.0325253175
0.7284926688 0.1275288514 0.0354014504
0.7491946135 0.1359536805 0.0390738567
0.7662448219 0.1418949206 0.0427509123
0.7804933809 0.1480403536 0.0480488016
0.7936481310 0.1559018107 0.0544615162
0.8042411858 0.1609821501 0.0613152652
0.8141181860 0.1665460048 0.0694826612
0.8234248298 0.1738894059 0.0783932845
0.8338280774 0.1834384627 0.0850870262
0.8431608107 0.1909721727 0.0971776026
0.8508159923 0.1984924079 0.1115992839
0.8574759191 0.2067355963 0.1248884758
0.8639271691 0.2157347296 0.1344210915
0.8701928394 0.2255097310 0.1473459756
0.8755837036 0.2352553888 0.1588458010
0.8807564867 0.2448763609 0.1696208089
0.8854673636 0.2549867197 0.1819347764
0.0154442634 0.0774489278 0.0554792521
0.0486125844 0.0775659584 0.0503790479
0.0986778851 0.0833128736 0.0558285426
0.1545470568 0.0900821667 0.0573746113
0.2234320335 0.0931230462 0.0524525166
0.2903942358 0.0931227247 0.0473173848
0.3727124156 0.0950607521 0.0415537098
0.4458140445 0.0967700386 0.0379111844
0.5031275677 0.0986678889 0.0354786493
0.5463500077 0.1057308744 0.0333692771
0.5809426964 0.1101761673 0.0328170015
0.6100006491 0.1165559158 0.0315756562
0.6331426670 0.1229296693 0.0309728740
0.6565264680 0.1254190397 0.0317166304
0.6781629574 0.1325657835 0.0319241762
0.7024951096 0.1394705572 0.0327233573
0.7265465717 0.1444930737 0.0343957697
0.7469724422 0.1494029336 0.0366546730
0.7663183180 0.1557442052 0.0398422155
0.7819009454 0.1613498426 0.0435143965
0.7963191431 0.1680337396 0.0474304863
0.8076191003 0.1724473576 0.0533025354
0.8177231340 0.1761455204 0.0614300818
0.8270450616 0.1813450048 0.0707212037
0.8366304699 0.1889313992 0.0794673847
0.8464802545 0.1966209455 0.0890500237
0.8547246111 0.2048382261 0.1019476256
0.8614232683 0.2126634410 0.1158241267
0.8671937080 0.2204601082 0.1274986365
0.8731993362 0.2300887407 0.1404599570
0.8780509735 0.2389122573 0.1529461502
0.8832075729 0.2484991177 0.1640198229
0.8883080799 0.2588593594 0.1759275413
0.0228260032 0.1332936083 0.0768010778
0.0486474743 0.1227420083 0.0577566855
0.0902702348 0.1273431630 0.0563135934
0.1486187902 0.1352010638 0.0547660357
0.2145085267 0.1393122405 0.0508978246
0.2826212362 0.1394035710 0.0481700061
0.3570808316 0.1385363128 0.0453562086
0.4310683993 0.1399137524 0.0422558924
0.4870561030 0.1381466177 0.0407615353
0.5344826707 0.1410148557 0.0386249523
0.5710633861 0.1434222239 0.0376495115
0.6005439828 0.1467997590 0.0370241640
0.6258089293 0.1514259510 0.0357261529
0.6501114288 0.1530623026 0.0357752973
0.6740911291 0.1556559748 0.0350088573
0.6984369292 0.1627880275 0.0364807981
0.7223813558 0.1676643701 0.0376580434
0.7457124169 0.1697120186 0.0385058480
0.7651277656 0.1739725293 0.0403146709
0.7810759539 0.1781318008 0.0430082953
0.7951467923 0.1847225195 0.0468511302
0.8082720390 0.1889595779 0.0514395961
0.8198632691 0.1921576686 0.0562209971
0.8298940422 0.1954552625 0.0640926506
0.8395202755 0.2018890243 0.0731754443
0.8483314290 0.2079907834 0.0827209815
0.8563981925 0.2149255206 0.0929876837
0.8638258997 0.2224885042 0.1060592449
0.8697893313 0.2293702585 0.1188354665
0.8762958090 0.2381039935 0.1327126260
0.8816297055 0.2455606699 0.1449041052
0.8861358653 0.2535939938 0.1579093564
0.8911711554 0.2637873481 0.1706011749
0.0312963912 0.1843889382 0.1017830815
0.0475027242 0.1687146333 0.0684850159
0.0892174585 0.1708253499 0.0588584225
0.1417701758 0.1803295076 0.0551729834
0.2061960379 0.1845508871 0.0513255148
0.2744856752 0.1855349980 0.0507277332
0.3494025988 0.1844784012 0.0504699479
0.4208537505 0.1822680754 0.0491381150
0.4778175721 0.1805632203 0.0485875216
0.5264899748 0.1808340613 0.0465934103
0.5628857090 0.1806712008 0.0453546107
0.5939629352 0.1796922253 0.0444032624
0.6188562675 0.1831715883 0.0437427789
0.6443149941 0.1853404156 0.0434015895
0.6673157098 0.1879261430 0.0439875530
0.6957964027 0.1895023365 0.0419604783
0.7175625081 0.1959184978 0.0440211515
0.7420414000 0.1973339257 0.0438320929
0.7617129910 0.1985236791 0.0439755375
0.7788752827 0.2023798581 0.0455283189
0.7927728550 0.2059986123 0.0479301499
0.8068881185 0.2090966211 0.0507935596
0.8200828751 0.2110541216 0.0546970542
0.8317853787 0.2144645947 0.0589992154
0.8426608949 0.2193683123 0.0660059679
0.8506281481 0.2229968962 0.0748292996
0.8585935942 0.2282348155 0.0848143908
0.8659613472 0.2347001241 0.0959405742
0.8727930285 0.2404161525 0.1088092515
0.8794840923 0.2473491426 0.1230589613
0.8852788301 0.2542688821 0.1361237331
0.8901497630 0.2613507503 0.1483314559
0.8946139445 0.2696685874 0.1635394723
0.0404715895 0.2327731290 0.1105636771
0.0515734494 0.2148948800 0.0782989363
0.0860475089 0.2132165187 0.0616787617
0.1349100834 0.2190093508 0.0557545680
0.1973150890 0.2281021513 0.0522821604
0.2644481867 0.2305982079 0.0524384436
0.3382245645 0.2300583939 0.0537938780
0.4084198650 0.2278329644 0.0557141483
0.4675718323 0.2231111075 0.0569381535
0.5173562695 0.2248364268 0.0559279499
0.5532401176 0.2252194730 0.0553783251
0.5827466875 0.2239315307 0.0549206699
0.6101273972 0.2220641943 0.0559858995
0.6382281942 0.2238193423 0.0524458575
0.6612214978 0.2272285096 0.0531159614
0.6862561604 0.2292100983 0.0532799453
0.7132884080 0.2294370799 0.0514458710
0.7372650312 0.2344276590 0.0509845343
0.7560504796 0.2358237057 0.0505077589
0.7725389653 0.2370402135 0.0509731941
0.7887501282 0.2411414374 0.0522792247
0.8028559634 0.2424937791 0.0532552028
0.8170172980 0.2419431963 0.0556997688
0.8304680541 0.2432248390 0.0594060895
0.8415703341 0.2495956563 0.0638990612
0.8503933414 0.2486912669 0.0701687782
0.8587670256 0.2503085799 0.0781470846
0.8669590976 0.2543166222 0.0882436208
0.8748031761 0.2600625980 0.1001355094
0.8805323054 0.2629553274 0.1116166101
0.8872309688 0.2670565388 0.1253991375
0.8931521348 0.2727007111 0.1392902432
0.8980290216 0.2791905848 0.1523742441
0.0489915879 0.2839751733 0.1182066774
0.0555915604 0.2599290022 0.0891526759
0.0843327490 0.2527203239 0.0718927845
0.1260277040 0.2556721414 0.0637982245
0.1805263811 0.2634529397 0.0599245555
0.2457561601 0.2687422782 0.0571234157
0.3183102333 0.2730634357 0.0568575263
0.3893755673 0.2729894224 0.0584380513
0.4499001196 0.2691776886 0.0616999761
0.4992980774 0.2704905110 0.0643911038
0.5365308658 0.2680316705 0.0667423858
0.5679262487 0.2676132544 0.0674946939
0.5973459367 0.2686256935 0.0666507539
0.6234634326 0.2691600302 0.0658213241
0.6507831512 0.2700501427 0.0633626215
0.6774535647 0.2725728714 0.0622343439
0.7043707269 0.2759637856 0.0606424529
0.7270645638 0.2759270844 0.0589651252
0.7475970419 0.2781532293 0.0581536112
0.7657418819 0.2790701903 0.0575598309
0.7828887547 0.2821091520 0.0576439224
0.7971242642 0.2862085116 0.0588449973
0.8111409981 0.2869414917 0.0596391956
0.8254644386 0.2857607721 0.0617892063
0.8376025988 0.2861438371 0.0650963326
0.8488371821 0.2863508535 0.0686868564
0.8590813705 0.2834138901 0.0743422785
0.8679436842 0.2825559260 0.0816524992
0.8761431640 0.2844442081 0.0912667391
0.8820699489 0.2853471025 0.1012263709
0.8890544719 0.2869792646 0.1136610581
0.8955796164 0.2893332656 0.1267490890
0.9013294219 0.2928039267 0.1391285176
0.0597451281 0.3271538874 0.1279248132
0.0649359013 0.3051541629 0.1006061427
0.0844823971 0.2946804045 0.0833618584
0.1200265460 0.2944249487 0.0737755201
0.1670661125 0.2997578608 0.0692687502
0.2262932571 0.3038899224 0.0663245824
0.2913526348 0.3103155701 0.0641598197
0.3646439285 0.3140294805 0.0637120648
0.4292927433 0.3114796942 0.0660847775
0.4823142653 0.3140920876 0.0678253127
0.5229404344 0.3167923696 0.0710397591
0.5522280874 0.3128576329 0.0754357336
0.5815108738 0.3136414111 0.0749174801
0.6080071129 0.3146210551 0.0745887780
0.6350332733 0.3163258410 0.0719923874
0.6635185744 0.3164401588 0.0699815231
0.6906347865 0.3196148246 0.0682627060
0.7154981722 0.3202353449 0.0669182834
0.7366613344 0.3223166222 0.0651727300
0.7555342348 0.3229616877 0.0646290933
0.7731827481 0.3249101599 0.0641629955
0.7889169046 0.3314666161 0.0650216847
0.8040029465 0.3328038793 0.0665611560
0.8190418183 0.3337229717 0.0673108006
0.8325088865 0.3327163791 0.0692428162
0.8456103013 0.3266537448 0.0714425838
0.8574270312 0.3251740159 0.0745213310
0.8678679074 0.3207706158 0.0800106880
0.8764451511 0.3181639519 0.0867155583
0.8837338829 0.3169580716 0.0951792972
0.8905608531 0.3171637777 0.1052366199
0.8970759697 0.3168773712 0.1163705163
0.9030602621 0.3176190402 0.1268544133
0.0709830035 0.3631141789 0.1413428841
0.0758078548 0.3464415330 0.1153045057
0.0901017704 0.3359769125 0.0966863552
0.1161104164 0.3325966616 0.0852894110
0.1576127639 0.3365643136 0.0802615082
0.2111598398 0.3406069358 0.0763019547
0.2701482088 0.3447306284 0.0748553434
0.3386312354 0.3521240798 0.0722597577
0.4083054703 0.3518984808 0.0731925013
0.4643516940 0.3549482092 0.0724187234
0.5074729284 0.3565513899 0.0728170431
0.5411877907 0.3598519195 0.0742008601
0.5674492526 0.3570768143 0.0767120178
0.5935748816 0.3585994068 0.0775945591
0.6181096045 0.3600960463 0.0763731338
0.6467132560 0.3624970814 0.0736745642
0.6740827538 0.3630664080 0.0736845012
0.7003819582 0.3633582018 0.0732408005
0.7231149401 0.3643989098 0.0723557565
0.7432316232 0.3672207101 0.0712003840
0.7604640744 0.3679006076 0.0720006405
0.7776423759 0.3739935237 0.0724050464
0.7944370192 0.3768237676 0.0735587852
0.8106919693 0.3773436306 0.0750495309
0.8262807839 0.3786739723 0.0755282049
0.8412950441 0.3719658267 0.0764496540
0.8545921267 0.3670943814 0.0785773975
0.8660484368 0.3650249112 0.0819582766
0.8757004482 0.3599727192 0.0864965212
0.8845115214 0.3572144356 0.0933329771
0.8930171016 0.3564676467 0.1009966440
0.9003620739 0.3531416571 0.1101925715
0.9061280981 0.3517938513 0.1186301695
0.0812942588 0.3948097978 0.1574417987
0.0847068887 0.3818472332 0.1330393594
0.0961017128 0.3735379471 0.1144395684
0.1168637255 0.3695883547 0.1002383022
0.1500959780 0.3707777150 0.0914704941
0.1976694504 0.3765240557 0.0865773063
0.2529554520 0.3800688743 0.0860078716
0.3180422926 0.3836634862 0.0844959047
0.3888405791 0.3905483223 0.0794525708
0.4454246497 0.3935053168 0.0800130719
0.4925588874 0.3944636142 0.0785214508
0.5289600036 0.3960802870 0.0772279757
0.5585518702 0.3998439172 0.0755606761
0.5837255211 0.4016941083 0.0759031634
0.6061657072 0.4030861366 0.0759908930
0.6309182147 0.4045639926 0.0758214910
0.6590090328 0.4070745006 0.0741462356
0.6853459359 0.4073566449 0.0749704736
0.7083521129 0.4078427798 0.0767081412
0.7283744676 0.4088839386 0.0779787554
0.7479058899 0.4107851971 0.0780332366
0.7652173612 0.4130827911 0.0783281793
0.7815466433 0.4142075025 0.0800158266
0.7991400775 0.4151175043 0.0812199686
0.8155096112 0.4165183227 0.0814584076
0.8320320496 0.4130578188 0.0815879816
0.8472358739 0.4101113306 0.0831080355
0.8607825750 0.4071618838 0.0857609249
0.8728161732 0.4046393988 0.0887905986
0.8838097223 0.4017980028 0.0933933508
0.8928105319 0.3999314537 0.0988419289
0.9015776317 0.3967404513 0.1060575499
0.9092539877 0.3876224569 0.1147673776
0.0933904427 0.4219590029 0.1725314143
0.0951988396 0.4152732500 0.1516731489
0.1033921088 0.4082802247 0.1320427080
0.1203383161 0.4046181616 0.1150948831
0.1497215013 0.4045672990 0.1025866458
0.1894802646 0.4083773960 0.0964926914
0.2432837894 0.4142771091 0.0937397708
0.3048655172 0.4181041316 0.0922096192
0.3698324536 0.4232801409 0.0886392760
0.4292215925 0.4246832662 0.0865903277
0.4777235973 0.4288748256 0.0853419101
0.5162289211 0.4327032028 0.0827324051
0.5471669953 0.4373760293 0.0802012695
0.5730846093 0.4396636955 0.0809584781
0.5971798164 0.4419701165 0.0789599234
0.6223454718 0.4432972512 0.0782542484
0.6489323776 0.4447440895 0.0781412934
0.6754205383 0.4465786691 0.0770068606
0.6968234391 0.4469126630 0.0795366372
0.7163592580 0.4461768977 0.0813131065
0.7364154017 0.4451310425 0.0817043398
0.7552588226 0.4465028086 0.0824511314
0.7712768050 0.4473338701 0.0849221012
0.7889720189 0.4477207155 0.0863068360
0.8062515992 0.4486381475 0.0862586270
0.8237581877 0.4459655738 0.0862702768
0.8397104544 0.4449629151 0.0868372601
0.8543947879 0.4434496869 0.0889738409
0.8681401460 0.4410536307 0.0911516644
0.8811604084 0.4387547066 0.0944647430
0.8919442291 0.4340702161 0.0994771070
0.9006526061 0.4310312768 0.1060559639
0.9093777522 0.4278874968 0.1136102329
0.1060808186 0.4476069959 0.1923156402
0.1085389442 0.4434297580 0.1733300676
0.1133848010 0.4390425978 0.1507308591
0.1264326553 0.4365372944 0.1324178620
0.1509127439 0.4363645531 0.1167302808
0.1877893054 0.4394156368 0.1057916090
0.2346119462 0.4415817208 0.1015948235
0.2959877004 0.4463679944 0.0992692441
0.3584020714 0.4507617416 0.0974118439
0.4121144534 0.4537581856 0.0960323091
0.4623026313 0.4573324277 0.0944763058
0.5024798287 0.4617449056 0.0924142222
0.5358801092 0.4668695474 0.0902480438
0.5637544073 0.4708645050 0.0887490976
0.5888492875 0.4715239372 0.0885919192
0.6147726940 0.4742494562 0.0858420489
0.6411330988 0.4758116914 0.0854576651
0.6672067141 0.4775139509 0.0839567120
0.6902806311 0.4783707222 0.0851906399
0.7086384712 0.4788841565 0.0869652839
0.7278098229 0.4779431861 0.0869206231
0.7449142731 0.4788437423 0.0875950471
0.7620836627 0.4777574664 0.0883548088
0.7794727095 0.4776471727 0.0897150592
0.7967338271 0.4781145080 0.0898245295
0.8144377926 0.4766140718 0.0903685768
0.8315083244 0.4735964041 0.0906233841
0.8474183387 0.4732042029 0.0919641761
0.8627213875 0.4714387971 0.0933330574
0.8772643028 0.4674696820 0.0959018529
0.8882856701 0.4659343247 0.1006838413
0.8991315276 0.4621695750 0.1072323453
0.9076352045 0.4604609183 0.1146935762
0.1193716006 0.4705517037 0.2150816018
0.1216874913 0.4678097217 0.1952894208
0.1260963783 0.4645527747 0.1739264329
0.1357308937 0.4622024259 0.1504143649
0.1551903020 0.4617997995 0.1321925680
0.1868347914 0.4638232321 0.1178314737
0.2311295997 0.4667376156 0.1105858601
0.2880365700 0.4695463203 0.1079424646
0.3506995161 0.4740099762 0.1066292682
0.4024128793 0.4781782772 0.1059708168
0.4503980773 0.4825496707 0.1052458209
0.4917576931 0.4861305962 0.1041275958
0.5259223128 0.4907082344 0.1027113558
0.5554675986 0.4956455180 0.1010155706
0.5818677800 0.4989303288 0.0995604446
0.6080575020 0.5003995848 0.0980050585
0.6353239268 0.5033532191 0.0953354966
0.6616205279 0.5056138802 0.0932200186
0.6839941475 0.5067933258 0.0940102713
0.7036315631 0.5068892361 0.0952730090
0.7221747488 0.5081517093 0.0949612229
0.7391340189 0.5090782406 0.0952403140
0.7553523299 0.5086217319 0.0951296709
0.7730052741 0.5059569738 0.0945161965
0.7902524991 0.5059658488 0.0943830541
0.8075020876 0.5051686488 0.0949767096
0.8247957851 0.5023205009 0.0948619284
0.8408650808 0.4995623232 0.0950713916
0.8573823272 0.4986368486 0.0959848980
0.8726049034 0.4944260560 0.0982291460
0.8849491881 0.4920882686 0.1030805072
0.8951194248 0.4906437760 0.1093576180
0.9044958268 0.4893898338 0.1173288395
0.1314392775 0.4900304545 0.2354481876
0.1343810840 0.4886254122 0.2141750538
0.1388429223 0.4863382262 0.1923352788
0.1463166309 0.4841609936 0.1692845905
0.1620358191 0.4829114189 0.1465141904
0.1876499305 0.4839512253 0.1313659291
0.2266072712 0.4867635764 0.1226456314
0.2811468858 0.4909798299 0.1192898472
0.3434650644 0.4955676233 0.1182139622
0.3953339485 0.4999989831 0.1182362258
0.4436429479 0.5049148688 0.1186327500
0.4845940095 0.5087049484 0.1179622188
0.5193638545 0.5110931610 0.1164558066
0.5490848465 0.5159265823 0.1155461553
0.5760717291 0.5207593591 0.1140564369
0.6033445629 0.5253810993 0.1121377104
0.6316617803 0.5292198119 0.1092523092
0.6585772231 0.5327082460 0.1065744844
0.6803082175 0.5347361805 0.1069271297
0.6985140421 0.5356005554 0.1073486452
0.7174798667 0.5344814070 0.1054743957
0.7361404520 0.5358642614 0.1050469109
0.7532005528 0.5367032570 0.1044101587
0.7711115372 0.5359618023 0.1033263924
0.7886448593 0.5327627686 0.1017660323
0.8057616615 0.5323771530 0.1010999919
0.8223473000 0.5293471464 0.1001381228
0.8382335719 0.5260565137 0.0994822540
0.8530241789 0.5247674854 0.0997693925
0.8679169052 0.5203955784 0.1015395424
0.8809091068 0.5180386149 0.1063622232
0.8919657645 0.5168650420 0.1134074888
0.9010889715 0.5152025088 0.1214838261
0.1444776752 0.5104237708 0.2544018375
0.1460706478 0.5096088441 0.2391054377
0.1501792295 0.5086346146 0.2168111752
0.1560207887 0.5068840773 0.1935495481
0.1687621967 0.5052203522 0.1707605632
0.1898557282 0.5049243416 0.1515202195
0.2243479156 0.5068997134 0.1385213193
0.2757338680 0.5107718325 0.1327657946
0.3368108737 0.5154377182 0.1316906626
0.3903229196 0.5185091729 0.1295597979
0.4389851605 0.5238332762 0.1309646668
0.4799232246 0.5287939531 0.1313428528
0.5140530993 0.5326831956 0.1305755898
0.5437345086 0.5374458575 0.1300197365
0.5689550876 0.5420370839 0.1292352077
0.5951635292 0.5466676494 0.1280714107
0.6244739595 0.5515602414 0.1262921880
0.6524972983 0.5560396181 0.1238067591
0.6778761499 0.5585503466 0.1206622183
0.6964884499 0.5604932292 0.1204247958
0.7142815588 0.5619692046 0.1204949124
0.7335389113 0.5642098556 0.1196788243
0.7515955129 0.5638126968 0.1172588014
0.7699599890 0.5638060009 0.1154114772
0.7878230076 0.5631446488 0.1138913336
0.8051158620 0.5597915535 0.1115663148
0.8222611437 0.5590139898 0.1101374570
0.8386275955 0.5552450814 0.1084083184
0.8537125798 0.5510025372 0.1066728231
0.8664838334 0.5491792794 0.1080537761
0.8791906981 0.5443894198 0.1119102543
0.8900510436 0.5415497088 0.1184378828
0.8988676170 0.5394555546 0.1266153118
0.1592946063 0.5291588617 0.2781469992
0.1594582244 0.5274553336 0.2604676715
0.1617410550 0.5275686993 0.2379441986
0.1673387128 0.5263815328 0.2146541028
0.1771904828 0.5251236744 0.1909477331
0.1960242158 0.5240054900 0.1694349021
0.2245215401 0.5251731120 0.1548314115
0.2716785504 0.5285088548 0.1466583629
0.3311377233 0.5331738119 0.1448154627
0.3843888479 0.5378325778 0.1438258956
0.4337822687 0.5428520274 0.1453455717
0.4738438239 0.5481417125 0.1466550460
0.5072928438 0.5528852587 0.1463746479
0.5371105477 0.5574295180 0.1457267193
0.5640001382 0.5605711172 0.1441712273
0.5889592518 0.5649327873 0.1435396323
0.6179248292 0.5695167647 0.1425932115
0.6450822481 0.5741831946 0.1411553305
0.6718554421 0.5793469170 0.1390614547
0.6937656249 0.5821681293 0.1354886227
0.7124238752 0.5851148391 0.1350558828
0.7311128024 0.5885844274 0.1338295689
0.7500140143 0.5896087175 0.1309956888
0.7688538926 0.5898647661 0.1284290812
0.7873506410 0.5911325848 0.1268520057
0.8052246778 0.5888167859 0.1238778780
0.8227722480 0.5877580917 0.1218643255
0.8399060198 0.5855838368 0.1189038138
0.8548481497 0.5800251181 0.1163166212
0.8681569991 0.5749451894 0.1169557819
0.8789207089 0.5722731601 0.1200430646
0.8893697708 0.5674513766 0.1254753903
0.8981156466 0.5650793373 0.1337887661
0.1765054481 0.5459346788 0.3039348120
0.1761496618 0.5452304263 0.2854265623
0.1774229267 0.5455727583 0.2632372615
0.1811582367 0.5452981059 0.2376777884
0.1884222660 0.5447149673 0.2114340892
0.2038833555 0.5434130596 0.1878675511
0.2289166483 0.5437303892 0.1708072968
0.2666663327 0.5463595493 0.1606807650
0.3228716809 0.5505791264 0.1572905295
0.3773361836 0.5549844172 0.1572516091
0.4255270663 0.5605267377 0.1601964029
0.4679192751 0.5661586462 0.1626066465
0.4994646614 0.5704384064 0.1628233673
0.5298076803 0.5750983702 0.1619120288
0.5560145083 0.5789296519 0.1605960464
0.5823791180 0.5820696114 0.1590995158
0.6106353991 0.5866094575 0.1590399568
0.6380899195 0.5903074677 0.1581890795
0.6643684975 0.5956311696 0.1568235019
0.6875101175 0.6018147185 0.1537487860
0.7092601849 0.6060697714 0.1497475706
0.7280150262 0.6101530200 0.1475669140
0.7467324042 0.6127943161 0.1444655491
0.7661153985 0.6142875636 0.1415070424
0.7851340517 0.6166000693 0.1396617217
0.8035669994 0.6155846693 0.1360507370
0.8216795708 0.6155648628 0.1333791062
0.8397320314 0.6149922637 0.1296456824
0.8558325931 0.6110419463 0.1264737717
0.8700417548 0.6056596642 0.1257712611
0.8816616513 0.6017818014 0.1286887334
0.8914294409 0.5973881498 0.1341789927
0.9002097152 0.5944528543 0.1425984291
0.1938818432 0.5600664337 0.3247610695
0.1954960201 0.5614968991 0.3096720912
0.1973878922 0.5629346105 0.2911159008
0.1999182497 0.5639809066 0.2678670800
0.2047942713 0.5647590686 0.2393773779
0.2153347645 0.5640004567 0.2116428384
0.2335855115 0.5638332679 0.1901394928
0.2651447880 0.5656139392 0.1765452294
0.3103403360 0.5688398909 0.1705712237
0.3667834625 0.5718705564 0.1702255244
0.4156462257 0.5765464580 0.1739108561
0.4564378996 0.5818065208 0.1770222571
0.4928544993 0.5867114496 0.1782627388
0.5236318629 0.5909825204 0.1778346509
0.5489176341 0.5950164937 0.1767681908
0.5729522469 0.5991947973 0.1763809881
0.5999867517 0.6035038734 0.1760762329
0.6293150592 0.6068144585 0.1747699853
0.6561323163 0.6112954453 0.1736194487
0.6794140282 0.6171202381 0.1715143852
0.7018876624 0.6235648366 0.1660662752
0.7219337075 0.6273931251 0.1619375299
0.7412941632 0.6304316436 0.1584473815
0.7608773398 0.6331468463 0.1552817639
0.7804572259 0.6362068029 0.1528284598
0.7999508558 0.6366457476 0.1480714354
0.8188962187 0.6383564300 0.1441988005
0.8376866495 0.6389447449 0.1398901079
0.8555297032 0.6373377053 0.1363063749
0.8712754001 0.6344701848 0.1353964600
0.8842021180 0.6320504808 0.1386370240
0.8948049631 0.6287131487 0.1448603473
0.9033418688 0.6224788132 0.1530881623
0.2110301893 0.5718052585 0.3485087596
0.2128994271 0.5735795993 0.3364498004
0.2151098237 0.5754536830 0.3198644456
0.2181067952 0.5778089017 0.2996598842
0.2223765916 0.5800059523 0.2718612672
0.2300860630 0.5808478767 0.2420748253
0.2429388957 0.5813009054 0.2158959874
0.2661915547 0.5825194435 0.1965819993
0.3048874569 0.5855740643 0.1869990080
0.3516541573 0.5898769091 0.1832257247
0.4038327132 0.5933574578 0.1849733827
0.4458182351 0.5983459077 0.1877611765
0.4811083139 0.6033440506 0.1894893540
0.5132592747 0.6078163217 0.1895469760
0.5411009953 0.6117141720 0.1885787614
0.5653166938 0.6152753203 0.1880513128
0.5904171647 0.6191941599 0.1888636740
0.6192067006 0.6217347169 0.1875512867
0.6460717047 0.6258880731 0.1874846020
0.6710352866 0.6306697179 0.1853109776
0.6949678055 0.6362550019 0.1798649421
0.7148055532 0.6418783169 0.1773158916
0.7346369336 0.6456984028 0.1736877632
0.7545440622 0.6492418842 0.1702860849
0.7747004606 0.6529865244 0.1677704320
0.7946777004 0.6542366969 0.1624571816
0.8144535574 0.6549538933 0.1561550013
0.8336283246 0.6561394428 0.1503917712
0.8518596797 0.6569374745 0.1454156202
0.8692384736 0.6560259046 0.1439602917
0.8842477498 0.6555485989 0.1472433744
0.8961886911 0.6539545908 0.1546976261
0.9059007570 0.6498772611 0.1658639727
0.2279744847 0.5830630729 0.3628460296
0.2301849795 0.5852078623 0.3522248153
0.2329458913 0.5878888367 0.3389815745
0.2362753912 0.5908798188 0.3228904667
0.2409285456 0.5945365857 0.3007359053
0.2469586454 0.5970449059 0.2744187571
0.2574094341 0.5991195527 0.2444081153
0.2724591114 0.6008308900 0.2203837461
0.3011109681 0.6036686685 0.2053987419
0.3434130433 0.6061977570 0.1971547793
0.3871856636 0.6108877447 0.1971496202
0.4320980941 0.6150660993 0.1984731463
0.4677662609 0.6198675328 0.2002005291
0.5016736556 0.6243241089 0.2017126517
0.5309190255 0.6279564134 0.2014498749
0.5564848530 0.6306507194 0.2005210716
0.5801536300 0.6333141772 0.2002619512
