presets/原 柯达5207 +2.cube
TITLE "YINGZEJUN Copyright"
# YINGZEJUN Copyright
# SP3000 & GOLD200 
# 20241106
# Created by: Adobe Photoshop Export Color Lookup Plugin
LUT_3D_SIZE 5
0.0064090000 0.0214840000 0.0455930000
0.5308356351 0.0642701484 0.0336886700
0.7284926688 0.1275288514 0.0354014504
0.8338280774 0.1834384627 0.0850870262
0.8854673636 0.2549867197 0.1819347764
0.0812942588 0.3948097978 0.1574417987
0.3888405791 0.3905483223 0.0794525708
0.6590090328 0.4070745006 0.0741462356
0.8155096112 0.4165183227 0.0814584076
0.9092539877 0.3876224569 0.1147673776
0.1938818432 0.5600664337 0.3247610695
0.3103403360 0.5688398909 0.1705712237
0.5999867517 0.6035038734 0.1760762329
0.7804572259 0.6362068029 0.1528284598
0.9033418688 0.6224788132 0.1530881623
0.3003849272 0.6257201057 0.4135969966
0.3672839494 0.6706362872 0.3646971456
0.5097079288 0.7294575844 0.2956872986
0.7412159398 0.7563656200 0.3200203260
0.9151997427 0.7812134242 0.3072992086
0.3621970263 0.6666258338 0.4621726656
0.4218567704 0.7020857746 0.4601471270
0.4989547153 0.7705184821 0.4497781103
0.6316430309 0.8436702749 0.3938691604
0.8761102888 0.8891002641 0.4781733149
0.1077867867 0.0564100937 0.3092402272
0.4545931286 0.0819755956 0.2608521791
0.6542666693 0.1371036101 0.2492977224
0.7996603331 0.2006025922 0.2723069192
0.8932415812 0.2882550576 0.3373218579
0.0518194482 0.3390823853 0.3900093574
0.3657139864 0.3737610216 0.3514141156
0.6362707077 0.3680437491 0.3204227793
0.7859298300 0.3862348814 0.3147661118
0.9280927166 0.3722870594 0.3120464340
0.1686001523 0.5504389222 0.4601843334
0.2582966224 0.5556581686 0.3888322338
0.5878219188 0.5943041770 0.3941995529
0.7626036918 0.6172753123 0.3974355313
0.9305738370 0.5902624173 0.3203048013
0.2882208476 0.6190954853 0.4777210260
0.3386386651 0.6516959064 0.4458693452
0.5093347140 0.7196572393 0.4238955628
0.7334305168 0.7454835852 0.4519492610
0.9322939327 0.7774549712 0.4170309970
0.3533240154 0.6606423353 0.5026066845
0.4072108324 0.6928025338 0.5037571472
0.4966462546 0.7677103411 0.5081536147
0.6278313062 0.8501325746 0.4518077878
0.8833583508 0.8950778311 0.5039676612
0.2827065254 0.1073624300 0.4681508446
0.4760966492 0.1206380397 0.4402641744
0.6462346278 0.1444890644 0.4346997602
0.7927042445 0.2113214715 0.4499593052
0.9093763230 0.3494218907 0.4842680881
0.1557664867 0.3106307336 0.5414258015
0.4048523270 0.3307595685 0.5241267795
0.6388291909 0.3337415725 0.4951598410
0.7860744819 0.3972029001 0.4952251764
0.9385783411 0.4672875092 0.5200157969
0.1359685957 0.5347737695 0.6055886269
0.2427548647 0.5388084156 0.5751338596
0.6020085246 0.5929115656 0.5738663688
0.7593540337 0.5927363634 0.5438885575
0.9236202482 0.5872979208 0.5296512370
0.2767199062 0.6260754414 0.5983795731
0.3227637660 0.6495340394 0.5805945316
0.4989966915 0.7061081058 0.5736978880
0.7293721794 0.7366937900 0.5821811570
0.9232097109 0.7508196237 0.5666445048
0.3321199349 0.6546449344 0.5815699684
0.3802131242 0.6799255985 0.5794110086
0.4792390516 0.7500084891 0.6067938056
0.6224297727 0.8477930611 0.5961987524
0.9191040151 0.9210517793 0.6268373219
0.4114184599 0.1524138343 0.5509152305
0.5283906268 0.1568893034 0.5394043584
0.6525126852 0.1832452148 0.5482325556
0.7803543881 0.2582371243 0.5593033694
0.8861591665 0.3719805815 0.5687559487
0.2615431034 0.2431302093 0.6333849556
0.4566314128 0.2541249349 0.6125512984
0.6453290097 0.3219721111 0.6087266958
0.7869036562 0.3938606619 0.6045231638
0.9266481505 0.4608744132 0.6110221619
0.1687399850 0.5165313883 0.7519244736
0.3781659890 0.5446135676 0.7233475756
0.6032062793 0.5754159258 0.7030013206
0.7689731264 0.5897269755 0.6802689733
0.9335502027 0.6038016793 0.6734047629
0.2530281024 0.6307901110 0.7051479459
0.2928713558 0.6555915903 0.7242047966
0.4992985858 0.6998089263 0.7377591494
0.7450688880 0.7325617904 0.7246087560
0.9380520342 0.7364196376 0.6978053841
0.3242794249 0.6599532101 0.6581644188
0.3438167845 0.6706101199 0.6622092620
0.4369260860 0.7248463965 0.6846110713
0.5862155356 0.8279213702 0.7014915113
0.9447017255 0.9285492124 0.7753054298
0.5089469094 0.2088233223 0.6349992236
0.5822897735 0.2192611196 0.6252597338
0.6751990317 0.2504450843 0.6361713439
0.7797477769 0.3197446755 0.6582401970
0.8797603266 0.4312929230 0.6823493073
0.3924004474 0.2848604216 0.7343381432
0.5423886712 0.2741828273 0.7175933560
0.6823998984 0.3071840160 0.7012352467
0.8025594968 0.3785252640 0.7042003711
0.9067045589 0.4739315820 0.7124736722
0.0000000000 0.4652302365 0.9448272185
0.1443252827 0.4873388148 0.9164253518
0.6314883872 0.4905395148 0.8259090368
0.8376304580 0.5170357493 0.8026631564
0.9477454310 0.5747937203 0.7808833731
0.2159656372 0.6297221772 0.8433327344
0.2212355346 0.6407894960 0.8807635556
0.3850778752 0.6804002108 0.9335622391
0.7647501058 0.7117393053 0.8809340596
0.9493335627 0.7187497194 0.8396348072
0.3347187178 0.6806558030 0.7500040125
0.3347187178 0.6806558030 0.7500040125
0.4061782799 0.7187072434 0.7914731266
0.5514642600 0.8025805806 0.8760654688
0.9595340000 0.9144900000 0.9453740000
