presets/原 柯达5207 +1.cube
TITLE "YINGZEJUN Copyright"
# YINGZEJUN Copyright
# SP3000 & GOLD200 
# 20241106
# Created by: Adobe Photoshop Export Color Lookup Plugin
LUT_3D_SIZE 5
0.0054020000 0.0099490000 0.0421450000
0.4431482120 0.0440536388 0.0342358182
0.6952242292 0.0946548017 0.0316977593
0.8453658775 0.1417480452 0.0710931837
0.9037393629 0.2003879819 0.1544940453
0.0676751233 0.3339078620 0.1379798050
0.2919499165 0.3194552852 0.0713071779
0.6185327940 0.3325293820 0.0622994234
0.8243454357 0.3419272302 0.0676698167
0.9281428504 0.3163914007 0.0988214216
0.1479982072 0.5382299657 0.2768741948
0.2379972828 0.5391089444 0.1421593208
0.5476113756 0.5692209270 0.1496497279
0.7796198236 0.6007666873 0.1308512045
0.9234015124 0.5941698379 0.1384916697
0.2413017325 0.6139992630 0.3770905791
0.3071070218 0.6651244574 0.3204144257
0.4654220961 0.7451482336 0.2606772701
0.7427667868 0.7695120707 0.2802043084
0.9330705913 0.8003714567 0.2722357507
0.3029841623 0.6621357573 0.4428048071
0.3669540043 0.7092296028 0.4378377011
0.4598666590 0.8007733498 0.4311956494
0.6237909251 0.8915006516 0.3725630442
0.9131942506 0.9376525270 0.4584907433
0.0842184434 0.0396348429 0.2739263267
0.3820405551 0.0587598723 0.2326828763
0.6259971622 0.1016584204 0.2182685367
0.8068061539 0.1556804861 0.2383624987
0.9050443652 0.2285104912 0.2985766005
0.0441790547 0.2758429444 0.3355695401
0.2844946848 0.3040659229 0.2960422244
0.6019274614 0.2965106403 0.2645849397
0.7942923298 0.3129752477 0.2658447908
0.9471889595 0.3034939371 0.2718470133
0.1283878909 0.5232523242 0.4242862659
0.1971719108 0.5264223956 0.3276994611
0.5433403978 0.5583297604 0.3335061314
0.7646234621 0.5849529625 0.3477763189
0.9506055929 0.5621704959 0.2799588929
0.2297517759 0.6066172658 0.4549159077
0.2795350949 0.6441748228 0.4218545422
0.4650815732 0.7296180005 0.3869099306
0.7326311325 0.7517175687 0.4109078422
0.9533200096 0.8015834731 0.3794980584
0.2942839627 0.6551224122 0.4884981809
0.3501445415 0.6986856797 0.4881727299
0.4563255264 0.7963293758 0.4904667646
0.6201047126 0.8975242559 0.4364303061
0.9210055667 0.9432537684 0.4870191171
0.2195971388 0.0800995007 0.4157257231
0.4141977815 0.0912849451 0.3960642296
0.6234300171 0.1111628698 0.3862468654
0.7917254278 0.1652746855 0.3977622378
0.9172902926 0.2819356513 0.4482029350
0.1117215088 0.2509843005 0.4981316664
0.3272361307 0.2728194432 0.4745881120
0.6084021625 0.2716580059 0.4410466433
0.7930404569 0.3286992249 0.4528291039
0.9540274013 0.4047679509 0.4937997725
0.1039032599 0.4962980703 0.5766585614
0.1857499091 0.4988286709 0.5398261160
0.5612519945 0.5554399426 0.5419330492
0.7629215662 0.5603151933 0.5147751112
0.9401993654 0.5546716872 0.5014591568
0.2198321920 0.6123257297 0.5736440944
0.2647190146 0.6416405841 0.5607258736
0.4502701809 0.7075644158 0.5526367035
0.7280333425 0.7381108548 0.5585625466
0.9403664056 0.7655549552 0.5482771617
0.2739826855 0.6475479499 0.5622290070
0.3213763033 0.6826726944 0.5627208663
0.4340539086 0.7761123080 0.5959828374
0.6085941369 0.8885482463 0.5811657452
0.9548658268 0.9651431506 0.6138016146
0.3403464007 0.1228546804 0.5252845375
0.4728696739 0.1276760836 0.5108737731
0.6258212456 0.1503523810 0.5182614752
0.7798178397 0.2097038954 0.5327236632
0.8941794666 0.3037415239 0.5573067645
0.1965770269 0.2005979202 0.6159519129
0.3837456437 0.2174417775 0.5976160483
0.6106279216 0.2683018580 0.5850934877
0.7905260188 0.3275244085 0.5838584821
0.9390442571 0.3949073741 0.6041241221
0.1326684627 0.4718948207 0.7468951786
0.3121470811 0.5017647294 0.7069980774
0.5648003398 0.5369394609 0.6867992900
0.7709254642 0.5538763921 0.6616930483
0.9485545792 0.5684999736 0.6682478398
0.1989543020 0.6139858813 0.6956847494
0.2365520078 0.6454679363 0.7252011650
0.4464906732 0.6962424160 0.7420524340
0.7475205232 0.7348254840 0.7263976768
0.9535105897 0.7446693057 0.7010266993
0.2669923569 0.6531088453 0.6419316686
0.2857320276 0.6683992532 0.6490534451
0.3843871105 0.7423750710 0.6917966826
0.5595347968 0.8654312771 0.7251399377
0.9709162661 0.9629923924 0.7969870036
0.4389273490 0.1815200275 0.6246821912
0.5277790246 0.1890668442 0.6117851726
0.6413923160 0.2152335898 0.6201092036
0.7740402066 0.2713169182 0.6423255413
0.8878542700 0.3713466459 0.6783862136
0.3170763796 0.2507302886 0.7466556724
0.4734349782 0.2426846227 0.7211795540
0.6461000687 0.2665555862 0.6987607421
0.8013834516 0.3246148530 0.7036439533
0.9169182206 0.4208839784 0.7238718539
0.0190341893 0.4367666369 0.9674533251
0.1314983684 0.4478844913 0.9345911483
0.5948088754 0.4439213494 0.8602384633
0.8472229986 0.4805329141 0.8340608444
0.9607784099 0.5432571766 0.8093001600
0.1651177167 0.6103791846 0.8472920334
0.1692674537 0.6248434533 0.8925152575
0.3214280726 0.6740063037 0.9559487962
0.7731000512 0.7139864927 0.9219394958
0.9647814496 0.7241914779 0.8795038348
0.2754880796 0.6813676280 0.7545538112
0.2754880796 0.6813676280 0.7545538112
0.3496767798 0.7318119303 0.8013889160
0.5152013706 0.8327975631 0.9135227428
0.9808350000 0.9470830000 0.9833070000
