presets/标 柯达5207 -1.cube
TITLE "YINGZEJUN Copyright"
# YINGZEJUN Copyright
# SP3000 & GOLD200 
# 20241106
# Created by: Adobe Photoshop Export Color Lookup Plugin
LUT_3D_SIZE 33
0.0147400000 0.0480350000 0.0688170000
0.0293646640 0.0490835820 0.0680741016
0.0466070006 0.0532603437 0.0669822243
0.0694472161 0.0587813772 0.0686734643
0.1028343415 0.0616138714 0.0712010548
0.1389010652 0.0631876600 0.0716187874
0.1786882814 0.0654633038 0.0709442553
0.2203851776 0.0684308623 0.0701927155
0.2618068029 0.0717515708 0.0699173136
0.3033146673 0.0749292402 0.0697666353
0.3470914876 0.0783551606 0.0694904124
0.3891595485 0.0823042428 0.0689811858
0.4281031023 0.0862795682 0.0684676142
0.4711275505 0.0893261874 0.0682155405
0.5135603420 0.0931730686 0.0675924055
0.5537684984 0.0969991489 0.0677563081
0.5906930844 0.0998655901 0.0685270106
0.6255556796 0.1043528628 0.0693574804
0.6547846612 0.1074220260 0.0704654126
0.6818756809 0.1105658543 0.0721427380
0.7086227448 0.1153070468 0.0744631415
0.7294677957 0.1190572049 0.0771820260
0.7486457090 0.1231181415 0.0802588245
0.7668839027 0.1283426654 0.0837311734
0.7849071222 0.1351254609 0.0865470311
0.8007680330 0.1402172682 0.0911251636
0.8149919026 0.1448798788 0.0973857367
0.8275503479 0.1501171162 0.1043096597
0.8391714858 0.1558287650 0.1097711677
0.8514557012 0.1620752615 0.1175133912
0.8615289758 0.1677991365 0.1240800110
0.8705454529 0.1734303041 0.1305768534
0.8790579650 0.1790032736 0.1388329459
0.0188349794 0.0605987321 0.0706171440
0.0270145712 0.0585855933 0.0674459745
0.0451562756 0.0625910864 0.0672573274
0.0702892969 0.0671577506 0.0681086803
0.1040366928 0.0707657404 0.0686345566
0.1371916078 0.0727899879 0.0688196493
0.1784939524 0.0762135437 0.0686265281
0.2209466170 0.0791708456 0.0685895780
0.2627469260 0.0818134859 0.0686774792
0.3062875072 0.0862197193 0.0691289609
0.3496631519 0.0896035097 0.0693027433
0.3932900563 0.0938025688 0.0690972077
0.4334032821 0.0979635736 0.0688269348
0.4764234187 0.0998605857 0.0686757891
0.5193614466 0.1039368997 0.0684943595
0.5601363053 0.1078418478 0.0685380268
0.5978020416 0.1103101027 0.0684322477
0.6285463627 0.1129161586 0.0691021932
0.6605508054 0.1166548874 0.0702105987
0.6887181330 0.1200904505 0.0714170310
0.7154126495 0.1248368565 0.0729983201
0.7363464180 0.1281655329 0.0752952556
0.7548580023 0.1308671518 0.0781890009
0.7725430083 0.1346082355 0.0816104784
0.7897851116 0.1397128810 0.0849543159
0.8055329359 0.1450135572 0.0885571728
0.8206370800 0.1503010599 0.0939827408
0.8331932721 0.1549827335 0.1003087570
0.8438164838 0.1597602447 0.1059051667
0.8561623298 0.1660202112 0.1134018971
0.8654896435 0.1711594181 0.1205379946
0.8744950168 0.1768419428 0.1272289910
0.8835057439 0.1828300459 0.1348468136
0.0246482807 0.0888179030 0.0837884385
0.0293257055 0.0780673401 0.0729387069
0.0430038857 0.0796183369 0.0711669279
0.0695407738 0.0840335923 0.0718625166
0.1025207340 0.0881428724 0.0712976640
0.1381005059 0.0915998411 0.0707731632
0.1767726412 0.0947902981 0.0704474566
0.2205812343 0.0986996939 0.0708227530
0.2620407357 0.1004218345 0.0710156418
0.3070141084 0.1042686169 0.0713560476
0.3526065165 0.1073404952 0.0714467064
0.3970691095 0.1107244676 0.0713924888
0.4389986542 0.1145178045 0.0712567344
0.4829236060 0.1162962699 0.0708548215
0.5260247706 0.1181999239 0.0704084860
0.5665368088 0.1231754781 0.0708443518
0.6040437967 0.1262870300 0.0708616070
0.6373155570 0.1273308439 0.0709814069
0.6681465541 0.1298984493 0.0715662000
0.6961467863 0.1325891582 0.0724188647
0.7221383440 0.1375757216 0.0740641093
0.7446565544 0.1409386209 0.0758041131
0.7632672456 0.1435591729 0.0776358217
0.7805245843 0.1460567823 0.0803849998
0.7975839208 0.1504136710 0.0837965402
0.8126147970 0.1545216948 0.0872521942
0.8263701802 0.1590249602 0.0914547824
0.8399470634 0.1637881063 0.0971049254
0.8505001036 0.1679163288 0.1029190315
0.8625691736 0.1735264126 0.1100642947
0.8717893186 0.1779821995 0.1168116860
0.8795958454 0.1820384268 0.1243801851
0.8885004216 0.1877938253 0.1324354373
0.0322779331 0.1279593601 0.1023405515
0.0325957998 0.1072557223 0.0834318020
0.0435226040 0.1025917292 0.0785244534
0.0664049271 0.1074664632 0.0782939752
0.0991025244 0.1110033628 0.0766814792
0.1357788512 0.1151543707 0.0752322596
0.1758857050 0.1191211891 0.0743988903
0.2181067440 0.1218573376 0.0742919658
0.2604753124 0.1244440220 0.0747839856
0.3068109874 0.1275542173 0.0749921512
0.3527415974 0.1295015578 0.0748956501
0.4001485141 0.1306595720 0.0745921424
0.4432377819 0.1341850195 0.0745713732
0.4894292937 0.1363764688 0.0742438631
0.5322770996 0.1390487111 0.0741692816
0.5744913466 0.1406317007 0.0735905436
0.6104248537 0.1451946128 0.0740924043
0.6460299778 0.1465586321 0.0739806774
0.6767314943 0.1477263540 0.0740633522
0.7060308090 0.1508714985 0.0747359216
0.7297643027 0.1537845868 0.0757046670
0.7523872354 0.1564186891 0.0768430773
0.7724783296 0.1583345490 0.0783224064
0.7899836509 0.1612280068 0.0800035137
0.8072893982 0.1647932193 0.0827284562
0.8212380668 0.1670458164 0.0857387964
0.8344364910 0.1702004842 0.0896077329
0.8473002315 0.1744537216 0.0943432454
0.8587567754 0.1780424523 0.0996850678
0.8697232847 0.1824512823 0.1059329874
0.8792728703 0.1866892041 0.1131508292
0.8868652946 0.1902671580 0.1200328054
0.8945196665 0.1941397363 0.1293314305
0.0393351052 0.1643020496 0.1154583342
0.0367767984 0.1407359721 0.0955445749
0.0440075204 0.1294714144 0.0874461753
0.0635618783 0.1296790114 0.0849126978
0.0942370544 0.1352922196 0.0826133664
0.1305560131 0.1391813254 0.0802277721
0.1704710723 0.1437091038 0.0789654743
0.2123936808 0.1473040137 0.0784387456
0.2556231037 0.1483651451 0.0781721043
0.3022126733 0.1519918714 0.0781551332
0.3474388301 0.1547010611 0.0782565820
0.3934502242 0.1564420445 0.0780694086
0.4432665881 0.1578435914 0.0783574775
0.4930596007 0.1599403831 0.0776711413
0.5359085858 0.1626901388 0.0778653357
0.5763418150 0.1647199668 0.0779006433
0.6168498008 0.1654652346 0.0773488850
0.6542238979 0.1690631042 0.0774345240
0.6849565808 0.1706491206 0.0775588237
0.7124953399 0.1724026303 0.0778549204
0.7395705115 0.1759117520 0.0786751991
0.7607614507 0.1775811792 0.0792335014
0.7810577487 0.1783627908 0.0801260368
0.8000488712 0.1802957146 0.0815490123
0.8175271031 0.1852537659 0.0835167882
0.8304597152 0.1852979881 0.0857692022
0.8435991862 0.1870698495 0.0888316377
0.8563776017 0.1901641914 0.0931865712
0.8692534996 0.1946615617 0.0986836340
0.8784803273 0.1971404632 0.1033909683
0.8872922556 0.1994407030 0.1101468042
0.8954995918 0.2020600612 0.1178541810
0.9027744113 0.2051089760 0.1253183680
0.0465617032 0.2001776803 0.1307002313
0.0422929408 0.1743918109 0.1089326867
0.0472853988 0.1591706912 0.0974498975
0.0626723351 0.1553861919 0.0927207671
0.0880047243 0.1585970729 0.0895042816
0.1216151012 0.1614991335 0.0859216400
0.1602585172 0.1668008063 0.0838300299
0.2015776594 0.1717466507 0.0826630661
0.2440240375 0.1739247643 0.0818303252
0.2889111771 0.1778255094 0.0814491003
0.3333626604 0.1785874238 0.0815204624
0.3802598400 0.1801274738 0.0816795237
0.4315600822 0.1828619859 0.0810751714
0.4821571427 0.1847695089 0.0808023916
0.5310463218 0.1861667706 0.0804774189
0.5749453885 0.1885326634 0.0804233704
0.6174527184 0.1912968541 0.0803123289
0.6526309928 0.1920528494 0.0802183058
0.6874448954 0.1943035154 0.0804313695
0.7177839307 0.1959539211 0.0806714839
0.7457894924 0.1989410647 0.0812764373
0.7685807021 0.2024587810 0.0820214992
0.7889474950 0.2042624715 0.0826070673
0.8081214574 0.2054130971 0.0836913254
0.8252182057 0.2073962930 0.0851795631
0.8406940707 0.2089478444 0.0867484889
0.8544471357 0.2090452668 0.0892873397
0.8673078503 0.2105633667 0.0926189522
0.8790142198 0.2132559042 0.0972307546
0.8883145540 0.2152718991 0.1014958408
0.8972128210 0.2168215259 0.1076236829
0.9054330114 0.2182738442 0.1145959449
0.9125342050 0.2199090028 0.1213585689
0.0540666548 0.2320001049 0.1432913368
0.0503494250 0.2086552900 0.1210173863
0.0527781641 0.1926741801 0.1075278597
0.0649961794 0.1859288318 0.1005003493
0.0862834391 0.1867617143 0.0966029667
0.1158513220 0.1882147194 0.0925872765
0.1492901550 0.1919308103 0.0895131918
0.1897489979 0.1968528962 0.0875884502
0.2326746127 0.2001144033 0.0865976827
0.2772061589 0.2047142311 0.0856979393
0.3237192863 0.2081651315 0.0851176230
0.3678550690 0.2075485845 0.0851518150
0.4170723075 0.2095588456 0.0841197247
0.4674897312 0.2118092365 0.0835793161
0.5169964084 0.2136587074 0.0828018976
0.5643627967 0.2144782094 0.0824022428
0.6082686991 0.2170623541 0.0822553179
0.6475604535 0.2176123933 0.0821832374
0.6829885063 0.2190725669 0.0821454946
0.7153253562 0.2202244043 0.0825968158
0.7443796474 0.2221143900 0.0832037575
0.7701880525 0.2269666939 0.0841901586
0.7925531027 0.2290594236 0.0850750736
0.8124171125 0.2311897680 0.0859257890
0.8308637056 0.2324982621 0.0871930242
0.8476934185 0.2315294381 0.0886020967
0.8626858546 0.2328297468 0.0903823691
0.8757903798 0.2327837595 0.0932746896
0.8876032322 0.2340126246 0.0967237359
0.8979177079 0.2358785137 0.1010844064
0.9070046962 0.2378564339 0.1063484399
0.9151545152 0.2388762764 0.1125790893
0.9221615725 0.2399568041 0.1186526115
0.0618072619 0.2611135903 0.1566414026
0.0589995708 0.2417582124 0.1353894191
0.0606154562 0.2265326984 0.1195762965
0.0688463481 0.2176574184 0.1096101034
0.0870191293 0.2163373038 0.1048850574
0.1136237304 0.2173322298 0.1006592936
0.1445377722 0.2196677982 0.0976125165
0.1802601969 0.2237623987 0.0948108764
0.2233945879 0.2264267942 0.0927833489
0.2672192844 0.2322461237 0.0915137509
0.3138749830 0.2359515933 0.0900443152
0.3622662709 0.2397499361 0.0890351536
0.4069933216 0.2392805916 0.0879462603
0.4565798469 0.2417672586 0.0869812961
0.5038650183 0.2438705922 0.0857779377
0.5518216536 0.2462344996 0.0844325981
0.5959025256 0.2469883556 0.0841884751
0.6368819534 0.2470704447 0.0839909354
0.6744637820 0.2474344528 0.0839698915
0.7086906587 0.2489025405 0.0840651680
0.7371332075 0.2495018854 0.0850913630
0.7645498689 0.2531209468 0.0860917442
0.7892090146 0.2553275901 0.0871685118
0.8109647664 0.2564916719 0.0881103608
0.8308136188 0.2581231067 0.0888828004
0.8495128975 0.2559767644 0.0900947856
0.8662913155 0.2555488937 0.0917780257
0.8808901225 0.2566593791 0.0937983152
0.8932231528 0.2566262830 0.0967300991
0.9049316505 0.2579366241 0.1004736895
0.9145729066 0.2596172971 0.1054314920
0.9233206614 0.2600861504 0.1113532122
0.9302105384 0.2610304282 0.1168320463
0.0697068294 0.2895127906 0.1716533904
0.0672175230 0.2733181326 0.1517636214
0.0684130069 0.2597467013 0.1350449264
0.0746028011 0.2499543620 0.1224690009
0.0886461349 0.2460686208 0.1145347964
0.1122884793 0.2478366222 0.1100722389
0.1413566321 0.2494906716 0.1070193066
0.1757551519 0.2512350051 0.1037840332
0.2173094872 0.2553045448 0.1001739198
0.2591296041 0.2605218777 0.0984741201
0.3053573201 0.2643412607 0.0964326437
0.3542543257 0.2673824918 0.0940492426
0.4041658844 0.2716255096 0.0921988574
0.4533052886 0.2747268837 0.0909199945
0.4984003492 0.2771531501 0.0896556661
0.5421966286 0.2798541423 0.0887885616
0.5868988713 0.2826472271 0.0877632528
0.6278957227 0.2837929691 0.0875545065
0.6653630010 0.2845989609 0.0880793761
0.6997400541 0.2852065971 0.0887039976
0.7315444918 0.2861936546 0.0889644484
0.7581547790 0.2870796367 0.0894727517
0.7825486303 0.2870909655 0.0905430878
0.8054386490 0.2872608557 0.0914305204
0.8266006629 0.2881964379 0.0915879524
0.8466306512 0.2857855752 0.0919375476
0.8653433677 0.2848903260 0.0931614813
0.8822829095 0.2848726491 0.0949658953
0.8968342669 0.2852602944 0.0972624157
0.9094252197 0.2856575958 0.1006013643
0.9194466070 0.2864364183 0.1050784488
0.9282894852 0.2862713846 0.1104010549
0.9367958965 0.2836207381 0.1172557697
0.0779367329 0.3171444705 0.1858275301
0.0762737346 0.3062546680 0.1697821187
0.0766112385 0.2937221616 0.1520055336
0.0814665874 0.2836397259 0.1374456517
0.0936173361 0.2778968771 0.1263965407
0.1132570313 0.2777891164 0.1203146519
0.1420333062 0.2813419570 0.1167936908
0.1753494128 0.2840140109 0.1140474755
0.2133521001 0.2874464285 0.1105627395
0.2538126312 0.2880387377 0.1067826603
0.2983398587 0.2936147322 0.1039777017
0.3472658608 0.2985070106 0.1012211645
0.3973861997 0.3037312477 0.0988611993
0.4468027197 0.3078203102 0.0974227352
0.4956698608 0.3122156572 0.0957408777
0.5411210740 0.3159351496 0.0947781633
0.5853531428 0.3194907424 0.0945126785
0.6268590075 0.3229221873 0.0938840862
0.6618458594 0.3246710548 0.0946900373
0.6951935046 0.3245939889 0.0950261579
0.7272334874 0.3233888932 0.0948662412
0.7564940259 0.3243732643 0.0950936557
0.7809867576 0.3244721146 0.0959062714
0.8037088906 0.3238190248 0.0964529482
0.8252208797 0.3240281144 0.0962623056
0.8458076221 0.3202340660 0.0957212817
0.8648680632 0.3192783075 0.0960630686
0.8822065240 0.3186493124 0.0973807130
0.8974898085 0.3175962612 0.0991889625
0.9109934233 0.3171854472 0.1023625866
0.9222919801 0.3146970231 0.1067572903
0.9317946206 0.3136533128 0.1121410895
0.9408695205 0.3127706480 0.1184242391
0.0871557074 0.3486812229 0.2048401841
0.0862946437 0.3402053523 0.1899308413
0.0857694698 0.3295713109 0.1717279031
0.0895874599 0.3204454136 0.1559419163
0.0998831033 0.3138231918 0.1423343992
0.1182354664 0.3122615618 0.1330612129
0.1430163316 0.3123683556 0.1279153367
0.1764053655 0.3165024230 0.1248213776
0.2135306254 0.3200360592 0.1215472381
0.2504235511 0.3216526748 0.1177059138
0.2939522553 0.3250440868 0.1142381985
0.3414048941 0.3308358283 0.1107788907
0.3918457583 0.3367432875 0.1081951363
0.4422231441 0.3424327501 0.1059506214
0.4910492966 0.3450637521 0.1048611714
0.5388121100 0.3503751926 0.1032440249
0.5835808073 0.3549767024 0.1031247457
0.6255092688 0.3595600743 0.1024882910
0.6636306111 0.3629412525 0.1031235851
0.6960987879 0.3654948792 0.1038571503
0.7279745618 0.3652736324 0.1035983725
0.7551250575 0.3669342599 0.1038541968
0.7802630575 0.3650307187 0.1033504894
0.8028776859 0.3647537993 0.1037644842
0.8242468735 0.3648492341 0.1032775661
0.8448980544 0.3624467158 0.1026650309
0.8639838137 0.3577472974 0.1016922760
0.8819211972 0.3573292369 0.1022380930
0.8976386644 0.3556565797 0.1036134481
0.9115622506 0.3518864884 0.1059483241
0.9225297191 0.3509508789 0.1100187449
0.9328438476 0.3475160888 0.1152815303
0.9419581311 0.3466353235 0.1213274154
0.0967525196 0.3801437142 0.2269951066
0.0962236658 0.3737530396 0.2112190891
0.0961575089 0.3656637281 0.1941103787
0.0984926883 0.3570223533 0.1752845979
0.1069618060 0.3507416024 0.1602362867
0.1230567303 0.3483664728 0.1487025115
0.1469114188 0.3488621397 0.1417942794
0.1775858468 0.3503234511 0.1374897153
0.2149873634 0.3543348162 0.1341378660
0.2515268137 0.3574221071 0.1309361978
0.2931845926 0.3609233894 0.1271901029
0.3396987991 0.3644066569 0.1233672853
0.3891712173 0.3702961851 0.1201137757
0.4400315190 0.3763876357 0.1176180749
0.4899783189 0.3814312459 0.1153542961
0.5377670581 0.3849692243 0.1142798599
0.5835580394 0.3911059357 0.1133058766
0.6261393843 0.3969179486 0.1127349903
0.6634367062 0.4015535613 0.1135300489
0.6985263687 0.4043464539 0.1144256600
0.7309629002 0.4081937078 0.1149112691
0.7583880869 0.4109442113 0.1153610481
0.7826131679 0.4111992794 0.1150147125
0.8046206276 0.4076450025 0.1136831110
0.8258474450 0.4084210753 0.1132127769
0.8461193942 0.4077278962 0.1128163956
0.8648437661 0.4035182920 0.1114273243
0.8819719234 0.3994462144 0.1104387846
0.8982567206 0.3981376104 0.1111420722
0.9120049309 0.3914265896 0.1123691167
0.9235454859 0.3885374617 0.1160844694
0.9332107217 0.3874041637 0.1209861602
0.9425030457 0.3863520021 0.1269508640
0.1061147447 0.4090387439 0.2482896160
0.1059248384 0.4042328851 0.2307207254
0.1062100123 0.3979404482 0.2130473638
0.1078233673 0.3911047284 0.1949484955
0.1145665282 0.3853592296 0.1770077097
0.1278651900 0.3826644939 0.1650114508
0.1491300664 0.3835330799 0.1574263846
0.1788723277 0.3870629237 0.1526337495
0.2161005187 0.3914598070 0.1490527439
0.2532052166 0.3952321401 0.1459857481
0.2957415504 0.3988488180 0.1422228533
0.3421422611 0.4014949693 0.1379737135
0.3905792817 0.4027320266 0.1332069375
0.4410106812 0.4086896234 0.1304476516
0.4916913142 0.4153258064 0.1283455957
0.5409961762 0.4223797492 0.1266400968
0.5875477820 0.4296695215 0.1258979139
0.6303499628 0.4366705314 0.1253642993
0.6665799709 0.4426749670 0.1262559133
0.6996435683 0.4465603130 0.1272104304
0.7320477155 0.4473409705 0.1268175667
0.7621500195 0.4514599361 0.1277065674
0.7877489269 0.4545510968 0.1280762975
0.8103603249 0.4553525907 0.1276407352
0.8310545762 0.4519858690 0.1257211485
0.8509366900 0.4528372360 0.1249731968
0.8689584191 0.4493453125 0.1230891704
0.8851823570 0.4447511111 0.1215202283
0.8991534041 0.4431614570 0.1216343627
0.9124423767 0.4355417894 0.1218634484
0.9244408677 0.4324400913 0.1251582021
0.9346712513 0.4304499340 0.1301154766
0.9437739244 0.4289852584 0.1361067389
0.1165410545 0.4392775166 0.2687235024
0.1165741062 0.4363613389 0.2565313925
0.1171011533 0.4324125445 0.2385720383
0.1182370804 0.4273709667 0.2204932196
0.1228628854 0.4233062099 0.2016365841
0.1334934375 0.4204131186 0.1866333382
0.1522176364 0.4204740506 0.1760915130
0.1802083223 0.4233848681 0.1694271273
0.2166741407 0.4278120791 0.1651795720
0.2537415872 0.4284354208 0.1593751514
0.2965872453 0.4325186203 0.1557339540
0.3436079011 0.4364804514 0.1518237963
0.3920873109 0.4393689518 0.1475204579
0.4418492886 0.4445549018 0.1443462022
0.4889144355 0.4502803866 0.1421012603
0.5372513496 0.4569655396 0.1404571448
0.5850262190 0.4647078631 0.1393168992
0.6288233895 0.4726313866 0.1388004345
0.6681722215 0.4779146518 0.1377636732
0.7011167194 0.4828751992 0.1385282937
0.7316427317 0.4869959832 0.1397674405
0.7624231424 0.4924948881 0.1406767092
0.7888576350 0.4943694639 0.1407502652
0.8124988338 0.4968486396 0.1407618981
0.8342512372 0.4987190309 0.1403559283
0.8541411437 0.4966199926 0.1386119360
0.8730781934 0.4980522639 0.1379582227
0.8899959386 0.4945653277 0.1362268168
0.9043205067 0.4894691413 0.1348148871
0.9161833409 0.4878130967 0.1360568350
0.9272952067 0.4800637212 0.1379002606
0.9372642454 0.4762768562 0.1423989188
0.9460891056 0.4743323163 0.1486898930
0.1268029153 0.4670863941 0.2887659826
0.1263095382 0.4631268116 0.2754947283
0.1272457916 0.4615132296 0.2600883788
0.1283272935 0.4579197271 0.2418759429
0.1319688194 0.4552827738 0.2234163495
0.1404576862 0.4535804213 0.2059320782
0.1555651703 0.4534576241 0.1937428471
0.1812433588 0.4559263684 0.1850220143
0.2163588497 0.4602465180 0.1798161752
0.2528447534 0.4634889970 0.1745765844
0.2954945543 0.4667948552 0.1701028425
0.3407999303 0.4709647350 0.1664498708
0.3875282337 0.4746991238 0.1626345245
0.4366551672 0.4788312927 0.1591275648
0.4864624937 0.4814462208 0.1552592401
0.5326347720 0.4869543021 0.1534215090
0.5806571485 0.4938240712 0.1519237629
0.6225265733 0.5011397109 0.1511903369
0.6631110346 0.5091572102 0.1506894203
0.6995174344 0.5139095128 0.1493904444
0.7302933833 0.5192083208 0.1503620780
0.7592924018 0.5252454245 0.1511435250
0.7866655631 0.5287408526 0.1515647701
0.8111198286 0.5315536681 0.1516533061
0.8337979515 0.5362990852 0.1522481353
0.8549753622 0.5369182485 0.1512044673
0.8746940184 0.5388916986 0.1503826143
0.8928208579 0.5394333932 0.1492318913
0.9083942304 0.5352568026 0.1478520840
0.9211151955 0.5309486212 0.1488059438
0.9314907690 0.5294573775 0.1523083653
0.9410649771 0.5240384292 0.1568508701
0.9495090318 0.5216718991 0.1638841638
0.1364206511 0.4907437708 0.3058783472
0.1364481285 0.4884358262 0.2937266535
0.1373591157 0.4872281116 0.2797058785
0.1386502537 0.4856422377 0.2623622478
0.1416498375 0.4842452477 0.2439484545
0.1487278610 0.4839645446 0.2254397147
0.1612015765 0.4846084530 0.2106402620
0.1814682018 0.4867234444 0.2006034121
0.2140248914 0.4908705442 0.1939404978
0.2504211904 0.4941300724 0.1885255530
0.2907193763 0.4986522550 0.1845973995
0.3371802960 0.5034897701 0.1811031753
0.3805833954 0.5071884677 0.1777306502
0.4290871226 0.5105868750 0.1737639433
0.4762192802 0.5130587262 0.1702099642
0.5250020261 0.5153029792 0.1665794984
0.5724615743 0.5208828495 0.1645839126
0.6151278843 0.5263833013 0.1629818101
0.6541891352 0.5337456385 0.1622182118
0.6918055134 0.5418019275 0.1612563664
0.7262033071 0.5467176611 0.1599999609
0.7545681481 0.5524107917 0.1602692388
0.7815754698 0.5567956452 0.1606949911
0.8064191584 0.5603513170 0.1611285428
0.8296518846 0.5656994644 0.1619586927
0.8516496821 0.5675704688 0.1611512267
0.8724322607 0.5710909257 0.1604469127
0.8921884392 0.5740815049 0.1592268805
0.9096529357 0.5734156468 0.1583464333
0.9241933248 0.5709352768 0.1597867132
0.9355552074 0.5691855659 0.1638567947
0.9448066255 0.5664847545 0.1694347982
0.9531365291 0.5648542572 0.1775298256
0.1455829106 0.5109557958 0.3187014043
0.1468581721 0.5114857949 0.3092721006
0.1484162287 0.5120264542 0.2977954870
0.1499146482 0.5121422624 0.2836549676
0.1526001677 0.5124197486 0.2659336664
0.1580693152 0.5135948025 0.2467091064
0.1673547729 0.5154661748 0.2297565593
0.1839518375 0.5180674009 0.2170263724
0.2097771982 0.5220790199 0.2089184010
0.2459987418 0.5236550131 0.2023758558
0.2851172529 0.5271795428 0.1984344822
0.3277091129 0.5319165799 0.1953737963
0.3756220729 0.5366117508 0.1918405470
0.4241649188 0.5403151979 0.1880112260
0.4689569488 0.5430994135 0.1845908651
0.5131044430 0.5459661212 0.1817128274
0.5596226243 0.5498534687 0.1791318962
0.6054874978 0.5524107505 0.1758224172
0.6454587567 0.5580605109 0.1742196094
0.6818491057 0.5656299052 0.1729842784
0.7178423694 0.5739717737 0.1710926387
0.7479864426 0.5785725846 0.1702633970
0.7755041232 0.5825822108 0.1701320306
0.8008207057 0.5867250453 0.1707278763
0.8243712144 0.5924075428 0.1718034655
0.8468911604 0.5948504920 0.1710880571
0.8684318332 0.5987923540 0.1700208926
0.8891225261 0.6024539665 0.1682016482
0.9079350640 0.6032306997 0.1667039971
0.9240510627 0.6029279176 0.1681162497
0.9367539224 0.6035644104 0.1725069758
0.9469998170 0.6028643656 0.1793833399
0.9556028479 0.5984734891 0.1876958955
0.1537688477 0.5291717793 0.3352639339
0.1556172336 0.5307446629 0.3270767151
0.1575985001 0.5321092223 0.3166082743
0.1599242420 0.5338125143 0.3040478400
0.1627405331 0.5354937066 0.2874188081
0.1675297366 0.5379524304 0.2681880856
0.1749550253 0.5410392459 0.2501665850
0.1876983541 0.5448138307 0.2348142388
0.2098660034 0.5495782913 0.2245307033
0.2392331285 0.5543790226 0.2170810004
0.2788408111 0.5564457566 0.2115449065
0.3207451482 0.5604687861 0.2081455778
0.3652238712 0.5654537824 0.2051307488
0.4140891834 0.5700177296 0.2016798645
0.4624538775 0.5732734393 0.1978724833
0.5063187867 0.5756322654 0.1945135772
0.5490797733 0.5781166114 0.1916727396
0.5941846860 0.5790808392 0.1879583567
0.6342319411 0.5839055682 0.1860513378
0.6721657564 0.5901546273 0.1841042663
0.7106290383 0.5969299583 0.1814822428
0.7418527948 0.6049481836 0.1817460172
0.7706284436 0.6096874078 0.1814149086
0.7966765740 0.6145152218 0.1819691098
0.8206529508 0.6207288231 0.1832628477
0.8433131640 0.6231802654 0.1824818009
0.8652529405 0.6249985288 0.1802197083
0.8859445082 0.6283325750 0.1773936037
0.9044249691 0.6305657844 0.1747374062
0.9211053686 0.6301752206 0.1747433895
0.9353471030 0.6314598237 0.1790123802
0.9467062972 0.6317400528 0.1864910302
0.9559136112 0.6288279470 0.1957211291
0.1618076432 0.5457779040 0.3477701868
0.1639209540 0.5478329906 0.3404387241
0.1664275597 0.5502855727 0.3316860276
0.1691689839 0.5529227544 0.3212436869
0.1726155558 0.5561779546 0.3071317539
0.1769556335 0.5596458042 0.2901964218
0.1839859710 0.5642317489 0.2704461499
0.1932968428 0.5691967937 0.2539950911
0.2104483144 0.5752704065 0.2418968067
0.2373378619 0.5797947733 0.2319746622
0.2699514761 0.5852697631 0.2270530429
0.3112918073 0.5890835637 0.2222403958
0.3535383288 0.5944917611 0.2190982347
0.4030321963 0.5999928144 0.2161834850
0.4526440193 0.6042291420 0.2128123326
0.4991167110 0.6057383594 0.2086962343
0.5407724124 0.6065188044 0.2048729364
