presets/标 柯达5207 +1.cube
TITLE "YINGZEJUN Copyright"
# YINGZEJUN Copyright
# SP3000 & GOLD200 
# 20241106
# Created by: Adobe Photoshop Export Color Lookup Plugin
LUT_3D_SIZE 5
0.0064090000 0.0343630000 0.0532230000
0.4054989385 0.0541015662 0.0420315796
0.6894881263 0.1033517323 0.0270931389
0.8500394927 0.1623178358 0.0516108916
0.9185839825 0.2129432131 0.1513380456
0.0809558917 0.3552577515 0.2235605288
0.3274406277 0.3250328687 0.1061489169
0.6859931835 0.3531341661 0.0670983818
0.8750650764 0.3726659292 0.0527654674
0.9563825336 0.3358004312 0.0877071519
0.2088893880 0.5907851732 0.4241382848
0.2955208484 0.5917149862 0.2641006093
0.6500041382 0.6200099599 0.2132930753
0.8628178026 0.6681521101 0.1771694223
0.9655737605 0.6638233916 0.1809003663
0.2988821919 0.6771304168 0.5191615360
0.3501993233 0.7110266554 0.4633184101
0.5588726199 0.7940640149 0.3786177494
0.8327320900 0.8230916222 0.3542116571
0.9737682353 0.8554491946 0.3263413411
0.3529234808 0.7181643392 0.5797204519
0.4046021796 0.7545541146 0.5750133425
0.5347698164 0.8482251174 0.5918409279
0.7428354050 0.9275053805 0.5188612230
0.9574234279 0.9554821231 0.5555190528
0.0796236073 0.0470035446 0.2928368939
0.3608952600 0.0707706031 0.2625101422
0.6363134855 0.1173998207 0.2556122865
0.8189949284 0.1757706052 0.2763185630
0.9171844413 0.2393420876 0.3271240946
0.0605741448 0.3068809157 0.4062086240
0.2942230158 0.2998683423 0.3264970443
0.6387294880 0.2984602032 0.2887116665
0.8322493036 0.3120556523 0.2881316553
0.9572989663 0.2967132528 0.2909558892
0.1923950882 0.5760967089 0.5578842030
0.2514815628 0.5708600378 0.4517153933
0.6078460273 0.5954127887 0.3833477787
0.8323549035 0.6268820887 0.3786081059
0.9815609292 0.6119306571 0.3208965811
0.2853175190 0.6700217508 0.5929810450
0.3309650217 0.7025437837 0.5604277215
0.5365602056 0.7780632590 0.5046056300
0.8109954192 0.8054968687 0.4864358649
0.9867506210 0.8603622370 0.4443880001
0.3356747787 0.7136406897 0.6261779278
0.3913315757 0.7491812145 0.6214942705
0.5166073872 0.8392483580 0.6526053804
0.7357577040 0.9346098828 0.6068601973
0.9640410503 0.9612285253 0.5916508580
0.2211279412 0.0852608868 0.4274689966
0.3807698559 0.1007080993 0.4289820404
0.6153708983 0.1323172677 0.4217186016
0.7931161408 0.1883182660 0.4370510515
0.9218694058 0.2859133554 0.4860450133
0.1068740390 0.2419784827 0.5341499836
0.3025120294 0.2553856706 0.4965247460
0.6087077504 0.2723702269 0.4709442075
0.8114608839 0.3265632487 0.4831314575
0.9573688060 0.3972329247 0.5332338103
0.1619097111 0.5605569228 0.6941513493
0.2327374387 0.5469897708 0.6476225867
0.5896489563 0.5711575246 0.5886421967
0.8090186649 0.5877147147 0.5675494373
0.9648988669 0.5901629709 0.5642559208
0.2798610198 0.6720853378 0.6970229094
0.3149339123 0.6986962388 0.6938550921
0.5016030849 0.7574189429 0.6737918068
0.7923498941 0.7891191895 0.6481452969
0.9767682799 0.8262678456 0.6434185028
0.3220816374 0.7028648571 0.6930840015
0.3648490049 0.7348368429 0.6958333643
0.4907074475 0.8226231004 0.7369831052
0.7030571957 0.9279588983 0.7573489043
0.9799232141 0.9760711950 0.7270107237
0.3085764070 0.1251767284 0.5399325901
0.4255660332 0.1429956030 0.5411443984
0.6016263070 0.1673473450 0.5556126122
0.7744169910 0.2223304851 0.5765418749
0.9014950787 0.3072740205 0.6083865517
0.1628740220 0.1749445732 0.6374738030
0.3275990932 0.2017534879 0.6255405885
0.5979475007 0.2620150423 0.6238609444
0.8044009124 0.3217900941 0.6327761977
0.9424678115 0.3962375203 0.6639012966
0.1839934423 0.5108943370 0.8003417533
0.3208679644 0.5198825308 0.7683174240
0.5891905184 0.5505551991 0.7379717917
0.8069294369 0.5792058898 0.7248580762
0.9589763560 0.6073708176 0.7376983928
0.2622912016 0.6726663008 0.7973935156
0.2963299099 0.7007157462 0.8191926026
0.4964203757 0.7461958879 0.8231174854
0.7890783152 0.7736267504 0.7922379728
0.9749878895 0.7977865049 0.7818944312
0.3248561213 0.7115686056 0.7621339419
0.3419606900 0.7246151168 0.7690322383
0.4425211998 0.7968632040 0.8078651437
0.6486615023 0.9099257205 0.8624229110
0.9872919365 0.9788075028 0.8802691001
0.3642511173 0.1722335757 0.6441367262
0.4622771611 0.1852894199 0.6404567616
0.6186563211 0.2110652308 0.6478324580
0.7712563818 0.2654260329 0.6870275647
0.8974722153 0.3697606808 0.7363615119
0.2493969321 0.2092135383 0.7524114712
0.3982477951 0.2185824515 0.7315522262
0.6305687016 0.2522619530 0.7206372643
0.8098731952 0.3153011527 0.7456590944
0.9258105254 0.4310726930 0.7819396877
0.0556287662 0.4575970274 0.9496618320
0.1656039596 0.4303376835 0.9360423818
0.6010440328 0.4277671190 0.8838844059
0.8626880952 0.4874217479 0.8698449864
0.9593499350 0.5836482630 0.8674770944
0.2464845518 0.6765849072 0.9016205130
0.2525641236 0.6896618655 0.9314682581
0.3750064722 0.7263002743 0.9739299889
0.8119917889 0.7557217821 0.9493052426
0.9704003966 0.7764323482 0.9248674917
0.3333297039 0.7366788963 0.8525705798
0.3333297039 0.7366788963 0.8525705798
0.4066732855 0.7861163920 0.8886694439
0.6105604412 0.8879709551 0.9646704720
0.9883120000 0.9647520000 0.9807740000
