presets/标 柯达5207 -S.cube
TITLE "YINGZEJUN Copyright"
# YINGZEJUN Copyright
# SP3000 & GOLD200 
# 20241106
# Created by: Adobe Photoshop Export Color Lookup Plugin
LUT_3D_SIZE 33
0.0062560000 0.0336000000 0.0549010000
0.0256809100 0.0404523991 0.0571641376
0.0514226750 0.0476025025 0.0594825228
0.0864891226 0.0535311431 0.0625767841
0.1367424776 0.0555920678 0.0638875079
0.1887507014 0.0548801338 0.0596904612
0.2432154655 0.0546922480 0.0550487031
0.2967921062 0.0559280796 0.0510712787
0.3488276831 0.0580973230 0.0473530797
0.3961887949 0.0602123184 0.0449092383
0.4431637087 0.0640186705 0.0426070075
0.4879480661 0.0683797497 0.0397627843
0.5272229528 0.0720837435 0.0370998240
0.5697866622 0.0749308860 0.0337338921
0.6098374449 0.0785271576 0.0295471111
0.6469764848 0.0829022721 0.0265064508
0.6807061350 0.0862231009 0.0244705231
0.7112445204 0.0927013436 0.0230037591
0.7373976857 0.0977034545 0.0222047496
0.7607034954 0.1031661204 0.0225735011
0.7832821321 0.1102337412 0.0248732244
0.8020376019 0.1159702223 0.0275229680
0.8189561376 0.1217475157 0.0315053750
0.8347279771 0.1293843795 0.0368347728
0.8499330030 0.1386912235 0.0412988712
0.8637083783 0.1454952624 0.0504145555
0.8757273953 0.1520059470 0.0627165184
0.8864192698 0.1597462691 0.0756338493
0.8961090333 0.1680043471 0.0855042417
0.9058902248 0.1771192140 0.1003088810
0.9139128314 0.1850118352 0.1133810599
0.9208426865 0.1926833144 0.1255146618
0.9270080700 0.2006433749 0.1397347188
0.0115396224 0.0564393270 0.0626774415
0.0232853978 0.0547859397 0.0575703025
0.0474520823 0.0591822957 0.0592324039
0.0825345342 0.0652490229 0.0615290207
0.1304874294 0.0686567971 0.0604786103
0.1767633448 0.0697888997 0.0576326619
0.2300713718 0.0712994756 0.0539980352
0.2820086893 0.0721399223 0.0505764156
0.3319330209 0.0736086138 0.0479743110
0.3807034348 0.0779632319 0.0455156181
0.4299846299 0.0812590957 0.0431500362
0.4770859337 0.0855609071 0.0402774932
0.5193225966 0.0896826739 0.0372378949
0.5634154138 0.0905307063 0.0340359543
0.6050177188 0.0943416295 0.0300980836
0.6425390676 0.0981656632 0.0267472565
0.6779099761 0.1009075832 0.0234283168
0.7066879177 0.1043068708 0.0217529749
0.7357040919 0.1097449341 0.0203483149
0.7610881108 0.1150850507 0.0195200286
0.7849880787 0.1220900984 0.0195825875
0.8041950912 0.1270518023 0.0212410584
0.8212478192 0.1308538479 0.0249803322
0.8371262789 0.1360434552 0.0302939822
0.8526156398 0.1438339498 0.0356036348
0.8665485496 0.1507536494 0.0424693821
0.8793942870 0.1579412154 0.0529970851
0.8903465006 0.1650709692 0.0656813326
0.8997908579 0.1724492423 0.0772225181
0.9097164771 0.1813794392 0.0920941476
0.9171674426 0.1886410353 0.1066171350
0.9240246537 0.1965872270 0.1192243330
0.9305377263 0.2050695038 0.1329727504
0.0159633591 0.0938244242 0.0806237400
0.0246898280 0.0803064085 0.0646566992
0.0431371042 0.0813943422 0.0625347678
0.0786531333 0.0872694788 0.0638994829
0.1239002874 0.0921237732 0.0618529131
0.1715720286 0.0959565741 0.0597940717
0.2209337094 0.0976074468 0.0573526996
0.2740258244 0.1000220282 0.0545763972
0.3223597014 0.0998217033 0.0521406071
0.3730079074 0.1023780376 0.0492778582
0.4235814542 0.1048530120 0.0462727966
0.4716710534 0.1079568618 0.0431046027
0.5150921613 0.1113783065 0.0398342186
0.5599061310 0.1124296758 0.0362789278
0.6027256680 0.1133731388 0.0318858728
0.6398266968 0.1184847771 0.0290677867
0.6740305295 0.1213210854 0.0257272408
0.7059899843 0.1224142788 0.0221745275
0.7348593125 0.1259670138 0.0201400817
0.7610598171 0.1301020892 0.0187988218
0.7848093329 0.1370054948 0.0187074298
0.8060789522 0.1418851816 0.0192928678
0.8238769159 0.1457176679 0.0207634490
0.8400609068 0.1490351704 0.0247335088
0.8557818336 0.1557676067 0.0300056792
0.8696302472 0.1614559075 0.0366323575
0.8820845183 0.1678983818 0.0442252712
0.8939368964 0.1747962202 0.0560867545
0.9035716509 0.1813649845 0.0686551938
0.9136571230 0.1894219234 0.0835694042
0.9213224259 0.1957984993 0.0978240307
0.9275253755 0.2019765927 0.1126972755
0.9339762295 0.2102094501 0.1273355368
0.0215424258 0.1425678455 0.1065811996
0.0253443877 0.1189412505 0.0786342832
0.0423983834 0.1144037394 0.0704205374
0.0736512684 0.1205884385 0.0693191840
0.1174512386 0.1249469368 0.0667868524
0.1657374494 0.1294628961 0.0646128730
0.2172532189 0.1331484933 0.0629159734
0.2690189871 0.1343596128 0.0601898760
0.3182196479 0.1343640971 0.0578098174
0.3701141529 0.1352703528 0.0544621856
0.4198509996 0.1353746289 0.0510451869
0.4698659777 0.1347939451 0.0473561004
0.5138551853 0.1377069131 0.0441224292
0.5596545720 0.1390640135 0.0407276126
0.6009876590 0.1407406313 0.0369903895
0.6403979055 0.1415424873 0.0320457127
0.6722832680 0.1462400647 0.0293873504
0.7055718915 0.1469686575 0.0253752455
0.7349042420 0.1479888174 0.0219834723
0.7626171028 0.1520066562 0.0198623036
0.7850338232 0.1559177683 0.0187670614
0.8068039286 0.1596498762 0.0182191455
0.8265597759 0.1625737587 0.0191182371
0.8434078511 0.1667528146 0.0204400022
0.8594280608 0.1718496762 0.0239532169
0.8729446052 0.1754610231 0.0296218638
0.8856811301 0.1805272945 0.0366212315
0.8975571762 0.1869679940 0.0461603671
0.9082410546 0.1925598290 0.0589566496
0.9180035667 0.1991315958 0.0731844394
0.9260984661 0.2052454422 0.0885579184
0.9324327130 0.2107973282 0.1027305520
0.9382290457 0.2170562881 0.1204321092
0.0265788185 0.1881731166 0.1256930522
0.0273967290 0.1625490316 0.0952420338
0.0410511861 0.1533680390 0.0808703100
0.0702244078 0.1551566850 0.0758439242
0.1121138590 0.1618570854 0.0733418052
0.1600778945 0.1655340211 0.0712062864
0.2110414013 0.1697499273 0.0690936918
0.2639713389 0.1722657308 0.0667348814
0.3152883011 0.1707619635 0.0639157092
0.3685513325 0.1728427366 0.0607165088
0.4175495448 0.1733601832 0.0575266244
0.4652111103 0.1724997901 0.0540971297
0.5146227371 0.1712158537 0.0507477584
0.5622075651 0.1718657276 0.0462892546
0.6026229743 0.1738832638 0.0429073094
0.6391609457 0.1748498746 0.0390816634
0.6751447608 0.1742503225 0.0339175452
0.7086832546 0.1776994678 0.0296882233
0.7370261016 0.1787531309 0.0258367816
0.7629680052 0.1801450937 0.0230477803
0.7884940681 0.1846577362 0.0209611419
0.8088874481 0.1869833933 0.0194138196
0.8287588124 0.1880284247 0.0191616252
0.8472682973 0.1907277751 0.0200860388
0.8636356291 0.1979702673 0.0222601430
0.8766646429 0.1985775475 0.0253550349
0.8894673041 0.2013144359 0.0312514522
0.9018185504 0.2060754761 0.0397630020
0.9135260877 0.2123168565 0.0517507763
0.9223226596 0.2159493751 0.0636923056
0.9304388979 0.2192707179 0.0785602730
0.9377049807 0.2238502001 0.0947492716
0.9437079196 0.2291996661 0.1102896857
0.0322268107 0.2328836517 0.1458477383
0.0308186659 0.2046693313 0.1137943023
0.0428764793 0.1911018482 0.0942838935
0.0676347249 0.1893788292 0.0860426225
0.1038371272 0.1936292197 0.0826872251
0.1499237694 0.1966625123 0.0795826253
0.2002702221 0.2019206626 0.0768520768
0.2529018363 0.2064507016 0.0736172798
0.3053730058 0.2069428255 0.0704671623
0.3586754084 0.2095993985 0.0676603067
0.4087617808 0.2082010628 0.0650882594
0.4590776048 0.2081088730 0.0623102114
0.5112500278 0.2089122807 0.0581299262
0.5596546475 0.2087150456 0.0538907737
0.6043082281 0.2086603886 0.0491635973
0.6427230171 0.2105417801 0.0449159606
0.6790193244 0.2125513334 0.0402687163
0.7088052052 0.2117703549 0.0353474643
0.7394463908 0.2132589369 0.0309706786
0.7664499645 0.2140799567 0.0269426863
0.7919802376 0.2173637604 0.0239667378
0.8132575966 0.2219755967 0.0225652605
0.8321271874 0.2243041540 0.0212046626
0.8500072516 0.2249639989 0.0212461949
0.8665738345 0.2279918197 0.0228389289
0.8815630659 0.2305578458 0.0240021241
0.8948904880 0.2304091320 0.0278062344
0.9074026777 0.2322500739 0.0343882088
0.9186927574 0.2359549500 0.0444544096
0.9276144622 0.2385273694 0.0553897751
0.9360064615 0.2404558391 0.0692667801
0.9435413765 0.2427855720 0.0843593596
0.9498600274 0.2459783104 0.0991877007
0.0396988039 0.2714432472 0.1624372827
0.0385018839 0.2454755528 0.1306565290
0.0467424301 0.2300656843 0.1094218108
0.0678796844 0.2251096605 0.0983952627
0.0994670771 0.2264287312 0.0929361928
0.1416491474 0.2276788776 0.0893859217
0.1868304962 0.2318869500 0.0864632137
0.2392263887 0.2370271880 0.0827312818
0.2929870204 0.2392747428 0.0789189672
0.3476105207 0.2442012941 0.0755408444
0.4026916330 0.2476234347 0.0724794353
0.4517312537 0.2452364392 0.0698710289
0.5043562309 0.2464833131 0.0657698656
0.5544013355 0.2472886890 0.0614636082
0.6005080417 0.2481939719 0.0562401400
0.6417103183 0.2479259306 0.0513041225
0.6785191502 0.2499893436 0.0468198686
0.7109867152 0.2495758712 0.0414653021
0.7407175698 0.2503173173 0.0362015257
0.7682700015 0.2505852594 0.0319944490
0.7934667698 0.2525139983 0.0283490067
0.8163300258 0.2588752975 0.0263637762
0.8361082703 0.2610239017 0.0259705405
0.8537537694 0.2637468482 0.0251661436
0.8705470422 0.2652135213 0.0258936459
0.8858302961 0.2632615668 0.0262738321
0.8997263469 0.2648161675 0.0276786175
0.9121142242 0.2640596331 0.0326959816
0.9234436281 0.2646606691 0.0397425596
0.9331266604 0.2664020687 0.0499175103
0.9414649014 0.2681889675 0.0620923911
0.9487773496 0.2689212288 0.0758526934
0.9549303474 0.2701784967 0.0895654092
0.0487710677 0.3062376564 0.1801497094
0.0479117075 0.2842122837 0.1499529306
0.0540966115 0.2684560769 0.1271304911
0.0694016312 0.2607901106 0.1123536889
0.0975493573 0.2602483200 0.1058045019
0.1360069205 0.2612119649 0.1009219762
0.1784949425 0.2630338143 0.0980221668
0.2259432338 0.2685333477 0.0945058170
0.2810594412 0.2710052994 0.0901156838
0.3345382905 0.2765828417 0.0856444223
0.3900824940 0.2802602348 0.0808902394
0.4454697016 0.2843578316 0.0769016152
0.4946972864 0.2832157464 0.0730381907
0.5466131427 0.2855266703 0.0689239790
0.5928432126 0.2870675585 0.0636999255
0.6363245528 0.2892323801 0.0580876778
0.6745006257 0.2893811334 0.0531174160
0.7082485720 0.2885670079 0.0483390562
0.7394504323 0.2884371365 0.0428553662
0.7683429908 0.2900269898 0.0374347191
0.7922296880 0.2903526494 0.0346294150
0.8158853666 0.2958077066 0.0320393809
0.8368296719 0.2989153051 0.0313455894
0.8556328789 0.3006073758 0.0315533287
0.8729532491 0.3033256355 0.0308887213
0.8887804476 0.3000162918 0.0303095230
0.9032834842 0.2986332423 0.0311187976
0.9163690554 0.2996544465 0.0343013566
0.9272678368 0.2979710364 0.0387101039
0.9380079711 0.2986239105 0.0468638857
0.9465418116 0.2998347546 0.0576624283
0.9540772370 0.2988297650 0.0703690018
0.9598994418 0.2990725125 0.0827081004
0.0583600874 0.3398507433 0.2002262021
0.0568639871 0.3211145298 0.1722807386
0.0613037433 0.3066491091 0.1489195372
0.0737584137 0.2970824820 0.1313621790
0.0964708894 0.2938930541 0.1202288224
0.1306849734 0.2955897722 0.1139398604
0.1710517292 0.2964079544 0.1107489770
0.2170605937 0.2985708593 0.1071052343
0.2708789554 0.3045715701 0.1012661617
0.3224125954 0.3096069072 0.0974823235
0.3768784278 0.3124244328 0.0918938911
0.4328114175 0.3153365895 0.0859506771
0.4880988447 0.3206002766 0.0804977150
0.5401151090 0.3242172978 0.0756347072
0.5855485066 0.3268912506 0.0715121413
0.6270283186 0.3292637130 0.0667636126
0.6672641707 0.3319621099 0.0609147436
0.7026998215 0.3324096842 0.0561266458
0.7342240447 0.3323264578 0.0524344370
0.7631181651 0.3324346896 0.0484869015
0.7899108614 0.3335134937 0.0438187670
0.8122717627 0.3351317757 0.0404113227
0.8331634700 0.3360545830 0.0401197487
0.8527351139 0.3374494230 0.0396429652
0.8710013026 0.3397605620 0.0389394784
0.8879170195 0.3380518146 0.0375089397
0.9036032681 0.3372753112 0.0371995244
0.9178976088 0.3367352653 0.0387430201
0.9304716111 0.3364318696 0.0411320710
0.9415739084 0.3361242774 0.0468911521
0.9503705269 0.3364864603 0.0554322839
0.9577665055 0.3350188990 0.0666093541
0.9646281326 0.3291385008 0.0799438536
0.0695508982 0.3727959572 0.2193264131
0.0679930384 0.3601820266 0.1970896986
0.0700360067 0.3460696707 0.1720460819
0.0798332548 0.3356098232 0.1521801664
0.0998200997 0.3297738726 0.1367711405
0.1288378059 0.3293839459 0.1281248101
0.1686146213 0.3320391040 0.1229079140
0.2126068529 0.3344292763 0.1192339442
0.2617928116 0.3388993998 0.1142967274
0.3125944777 0.3405523046 0.1085846577
0.3654352845 0.3453121840 0.1032605071
0.4205598579 0.3498189014 0.0971400904
0.4755241120 0.3559072138 0.0911314808
0.5283275925 0.3610636759 0.0864782368
0.5783191708 0.3662742133 0.0805716286
0.6222609842 0.3702800247 0.0754185630
0.6631140295 0.3737392588 0.0709178765
0.6996122004 0.3770354779 0.0654103209
0.7295609868 0.3779704024 0.0627330030
0.7579596425 0.3767361527 0.0592502121
0.7849324298 0.3746427609 0.0544508770
0.8094342843 0.3754561875 0.0509174144
0.8303318588 0.3759898109 0.0504143260
0.8502945878 0.3766787614 0.0498723448
0.8690604254 0.3785354038 0.0481685858
0.8870316869 0.3763955740 0.0466873902
0.9032158773 0.3765451394 0.0457658456
0.9179004933 0.3763779812 0.0463130073
0.9308958061 0.3748848682 0.0471584038
0.9426005270 0.3739614262 0.0506182778
0.9525077544 0.3707752779 0.0582214143
0.9608551405 0.3696265411 0.0688473446
0.9682392736 0.3674566748 0.0808243766
0.0818606765 0.4096285814 0.2440385705
0.0810819453 0.3998740995 0.2238617007
0.0810235279 0.3878577169 0.1988172719
0.0880234990 0.3775543952 0.1770267894
0.1047226107 0.3702389317 0.1579734616
0.1318991869 0.3678660942 0.1443760802
0.1663988792 0.3662031589 0.1366656293
0.2103844988 0.3689812774 0.1315749455
0.2578490532 0.3731050041 0.1269554543
0.3045080277 0.3758943743 0.1217771984
0.3562598560 0.3793142744 0.1159017577
0.4095229749 0.3845152151 0.1098671962
0.4644193172 0.3909318776 0.1038544383
0.5180316769 0.3977491806 0.0980164885
0.5686045661 0.4015319119 0.0933335394
0.6155121179 0.4079814129 0.0871366667
0.6572553990 0.4128966759 0.0823621301
0.6949598355 0.4175198912 0.0768892101
0.7277272289 0.4203216903 0.0734194873
0.7553039158 0.4219337221 0.0709569077
0.7818620475 0.4201162915 0.0668429989
0.8046316929 0.4210393936 0.0642687406
0.8262881798 0.4189687155 0.0612047982
0.8462260264 0.4193462838 0.0606426065
0.8650485416 0.4206452277 0.0590705661
0.8836271726 0.4200565143 0.0579408211
0.9006130237 0.4168808965 0.0560228756
0.9162878854 0.4178935702 0.0558542520
0.9301718357 0.4164422818 0.0560288616
0.9427106681 0.4123849628 0.0581264755
0.9524417875 0.4118584484 0.0648327472
0.9615298332 0.4081406239 0.0739548347
0.9693982652 0.4074208906 0.0858854886
0.0952886841 0.4459757969 0.2722782881
0.0946060286 0.4389849475 0.2522287607
0.0946762672 0.4297214106 0.2295354691
0.0984656204 0.4198044822 0.2031883563
0.1112998168 0.4122447560 0.1818069373
0.1344480663 0.4082239781 0.1646805025
0.1671604436 0.4065868819 0.1536515745
0.2078312050 0.4054418206 0.1465311779
0.2557405240 0.4088945783 0.1410183862
0.3012154588 0.4127513278 0.1360478801
0.3507305833 0.4167316049 0.1307362881
0.4031738683 0.4201467900 0.1246322309
0.4568269169 0.4261112305 0.1183838178
0.5107381129 0.4333131517 0.1123415935
0.5620585757 0.4395983715 0.1065356275
0.6094243855 0.4442762321 0.1012226524
0.6526859310 0.4515205226 0.0953098805
0.6913323688 0.4577555420 0.0897468374
0.7239809114 0.4619701857 0.0866774968
0.7536810428 0.4635770146 0.0838613963
0.7802215661 0.4658893268 0.0808254975
0.8029530698 0.4677410146 0.0788098885
0.8234317151 0.4673196695 0.0763532828
0.8434171818 0.4638810912 0.0732493585
0.8621967723 0.4652292282 0.0717987221
0.8803447840 0.4657324108 0.0713019839
0.8977084898 0.4633782244 0.0693705205
0.9133814930 0.4608344398 0.0677759724
0.9285453920 0.4605383299 0.0668397947
0.9417439042 0.4546089663 0.0677304133
0.9523345923 0.4521842508 0.0739388424
0.9611812450 0.4514998430 0.0832477491
0.9694795340 0.4507833793 0.0947469649
0.1083460797 0.4790659228 0.2989208527
0.1079485640 0.4740455254 0.2777073225
0.1083233595 0.4669261574 0.2550367440
0.1106508012 0.4589668700 0.2301838581
0.1198935806 0.4515136485 0.2043160942
0.1383700966 0.4468147412 0.1863256663
0.1666115059 0.4451916335 0.1735627518
0.2054515025 0.4458354511 0.1649931304
0.2532066555 0.4484307425 0.1581532606
0.2993510574 0.4521060171 0.1527919330
0.3499249232 0.4563071545 0.1472433684
0.4019243075 0.4590646130 0.1409643514
0.4545815195 0.4602529162 0.1336028601
0.5076401908 0.4668290631 0.1274332166
0.5593539471 0.4745586072 0.1216042595
0.6075362377 0.4830800917 0.1160674775
0.6516868576 0.4917078139 0.1105241356
0.6910548846 0.4998456435 0.1054626590
0.7230379550 0.5057147482 0.1028121232
0.7512199097 0.5084103601 0.1002015341
0.7781295579 0.5073878667 0.0955613726
0.8025791343 0.5103897180 0.0935201825
0.8240731137 0.5127479340 0.0921788807
0.8437583686 0.5129859300 0.0901275502
0.8625173924 0.5096910086 0.0868262132
0.8802890665 0.5112488723 0.0851222538
0.8972210388 0.5092003600 0.0831176722
0.9127718712 0.5062157220 0.0807016541
0.9263397724 0.5059762045 0.0794762535
0.9398105692 0.4999449435 0.0798652253
0.9512766638 0.4973977675 0.0858644913
0.9610695291 0.4968121095 0.0960092014
0.9691924598 0.4956048194 0.1078952624
0.1228593036 0.5139410019 0.3257185337
0.1226330396 0.5107915903 0.3112299347
0.1231595600 0.5063284672 0.2888403760
0.1245091604 0.5003017105 0.2647899608
0.1307494510 0.4951027605 0.2387404580
0.1446719540 0.4898993330 0.2159984615
0.1687474934 0.4871870415 0.1986404222
0.2047150372 0.4870542612 0.1866741083
0.2510630700 0.4886869942 0.1781329664
0.2979456434 0.4882758505 0.1685301341
0.3495068953 0.4927463574 0.1627871046
0.4022455619 0.4968859468 0.1567293521
0.4543333810 0.4997332146 0.1498585990
0.5066260919 0.5052222680 0.1435325715
0.5542444716 0.5113567937 0.1378509206
0.6013233172 0.5194123191 0.1328128640
0.6465651320 0.5286156415 0.1278524001
0.6872478592 0.5383279094 0.1237205448
0.7228815251 0.5442590933 0.1181041539
0.7517227895 0.5483701465 0.1155580725
0.7770716392 0.5510708278 0.1136583218
0.8020413716 0.5555163997 0.1113159262
0.8237630842 0.5560337858 0.1086747721
0.8437347807 0.5573458693 0.1068737998
0.8627293571 0.5584786405 0.1049186255
0.8803956031 0.5557732972 0.1017574672
0.8975563066 0.5574318547 0.0999387988
0.9135867997 0.5547363553 0.0971410984
0.9278591739 0.5511195528 0.0942019993
0.9396839507 0.5498939798 0.0959224213
0.9509348604 0.5438087130 0.0999058174
0.9606914472 0.5408636575 0.1090332238
0.9688576273 0.5393923350 0.1207037973
0.1367437766 0.5459260861 0.3533263530
0.1359924856 0.5415441557 0.3372400932
0.1370768459 0.5396260920 0.3182424023
0.1384360051 0.5353693420 0.2945042870
0.1433671064 0.5320086096 0.2693235602
0.1542145187 0.5286389339 0.2440406130
0.1732707346 0.5260147640 0.2246150600
0.2055749338 0.5253352409 0.2090302116
0.2500962017 0.5264731617 0.1981612176
0.2965645044 0.5282948035 0.1889791130
0.3486514476 0.5313629943 0.1816145974
0.4005128641 0.5356871602 0.1755459983
0.4515172744 0.5394058136 0.1687296739
0.5030976726 0.5432857996 0.1614926337
0.5534166471 0.5459786226 0.1538191888
0.5984173109 0.5522991452 0.1488145864
0.6437263688 0.5608992867 0.1444427475
0.6826971478 0.5701459806 0.1407787586
0.7198208283 0.5798304438 0.1374251823
0.7520588214 0.5843116908 0.1319361372
0.7779481299 0.5886476138 0.1302124159
0.8017936328 0.5940930795 0.1277558977
0.8239032425 0.5962906030 0.1248121185
0.8441486821 0.5976679099 0.1223522321
0.8634823537 0.6012430340 0.1208584104
0.8816010065 0.6000911399 0.1176832028
0.8990155325 0.6011360028 0.1151035741
0.9153969008 0.6010130703 0.1121244327
0.9297452268 0.5960262207 0.1088479201
0.9418063032 0.5917097245 0.1090715703
0.9518555999 0.5902164664 0.1137757314
0.9612590958 0.5852091343 0.1224758457
0.9691357220 0.5834812380 0.1350855924
0.1490471183 0.5733862881 0.3780116646
0.1489419913 0.5706252864 0.3632688606
0.1500069589 0.5689416541 0.3457557839
0.1518626793 0.5670932355 0.3233981820
0.1559749488 0.5652116412 0.2986737468
0.1652101368 0.5638488911 0.2727369948
0.1809434929 0.5627970983 0.2503379038
0.2065038088 0.5623790681 0.2331154134
0.2482224784 0.5629594187 0.2191929198
0.2951634973 0.5642391351 0.2092449139
0.3454561060 0.5682284116 0.2023981107
0.3997101354 0.5726659045 0.1961555574
0.4475155292 0.5759519933 0.1893401490
0.4994151494 0.5793850621 0.1815261420
0.5478498831 0.5818851680 0.1735863517
0.5955923380 0.5843834687 0.1661396771
0.6403153180 0.5913025002 0.1614568858
0.6792669490 0.5985105568 0.1577184906
0.7149308153 0.6078516798 0.1551350957
0.7488706546 0.6172333316 0.1514495873
0.7782813769 0.6217852268 0.1464643159
0.8018600636 0.6268270355 0.1431418873
0.8236153194 0.6300632095 0.1400229982
0.8439375598 0.6327536896 0.1373275237
0.8636927221 0.6374281546 0.1360285689
0.8823250986 0.6377344656 0.1328134777
0.9002734927 0.6398448579 0.1295087696
0.9173026440 0.6413840998 0.1261452030
0.9319339457 0.6382907723 0.1222183115
0.9444761296 0.6335265276 0.1219808789
0.9548472260 0.6308173778 0.1269282308
0.9632616523 0.6273304792 0.1355588932
0.9708239945 0.6248551133 0.1489380669
0.1601565420 0.5959283859 0.3969646566
0.1614421142 0.5961883713 0.3854873414
0.1630707946 0.5963014332 0.3712967633
0.1653103070 0.5961472134 0.3532327980
0.1690607925 0.5960439763 0.3301032116
0.1763483256 0.5966191713 0.3042218648
0.1886628154 0.5975694074 0.2799754949
0.2101866747 0.5984730481 0.2594675297
0.2442515666 0.5996175583 0.2435969964
0.2918278292 0.5981589932 0.2304124288
0.3416257934 0.6005347427 0.2228955197
0.3922137556 0.6041599025 0.2169131896
0.4456228555 0.6079097467 0.2096429803
0.4975211849 0.6110479918 0.2014986172
0.5443715496 0.6139441062 0.1939567648
0.5889199581 0.6174062905 0.1871560621
0.6332406832 0.6218323330 0.1813830291
0.6746605352 0.6259599586 0.1757178183
0.7105650118 0.6334407963 0.1728746255
0.7432577506 0.6426619552 0.1702558726
0.7747104218 0.6514668390 0.1648698746
0.7995789983 0.6551929394 0.1602263014
0.8219627640 0.6580782416 0.1559064264
0.8427024768 0.6616475033 0.1529494520
0.8624968924 0.6669331607 0.1513041868
0.8815253068 0.6688067880 0.1476191039
0.9001227290 0.6722018267 0.1442962864
0.9177708141 0.6748059386 0.1396336585
0.9335874495 0.6740379620 0.1346860852
0.9469331126 0.6714281169 0.1335115836
0.9577888768 0.6699931108 0.1381879191
0.9664061120 0.6675100631 0.1480476733
0.9732265900 0.6610852928 0.1610598238
0.1706613986 0.6149108241 0.4181328501
0.1722327292 0.6158755250 0.4083224655
0.1740036676 0.6166744616 0.3954903640
0.1765317959 0.6177593512 0.3798918147
0.1803846964 0.6188764444 0.3587252830
0.1868919685 0.6208815343 0.3339224874
0.1969293796 0.6234027200 0.3094727900
0.2144374657 0.6260771144 0.2865709790
0.2445557409 0.6288912075 0.2680554785
0.2843868151 0.6315152712 0.2535365025
0.3361592833 0.6316106027 0.2424407267
0.3868985631 0.6339750472 0.2353749359
0.4369476928 0.6370522967 0.2288804438
0.4890004573 0.6399859293 0.2208573932
0.5392919011 0.6427416211 0.2125686958
0.5838602622 0.6456005795 0.2053454680
0.6255963778 0.6489042802 0.1993468044
0.6669821879 0.6507913412 0.1925686680
0.7026279882 0.6567136297 0.1890990954
0.7360834308 0.6643005794 0.1861341114
0.7691833445 0.6717826521 0.1807772828
0.7952728393 0.6786813584 0.1774516328
0.8190193443 0.6822415852 0.1724871903
0.8404538432 0.6863004331 0.1690327599
0.8602901375 0.6918990458 0.1674798497
0.8795702216 0.6946523637 0.1638211136
0.8983887084 0.6967653781 0.1587765068
0.9162525735 0.7000910847 0.1527653418
0.9328323974 0.7031184335 0.1465988660
0.9474666075 0.7026465740 0.1435893448
0.9595872051 0.7030153217 0.1474151552
0.9688929802 0.7016678316 0.1575783567
0.9757685276 0.6967681505 0.1720890503
0.1809587563 0.6308937820 0.4330629218
0.1827886769 0.6321668576 0.4240489900
0.1851613218 0.6337080666 0.4131248096
0.1880745718 0.6354543955 0.4002377413
0.1921529838 0.6376567380 0.3828706081
0.1978886818 0.6406626761 0.3620270404
0.2073540322 0.6447909067 0.3366642481
0.2201235625 0.6490674619 0.3136998177
0.2443201313 0.6539469075 0.2937603246
0.2814352948 0.6561136713 0.2748929980
0.3251811214 0.6595610268 0.2643321989
0.3768973129 0.6608712194 0.2549599974
0.4255245894 0.6636898449 0.2480822786
0.4781367455 0.6663031700 0.2403594183
0.5286443291 0.6687416230 0.2322497222
0.5751045718 0.6704267688 0.2242714523
0.6158873948 0.6721122792 0.2175266488
