presets/标 柯达5207 -2.cube
TITLE "YINGZEJUN Copyright"
# YINGZEJUN Copyright
# SP3000 & GOLD200 
# 20241106
# Created by: Adobe Photoshop Export Color Lookup Plugin
LUT_3D_SIZE 5
0.0747070000 0.1336980000 0.1503910000
0.2751789052 0.1429280096 0.1478809142
0.5828073460 0.1688476549 0.1429230145
0.7969088470 0.2307216161 0.1785769684
0.8897624482 0.3023991879 0.2490121044
0.1144359197 0.3324290981 0.2286181712
0.2210650213 0.2906960579 0.1757553776
0.5556225251 0.3192375868 0.1640469224
0.8044093891 0.3427402504 0.1753822366
0.9234410700 0.3868536920 0.2293507165
0.1797861408 0.5581109321 0.3704641604
0.2294594556 0.5567338640 0.2739859235
0.5335853779 0.5654373265 0.2326405135
0.8067602509 0.6001263017 0.2262966867
0.9382693184 0.6136321952 0.2763777383
0.2235245926 0.6513967289 0.4673464355
0.2626372700 0.6942481534 0.4276514207
0.4469536673 0.7765847445 0.3731019173
0.7873881443 0.7955188284 0.3421292781
0.9553350329 0.8296951204 0.3556157702
0.2600207061 0.7022259721 0.5437683019
0.3048107027 0.7410441207 0.5430739271
0.4161980728 0.8367378227 0.5642799051
0.6656843092 0.9143407001 0.4889480662
0.9332880557 0.9441178929 0.5213809268
0.0995124715 0.1325635103 0.3111920326
0.2668875407 0.1513998836 0.2851071098
0.5470917426 0.1711105351 0.2672234194
0.7781365260 0.2230384508 0.2923170396
0.8877689265 0.2825385405 0.3488498612
0.0985811810 0.2958730394 0.3568818743
0.2131896145 0.2856716247 0.3056289727
0.5490019317 0.2965592402 0.2881777859
0.7898651909 0.3183732459 0.2969151271
0.9344705091 0.3470197274 0.3377547390
0.1676767407 0.5472556688 0.5001470717
0.2035645789 0.5407401331 0.4020100497
0.5122913764 0.5524327010 0.3509036258
0.7933560117 0.5797810596 0.3490510533
0.9609597060 0.5822102816 0.3636764764
0.2203335188 0.6457703832 0.5473104922
0.2466943488 0.6833717473 0.5190339675
0.4392988094 0.7662499254 0.4773604629
0.7722867934 0.7849932977 0.4544325391
0.9735472934 0.8397887403 0.4553203356
0.2531483893 0.6989528296 0.5908143822
0.2941473364 0.7384788641 0.5953417279
0.4116782828 0.8353476131 0.6378187507
0.6594138876 0.9248432681 0.5764874832
0.9430281282 0.9534666595 0.5621735727
0.1732171175 0.1480753348 0.4735622463
0.2945428477 0.1647150106 0.4558374471
0.5450874137 0.1822884114 0.4415225054
0.7523018199 0.2158353625 0.4436750110
0.8901457748 0.2924635651 0.4835990309
0.1128917868 0.2449059856 0.5169568515
0.2239986502 0.2576939023 0.4893144105
0.5267296300 0.2741455003 0.4677373654
0.7683136044 0.3146158255 0.4710262085
0.9278787557 0.3711002688 0.5155990044
0.1559779249 0.5342586164 0.6410603171
0.1917293100 0.5237322347 0.6021832419
0.5043038853 0.5412525792 0.5570715082
0.7696062977 0.5424611058 0.5297876331
0.9393355677 0.5314321056 0.5290899168
0.2193923018 0.6572209697 0.6594318706
0.2435243924 0.6850126430 0.6605647205
0.4142312446 0.7542942905 0.6542971332
0.7588190511 0.7770113849 0.6234330465
0.9596795840 0.8038424554 0.6196329186
0.2498209039 0.6914485969 0.6619412057
0.2797861153 0.7244997244 0.6674302677
0.3956532545 0.8252287575 0.7261129863
0.6353487233 0.9226471417 0.7354117010
0.9658563119 0.9763689906 0.6993760489
0.2322493908 0.1649926582 0.5762468248
0.3358462680 0.1796629741 0.5692921498
0.5301525540 0.2061348645 0.5660072623
0.7320303881 0.2468736801 0.5820109646
0.8693005449 0.3100954501 0.6010575578
0.1388895464 0.1927572590 0.6434510250
0.2479144738 0.2181948099 0.6334352245
0.5168199223 0.2684682710 0.6183551571
0.7573940504 0.3119392348 0.6161216388
0.9121277325 0.3737868756 0.6449346630
0.1629625565 0.4938076513 0.7577652599
0.2502825868 0.4992475892 0.7345045107
0.5113879362 0.5202680390 0.7005115658
0.7657450138 0.5339490875 0.6782948235
0.9340581363 0.5541176789 0.6959042986
0.2153912976 0.6572073465 0.7566651323
0.2386579814 0.6914733954 0.7842326217
0.4213394044 0.7483745874 0.8011195470
0.7607330384 0.7638115008 0.7663695888
0.9588836434 0.7750983067 0.7534358068
0.2475667729 0.6993951435 0.7244694290
0.2611333601 0.7138970444 0.7335501059
0.3493155461 0.7958073290 0.7884554489
0.5793353411 0.9096742785 0.8474510625
0.9796820312 0.9846146468 0.8582832980
0.2751513681 0.1946875235 0.6582960627
0.3651393772 0.2061582467 0.6584688235
0.5340564266 0.2296008899 0.6483434392
0.7086398103 0.2661226145 0.6670970899
0.8494885475 0.3538559012 0.7044732400
0.1867611293 0.2113100369 0.7423119182
0.2996053322 0.2239478853 0.7240014990
0.5305003502 0.2521322890 0.7046544579
0.7395618689 0.2997050400 0.7075497218
0.8745220231 0.3942527518 0.7383301498
0.1037825133 0.4645830480 0.9026696786
0.1603833998 0.4310059157 0.8952092635
0.4931821926 0.3908300652 0.8367869971
0.8008879096 0.4480935683 0.8164552679
0.9187523747 0.5330026838 0.8099806000
0.1950155308 0.6618111596 0.8620475679
0.1957288092 0.6742434629 0.8933552875
0.2971050591 0.7149344132 0.9483019287
0.7614977926 0.7265149171 0.9105892391
0.9395941302 0.7348331894 0.8753289352
0.2704186696 0.7303959818 0.8166531180
0.2704186696 0.7303959818 0.8166531180
0.3334291038 0.7880608600 0.8632795957
0.5444658021 0.8845384474 0.9474606664
0.9688420000 0.9638060000 0.9782710000
