presets/标 柯达5207 +1.cube
TITLE "YINGZEJUN Copyright"
# YINGZEJUN Copyright
# SP3000 & GOLD200 
# 20241106
# Created by: Adobe Photoshop Export Color Lookup Plugin
LUT_3D_SIZE 33
0.0064090000 0.0343630000 0.0532230000
0.0353001320 0.0404606735 0.0546425486
0.0698664134 0.0469338604 0.0583781283
0.1144895513 0.0514684866 0.0625277799
0.1772564790 0.0528308759 0.0620921288
0.2379710626 0.0514241995 0.0572062528
0.2986684394 0.0511109592 0.0521874485
0.3550862697 0.0517558190 0.0473177412
0.4054989385 0.0541015662 0.0420315796
0.4487850885 0.0573797588 0.0398161054
0.4902024632 0.0628701955 0.0369534988
0.5281312645 0.0693423795 0.0334724014
0.5610267213 0.0756284921 0.0309051443
0.5965947932 0.0813428367 0.0283911601
0.6296124248 0.0883616441 0.0266126178
0.6604077272 0.0968029654 0.0261704744
0.6894881263 0.1033517323 0.0270931389
0.7166729672 0.1119144777 0.0282127266
0.7410297601 0.1186067903 0.0294556140
0.7634330093 0.1257144909 0.0318807899
0.7856465063 0.1342286891 0.0349343122
0.8038394463 0.1402985792 0.0384368921
0.8206819962 0.1465072874 0.0431978494
0.8358935348 0.1539092039 0.0482554768
0.8500394927 0.1623178358 0.0516108916
0.8624031499 0.1688273862 0.0613870527
0.8731369331 0.1749912652 0.0750116666
0.8825090879 0.1810692814 0.0886887222
0.8910369970 0.1875196416 0.0981688935
0.8995701236 0.1941731832 0.1126393538
0.9065885559 0.2004741265 0.1246624825
0.9128804028 0.2066682696 0.1365763536
0.9185839825 0.2129432131 0.1513380456
0.0140147808 0.0633749036 0.0620498190
0.0314463797 0.0607898501 0.0565576866
0.0647045356 0.0652021370 0.0590440385
0.1114885938 0.0705682630 0.0600409323
0.1713300632 0.0735475435 0.0564883745
0.2246247737 0.0734841019 0.0527371995
0.2831965466 0.0743287592 0.0478389874
0.3382776853 0.0749949674 0.0441912745
0.3874656963 0.0759547643 0.0413287217
0.4335962202 0.0810488151 0.0377326002
0.4778115242 0.0849040348 0.0355414647
0.5189170385 0.0906694699 0.0328415388
0.5546439661 0.0963781498 0.0304655680
0.5917532865 0.0991229648 0.0284289435
0.6262065623 0.1060780436 0.0265101571
0.6575641846 0.1130336958 0.0249470760
0.6875387898 0.1179140464 0.0244234982
0.7129738396 0.1232188611 0.0246126986
0.7396474252 0.1302170912 0.0248196969
0.7637981294 0.1364698863 0.0250143984
0.7866629591 0.1438448973 0.0246461157
0.8054546871 0.1494540790 0.0270588131
0.8226271047 0.1541854434 0.0321813800
0.8381542078 0.1597171995 0.0385587574
0.8525221397 0.1665661416 0.0441990127
0.8650577050 0.1731825849 0.0513399722
0.8765493692 0.1798717747 0.0629453811
0.8863090595 0.1856567735 0.0765012604
0.8946632683 0.1911195861 0.0881160450
0.9033013671 0.1977952264 0.1028950233
0.9098189008 0.2035536337 0.1168469104
0.9160061035 0.2094450456 0.1294209889
0.9220149124 0.2157415887 0.1436233329
0.0201443160 0.1056327702 0.0823307809
0.0330421475 0.0908564706 0.0650500942
0.0603357096 0.0925624760 0.0626254544
0.1089221598 0.0995285880 0.0611589464
0.1657007157 0.1049255903 0.0573599062
0.2201786196 0.1068956027 0.0534516205
0.2744857528 0.1075602392 0.0500174244
0.3302936385 0.1090746723 0.0467206934
0.3782863606 0.1079972208 0.0440302900
0.4265388667 0.1103414129 0.0403056940
0.4722981735 0.1127661917 0.0373828362
0.5141016584 0.1161749106 0.0349615105
0.5514778769 0.1209534872 0.0323635108
0.5890764708 0.1233058360 0.0300621514
0.6249147686 0.1266854578 0.0274645864
0.6556674449 0.1338791958 0.0261948940
0.6849229403 0.1388089433 0.0247220092
0.7128150971 0.1411522617 0.0231763107
0.7391052383 0.1460644265 0.0223794785
0.7638262878 0.1508308926 0.0217296669
0.7861539347 0.1579907373 0.0214570007
0.8068319709 0.1631697402 0.0222714952
0.8243485007 0.1671674078 0.0237964159
0.8402944397 0.1711022212 0.0288362105
0.8548760024 0.1769889722 0.0346223645
0.8675341866 0.1822515744 0.0417819809
0.8788858449 0.1877550525 0.0513680464
0.8894248268 0.1934038604 0.0639186223
0.8979792073 0.1981620707 0.0767206089
0.9070008835 0.2040817250 0.0915421682
0.9139470920 0.2090895122 0.1062982597
0.9194832050 0.2136166356 0.1217254772
0.9254051473 0.2196671055 0.1369637744
0.0269277389 0.1571611289 0.1126691679
0.0332737448 0.1332380825 0.0795611467
0.0596929169 0.1293178605 0.0692495071
0.1037378907 0.1366808434 0.0660837865
0.1593927355 0.1418251331 0.0620473722
0.2150445862 0.1457854029 0.0586968683
0.2708113686 0.1481214997 0.0558375494
0.3252125748 0.1478481446 0.0524408669
0.3745741081 0.1468888376 0.0494212414
0.4246777254 0.1470558688 0.0452748222
0.4700767756 0.1466164893 0.0418420780
0.5134588827 0.1456825967 0.0390384389
0.5510741277 0.1492039747 0.0362513390
0.5896926866 0.1520221961 0.0335535836
0.6242554556 0.1553427359 0.0318164623
0.6569148561 0.1575677213 0.0279766690
0.6843208196 0.1636927233 0.0269917303
0.7130456224 0.1654944814 0.0239053170
0.7394535583 0.1673376671 0.0220107028
0.7648892962 0.1719181746 0.0197527085
0.7861084951 0.1761010175 0.0190610641
0.8071386687 0.1799430158 0.0186498117
0.8262003154 0.1827807739 0.0190228159
0.8424408950 0.1866549318 0.0199595063
0.8573568737 0.1911170417 0.0232296633
0.8699986875 0.1942570683 0.0298921931
0.8818246402 0.1983766787 0.0395245868
0.8925925081 0.2032057122 0.0507310078
0.9020784336 0.2070630863 0.0638287805
0.9110945173 0.2117276641 0.0781808380
0.9185130697 0.2164491608 0.0948519434
0.9242647285 0.2203490588 0.1099488359
0.9295000716 0.2246787943 0.1286442957
0.0341582875 0.2042018771 0.1351631213
0.0369388659 0.1793371713 0.0964213891
0.0588141571 0.1710919498 0.0795142150
0.0992699820 0.1738544188 0.0735212742
0.1532214246 0.1810712563 0.0698425106
0.2088075851 0.1844973180 0.0668307180
0.2649742048 0.1874639908 0.0637345322
0.3198186275 0.1883261341 0.0603907913
0.3714821397 0.1855496832 0.0568674790
0.4232683494 0.1868934414 0.0525782575
0.4687096509 0.1867242895 0.0487821453
0.5107509615 0.1853227817 0.0457321036
0.5529416046 0.1840272435 0.0438557433
0.5938096076 0.1858976848 0.0383094925
0.6273559432 0.1894159197 0.0361629025
0.6577257043 0.1917136568 0.0339231492
0.6884142650 0.1922917237 0.0300095492
0.7176881996 0.1967030755 0.0262587639
0.7429918330 0.1983901052 0.0236712344
0.7666781297 0.2003598624 0.0214161827
0.7903671613 0.2051414508 0.0195598497
0.8098511274 0.2072942702 0.0184248427
0.8287265989 0.2080469095 0.0178229981
0.8462666484 0.2101766630 0.0181516324
0.8614115871 0.2158824091 0.0189716320
0.8733869068 0.2154418543 0.0233705912
0.8851432072 0.2169255342 0.0301183244
0.8964984618 0.2200649901 0.0404931733
0.9071789438 0.2243753065 0.0530830551
0.9150549687 0.2263702077 0.0655112946
0.9225339052 0.2282017618 0.0822147422
0.9291578193 0.2307854067 0.1001607617
0.9345659976 0.2339647897 0.1165839816
0.0442529771 0.2496221433 0.1587466513
0.0431622283 0.2225104090 0.1177812480
0.0606638721 0.2097152080 0.0951035550
0.0945997997 0.2086531596 0.0863581278
0.1412821694 0.2134597926 0.0822097327
0.1967835622 0.2168729260 0.0774613503
0.2533595366 0.2216487334 0.0734957528
0.3095288525 0.2245605078 0.0696303082
0.3627144470 0.2236832119 0.0657610032
0.4146010271 0.2253884625 0.0623074434
0.4610236642 0.2233977116 0.0589265952
0.5058639004 0.2224758671 0.0553068435
0.5512379665 0.2231773448 0.0514029891
0.5927082310 0.2239742126 0.0476021378
0.6302736200 0.2251508224 0.0432518416
0.6628404005 0.2282204225 0.0401785603
0.6942807141 0.2315374909 0.0361479269
0.7202139511 0.2316094733 0.0316652014
0.7475608151 0.2339504660 0.0283166322
0.7722177090 0.2355886439 0.0250652565
0.7960347093 0.2393658126 0.0227073763
0.8156499281 0.2441395748 0.0215386765
0.8335324800 0.2457923620 0.0201976100
0.8501223124 0.2457480578 0.0195611855
0.8650399285 0.2464301430 0.0196410758
0.8787199357 0.2469661376 0.0207689206
0.8906635182 0.2448384455 0.0251379948
0.9017578845 0.2445232318 0.0321850068
0.9121942007 0.2462987930 0.0433411789
0.9201789166 0.2472305178 0.0549947106
0.9277850460 0.2469267112 0.0705293667
0.9345281667 0.2468376068 0.0875246812
0.9401554976 0.2477784723 0.1033462288
0.0557578885 0.2883405771 0.1787458154
0.0543495456 0.2636885754 0.1386228181
0.0652613596 0.2491086834 0.1134154752
0.0931962029 0.2442271795 0.1009995333
0.1337041033 0.2465618488 0.0956965621
0.1850466087 0.2485915382 0.0905949337
0.2377851872 0.2530388641 0.0861352273
0.2954617690 0.2573374825 0.0816394123
0.3516703148 0.2579139202 0.0774361282
0.4054367484 0.2617374226 0.0732761955
0.4569439528 0.2644527641 0.0698137948
0.5003312321 0.2615957568 0.0669408433
0.5460060334 0.2624792631 0.0616320559
0.5887248093 0.2637632841 0.0580705120
0.6281706314 0.2655783263 0.0526706035
0.6634969648 0.2665572591 0.0486829866
0.6956473229 0.2698042987 0.0447892580
0.7242045916 0.2704751109 0.0404417285
0.7512352119 0.2725452442 0.0362094428
0.7763954639 0.2740176371 0.0328993879
0.7998429117 0.2769981415 0.0298595029
0.8215054305 0.2841865253 0.0290112558
0.8393826149 0.2862666761 0.0279238061
0.8559490658 0.2879407650 0.0264477253
0.8707935659 0.2869812672 0.0255101760
0.8842233370 0.2816446959 0.0248071049
0.8967126248 0.2808238976 0.0263638294
0.9076654372 0.2777037414 0.0316596724
0.9171807622 0.2756579059 0.0389215202
0.9261873329 0.2756750907 0.0501309651
0.9334898525 0.2742572576 0.0634120661
0.9398984867 0.2720150709 0.0784201574
0.9453536251 0.2708707690 0.0923921667
0.0684076108 0.3226441154 0.1999357767
0.0670915123 0.3022427918 0.1632846350
0.0747138949 0.2874745972 0.1354390161
0.0940276872 0.2802839713 0.1182564384
0.1294792705 0.2803411425 0.1114159965
0.1766094585 0.2822262901 0.1060652927
0.2266033234 0.2848144317 0.1017056162
0.2800690626 0.2899425492 0.0964893249
0.3392444814 0.2911263233 0.0916699963
0.3936272127 0.2953654885 0.0869597380
0.4467725543 0.2983786172 0.0817788797
0.4969103731 0.3024312204 0.0772285078
0.5390930762 0.3013261368 0.0730997796
0.5828277929 0.3036589862 0.0691003418
0.6219949121 0.3058508188 0.0648572639
0.6590916661 0.3084649863 0.0587242574
0.6923091630 0.3099461997 0.0554729836
0.7228313260 0.3106536445 0.0518575397
0.7513066379 0.3122454698 0.0480197798
0.7780408211 0.3156369455 0.0446179583
0.8003011930 0.3174193389 0.0429432476
0.8227522895 0.3247714574 0.0408842409
0.8423242636 0.3282774830 0.0400841010
0.8594091575 0.3296708541 0.0390408030
0.8752893764 0.3311276152 0.0367145131
0.8891037279 0.3242932340 0.0346066407
0.9017232957 0.3196991454 0.0347419777
0.9133008733 0.3181073953 0.0371406011
0.9226716846 0.3139458815 0.0424938607
0.9317353808 0.3111628663 0.0509173395
0.9393431715 0.3090728473 0.0623936459
0.9458947463 0.3042990604 0.0753949819
0.9509716380 0.3016501453 0.0870691334
0.0809558917 0.3552577515 0.2235605288
0.0791125931 0.3382552766 0.1906808448
0.0844691650 0.3249547500 0.1629811544
0.0993421124 0.3161321804 0.1419229977
0.1269135234 0.3134212290 0.1290775374
0.1690061028 0.3159649700 0.1224614237
0.2165292893 0.3179455600 0.1185307508
0.2687678023 0.3200815832 0.1135634655
0.3274406277 0.3250328687 0.1061489169
0.3807932411 0.3291981300 0.1022797407
0.4344735789 0.3314331647 0.0963540812
0.4861875301 0.3342063911 0.0899100012
0.5346419697 0.3397940524 0.0842264416
0.5785644656 0.3437208284 0.0799702794
0.6161875213 0.3463763064 0.0759174524
0.6511859465 0.3495844054 0.0720103788
0.6859931835 0.3531341661 0.0670983818
0.7174804530 0.3549600643 0.0639786647
0.7463097140 0.3566412804 0.0622834503
0.7732144161 0.3587377779 0.0604877298
0.7986574699 0.3623867478 0.0579865202
0.8200938878 0.3661124967 0.0562751234
0.8399020778 0.3687417626 0.0560653717
0.8582481842 0.3705733366 0.0547636601
0.8750650764 0.3726659292 0.0527654674
0.8903146530 0.3688840919 0.0493212007
0.9041877030 0.3654766044 0.0481202075
0.9164914011 0.3623928779 0.0488319813
0.9273820284 0.3596007260 0.0515722569
0.9369375677 0.3561178991 0.0573196132
0.9445617662 0.3526642876 0.0655383514
0.9509161625 0.3469902059 0.0757834504
0.9563825336 0.3358004312 0.0877071519
0.0953100574 0.3865263664 0.2441815057
0.0931795314 0.3756443898 0.2193184451
0.0957070145 0.3631753812 0.1910102202
0.1071321602 0.3536626349 0.1675279166
0.1309718506 0.3485070550 0.1496773290
0.1656316256 0.3487878770 0.1400411035
0.2124653308 0.3524783373 0.1342104988
0.2624276776 0.3554561784 0.1295738886
0.3162512521 0.3595841919 0.1233914370
0.3695475790 0.3602507055 0.1170534306
0.4222484876 0.3645743117 0.1116629753
0.4740917132 0.3688434378 0.1055405759
0.5232803398 0.3748931207 0.0994507929
0.5686474976 0.3801620428 0.0947763707
0.6103403810 0.3857338054 0.0890165851
0.6466657016 0.3898455621 0.0842861723
0.6813123073 0.3941385597 0.0809416437
0.7135239024 0.3986750979 0.0767185639
0.7407597673 0.4013725116 0.0759242209
0.7672481273 0.4022414550 0.0744471612
0.7935289912 0.4029922288 0.0718097265
0.8173951379 0.4066769967 0.0704421826
0.8376643486 0.4096470722 0.0707769529
0.8567410556 0.4116497042 0.0700298122
0.8743690523 0.4142716355 0.0683014029
0.8906836523 0.4112146956 0.0650115709
0.9053113766 0.4100351462 0.0632335610
0.9180652316 0.4081074412 0.0634349086
0.9292797021 0.4047531315 0.0644447699
0.9395041140 0.4013767079 0.0676662614
0.9481366229 0.3938952720 0.0739529632
0.9550011999 0.3878989878 0.0829077299
0.9611437641 0.3816351678 0.0936321325
0.1110814120 0.4208639347 0.2700066492
0.1099783808 0.4127662617 0.2483414208
0.1097818837 0.4026772998 0.2211244445
0.1175566217 0.3935346772 0.1964037638
0.1368168232 0.3871826213 0.1748502855
0.1686487635 0.3858143480 0.1595953791
0.2090647116 0.3853593333 0.1509928100
0.2589336177 0.3890141272 0.1450036415
0.3102823105 0.3929012836 0.1398602860
0.3591071793 0.3951308619 0.1342168961
0.4113026443 0.3980057620 0.1282075037
0.4623517485 0.4029189266 0.1219172949
0.5122688249 0.4090494810 0.1157932138
0.5589836889 0.4157847299 0.1105734042
0.6017402458 0.4195173994 0.1055939620
0.6408338532 0.4259294482 0.0993271548
0.6756206969 0.4311665296 0.0955012358
0.7079368031 0.4365651648 0.0910158162
0.7374071103 0.4409629220 0.0891460345
0.7631183089 0.4446912809 0.0883907647
0.7891766110 0.4459494439 0.0861644718
0.8118237030 0.4497207298 0.0850451393
0.8333009818 0.4505741481 0.0834924079
0.8527171130 0.4528437684 0.0834915706
0.8710081465 0.4558870612 0.0823140088
0.8882065791 0.4555309372 0.0812762105
0.9036822662 0.4522583767 0.0790613705
0.9176174234 0.4522366158 0.0788516400
0.9296045316 0.4497168617 0.0794279077
0.9406016636 0.4434363277 0.0806340136
0.9491024666 0.4401977593 0.0861188081
0.9566973184 0.4325403786 0.0935912947
0.9633070828 0.4278302360 0.1036213146
0.1281717222 0.4541743731 0.2980822772
0.1267979838 0.4484929672 0.2770086374
0.1263316910 0.4407599999 0.2527084717
0.1301353914 0.4322489429 0.2246914159
0.1448087005 0.4258988320 0.2012459460
0.1716906580 0.4231860512 0.1823552574
0.2097774036 0.4227785127 0.1704201133
0.2553240192 0.4228670416 0.1627521282
0.3067128616 0.4263490096 0.1566952785
0.3537876416 0.4297877276 0.1518421633
0.4036683649 0.4335406255 0.1463216980
0.4546000344 0.4366668677 0.1400261075
0.5035306766 0.4420629406 0.1338703799
0.5509409479 0.4489656522 0.1279815371
0.5951034207 0.4552340914 0.1225258341
0.6350808034 0.4597882276 0.1168896190
0.6712888040 0.4666554596 0.1109107006
0.7037551688 0.4728925704 0.1059320967
0.7323024114 0.4781902847 0.1039465438
0.7597815524 0.4820314189 0.1025104175
0.7856275122 0.4870274503 0.1007013492
0.8084991777 0.4915001866 0.0995385589
0.8291966266 0.4936628669 0.0982026184
0.8489853776 0.4927868699 0.0960148505
0.8674757850 0.4958171293 0.0952269538
0.8849309169 0.4974643008 0.0951692904
0.9009270723 0.4955292590 0.0937938369
0.9150940735 0.4927864529 0.0928852043
0.9284656579 0.4922265246 0.0936401909
0.9401736867 0.4857191128 0.0942389036
0.9494999106 0.4814445761 0.0991570781
0.9570286533 0.4778406743 0.1068771761
0.9638631955 0.4734231665 0.1168111484
0.1446467933 0.4844484367 0.3247616131
0.1431689084 0.4802004987 0.3024505540
0.1426730491 0.4742429150 0.2785362092
0.1443909805 0.4672017875 0.2520888523
0.1544566436 0.4609116059 0.2248311457
0.1759005104 0.4577884220 0.2055263507
0.2090499857 0.4575428965 0.1922636058
0.2526131091 0.4592795192 0.1834476935
0.3033086636 0.4621676726 0.1764125576
0.3503929924 0.4653857818 0.1710913350
0.4007708688 0.4693177661 0.1656213479
0.4511271028 0.4721551174 0.1593412968
0.4999413708 0.4734785999 0.1520133301
0.5465276365 0.4795142355 0.1463071065
0.5910919414 0.4872134994 0.1409854819
0.6324777037 0.4955637613 0.1353483961
0.6695911071 0.5032871805 0.1291876848
0.7029221767 0.5104838300 0.1236330238
0.7304417830 0.5166092130 0.1213492860
0.7557841336 0.5209656848 0.1196806077
0.7820335827 0.5231591387 0.1160015116
0.8062723103 0.5283248472 0.1143312304
0.8278109474 0.5326778946 0.1127648379
0.8475194874 0.5346351757 0.1107028329
0.8661507996 0.5334105858 0.1080905254
0.8833742373 0.5361914230 0.1070047835
0.8993971636 0.5349683427 0.1055940505
0.9136420198 0.5326627887 0.1049214009
0.9259740437 0.5324720600 0.1059607332
0.9381943277 0.5267577681 0.1068672558
0.9484605541 0.5230936580 0.1120257951
0.9568026739 0.5198159687 0.1205966966
0.9637849652 0.5158147931 0.1305053157
0.1628818177 0.5164170858 0.3516991011
0.1617120330 0.5136112303 0.3365179474
0.1607716800 0.5093064982 0.3129125931
0.1608889115 0.5036130890 0.2873036074
0.1666738456 0.4988359711 0.2600563946
0.1824792904 0.4950202834 0.2364142584
0.2108017586 0.4939892908 0.2186474359
0.2517052195 0.4951318358 0.2065991080
0.3010748017 0.4975178566 0.1983335336
0.3481401869 0.4970997097 0.1884064080
0.3987503128 0.5009468740 0.1826005744
0.4497096703 0.5050863462 0.1767238400
0.4979370167 0.5082650988 0.1702657884
0.5440871005 0.5136265117 0.1648736723
0.5850415887 0.5200414766 0.1602506255
0.6255707574 0.5280533802 0.1555393385
0.6642646550 0.5368881625 0.1502855673
0.6992040187 0.5454181253 0.1447216814
0.7300248257 0.5506026559 0.1387407815
0.7559706488 0.5558902560 0.1364412129
0.7799505840 0.5606104151 0.1350297406
0.8044730290 0.5670976903 0.1329321600
0.8259969032 0.5694139725 0.1295709387
0.8457421607 0.5720381482 0.1269970643
0.8642441751 0.5742114723 0.1250017527
0.8815689883 0.5730735080 0.1218826775
0.8976840729 0.5753834367 0.1208822211
0.9128310890 0.5733627396 0.1191526195
0.9260580593 0.5702643255 0.1185075139
0.9368494722 0.5690095470 0.1198734190
0.9472134729 0.5629483060 0.1240103585
0.9559238229 0.5585681713 0.1319176371
0.9631392544 0.5550113607 0.1423473186
0.1800447091 0.5454620821 0.3797774851
0.1779009331 0.5412282977 0.3629051693
0.1775470609 0.5388676215 0.3428665873
0.1773514737 0.5344637120 0.3176805546
0.1811388164 0.5308359377 0.2911755763
0.1927224366 0.5278052982 0.2645040439
0.2150049765 0.5267215427 0.2447308368
0.2523078068 0.5276312995 0.2293114078
0.3004967111 0.5299079440 0.2191306464
0.3468267954 0.5316843244 0.2098582410
0.3970934494 0.5342563780 0.2024450551
0.4467004181 0.5383444912 0.1965912838
0.4941357047 0.5422724150 0.1909670470
0.5399958495 0.5468470542 0.1851715583
0.5831277521 0.5504145577 0.1789509981
0.6215917164 0.5571951467 0.1748940450
0.6606383816 0.5659627481 0.1706666932
0.6943783736 0.5744448860 0.1661238578
0.7268511490 0.5831071509 0.1613609323
0.7562266351 0.5880052109 0.1550320674
0.7807261460 0.5936234959 0.1530629213
0.8039717308 0.6005154411 0.1506416330
0.8257088537 0.6041504715 0.1470030057
0.8453136048 0.6067689299 0.1436800054
0.8638866144 0.6109866273 0.1420773754
0.8811708013 0.6108638894 0.1387757314
0.8975371170 0.6122958487 0.1364275979
0.9128815263 0.6127780120 0.1344250652
0.9266029409 0.6088703924 0.1318620238
0.9378319324 0.6048890395 0.1320127487
0.9469415830 0.6027572613 0.1362881014
0.9555285499 0.5970433470 0.1432712591
0.9627369186 0.5939556398 0.1540658211
0.1953048835 0.5704188685 0.4049181303
0.1939531073 0.5674054313 0.3894455822
0.1936751221 0.5651546963 0.3708485196
0.1938748883 0.5625271172 0.3470210803
0.1965725210 0.5599066532 0.3208401546
0.2058283998 0.5581731578 0.2933201527
0.2236540035 0.5576227959 0.2702481426
0.2532779899 0.5586254268 0.2531763126
0.2991872014 0.5608793158 0.2403968926
0.3464399618 0.5628496371 0.2307666465
0.3945942004 0.5664841101 0.2240308148
0.4457653286 0.5705496298 0.2180442231
0.4899882203 0.5739893740 0.2125913670
0.5361888423 0.5779137973 0.2065359890
0.5778350971 0.5814543052 0.2007278828
0.6183155315 0.5854276973 0.1948774325
0.6566933691 0.5930402652 0.1911393175
0.6905848542 0.6002846166 0.1870974497
0.7218863921 0.6085651998 0.1831791683
0.7528741955 0.6172868031 0.1779463739
0.7808188800 0.6226946403 0.1719601341
0.8038672676 0.6290112475 0.1682870400
0.8253353634 0.6337031685 0.1645679290
0.8451706803 0.6373515072 0.1610418889
0.8639224861 0.6424852986 0.1596063677
0.8813273286 0.6435237418 0.1564097944
0.8980165877 0.6459219058 0.1534756297
0.9139002396 0.6477488505 0.1505326030
0.9275933378 0.6456762770 0.1465412688
0.9392822761 0.6414239659 0.1455595294
0.9488574510 0.6385446445 0.1491584725
0.9566528595 0.6345094493 0.1559685054
0.9635443198 0.6307865148 0.1671458562
0.2088893880 0.5907851732 0.4241382848
0.2095428228 0.5903918503 0.4118654508
0.2103379985 0.5898184026 0.3967425332
0.2113302601 0.5888657949 0.3774677514
0.2138318280 0.5877147287 0.3528840576
0.2205516642 0.5873368199 0.3253862607
0.2335516438 0.5877666251 0.2999252714
0.2580078739 0.5892183698 0.2791549786
0.2955208484 0.5917149862 0.2641006093
0.3444340603 0.5921706441 0.2521821160
0.3922185530 0.5948461211 0.2453195721
0.4397225416 0.5985441110 0.2400461486
0.4886184567 0.6023156229 0.2340375563
0.5348393828 0.6058054140 0.2279085206
0.5750732106 0.6094450691 0.2222650670
0.6125202670 0.6139408862 0.2175236825
0.6500041382 0.6200099599 0.2132930753
0.6856895285 0.6247871401 0.2082590150
0.7173869639 0.6317932554 0.2045314322
0.7471864446 0.6397260818 0.2004885740
0.7767963860 0.6484477933 0.1934748602
0.8012863548 0.6534287665 0.1880101202
0.8231624282 0.6577268184 0.1828981765
0.8435838621 0.6623887274 0.1792413089
0.8628178026 0.6681521101 0.1771694223
0.8807393110 0.6704962249 0.1734591783
0.8975895315 0.6739241742 0.1710692486
0.9140405305 0.6768563245 0.1671009973
0.9285821597 0.6766082194 0.1622388438
0.9410288249 0.6749371073 0.1606732268
0.9510471102 0.6736361022 0.1633503024
0.9591165294 0.6707264114 0.1707706979
0.9655737605 0.6638233916 0.1809003663
0.2219923426 0.6081799230 0.4454076358
0.2233707978 0.6085535850 0.4351117261
0.2247436122 0.6086715284 0.4215117848
0.2266729127 0.6088926313 0.4049299996
0.2295609676 0.6088998409 0.3823596108
0.2354580924 0.6097118399 0.3563768386
0.2455028439 0.6112299871 0.3307572611
0.2641492669 0.6135382811 0.3069264363
0.2968937676 0.6167577595 0.2883987789
0.3385261943 0.6207656110 0.2747476081
0.3889800668 0.6222580886 0.2652621621
0.4366908508 0.6253686418 0.2595748066
0.4822030478 0.6288077995 0.2543795464
0.5283951423 0.6320760826 0.2482835210
0.5716771860 0.6353319858 0.2419436351
0.6091780905 0.6391387939 0.2363974725
0.6439321721 0.6438549607 0.2320023844
0.6790070203 0.6474041202 0.2261711008
0.7101853730 0.6530277260 0.2232183972
0.7404292190 0.6594538380 0.2189951445
0.7713098000 0.6661006069 0.2117568120
0.7960615283 0.6733117807 0.2076928653
0.8192779900 0.6781090014 0.2022395673
0.8405892040 0.6832345324 0.1980357146
0.8603548929 0.6893813929 0.1954933690
0.8787921714 0.6926143458 0.1914582131
0.8961460337 0.6949119066 0.1866775084
0.9126322462 0.6986836060 0.1821065489
0.9275918324 0.7019437559 0.1770927646
0.9410427304 0.7020263712 0.1741997638
0.9522058052 0.7026341187 0.1772939247
0.9609692593 0.7012761742 0.1848366395
0.9676675420 0.6963272268 0.1959256985
0.2358377533 0.6236041145 0.4605006047
0.2375501178 0.6242211545 0.4510420995
0.2396144330 0.6248514295 0.4395548443
0.2421430716 0.6256392987 0.4259373148
0.2455513691 0.6267304308 0.4075361473
0.2507268346 0.6284568175 0.3859104743
0.2598962221 0.6311618347 0.3595898566
0.2728803207 0.6343711854 0.3355000744
0.2982955274 0.6387277750 0.3145401556
0.3368020007 0.6421163400 0.2961029869
0.3799725261 0.6467528862 0.2871683228
0.4290608399 0.6496381348 0.2795502922
0.4735506582 0.6534006328 0.2741683879
0.5202215387 0.6567208789 0.2684778230
0.5637674372 0.6595846018 0.2622929588
0.6030650573 0.6619563057 0.2557680608
0.6370863276 0.6648718396 0.2500310448
