presets/标 柯达5207 -S.cube
TITLE "YINGZEJUN Copyright"
# YINGZEJUN Copyright
# SP3000 & GOLD200 
# 20241106
# Created by: Adobe Photoshop Export Color Lookup Plugin
LUT_3D_SIZE 5
0.0062560000 0.0336000000 0.0549010000
0.3488276831 0.0580973230 0.0473530797
0.6807061350 0.0862231009 0.0244705231
0.8499330030 0.1386912235 0.0412988712
0.9270080700 0.2006433749 0.1397347188
0.0583600874 0.3398507433 0.2002262021
0.2708789554 0.3045715701 0.1012661617
0.6672641707 0.3319621099 0.0609147436
0.8710013026 0.3397605620 0.0389394784
0.9646281326 0.3291385008 0.0799438536
0.1601565420 0.5959283859 0.3969646566
0.2442515666 0.5996175583 0.2435969964
0.6332406832 0.6218323330 0.1813830291
0.8624968924 0.6669331607 0.1513041868
0.9732265900 0.6610852928 0.1610598238
0.2326373088 0.6862540309 0.5014838970
0.2890021913 0.7286599736 0.4391298156
0.5188361415 0.8068831466 0.3543954473
0.8332342466 0.8348230390 0.3262036920
0.9818097256 0.8638426084 0.2915652650
0.2848817767 0.7324640438 0.5772278746
0.3440043770 0.7722443481 0.5688521906
0.4830496978 0.8593424726 0.5897198625
0.7246050437 0.9382019872 0.4937201996
0.9646997592 0.9696074380 0.5488946456
0.0576946498 0.0456580647 0.2791810397
0.3138208434 0.0667847215 0.2472672632
0.6219025218 0.1030498776 0.2383388298
0.8198750627 0.1558841611 0.2575143816
0.9208576421 0.2210637884 0.3139929787
0.0464381740 0.2967193366 0.3777950908
0.2448457302 0.2828020612 0.3019890340
0.6247764114 0.2788802919 0.2657259865
0.8321072220 0.2926999993 0.2653213748
0.9655039995 0.2862236064 0.2785387684
0.1423364455 0.5779533633 0.5513673405
0.1997511002 0.5731887471 0.4284346573
0.5862356984 0.5986589968 0.3537215211
0.8338252949 0.6296639204 0.3514931928
0.9890260055 0.6079499915 0.3010205577
0.2202723987 0.6821472491 0.5997573630
0.2640256489 0.7151462971 0.5538855376
0.4946061815 0.7908992447 0.4933139868
0.8081233433 0.8157745116 0.4668658588
0.9937742506 0.8681864266 0.4222714951
0.2708812775 0.7243528516 0.6233190673
0.3240906212 0.7604423423 0.6194255709
0.4676635604 0.8537606181 0.6630046809
0.7162297562 0.9449169959 0.5900519038
0.9722846380 0.9760908819 0.5910340230
0.1779013477 0.0725601979 0.4296823450
0.3346940576 0.0840619682 0.4171110564
0.6019557670 0.1146298858 0.4071922817
0.7957336691 0.1740223446 0.4280982946
0.9252798102 0.2620675341 0.4727649076
0.0798094171 0.2205984853 0.5192745550
0.2506726832 0.2340782540 0.4849374385
0.5812209636 0.2484627195 0.4567273307
0.8050039030 0.2973089720 0.4627445687
0.9595492360 0.3638495011 0.5096701504
0.1232221066 0.5580484869 0.6709439770
0.1841902544 0.5446861590 0.6351280492
0.5618326039 0.5674796175 0.5675895109
0.8041280800 0.5771177968 0.5425634279
0.9692502998 0.5714984846 0.5337081536
0.2213797552 0.6870140110 0.6989738237
0.2545275364 0.7140203612 0.6992525360
0.4576527697 0.7729721626 0.6717629498
0.7883753765 0.7991457452 0.6389603169
0.9815928137 0.8319000645 0.6323246587
0.2614044699 0.7189779467 0.6987443428
0.3004752774 0.7489827192 0.7028927549
0.4365808022 0.8355817055 0.7431635148
0.6822271289 0.9390685846 0.7453519930
0.9882045588 0.9899928347 0.7197299906
0.2565521373 0.1067684667 0.5550777945
0.3767680176 0.1168577069 0.5381273296
0.5741320908 0.1455247914 0.5498270272
0.7610923722 0.1951043743 0.5688861659
0.8980596574 0.2749341763 0.5980553521
0.1213253517 0.1507968069 0.6366089940
0.2720011618 0.1788194289 0.6263206994
0.5635421091 0.2349156514 0.6186989311
0.7918147581 0.2901979965 0.6218733719
0.9420256494 0.3630921412 0.6546186413
0.1400531029 0.5070027944 0.7965395329
0.2669904863 0.5130191374 0.7638084672
0.5578931667 0.5406133560 0.7297401141
0.7995603921 0.5658669617 0.7133947046
0.9625819721 0.5930343887 0.7254767626
0.2070613606 0.6919068618 0.7904428471
0.2365772900 0.7168235275 0.8139743921
0.4518211236 0.7591978824 0.8227246136
0.7846461464 0.7850586696 0.7939086792
0.9794419664 0.8045946744 0.7795222882
0.2592482462 0.7284986565 0.7589573451
0.2753748108 0.7402393525 0.7667562059
0.3787385594 0.8113475793 0.7993312301
0.6196048557 0.9217336325 0.8550065652
0.9954208894 0.9920144650 0.8741992921
0.3050148822 0.1459193258 0.6517372336
0.4079164563 0.1581336381 0.6482150897
0.5767168973 0.1865821478 0.6573950509
0.7443066289 0.2272479974 0.6828772339
0.8854770407 0.3392325349 0.7289735596
0.1916026207 0.1795789815 0.7528005780
0.3344392211 0.1880336311 0.7340183251
0.5829463104 0.2182219494 0.7254303249
0.7851240132 0.2734233667 0.7442269249
0.9173767503 0.4001662101 0.7745794732
0.0274111614 0.4432078170 0.9532357224
0.1297386986 0.4172224454 0.9398904341
0.5523908574 0.4032116064 0.8764576112
0.8476193450 0.4595184486 0.8639252563
0.9587847203 0.5717289322 0.8610014445
0.1789771402 0.6843767463 0.8998567021
0.1815870919 0.6991090614 0.9323441514
0.3154855556 0.7407993876 0.9820227220
0.7958990817 0.7605185750 0.9517526828
0.9730688701 0.7822041176 0.9254727153
0.2759133591 0.7524262588 0.8467561466
0.2759133591 0.7524262588 0.8467561466
0.3492245244 0.8032357756 0.8874130365
0.5744695373 0.9029935844 0.9689781228
0.9864810000 0.9732360000 0.9898070000
