presets/标 柯达5207 +2.cube
TITLE "YINGZEJUN Copyright"
# YINGZEJUN Copyright
# SP3000 & GOLD200 
# 20241106
# Created by: Adobe Photoshop Export Color Lookup Plugin
LUT_3D_SIZE 5
0.0054930000 0.0148930000 0.0323180000
0.3801592487 0.0357953505 0.0214511010
0.6558962147 0.0830323454 0.0005094793
0.8289118692 0.1304401942 0.0077963674
0.8984922504 0.1739359737 0.1054756511
0.0726817287 0.3330465088 0.2006176964
0.3108818588 0.3049729789 0.0784242886
0.6524814960 0.3399652794 0.0293121670
0.8666181890 0.3669651253 0.0016271762
0.9508790642 0.3267594873 0.0316218853
0.1929241537 0.5530885382 0.3750424650
0.2734069717 0.5569889077 0.2244667962
0.6053954625 0.5894798607 0.1763837540
0.8470238963 0.6457002572 0.1231029257
0.9599183477 0.6465231229 0.1231291265
0.2679105487 0.6276026874 0.4592468256
0.3231193321 0.6750615612 0.3995632348
0.5134103625 0.7706979493 0.3320232402
0.8089208421 0.8057308956 0.3081391788
0.9659007657 0.8400804858 0.2768274931
0.3144582081 0.6768175186 0.5263248700
0.3715713360 0.7256561461 0.5226251402
0.4858327088 0.8262436577 0.5347294781
0.7018196907 0.9106850838 0.4636633785
0.9457937602 0.9398121440 0.5049407864
0.0795949516 0.0407657481 0.2531541687
0.3349108170 0.0565055953 0.2259012081
0.5844129985 0.0954938045 0.2163937043
0.7879596859 0.1464579426 0.2308607752
0.8969935725 0.2078651853 0.2787792595
0.0528764007 0.2871181780 0.3701621240
0.2725040487 0.2790855476 0.2895396564
0.5936383913 0.2790090373 0.2555998689
0.8087252628 0.2930638157 0.2491510694
0.9439785741 0.2623175738 0.2392316605
0.1775108320 0.5494975039 0.5100017776
0.2323122787 0.5361110605 0.4041892158
0.5604633827 0.5622228894 0.3452536485
0.8051266887 0.5972414719 0.3356873235
0.9733522364 0.5847615634 0.2728850311
0.2593515940 0.6254394746 0.5369287187
0.2960943614 0.6581591013 0.5041651619
0.4860060433 0.7503265560 0.4491726441
0.7796078912 0.7824761593 0.4334515209
0.9775573452 0.8395919265 0.3839258622
0.3083164909 0.6727502271 0.5738948438
0.3566246559 0.7175839976 0.5784383738
0.4760709500 0.8233829904 0.6076400437
0.6870763897 0.9152256498 0.5468210190
0.9501640222 0.9441426156 0.5399733984
0.2154622552 0.0778803897 0.3884622281
0.3570951447 0.0887359509 0.3777854219
0.5755977174 0.1149143520 0.3782140991
0.7656656037 0.1676325224 0.3919433348
0.9095021691 0.2638082742 0.4347162307
0.1059902425 0.2337363385 0.5049757966
0.2877891480 0.2421027262 0.4608675174
0.5717922667 0.2587396744 0.4362142584
0.7915599067 0.3140140227 0.4497981737
0.9495781996 0.3779157859 0.4888957332
0.1568930089 0.5332062511 0.6546697853
0.2177025415 0.5160488408 0.6031591413
0.5437732950 0.5418998797 0.5510484072
0.7802063465 0.5582018472 0.5245994144
0.9530282694 0.5546495934 0.5099776328
0.2559552432 0.6377429704 0.6579384344
0.2892128912 0.6645225506 0.6481197641
0.4551680364 0.7297526100 0.6271451539
0.7556933332 0.7618795103 0.5970931232
0.9659898045 0.8000043585 0.5843117356
0.2962172286 0.6701743938 0.6497705576
0.3356764343 0.7054429486 0.6545646048
0.4512655042 0.8077779927 0.7101788864
0.6512489071 0.9069139537 0.7094927529
0.9702676581 0.9611121633 0.6884044987
0.2975651811 0.1199819669 0.5052534667
0.4024224855 0.1312051168 0.4967015303
0.5714277951 0.1507048229 0.5136090945
0.7510937242 0.2058901014 0.5366120039
0.8920861346 0.2877081065 0.5687314205
0.1677837890 0.1711532893 0.6103188970
0.3192834222 0.1948513294 0.5947995135
0.5685163281 0.2504214862 0.5954866297
0.7869000113 0.3084001349 0.6051482732
0.9370067956 0.3779766052 0.6316225908
0.1768322515 0.4862426756 0.7813339847
0.3028453088 0.4920491112 0.7463934404
0.5537234834 0.5249765245 0.7192644593
0.7815342814 0.5498651862 0.6986611251
0.9516343660 0.5798073250 0.7086390059
0.2479805816 0.6457174679 0.7622857095
0.2792997481 0.6757148058 0.7906857208
0.4567776668 0.7221548629 0.8029553387
0.7612905520 0.7522013344 0.7708364344
0.9669629509 0.7743260091 0.7484680693
0.2964443997 0.6795007255 0.7222393117
0.3124778255 0.6953599985 0.7308464254
0.4050146864 0.7773328380 0.7833872521
0.6035339185 0.8918119685 0.8406753726
0.9780728854 0.9641241153 0.8619427845
0.3630507910 0.1696263881 0.6213720626
0.4512669266 0.1813345390 0.6114511200
0.5946941809 0.2030207253 0.6273586823
0.7548736556 0.2505509553 0.6623650522
0.8891648412 0.3504821935 0.7124320031
0.2557631844 0.2080734702 0.7409773155
0.3926313784 0.2143744566 0.7197948612
0.6034382685 0.2450953295 0.7061020730
0.7914022421 0.2957469138 0.7257224391
0.9150402340 0.4025797176 0.7590988413
0.0448886119 0.4286476402 0.9434158443
0.1452406219 0.3997555495 0.9232580968
0.5555345560 0.4014600306 0.8703092160
0.8355157613 0.4543160836 0.8535142901
0.9500423776 0.5438996621 0.8455089453
0.2303190836 0.6441104894 0.8825086834
0.2344934250 0.6573894021 0.9152361860
0.3373310537 0.6901434804 0.9623280615
0.7720149585 0.7194287878 0.9361115755
0.9593323001 0.7425405119 0.9066581525
0.3129814973 0.7127600820 0.8246121673
0.3129814973 0.7127600820 0.8246121673
0.3798721135 0.7697700427 0.8738768184
0.5672455384 0.8663896624 0.9533697832
0.9749150000 0.9499210000 0.9811710000
