presets/标 柯达5207 -2.cube
TITLE "YINGZEJUN Copyright"
# YINGZEJUN Copyright
# SP3000 & GOLD200 
# 20241106
# Created by: Adobe Photoshop Export Color Lookup Plugin
LUT_3D_SIZE 33
0.0747070000 0.1336980000 0.1503910000
0.0835481778 0.1305039457 0.1515052509
0.0962183107 0.1306354941 0.1505225222
0.1150708451 0.1338307551 0.1492519111
0.1409983908 0.1378751084 0.1508586896
0.1704267238 0.1396402383 0.1533504005
0.2038229764 0.1408401127 0.1531976121
0.2389967027 0.1411835368 0.1509532204
0.2751789052 0.1429280096 0.1478809142
0.3104552083 0.1453976614 0.1460067560
0.3475581142 0.1478772461 0.1441761675
0.3849253857 0.1508940245 0.1426801020
0.4206087948 0.1533577397 0.1416857738
0.4620934200 0.1566142894 0.1410674902
0.5029873350 0.1596536390 0.1411667812
0.5434868535 0.1643060456 0.1414870725
0.5828073460 0.1688476549 0.1429230145
0.6198377161 0.1754397748 0.1452205271
0.6523297503 0.1807366647 0.1476499609
0.6825635779 0.1871144639 0.1512198278
0.7115307431 0.1947400972 0.1555803551
0.7358420272 0.2022630866 0.1602910353
0.7581450974 0.2106311378 0.1661577138
0.7783431499 0.2198549430 0.1725541559
0.7969088470 0.2307216161 0.1785769684
0.8136439008 0.2402843478 0.1856478014
0.8287146573 0.2498878041 0.1945214694
0.8413113835 0.2587454801 0.2030595090
0.8522373586 0.2674658986 0.2100020692
0.8638220846 0.2776009022 0.2200237941
0.8735577926 0.2869876892 0.2295771061
0.8821010592 0.2952690398 0.2392764143
0.8897624482 0.3023991879 0.2490121044
0.0754470281 0.1312920013 0.1511189433
0.0795303032 0.1288752472 0.1463146642
0.0897964849 0.1302146868 0.1444172173
0.1071540803 0.1328041929 0.1416689589
0.1308921834 0.1360034436 0.1416736516
0.1563352973 0.1373785380 0.1434013124
0.1883971216 0.1397290021 0.1439481896
0.2245652059 0.1422119863 0.1440908131
0.2608844311 0.1455295948 0.1440936683
0.2980048563 0.1494786900 0.1437081535
0.3370482315 0.1528346793 0.1433587273
0.3765334463 0.1566779520 0.1425983393
0.4142198608 0.1599268987 0.1418075154
0.4570048604 0.1627483852 0.1418140854
0.4991909181 0.1664668454 0.1418834720
0.5397929553 0.1708432541 0.1422167509
0.5796607834 0.1744592637 0.1431739749
0.6140584909 0.1793014644 0.1443485859
0.6499337108 0.1854121322 0.1469427574
0.6818937447 0.1915367556 0.1502072855
0.7122891299 0.1995309781 0.1540985928
0.7370715315 0.2067892056 0.1588285037
0.7596659950 0.2144534914 0.1647865619
0.7803364853 0.2230681242 0.1711054081
0.7993592755 0.2339632925 0.1772613864
0.8159372290 0.2436794172 0.1836196557
0.8315560138 0.2539739585 0.1920239878
0.8445215993 0.2629844324 0.2004155447
0.8552375530 0.2711614457 0.2077708058
0.8670170698 0.2816862170 0.2176925220
0.8763238495 0.2904673216 0.2276475604
0.8848307090 0.2988121806 0.2372730639
0.8929340724 0.3065052976 0.2468465194
0.0786296071 0.1478464981 0.1588961372
0.0799721796 0.1386107681 0.1488943942
0.0878017751 0.1394077470 0.1455001815
0.1043398952 0.1426053909 0.1433853703
0.1267719803 0.1457592668 0.1426834489
0.1524182108 0.1481568784 0.1439917313
0.1816222991 0.1505517680 0.1447251369
0.2168076476 0.1533581026 0.1449563524
0.2518729836 0.1555276440 0.1450859003
0.2909732627 0.1591496349 0.1449625828
0.3321486902 0.1628970227 0.1448131673
0.3729055747 0.1667986625 0.1445934659
0.4117325751 0.1707606812 0.1441234984
0.4544886958 0.1734489949 0.1439370700
0.4975745355 0.1758825685 0.1436272438
0.5372319809 0.1803329571 0.1439725430
0.5762568776 0.1842495446 0.1445078167
0.6133513563 0.1875629632 0.1452851096
0.6487448456 0.1929600901 0.1475022026
0.6810087515 0.1980962092 0.1501450538
0.7112351574 0.2061988557 0.1537822553
0.7384537534 0.2139647422 0.1585146222
0.7612118624 0.2214428779 0.1635973022
0.7821744949 0.2294112595 0.1694957763
0.8014507400 0.2400189432 0.1757557400
0.8181824439 0.2494645103 0.1822919683
0.8326989028 0.2589334229 0.1894980167
0.8468893101 0.2688226008 0.1979233041
0.8580377833 0.2769265502 0.2056539956
0.8700731347 0.2872488876 0.2153198772
0.8797418284 0.2959360000 0.2251949782
0.8878286337 0.3030228952 0.2352116315
0.8959453820 0.3105419718 0.2450792242
0.0850428866 0.1809917515 0.1737190510
0.0835658819 0.1622573462 0.1574871646
0.0888093203 0.1583816973 0.1517725540
0.1029572398 0.1622114319 0.1506200582
0.1241402770 0.1641189698 0.1491041634
0.1504566344 0.1677908852 0.1502432488
0.1806816417 0.1707301390 0.1505368856
0.2139907268 0.1726416260 0.1497358794
0.2487338095 0.1740905970 0.1494962146
0.2881074033 0.1767502575 0.1490378816
0.3283331948 0.1790498050 0.1485291255
0.3710140722 0.1810362898 0.1478285288
0.4105467382 0.1846399405 0.1472112172
0.4546021364 0.1881920863 0.1468768539
0.4960649413 0.1907393885 0.1471599290
0.5380854839 0.1927761422 0.1464984665
0.5746553996 0.1975520747 0.1470312528
0.6133840094 0.2006059675 0.1473448289
0.6485463724 0.2036403842 0.1485842000
0.6823664946 0.2094866983 0.1511935754
0.7105391130 0.2153315409 0.1540426442
0.7381101156 0.2222630807 0.1580713936
0.7632111893 0.2301330591 0.1631438661
0.7839931105 0.2382700815 0.1680407645
0.8035340088 0.2479106696 0.1740009196
0.8201907608 0.2565642259 0.1804390243
0.8351530971 0.2657034058 0.1876669148
0.8489071568 0.2752775329 0.1952976982
0.8615732527 0.2841624200 0.2034621336
0.8733224898 0.2936510784 0.2122441576
0.8836563255 0.3025170909 0.2226947277
0.8919441893 0.3095837397 0.2322182981
0.8996889930 0.3159872799 0.2430057431
0.0916471656 0.2148544603 0.1852612119
0.0883950939 0.1934292431 0.1684310900
0.0921848915 0.1853183246 0.1603049975
0.1029026801 0.1857089079 0.1585932705
0.1219224586 0.1884988087 0.1588741700
0.1481367541 0.1908663424 0.1586395764
0.1786817500 0.1941086085 0.1575416371
0.2124053575 0.1978760671 0.1565894899
0.2470506644 0.1979972151 0.1552628946
0.2861686879 0.2010041733 0.1544502998
0.3250318367 0.2026389200 0.1532429302
0.3651910147 0.2034644781 0.1523548535
0.4098904261 0.2045697623 0.1519124637
0.4559929157 0.2075348963 0.1511836559
0.4967481682 0.2108838436 0.1515199869
0.5364044331 0.2135152670 0.1511103328
0.5774003753 0.2149704134 0.1504572928
0.6166453310 0.2191586874 0.1506493661
0.6505508547 0.2215782535 0.1514574047
0.6820990491 0.2250268855 0.1529498009
0.7134806388 0.2315833294 0.1559442883
0.7389157523 0.2368303151 0.1587340588
0.7640124481 0.2434073773 0.1629818894
0.7867183102 0.2515419499 0.1680246861
0.8056423694 0.2616698138 0.1727594158
0.8214489909 0.2679970851 0.1790922806
0.8370475376 0.2761766452 0.1857843379
0.8516427063 0.2855253390 0.1935438684
0.8655528611 0.2955990008 0.2020553797
0.8761083120 0.3026873888 0.2093570373
0.8867356364 0.3100673232 0.2194438492
0.8964017044 0.3177813091 0.2300180014
0.9042728662 0.3242612143 0.2396227264
0.0975170370 0.2485117215 0.1968597984
0.0934885952 0.2251820416 0.1806078649
0.0955260039 0.2136165012 0.1705043975
0.1046131506 0.2105482907 0.1672952744
0.1194957104 0.2114797227 0.1671824708
0.1431766347 0.2119359187 0.1661559393
0.1735174104 0.2162232887 0.1648077682
0.2071979212 0.2212109662 0.1630795136
0.2421767180 0.2237260541 0.1613899179
0.2798690857 0.2270848409 0.1602140002
0.3175555018 0.2272421366 0.1593541146
0.3580055316 0.2274677453 0.1578469751
0.4037127384 0.2294006766 0.1567774628
0.4500336346 0.2317240825 0.1561335428
0.4953750993 0.2334807077 0.1554068235
0.5375750494 0.2364724943 0.1549079173
0.5793593116 0.2395154667 0.1544864244
0.6148331815 0.2404762285 0.1540037976
0.6518262584 0.2430277852 0.1543403471
0.6848311769 0.2458018148 0.1556224389
0.7162810078 0.2508673551 0.1577653765
0.7420370429 0.2576416804 0.1607448614
0.7651990220 0.2633542927 0.1636715940
0.7874326725 0.2702029117 0.1681400043
0.8064290111 0.2775126226 0.1727615498
0.8240339956 0.2851396403 0.1785013806
0.8403565499 0.2917856000 0.1852776783
0.8553581899 0.2997385536 0.1922894946
0.8691739144 0.3085602282 0.1999533732
0.8800616262 0.3152719915 0.2071359505
0.8910274231 0.3220253211 0.2165205497
0.9010714772 0.3286654911 0.2261974030
0.9094937157 0.3352015917 0.2354241027
0.1029844740 0.2783437022 0.2071440115
0.0988894249 0.2568150134 0.1915137875
0.0998358685 0.2434607801 0.1812598256
0.1068680659 0.2371252897 0.1757866244
0.1198415561 0.2362590939 0.1751231096
0.1401017928 0.2352013269 0.1733446339
0.1660427637 0.2371120581 0.1710601151
0.1996536918 0.2421708652 0.1687749271
0.2354036021 0.2458093928 0.1669335623
0.2729582356 0.2515030674 0.1653029418
0.3129869954 0.2551448824 0.1640347668
0.3513542872 0.2545522189 0.1633668344
0.3954220354 0.2560811229 0.1617332617
0.4416836535 0.2578413966 0.1605174437
0.4878738864 0.2600200161 0.1595915625
0.5325486184 0.2611033151 0.1586593182
0.5753013474 0.2639884776 0.1578928020
0.6143067412 0.2648573318 0.1574257096
0.6509310101 0.2666001944 0.1571323357
0.6849335448 0.2689357782 0.1581347970
0.7158063028 0.2728171069 0.1598975116
0.7437623559 0.2798735081 0.1622085130
0.7673389104 0.2858709435 0.1655041196
0.7886675093 0.2925376120 0.1692220177
0.8082254521 0.2986184934 0.1741482516
0.8264674005 0.3035430795 0.1795490654
0.8432271549 0.3108766480 0.1854619553
0.8586755487 0.3174028512 0.1924198042
0.8722247680 0.3243573880 0.1987168787
0.8846599804 0.3318639621 0.2067803603
0.8956152401 0.3383565044 0.2148006302
0.9055017715 0.3441002418 0.2235657742
0.9138143606 0.3496765150 0.2320901613
0.1084339032 0.3055139897 0.2174219045
0.1052048250 0.2876483736 0.2028347281
0.1049362122 0.2738382693 0.1918503359
0.1103913072 0.2659395803 0.1852608961
0.1214905856 0.2630234445 0.1823657750
0.1393172878 0.2618167293 0.1805955930
0.1624702667 0.2614905598 0.1778984145
0.1912221840 0.2639111835 0.1736184191
0.2283066745 0.2670904928 0.1716082986
0.2651316806 0.2731524694 0.1699878608
0.3051432542 0.2783494090 0.1686243528
0.3473123592 0.2828975955 0.1678492323
0.3871858484 0.2828475189 0.1665320780
0.4328489313 0.2849217235 0.1649121788
0.4774680096 0.2867614003 0.1630585885
0.5229708081 0.2889234403 0.1624179794
0.5663918243 0.2899655876 0.1614645848
0.6077865400 0.2905442334 0.1609652326
0.6465839381 0.2914666357 0.1601213748
0.6822345864 0.2940567344 0.1599056185
0.7118834329 0.2965681981 0.1611957101
0.7403189542 0.3030480391 0.1633146599
0.7661185501 0.3087077900 0.1665742917
0.7880837504 0.3145260966 0.1705491208
0.8083615148 0.3214690825 0.1751096202
0.8275222704 0.3251807349 0.1804010671
0.8452973339 0.3307275238 0.1862286843
0.8615671646 0.3383344633 0.1927733550
0.8754430172 0.3438723029 0.1993856351
0.8887591160 0.3509431995 0.2063265449
0.9001804579 0.3579739954 0.2138595692
0.9105265794 0.3631268213 0.2223302851
0.9184247852 0.3675824150 0.2298836457
0.1144359197 0.3324290981 0.2286181712
0.1116600721 0.3173721916 0.2150334025
0.1113783381 0.3049657787 0.2037149250
0.1144858408 0.2954633396 0.1953982544
0.1242248628 0.2908173894 0.1902488241
0.1398533109 0.2901057792 0.1875088617
0.1603201296 0.2887049709 0.1841260603
0.1867877073 0.2885558504 0.1804871521
0.2210650213 0.2906960579 0.1757553776
0.2565548395 0.2954768511 0.1733288334
0.2962212335 0.3004061117 0.1723994459
0.3379854942 0.3044462511 0.1707270148
0.3821463944 0.3097063422 0.1699536483
0.4274493925 0.3134075843 0.1685807621
0.4699214593 0.3155771077 0.1663882645
0.5118131378 0.3172643910 0.1650176240
0.5556225251 0.3192375868 0.1640469224
0.5972683156 0.3198017086 0.1633045256
0.6363875978 0.3203671471 0.1629334342
0.6725894210 0.3216673771 0.1627639561
0.7058607202 0.3243425137 0.1628140702
0.7335521744 0.3277495475 0.1641523592
0.7591587420 0.3315916780 0.1668039742
0.7829309321 0.3364045520 0.1712173458
0.8044093891 0.3427402504 0.1753822366
0.8249151120 0.3473380713 0.1802561302
0.8441478246 0.3531435103 0.1862909519
0.8619578307 0.3597458303 0.1924461327
0.8778123461 0.3667986168 0.1990905934
0.8920921727 0.3738022618 0.2061964932
0.9037044356 0.3801104623 0.2131872187
0.9139249024 0.3848358412 0.2208534679
0.9234410700 0.3868536920 0.2293507165
0.1215779880 0.3591578383 0.2398531648
0.1190366985 0.3491995151 0.2282926635
0.1185307878 0.3378044452 0.2158864623
0.1210278814 0.3279082595 0.2064402398
0.1291129721 0.3210273236 0.1990395931
0.1426018151 0.3188125401 0.1948254305
0.1624368604 0.3193860310 0.1912621447
0.1861287418 0.3189540414 0.1867237202
0.2157326073 0.3197658750 0.1817302312
0.2497087158 0.3194553295 0.1773552657
0.2872045303 0.3239287136 0.1754687873
0.3287408872 0.3296753261 0.1747755352
0.3720618356 0.3353674013 0.1736547971
0.4176588376 0.3403128585 0.1724726808
0.4636362521 0.3444174635 0.1704349545
0.5071103679 0.3471685758 0.1684364752
0.5507961091 0.3493822101 0.1673740315
0.5921801368 0.3513129137 0.1662511864
0.6284881527 0.3521353759 0.1658954831
0.6637823863 0.3516380942 0.1656512618
0.6972993038 0.3512418997 0.1651703419
0.7278628311 0.3535156633 0.1657923367
0.7541506077 0.3567949950 0.1682851646
0.7786527746 0.3609006902 0.1716687123
0.8012473990 0.3661126825 0.1757520756
0.8228668193 0.3700987505 0.1807528067
0.8427534948 0.3764058752 0.1863026020
0.8610344415 0.3827794655 0.1922795494
0.8774158551 0.3888079872 0.1984353706
0.8925942901 0.3953040439 0.2056208865
0.9059341661 0.4005186364 0.2130634831
0.9169645492 0.4057453127 0.2210738246
0.9272844958 0.4106668214 0.2298225451
0.1312002074 0.3912324851 0.2558409703
0.1294574484 0.3834782965 0.2447293110
0.1275336897 0.3735348320 0.2314813824
0.1291051050 0.3642787927 0.2203735834
0.1355667262 0.3564640216 0.2107595843
0.1480190768 0.3524090270 0.2036882612
0.1648238018 0.3493731195 0.1987544642
0.1878457445 0.3497193050 0.1941461589
0.2151414645 0.3500549184 0.1891241653
0.2446989295 0.3496636534 0.1845037370
0.2810405483 0.3512250561 0.1810488397
0.3201456501 0.3558434328 0.1788601383
0.3636827107 0.3624049042 0.1782809707
0.4092531967 0.3684861762 0.1774540589
0.4558052549 0.3716253525 0.1764024699
0.5019007064 0.3762344272 0.1738958828
0.5461151218 0.3795573333 0.1721546176
0.5880041311 0.3820146939 0.1706049983
0.6266627354 0.3835115831 0.1697036659
0.6603025468 0.3845367668 0.1697536209
0.6931063597 0.3832895417 0.1690835084
0.7213156807 0.3842951025 0.1691790460
0.7482731846 0.3846326584 0.1704479986
0.7732244445 0.3878289814 0.1732163803
0.7961994858 0.3918918222 0.1761911269
0.8186743407 0.3961718772 0.1811015146
0.8395759392 0.3996153999 0.1863216642
0.8587975910 0.4063597843 0.1919615951
0.8759215072 0.4120763951 0.1977138793
0.8918824726 0.4165770508 0.2048625504
0.9048643536 0.4228646061 0.2124877700
0.9171478328 0.4270963938 0.2208648361
0.9279833261 0.4332304718 0.2298271064
0.1407780612 0.4230717674 0.2747797397
0.1395212627 0.4179096770 0.2632581472
0.1381237170 0.4104855130 0.2509567223
0.1381237170 0.4017577182 0.2367174083
0.1430727747 0.3936717003 0.2250075700
0.1539170614 0.3881552285 0.2157373865
0.1696634595 0.3846408808 0.2090784124
0.1903201978 0.3819960256 0.2036742672
0.2169843689 0.3823737462 0.1986477401
0.2445894438 0.3824348560 0.1941155519
0.2784374227 0.3836741340 0.1902558621
0.3167748686 0.3854001243 0.1864945149
0.3587769148 0.3901557247 0.1847266168
0.4039991764 0.3965487410 0.1837067742
0.4510677079 0.4020862707 0.1830196607
0.4977220726 0.4054969351 0.1811631447
0.5432098200 0.4104641609 0.1785891349
0.5861563844 0.4140925217 0.1764027388
0.6241914807 0.4165856525 0.1752852398
0.6601885527 0.4172929076 0.1749174406
0.6930038034 0.4186179766 0.1745287004
0.7211555144 0.4194436604 0.1745598055
0.7464624609 0.4196477178 0.1750784880
0.7704482333 0.4183536807 0.1765675935
0.7937530232 0.4217066627 0.1791370453
0.8160229102 0.4255122243 0.1831880428
0.8367486322 0.4283224857 0.1881228741
0.8559372953 0.4318335152 0.1932020824
0.8742744010 0.4377261418 0.1986746691
0.8907639362 0.4407716107 0.2054002062
0.9046259862 0.4458185731 0.2135503211
0.9162600175 0.4513939998 0.2218854184
0.9272518721 0.4566202522 0.2306287999
0.1497068863 0.4525634194 0.2943744724
0.1492414717 0.4496605301 0.2816806995
0.1483421674 0.4444215086 0.2689040575
0.1479374451 0.4372828847 0.2551387991
0.1513475607 0.4295790368 0.2405667687
0.1597901641 0.4235898517 0.2301090447
0.1735445474 0.4195353444 0.2220073926
0.1932437257 0.4175962338 0.2161255228
0.2196584660 0.4179138523 0.2111765319
0.2474662884 0.4183643950 0.2067499050
0.2807207495 0.4190482369 0.2022234595
0.3182786081 0.4194299603 0.1976229134
0.3591209929 0.4192615856 0.1935122063
0.4034370519 0.4244118124 0.1917014084
0.4503741030 0.4309526777 0.1907004342
0.4982599475 0.4379486812 0.1898421394
0.5445772038 0.4438364011 0.1873132522
0.5886255023 0.4491270292 0.1847975785
0.6262480278 0.4530222761 0.1836899043
0.6606003327 0.4546555493 0.1831537857
0.6941646144 0.4535430558 0.1820495540
0.7245620462 0.4551011722 0.1820705039
0.7511855631 0.4569517208 0.1827792996
0.7750625223 0.4576790140 0.1839973039
0.7972509720 0.4560765915 0.1855204404
0.8185066944 0.4592699696 0.1888365878
0.8386039752 0.4606444825 0.1931503141
0.8567339345 0.4624262643 0.1971412907
0.8731220994 0.4670039764 0.2022531629
0.8894632142 0.4686766348 0.2082773933
0.9039128746 0.4726995374 0.2163637397
0.9166727662 0.4781067526 0.2251870344
0.9275245106 0.4831609324 0.2344127794
0.1595573888 0.4842322605 0.3153520412
0.1593373240 0.4827218867 0.3066259045
0.1595814446 0.4805858719 0.2932894100
0.1594212877 0.4756344125 0.2794844222
0.1614141458 0.4703622063 0.2644141968
0.1671630218 0.4634677519 0.2505042729
0.1787668238 0.4581855234 0.2391570227
0.1970859428 0.4549981149 0.2312328264
0.2227727825 0.4541801416 0.2254967755
0.2501955746 0.4508393065 0.2189662129
0.2837915054 0.4519056670 0.2145321424
0.3214985685 0.4531635459 0.2099836923
0.3617822948 0.4540897402 0.2052081865
0.4055092877 0.4578026871 0.2017681461
0.4484872054 0.4631352998 0.2001855674
0.4944413735 0.4695337637 0.1990288971
0.5421997104 0.4767894148 0.1975148004
0.5873096806 0.4830988095 0.1959972112
0.6290002709 0.4863949096 0.1931879163
0.6645692806 0.4896817408 0.1917806674
0.6968027165 0.4917979274 0.1915533714
0.7284794706 0.4954071823 0.1919291622
0.7552891549 0.4956232030 0.1923264637
0.7793121839 0.4968992275 0.1932686394
0.8016841041 0.4980741626 0.1954785206
0.8221405187 0.4964065236 0.1977638076
0.8420882312 0.4997171136 0.2020660769
0.8608162261 0.5006763321 0.2065352835
0.8772740133 0.5013906514 0.2106078972
0.8916419318 0.5044656942 0.2163523446
0.9054465445 0.5047374368 0.2228392334
0.9178350908 0.5075802631 0.2313624878
0.9284327391 0.5118292603 0.2406122965
0.1679718835 0.5132806708 0.3365312295
0.1675584204 0.5105394606 0.3263240209
0.1682633669 0.5099765396 0.3147022940
0.1688863642 0.5071290025 0.3009206510
0.1713092612 0.5042085887 0.2858587428
0.1758848574 0.4991598235 0.2704500016
0.1850190052 0.4939662099 0.2577679407
0.2018521217 0.4902935236 0.2473498464
0.2260032661 0.4883600756 0.2401321465
0.2534987510 0.4871855867 0.2341563301
0.2869719258 0.4869617288 0.2285891240
0.3238637777 0.4885098953 0.2240691352
0.3630102306 0.4901635123 0.2195721658
0.4055002329 0.4926932120 0.2147425921
0.4501980296 0.4944615358 0.2107832772
0.4939449185 0.4999205412 0.2093084563
0.5414733103 0.5066069247 0.2080186851
0.5849903998 0.5129925976 0.2068280907
0.6281708381 0.5194121087 0.2049803894
0.6675546502 0.5220566093 0.2020151395
0.7006118991 0.5256658580 0.2013642546
0.7309675008 0.5306232303 0.2016620527
0.7585018516 0.5326717623 0.2022214483
0.7827536769 0.5341059241 0.2032802757
0.8055810692 0.5376206881 0.2061410702
0.8263767639 0.5368886065 0.2087680293
0.8463391504 0.5388842378 0.2126900578
0.8652856504 0.5413420254 0.2176181057
0.8820268424 0.5400994421 0.2217239287
0.8964905835 0.5398925068 0.2263084937
0.9088283920 0.5423344084 0.2334247890
0.9204743124 0.5420114559 0.2412783443
0.9305229735 0.5447577851 0.2504349502
0.1743088383 0.5378465367 0.3555851753
0.1746039719 0.5362849829 0.3458644768
0.1757116806 0.5359230472 0.3348551184
0.1770770776 0.5352678402 0.3215539070
0.1798681719 0.5340880388 0.3066642442
0.1845909840 0.5313551053 0.2906535004
0.1926322696 0.5282018731 0.2767335197
0.2060804238 0.5248727271 0.2653354892
0.2284217051 0.5219946394 0.2556231842
0.2562067260 0.5202376219 0.2486458832
0.2884043903 0.5208649983 0.2435318051
0.3267484454 0.5227338884 0.2391750283
0.3631331457 0.5244072700 0.2347282913
0.4052138908 0.5264218589 0.2295281410
0.4474341548 0.5280060723 0.2243672215
0.4930135123 0.5300672537 0.2208869598
0.5397841949 0.5356994178 0.2192382297
0.5833332974 0.5407364469 0.2179060358
0.6248684755 0.5467063200 0.2163490655
0.6658860341 0.5529714555 0.2140079914
0.7025228840 0.5561354749 0.2115862362
0.7323146456 0.5606922235 0.2113337967
0.7594669238 0.5639910423 0.2115099723
0.7841321711 0.5670036576 0.2131694144
0.8073057949 0.5718637485 0.2166462436
0.8286485004 0.5725640756 0.2193737870
0.8492162799 0.5753081871 0.2235027997
0.8687805094 0.5787906322 0.2286664471
0.8858599188 0.5787104854 0.2329533154
0.9010805636 0.5773717928 0.2379205705
0.9137498426 0.5780788589 0.2452652575
0.9243131996 0.5782544894 0.2529524493
0.9341431450 0.5804849407 0.2636099928
0.1797861408 0.5581109321 0.3704641604
0.1811776880 0.5591536385 0.3632061628
0.1827996749 0.5602134663 0.3542997402
0.1849621585 0.5612974963 0.3434341413
0.1882793308 0.5621601873 0.3296127046
0.1930173611 0.5621449099 0.3140119991
0.1995303460 0.5608865276 0.2986334689
0.2114166038 0.5591944289 0.2856826324
0.2294594556 0.5567338640 0.2739859235
0.2572599881 0.5523266212 0.2638212741
0.2886480954 0.5513307504 0.2580450167
0.3242601638 0.5528082130 0.2540616003
0.3646951350 0.5551414559 0.2494077527
0.4064037565 0.5569095310 0.2438841063
0.4464456101 0.5587950678 0.2390004968
0.4881087837 0.5615742078 0.2349023713
0.5335853779 0.5654373265 0.2326405135
0.5797308260 0.5679418666 0.2299283404
0.6219655703 0.5727785909 0.2282947932
0.6611792319 0.5786030957 0.2255942727
0.6996147966 0.5848193658 0.2231123570
0.7305075978 0.5873198226 0.2214441368
0.7583568065 0.5908123226 0.2213424440
0.7834717007 0.5946775421 0.2229982191
0.8067602509 0.6001263017 0.2262966867
0.8285491731 0.6023950835 0.2289679120
0.8497533604 0.6068999910 0.2334605498
0.8698740529 0.6108064169 0.2383272795
0.8884738442 0.6127044361 0.2427009331
0.9045767750 0.6133560043 0.2491089362
0.9182169792 0.6152533081 0.2570401416
0.9293890189 0.6160016415 0.2665022212
0.9382693184 0.6136321952 0.2763777383
0.1852199749 0.5759992656 0.3877412326
0.1867983613 0.5773863264 0.3813292555
0.1886710740 0.5788543296 0.3732412753
0.1912398264 0.5808546112 0.3635935423
0.1951099479 0.5833372538 0.3508190986
0.2001630381 0.5854697491 0.3361153502
0.2064873540 0.5866022263 0.3211001331
0.2158808194 0.5865542899 0.3059071426
0.2321013430 0.5854001052 0.2926447149
0.2558521529 0.5848651027 0.2813990868
0.2876727133 0.5815390978 0.2721939178
0.3230376443 0.5820368044 0.2672570916
0.3605260370 0.5841892768 0.2635010824
0.4019124855 0.5861161166 0.2586058554
0.4442804208 0.5874319493 0.2529974306
0.4850673780 0.5893714205 0.2483298361
0.5269708174 0.5922076432 0.2448888003
0.5724178010 0.5934644469 0.2418502816
0.6143820803 0.5976087506 0.2396305334
0.6545406295 0.6021897210 0.2369789023
0.6942620691 0.6061301561 0.2330112977
0.7265895839 0.6118525539 0.2321612611
0.7555834989 0.6151749816 0.2314756715
0.7813659433 0.6193791888 0.2327232091
0.8049253539 0.6252588747 0.2356077492
0.8271567034 0.6283898821 0.2383605464
0.8484169875 0.6311942480 0.2419000298
0.8690178280 0.6360801881 0.2455778320
0.8880713365 0.6408335196 0.2500319174
0.9054488763 0.6432698704 0.2561788131
0.9205580473 0.6469824962 0.2656250627
0.9328169384 0.6495111602 0.2771953917
0.9421886365 0.6484746405 0.2897466305
0.1911713489 0.5922121490 0.4015877502
0.1929350965 0.5938652642 0.3957817152
0.1952941257 0.5960503638 0.3890129574
0.1981317227 0.5985172717 0.3810697599
0.2019422144 0.6015039242 0.3703083993
0.2065809620 0.6045652984 0.3574142585
0.2130259995 0.6076161849 0.3415891147
0.2205173484 0.6097016042 0.3270078245
0.2342086715 0.6113696862 0.3130432459
0.2561782961 0.6099439470 0.2982609897
0.2831662641 0.6102956150 0.2890429645
0.3180081468 0.6093853776 0.2811705980
0.3540255305 0.6114017726 0.2770586776
0.3958027304 0.6137027623 0.2735546546
0.4379089276 0.6152725475 0.2687001453
0.4796639790 0.6158342874 0.2627527161
0.5195708840 0.6169472372 0.2579066544
