presets/标 柯达5207 -1.cube
TITLE "YINGZEJUN Copyright"
# YINGZEJUN Copyright
# SP3000 & GOLD200 
# 20241106
# Created by: Adobe Photoshop Export Color Lookup Plugin
LUT_3D_SIZE 5
0.0147400000 0.0480350000 0.0688170000
0.2618068029 0.0717515708 0.0699173136
0.5906930844 0.0998655901 0.0685270106
0.7849071222 0.1351254609 0.0865470311
0.8790579650 0.1790032736 0.1388329459
0.0697068294 0.2895127906 0.1716533904
0.2173094872 0.2553045448 0.1001739198
0.5868988713 0.2826472271 0.0877632528
0.8266006629 0.2881964379 0.0915879524
0.9367958965 0.2836207381 0.1172557697
0.1455829106 0.5109557958 0.3187014043
0.2097771982 0.5220790199 0.2089184010
0.5596226243 0.5498534687 0.1791318962
0.8243712144 0.5924075428 0.1718034655
0.9556028479 0.5984734891 0.1876958955
0.1978181748 0.6122412605 0.4177450689
0.2454840482 0.6650836355 0.3676366475
0.4503211584 0.7739471487 0.3115859406
0.8079060319 0.8102148396 0.2980563154
0.9680922320 0.8386462373 0.2855823106
0.2322470676 0.6609416675 0.4898237374
0.2839084223 0.7140058079 0.4839845743
0.4087317147 0.8244844015 0.4903037369
0.6810010963 0.9144085996 0.4041227241
0.9404864660 0.9505587218 0.4607124746
0.0567624647 0.0574301120 0.2482064110
0.2626474341 0.0771313858 0.2272072209
0.5615804906 0.1125793353 0.2196972812
0.7839609004 0.1559427906 0.2386062729
0.8934150740 0.2002028098 0.2828112081
0.0570671502 0.2579363882 0.3143218864
0.2069958243 0.2489098639 0.2639179897
0.5589811307 0.2529586519 0.2430186037
0.7994694170 0.2667812045 0.2493354532
0.9457788381 0.2600245693 0.2630048804
0.1344316692 0.5060925997 0.4680085791
0.1832783080 0.5126707645 0.3699646278
0.5321477389 0.5393150911 0.3206382996
0.8101871500 0.5767190564 0.3213645381
0.9742586772 0.5630458191 0.3102785459
0.1894890188 0.6053045600 0.5005674150
0.2268526822 0.6549341055 0.4846905410
0.4424380242 0.7634719831 0.4480067591
0.7928900028 0.7994962901 0.4313937071
0.9864019528 0.8488899087 0.4030991568
0.2185296891 0.6489688221 0.5406364387
0.2716260001 0.7090065102 0.5590811703
0.4029847673 0.8224770972 0.5798561454
0.6686331548 0.9278401131 0.5004350441
0.9503359998 0.9601064406 0.5092181743
0.1464123751 0.0799179477 0.3827287488
0.2814462681 0.0934842807 0.3764283051
0.5462230436 0.1171546607 0.3770602356
0.7532695010 0.1601475156 0.3799428647
0.8943790318 0.2272791849 0.4238498748
0.0800598975 0.2067103594 0.4671419815
0.2174132674 0.2190663756 0.4364113763
0.5372270548 0.2332808585 0.4156703260
0.7779793714 0.2736020345 0.4237892805
0.9450929156 0.3250093523 0.4698411573
0.1267269907 0.5043699336 0.6210619205
0.1802155804 0.5022025402 0.5849650077
0.5258599453 0.5297705465 0.5318053908
0.7930019283 0.5437374709 0.5130870903
0.9596670309 0.5337219440 0.5066763734
0.1920824135 0.6099647588 0.6065210892
0.2252737380 0.6530131808 0.6183730850
0.4273711372 0.7544788943 0.6420325556
0.7812019806 0.7871032247 0.6094881571
0.9774823166 0.8189958478 0.6016539844
0.2138923214 0.6354498871 0.5981350459
0.2543744307 0.6901495309 0.6258163298
0.3798213429 0.8129381907 0.6968009524
0.6537637177 0.9310228459 0.7095785798
0.9792992097 0.9858066849 0.6904419341
0.2103075888 0.1089347623 0.4929118412
0.3164255096 0.1147842979 0.4824515525
0.5248025600 0.1430244470 0.5017775190
0.7291396937 0.1874050077 0.5212688136
0.8740726360 0.2475086294 0.5420727475
0.1142942137 0.1613654296 0.6028302804
0.2467306446 0.1861578141 0.5928661781
0.5360598041 0.2308192055 0.5841790339
0.7787015428 0.2774261502 0.5868211238
0.9286074062 0.3300889441 0.6147865881
0.1370407909 0.4748163987 0.7690066408
0.2446953164 0.4875093412 0.7432107456
0.5395325559 0.5183206666 0.7060699217
0.7951270945 0.5405827241 0.6925289272
0.9546614054 0.5546273604 0.7006283322
0.1871125136 0.6250541392 0.7339123467
0.2190135937 0.6704224914 0.7730044286
0.4298076306 0.7459027389 0.8103664975
0.7843600920 0.7759012536 0.7805905736
0.9756720986 0.7892588875 0.7619909516
0.2162191846 0.6558111587 0.6841693959
0.2309881449 0.6734246203 0.6943868816
0.3397634794 0.7842054722 0.7802962765
0.5940588168 0.9176553884 0.8480336900
0.9923631236 0.9922855340 0.8680146805
0.2562821247 0.1390016801 0.5910322323
0.3520998646 0.1477603872 0.5841408638
0.5391483960 0.1698790630 0.5923784922
0.7156891135 0.2090831306 0.6229508839
0.8588500014 0.2937366588 0.6680913001
0.1502496408 0.1628331460 0.7056343050
0.2832395656 0.1716557659 0.6834396059
0.5464006657 0.1987160766 0.6737212557
0.7645376329 0.2496644165 0.6904973912
0.8907550962 0.3460378361 0.7167069121
0.0808516990 0.4539756535 0.9108228156
0.1546862396 0.4332759640 0.9071273887
0.5247602236 0.4072056308 0.8466822025
0.8276657190 0.4409112324 0.8282041421
0.9332996211 0.5062322182 0.8062598371
0.1726321712 0.6185912566 0.8342043957
0.1860824662 0.6464357438 0.8780254782
0.3066892548 0.7023269053 0.9506405325
0.7682872911 0.7286071820 0.9200231793
0.9506506859 0.7336551105 0.8829489436
0.2343337481 0.6912001589 0.7927662449
0.2343337481 0.6912001589 0.7927662449
0.3131048864 0.7680164621 0.8595767390
0.5458859292 0.8840592452 0.9510875340
0.9814150000 0.9679260000 0.9841920000
