presets/标 柯达5207 +2.cube
TITLE "YINGZEJUN Copyright"
# YINGZEJUN Copyright
# SP3000 & GOLD200 
# 20241106
# Created by: Adobe Photoshop Export Color Lookup Plugin
LUT_3D_SIZE 33
0.0054930000 0.0148930000 0.0323180000
0.0327440482 0.0235992150 0.0352684119
0.0666392712 0.0299360154 0.0397368547
0.1101157439 0.0342301053 0.0431382817
0.1696778632 0.0358163004 0.0403408493
0.2272547171 0.0346481962 0.0350756578
0.2835785909 0.0337281551 0.0306004751
0.3350321589 0.0338484460 0.0263798018
0.3801592487 0.0357953505 0.0214511010
0.4181915060 0.0388191204 0.0192960890
0.4548005483 0.0442715955 0.0162251494
0.4898785828 0.0509408856 0.0125914452
0.5218090732 0.0573459033 0.0096616961
0.5573724018 0.0627344175 0.0064418190
0.5911863911 0.0697894979 0.0029621094
0.6244547234 0.0777629229 0.0003135348
0.6558962147 0.0830323454 0.0005094793
0.6858740602 0.0910407129 0.0000000000
0.7127392479 0.0963829724 0.0000000000
0.7371268672 0.1016339232 0.0000000000
0.7610575183 0.1084687759 0.0000000000
0.7802984731 0.1127974326 0.0012659817
0.7978886810 0.1173139041 0.0029918905
0.8137440502 0.1231426044 0.0063221678
0.8289118692 0.1304401942 0.0077963674
0.8418923035 0.1356093256 0.0106445199
0.8526162778 0.1401056053 0.0238554144
0.8617595666 0.1449359631 0.0385357005
0.8704840993 0.1504621951 0.0479681726
0.8787789411 0.1559922798 0.0648302285
0.8857949599 0.1616882252 0.0787545492
0.8924638090 0.1677519231 0.0911386925
0.8984922504 0.1739359737 0.1054756511
0.0130442813 0.0504683909 0.0475094011
0.0293646376 0.0486095622 0.0413344493
0.0613493956 0.0525082524 0.0432153870
0.1077835059 0.0577112951 0.0431784151
0.1659232808 0.0602218360 0.0379647611
0.2174124732 0.0601594535 0.0332153382
0.2726523029 0.0610575672 0.0283432695
0.3228601394 0.0615650076 0.0248113234
0.3666878630 0.0622034601 0.0218402047
0.4073426814 0.0668914016 0.0185657737
0.4465736108 0.0701833787 0.0156383450
0.4842229961 0.0750796034 0.0118994250
0.5180840193 0.0800911129 0.0084656762
0.5543762515 0.0817073567 0.0053954296
0.5898353631 0.0879284598 0.0018153150
0.6234984319 0.0942696030 0.0011493435
0.6562550754 0.0988606789 0.0008376847
0.6840075047 0.1033545367 0.0000000000
0.7135800802 0.1089158089 0.0000000000
0.7398311769 0.1137467249 0.0000000000
0.7649697322 0.1198253772 0.0000000000
0.7844954339 0.1234284340 0.0000000000
0.8019696059 0.1261231945 0.0004631802
0.8180435144 0.1298799255 0.0016918695
0.8327085910 0.1354247726 0.0017480134
0.8461051700 0.1408332894 0.0000000000
0.8578153095 0.1460680414 0.0083258013
0.8672318579 0.1504250350 0.0217608299
0.8752172136 0.1547976319 0.0343633370
0.8834192905 0.1601292040 0.0525395185
0.8897919792 0.1650608421 0.0690372346
0.8963418065 0.1709599984 0.0824937241
0.9026972199 0.1772951324 0.0965666839
0.0194373421 0.0945630584 0.0707113597
0.0312404123 0.0812462811 0.0520853064
0.0575747788 0.0831945775 0.0478121359
0.1057341135 0.0893646342 0.0445922207
0.1617463132 0.0937435925 0.0394546214
0.2157283539 0.0953947761 0.0351749388
0.2680829883 0.0961153144 0.0310307939
0.3201924673 0.0979088911 0.0271672379
0.3631106125 0.0966032839 0.0246079508
0.4063689704 0.0990263292 0.0209220457
0.4469060857 0.1009080429 0.0174348231
0.4844671430 0.1034771027 0.0137952294
0.5195939347 0.1072064888 0.0096849210
0.5558453875 0.1080340692 0.0057030816
0.5919674886 0.1099190465 0.0014043508
0.6254709325 0.1169116321 0.0014702528
0.6573585696 0.1215012572 0.0001067297
0.6876196092 0.1231644042 0.0000000000
0.7163011671 0.1267245880 0.0000000000
0.7427487899 0.1302624888 0.0000000000
0.7676446587 0.1362864410 0.0000000000
0.7891760185 0.1397048908 0.0000000000
0.8069820289 0.1419840117 0.0000000000
0.8233509300 0.1438864648 0.0000000000
0.8380367802 0.1485224714 0.0000000000
0.8508276879 0.1528056396 0.0000232064
0.8622288128 0.1571261665 0.0020450776
0.8724577710 0.1611293934 0.0093968338
0.8804139013 0.1644170009 0.0208765274
0.8888075924 0.1686407708 0.0370716486
0.8953142420 0.1721247530 0.0544135379
0.9007872356 0.1758805499 0.0722678769
0.9069889550 0.1818143766 0.0877422356
0.0257945694 0.1444389849 0.0998321776
0.0320475773 0.1241036842 0.0665264806
0.0582125651 0.1217746388 0.0545986345
0.1014543573 0.1284833417 0.0497547083
0.1563474230 0.1318007556 0.0440769629
0.2120446642 0.1346172985 0.0396201680
0.2672337952 0.1365986529 0.0354300069
0.3192116823 0.1364537342 0.0313453037
0.3645322712 0.1356413354 0.0282375932
0.4094429365 0.1361337391 0.0240837008
0.4497772006 0.1359004820 0.0202432795
0.4887722458 0.1346892683 0.0162987662
0.5238392786 0.1374400185 0.0122526046
0.5613065556 0.1389479590 0.0077357590
0.5959081029 0.1409988340 0.0042423695
0.6309951603 0.1427020808 0.0022047855
0.6611044062 0.1489083042 0.0003895250
0.6922367015 0.1502058916 0.0000000000
0.7205498598 0.1511684461 0.0000000000
0.7484564007 0.1545514171 0.0000000000
0.7712629405 0.1574983603 0.0000000000
0.7930537996 0.1597169795 0.0000000000
0.8124463818 0.1607201885 0.0000000000
0.8291536910 0.1630775989 0.0000000000
0.8444732484 0.1664475940 0.0000000000
0.8564475545 0.1684997210 0.0001160794
0.8678208346 0.1712720655 0.0007327290
0.8781355671 0.1746578354 0.0017661719
0.8867764697 0.1764854348 0.0058098074
0.8948982699 0.1790573949 0.0191131160
0.9016068992 0.1816267139 0.0386631909
0.9072062518 0.1845180878 0.0565511263
0.9121935941 0.1878173173 0.0772890284
0.0315911473 0.1900631569 0.1203433223
0.0349046357 0.1693738677 0.0814994781
0.0573305587 0.1633290337 0.0634411099
0.0973562461 0.1654103684 0.0560909189
0.1500194309 0.1708653465 0.0507777461
0.2055001498 0.1730779658 0.0458871486
0.2615583779 0.1754733168 0.0417848872
0.3149691589 0.1763168786 0.0376660007
0.3632430570 0.1735079132 0.0336626420
0.4104387337 0.1752562125 0.0289668700
0.4511879886 0.1756637178 0.0248396902
0.4891484297 0.1746690338 0.0208795312
0.5282065116 0.1730705609 0.0176755543
0.5682158102 0.1744704166 0.0109219201
0.6022993876 0.1775507538 0.0073817096
0.6349467864 0.1795142383 0.0054480571
0.6684808036 0.1802885513 0.0015438908
0.7009755310 0.1852276850 0.0000000000
0.7286214196 0.1868729563 0.0000000000
0.7540070105 0.1882446637 0.0000000000
0.7796976871 0.1922878643 0.0000000000
0.8001307193 0.1933802231 0.0000000000
0.8192746608 0.1923820188 0.0000000000
0.8368941013 0.1929963379 0.0000000000
0.8527106131 0.1989182003 0.0000000000
0.8639330323 0.1967629529 0.0000000000
0.8747012100 0.1965955387 0.0000000000
0.8852549387 0.1978679855 0.0002613979
0.8950802796 0.2000063414 0.0043292853
0.9019008349 0.1992188135 0.0081355831
0.9083618619 0.1978290645 0.0228196354
0.9143172843 0.1984403139 0.0434930875
0.9192360758 0.2000307555 0.0620118018
0.0402157523 0.2344732370 0.1410606439
0.0397836654 0.2103042889 0.1003031303
0.0582197655 0.1998417265 0.0768935590
0.0920663095 0.1989709552 0.0674156785
0.1377828590 0.2023772115 0.0617227451
0.1920483392 0.2043353811 0.0552224026
0.2479457747 0.2083278302 0.0501178556
0.3028518895 0.2112491231 0.0455389645
0.3533616300 0.2104806530 0.0409228657
0.4007453799 0.2124068363 0.0370977790
0.4424567847 0.2107253835 0.0337639850
0.4830334207 0.2104227988 0.0297956442
0.5253457867 0.2115338944 0.0246968756
0.5653662696 0.2126533156 0.0195981018
0.6041680854 0.2142347379 0.0134268908
0.6392377852 0.2176521038 0.0087473739
0.6744111810 0.2221309891 0.0042999517
0.7042006427 0.2231356119 0.0008059417
0.7350271714 0.2262847907 0.0000000000
0.7621300068 0.2280789071 0.0000000000
0.7879150761 0.2319271418 0.0000000000
0.8090482702 0.2365966152 0.0000000000
0.8279583568 0.2377423513 0.0000000000
0.8448491556 0.2365999592 0.0000000000
0.8597818792 0.2371042309 0.0000000000
0.8731743048 0.2371226128 0.0000000000
0.8843447428 0.2329915940 0.0000000000
0.8942192267 0.2303262358 0.0000000000
0.9035294335 0.2295044223 0.0002470925
0.9104013728 0.2272823633 0.0002764155
0.9168564427 0.2234576228 0.0108358244
0.9226331931 0.2201562639 0.0281250825
0.9275604946 0.2185219294 0.0464155336
0.0502229126 0.2708879313 0.1588665464
0.0492072802 0.2486814753 0.1188393737
0.0611127470 0.2361905375 0.0930053124
0.0891766270 0.2324498711 0.0803474224
0.1288914135 0.2336649430 0.0741795957
0.1784943551 0.2337424019 0.0675205937
0.2297223383 0.2373815294 0.0616176368
0.2858053493 0.2415563526 0.0562692392
0.3393197075 0.2427985965 0.0519993987
0.3891459815 0.2472366628 0.0472269423
0.4355926691 0.2505673750 0.0436903322
0.4743882645 0.2479469331 0.0406381385
0.5164694332 0.2492480072 0.0347754845
0.5573003346 0.2509093167 0.0295156999
0.5974213161 0.2536593255 0.0218725321
0.6354131732 0.2557028379 0.0153480064
0.6716615192 0.2606322207 0.0098290544
0.7053205047 0.2632517638 0.0042272212
0.7369717679 0.2669985020 0.0011661490
0.7655510672 0.2692825931 0.0000000000
0.7915036704 0.2727500084 0.0000000000
0.8150115647 0.2805103371 0.0000000000
0.8345130498 0.2827797414 0.0000000000
0.8521422181 0.2845074690 0.0000000000
0.8676424821 0.2842781000 0.0000000000
0.8808928078 0.2786228139 0.0000000000
0.8931087214 0.2770150007 0.0000000000
0.9032033445 0.2712871340 0.0000000000
0.9116806733 0.2668820942 0.0000167462
0.9194564220 0.2634743117 0.0001800904
0.9257772962 0.2592047246 0.0061015754
0.9312638023 0.2537986066 0.0192118093
0.9360107201 0.2498072333 0.0346604460
0.0614667451 0.3028028776 0.1782922335
0.0603565343 0.2842591613 0.1417881602
0.0686237784 0.2716263506 0.1139817378
0.0881816431 0.2655738921 0.0962125288
0.1229203070 0.2655276090 0.0891039114
0.1685555550 0.2653433376 0.0821170944
0.2164530929 0.2661917213 0.0764567650
0.2679571648 0.2713298817 0.0701303627
0.3243095669 0.2734453436 0.0650464038
0.3752282198 0.2793612284 0.0604887199
0.4235129758 0.2835230623 0.0552553816
0.4681939056 0.2881723280 0.0507950534
0.5066403059 0.2868942209 0.0461627380
0.5478903889 0.2894641186 0.0410660753
0.5864974929 0.2921092163 0.0339051272
0.6259323281 0.2962198597 0.0250315164
0.6628885942 0.2990713534 0.0187040015
0.6986633073 0.3019299654 0.0128463563
0.7324332493 0.3055101289 0.0070779248
0.7634990215 0.3105966053 0.0020759414
0.7885886277 0.3129884293 0.0005852204
0.8132997045 0.3205894675 0.0006835453
0.8349358467 0.3247329170 0.0008213397
0.8533898309 0.3266122576 0.0008213397
0.8706997895 0.3291062396 0.0003944212
0.8852554869 0.3227913184 0.0000000000
0.8980647960 0.3181508083 0.0000000000
0.9094690200 0.3160147920 0.0000000000
0.9186306544 0.3100288762 0.0000000000
0.9267820351 0.3049984265 0.0000000000
0.9336496985 0.3006417916 0.0054538402
0.9395545371 0.2929669880 0.0165212765
0.9440942016 0.2876899566 0.0295830358
0.0726817287 0.3330465088 0.2006176964
0.0707609574 0.3173710011 0.1678603168
0.0764579117 0.3058538886 0.1404294217
0.0914237261 0.2987150958 0.1193636535
0.1187566529 0.2964222234 0.1059602662
0.1594170987 0.2976921996 0.0982543878
0.2051463171 0.2976049876 0.0927910660
0.2551047962 0.2988782427 0.0865033680
0.3108818588 0.3049729789 0.0784242886
0.3607430062 0.3107394793 0.0746462063
0.4103300660 0.3149932183 0.0691819640
0.4569864711 0.3192180253 0.0630150896
0.5008552511 0.3250988994 0.0568946326
0.5416970218 0.3287242150 0.0515885937
0.5789270732 0.3318164328 0.0457144703
0.6146388335 0.3352700011 0.0385868627
0.6524814960 0.3399652794 0.0293121670
0.6878482888 0.3429478026 0.0228630928
0.7211215518 0.3458826728 0.0187360276
0.7525879508 0.3492334115 0.0144101188
0.7818277957 0.3537569357 0.0091930843
0.8060733459 0.3582039665 0.0058391634
0.8278271203 0.3610059756 0.0042400440
0.8482098945 0.3636862170 0.0034123408
0.8666181890 0.3669651253 0.0016271762
0.8834677788 0.3647597529 0.0002370755
0.8983595377 0.3622752019 0.0000000000
0.9114198102 0.3594908751 0.0000000000
0.9226389562 0.3565546423 0.0002326359
0.9322367771 0.3520431947 0.0008443510
0.9395190015 0.3474212994 0.0082726965
0.9457125778 0.3404080421 0.0179320821
0.9508790642 0.3267594873 0.0316218853
0.0852748470 0.3625073313 0.2202879448
0.0829823358 0.3520123284 0.1953010499
0.0857624292 0.3411017733 0.1675608530
0.0975179152 0.3333897332 0.1440192969
0.1211606687 0.3291894663 0.1259234991
0.1549681432 0.3290351575 0.1156471574
0.1998405121 0.3310212739 0.1084823647
0.2477783513 0.3326361885 0.1026613866
0.2987176634 0.3368334527 0.0952795517
0.3488981277 0.3393694257 0.0884274866
0.3973456420 0.3457337600 0.0834424427
0.4448655575 0.3520474556 0.0775609175
0.4894710063 0.3590568230 0.0715342991
0.5315915776 0.3646676563 0.0667328385
0.5717032038 0.3699341960 0.0586635496
0.6091614605 0.3741309079 0.0509817821
0.6457254835 0.3784435480 0.0434130284
0.6812089955 0.3833180248 0.0342285082
0.7116391237 0.3863071398 0.0307465258
0.7419761138 0.3881562062 0.0265891539
0.7721514146 0.3898932327 0.0207094850
0.7991758094 0.3942122119 0.0163767689
0.8214931067 0.3973527710 0.0151821197
0.8424153062 0.3998435694 0.0133482100
0.8618650032 0.4033405074 0.0102876495
0.8800204252 0.4019736347 0.0071515056
0.8960416791 0.4020824325 0.0053973251
0.9101379495 0.4010745887 0.0054087093
0.9225013452 0.3984889611 0.0056925073
0.9334552262 0.3948914960 0.0077580820
0.9424998221 0.3876738113 0.0142828134
0.9494785245 0.3816386984 0.0257686266
0.9559208004 0.3746879309 0.0389609745
0.0993663149 0.3953038011 0.2444436348
0.0981114037 0.3873281604 0.2227755373
0.0981990321 0.3780602550 0.1956959633
0.1066530224 0.3705447651 0.1715401783
0.1259360941 0.3654579366 0.1499960541
0.1568589367 0.3641520516 0.1342421558
0.1955138495 0.3625418960 0.1250572849
0.2433945084 0.3650559925 0.1181835870
0.2923465147 0.3686465314 0.1119041634
0.3376343427 0.3715478726 0.1053108748
0.3858861261 0.3765527613 0.0989719544
0.4326485427 0.3832884455 0.0929674397
0.4787360170 0.3910618217 0.0872439165
0.5222189870 0.3983954736 0.0812735660
0.5633963537 0.4024385586 0.0755208508
0.6024729822 0.4087366891 0.0663718796
0.6391927749 0.4138385717 0.0590503467
0.6744685596 0.4192092192 0.0497620706
0.7069919731 0.4234677490 0.0439551821
0.7356600688 0.4269736608 0.0400603630
0.7649207767 0.4286996535 0.0338757096
0.7900903893 0.4328107655 0.0298361537
0.8140768726 0.4340801518 0.0260836650
0.8352290602 0.4364184310 0.0243343799
0.8548501528 0.4395389985 0.0208963077
0.8736008364 0.4398671884 0.0181039629
0.8907884047 0.4379602047 0.0145606258
0.9060756475 0.4389966453 0.0132486428
0.9198048061 0.4375505642 0.0135900973
0.9320938041 0.4322722915 0.0153580945
0.9412637576 0.4292783037 0.0233512761
0.9497944936 0.4223801206 0.0342859099
0.9567812524 0.4185184291 0.0482761612
0.1151828706 0.4275170837 0.2705709200
0.1138971870 0.4216928704 0.2495735847
0.1139041365 0.4144383944 0.2254215841
0.1185805417 0.4072387324 0.1977748689
0.1334088083 0.4019741829 0.1744956328
0.1594564470 0.3993463591 0.1549432650
0.1957110931 0.3980460179 0.1425312741
0.2394559553 0.3975478634 0.1345051315
0.2886318654 0.4009341445 0.1281896215
0.3322993067 0.4048847428 0.1228139427
0.3779563957 0.4097331064 0.1167631459
0.4243603284 0.4146934074 0.1104215813
0.4697272342 0.4215604891 0.1043268819
0.5143271114 0.4294692793 0.0982599774
0.5569017169 0.4361755276 0.0917965112
0.5969302297 0.4410608838 0.0845675925
0.6345567183 0.4480499368 0.0753554657
0.6703098661 0.4545502572 0.0662068036
0.7017163015 0.4595124366 0.0605668317
0.7322000781 0.4628501941 0.0554527202
0.7608834667 0.4675350156 0.0492859405
0.7859403301 0.4718318000 0.0448563262
0.8086125412 0.4740327289 0.0406124034
0.8298828843 0.4729117034 0.0356608904
0.8496431298 0.4757379750 0.0325346390
0.8681831288 0.4771288470 0.0303890948
0.8853160686 0.4754471952 0.0266867979
0.9009100932 0.4735978672 0.0234872719
0.9159780336 0.4737691219 0.0226477750
0.9290782301 0.4683459502 0.0242786714
0.9393724664 0.4647565363 0.0324771604
0.9476603726 0.4620255795 0.0437006896
0.9553601303 0.4587409913 0.0586536144
0.1306906987 0.4563476145 0.2944936486
0.1297382686 0.4523090777 0.2727981240
0.1298535034 0.4467845590 0.2492579306
0.1327357789 0.4409657635 0.2232880805
0.1432032703 0.4354483325 0.1962121893
0.1635753188 0.4321815019 0.1763971140
0.1948988986 0.4310189035 0.1623549279
0.2365098659 0.4321790848 0.1531517065
0.2853347634 0.4351606995 0.1464078751
0.3293544345 0.4390964715 0.1415593647
0.3750974968 0.4438957870 0.1361137805
0.4204782184 0.4479544706 0.1296044023
0.4653361436 0.4508770674 0.1224231625
0.5093965309 0.4579590929 0.1163703927
0.5526768045 0.4660231231 0.1100662254
0.5943377575 0.4746292677 0.1029397706
0.6335028274 0.4828781062 0.0941952431
0.6697933613 0.4909672958 0.0852149226
0.7005235244 0.4973320739 0.0801279073
0.7290677727 0.5016035403 0.0751760105
0.7579717792 0.5033960166 0.0673108610
0.7850494571 0.5083671413 0.0618197725
0.8086145211 0.5125499474 0.0569272846
0.8298375397 0.5143250099 0.0521064337
0.8493686392 0.5125554688 0.0467345197
0.8674398718 0.5145645415 0.0426744207
0.8841143938 0.5127169684 0.0380699599
0.8990314922 0.5100420233 0.0340507287
0.9124445440 0.5098010199 0.0323575717
0.9254292013 0.5042484762 0.0333582410
0.9364929281 0.5010489004 0.0414163886
0.9455883909 0.4986096254 0.0543820377
0.9532668463 0.4955694222 0.0693255291
0.1480072544 0.4859028423 0.3176167822
0.1473640626 0.4834362269 0.3031264564
0.1475710174 0.4802255013 0.2806935413
0.1490934748 0.4758237946 0.2559354553
0.1556345372 0.4718001917 0.2293088074
0.1707142392 0.4678251759 0.2052752422
0.1969616535 0.4658401303 0.1866492346
0.2353598986 0.4662937064 0.1742555811
0.2829880420 0.4688275185 0.1664677265
0.3278323468 0.4694199428 0.1578350788
0.3738683483 0.4743088671 0.1529940347
0.4194154742 0.4794789784 0.1473211858
0.4631876242 0.4837804728 0.1407542078
0.5067282421 0.4902284908 0.1348647034
0.5464597560 0.4971059970 0.1291495834
0.5868591898 0.5049514872 0.1229265742
0.6276646784 0.5143737148 0.1155887374
0.6653567318 0.5236139004 0.1072223186
0.7002273212 0.5304801903 0.0979848243
0.7297345134 0.5365200330 0.0931600098
0.7569517952 0.5414979068 0.0891535685
0.7847277115 0.5479988293 0.0836733512
0.8087478794 0.5503805029 0.0770848729
0.8305025159 0.5531898475 0.0716559497
0.8502365518 0.5550100126 0.0667278756
0.8681056722 0.5529235313 0.0607216483
0.8850161404 0.5543932993 0.0560099701
0.9004037926 0.5513594942 0.0499983583
0.9138153813 0.5471595615 0.0460842716
0.9247757659 0.5454896394 0.0471839153
0.9354047489 0.5386848509 0.0531085584
0.9445681575 0.5345431782 0.0644327696
0.9523004378 0.5314139597 0.0788721365
0.1647176187 0.5124877396 0.3410679891
0.1632628172 0.5090461891 0.3254839587
0.1639761259 0.5080749011 0.3069280811
0.1652428572 0.5050321984 0.2829453832
0.1701232014 0.5023867072 0.2575749786
0.1810609543 0.4990670935 0.2310671681
0.2012743922 0.4970458566 0.2107312075
0.2356158043 0.4970224577 0.1949421451
0.2816360100 0.4994535546 0.1853161585
0.3262289367 0.5023187878 0.1773238915
0.3726399073 0.5059666558 0.1718237512
0.4169083684 0.5109784602 0.1668807888
0.4592212193 0.5159072485 0.1609178689
0.5020670111 0.5214856366 0.1547170591
0.5437762505 0.5257993149 0.1475679169
0.5820433095 0.5326780713 0.1418037768
0.6221910463 0.5410511005 0.1356551059
0.6587106624 0.5500050140 0.1291332269
0.6951820407 0.5599185681 0.1217202490
0.7289738842 0.5667217126 0.1127109634
0.7573045035 0.5734603778 0.1085556438
0.7840633204 0.5809664085 0.1033310147
0.8090061334 0.5853459680 0.0966556046
0.8313165482 0.5885565115 0.0903927292
0.8516761384 0.5928836312 0.0860706874
0.8702170788 0.5927293127 0.0798514468
0.8874358091 0.5939095263 0.0743729435
0.9034775811 0.5938443387 0.0685732641
0.9168649046 0.5886883968 0.0625998387
0.9281748537 0.5833805923 0.0622086125
0.9373999857 0.5806314423 0.0671400817
0.9459788720 0.5742394360 0.0765878713
0.9534021521 0.5706414813 0.0909831910
0.1796595487 0.5349088185 0.3607039284
0.1789397995 0.5329614449 0.3468370102
0.1793841271 0.5321715928 0.3300182831
0.1809770619 0.5310986606 0.3078227709
0.1848527088 0.5296489010 0.2831141536
0.1936445244 0.5276524088 0.2563865380
0.2094091806 0.5261710896 0.2334119074
0.2359618501 0.5262232163 0.2163387965
0.2787686229 0.5285925764 0.2040319097
0.3239937543 0.5314471430 0.1956641998
0.3688090764 0.5357589511 0.1909264422
0.4149648536 0.5407319202 0.1863851895
0.4543675608 0.5450087806 0.1811253625
0.4967951940 0.5498766487 0.1745016102
0.5366654241 0.5542078622 0.1679953722
0.5767211562 0.5586655585 0.1610499993
0.6157064921 0.5659154465 0.1553755805
0.6519862190 0.5728933546 0.1493906115
0.6869302209 0.5818169769 0.1434557428
0.7223885215 0.5919757419 0.1357092008
0.7550205987 0.5995219326 0.1275027819
0.7819184523 0.6070408903 0.1216751618
0.8070166942 0.6129224914 0.1153703985
0.8300284350 0.6175819270 0.1090886325
0.8510897949 0.6232678662 0.1045612470
0.8703482258 0.6249819082 0.0982577404
0.8883155373 0.6277862351 0.0928582157
0.9052869077 0.6302521264 0.0867604224
0.9196599208 0.6278583138 0.0810755641
0.9318203432 0.6232498493 0.0790924409
0.9414955969 0.6194926587 0.0835076965
0.9493684407 0.6145693683 0.0925742757
0.9565032194 0.6108581494 0.1060992060
0.1929241537 0.5530885382 0.3750424650
0.1939006470 0.5537274846 0.3639027480
0.1950820401 0.5543276297 0.3500922571
0.1968649941 0.5547219728 0.3323522481
0.2002393236 0.5548591378 0.3093684261
0.2070247557 0.5544061847 0.2832107645
0.2184704907 0.5542221396 0.2587082358
0.2396634559 0.5547457363 0.2385215066
0.2734069717 0.5569889077 0.2244667962
0.3191408063 0.5582707478 0.2138783652
0.3635833348 0.5614026390 0.2087333887
0.4068975691 0.5657860004 0.2048840483
0.4509627943 0.5702849437 0.1995677475
0.4931314650 0.5745164762 0.1932345737
0.5310167475 0.5787769911 0.1872354668
0.5675638358 0.5836520974 0.1819649309
0.6053954625 0.5894798607 0.1763837540
0.6433878016 0.5943516621 0.1693687679
0.6784170991 0.6013334359 0.1635857553
0.7122424813 0.6102412339 0.1573012240
0.7465096129 0.6205147215 0.1478689615
0.7752421225 0.6274037668 0.1402206286
0.8013561952 0.6335054926 0.1334962309
0.8251297674 0.6393462700 0.1276543682
0.8470238963 0.6457002572 0.1231029257
0.8674767680 0.6489114363 0.1161605943
0.8862990551 0.6538132354 0.1101851270
0.9041812498 0.6576143080 0.1043180653
0.9202608066 0.6586038841 0.0987505665
0.9337953609 0.6576710349 0.0969073444
0.9446640146 0.6564990844 0.1013664960
0.9533077708 0.6536781254 0.1109901279
0.9599183477 0.6465231229 0.1231291265
0.2053174010 0.5683611707 0.3922080890
0.2065539352 0.5694273809 0.3823904118
0.2080457434 0.5705282643 0.3697397178
0.2102411802 0.5719677457 0.3542887309
0.2135957279 0.5733434741 0.3331269977
0.2195696195 0.5745473809 0.3085710231
0.2287580644 0.5757317254 0.2844419104
0.2446350466 0.5773144860 0.2619886097
0.2731245988 0.5799143287 0.2452445932
0.3106773052 0.5840413358 0.2327311709
0.3570673087 0.5860807330 0.2245644548
0.4006586727 0.5897860561 0.2201640062
0.4422263867 0.5937951188 0.2157906363
0.4846144438 0.5975764218 0.2099204898
0.5249825194 0.6012318224 0.2034299786
0.5609701805 0.6051869658 0.1977632306
0.5956843196 0.6098828801 0.1927864009
0.6326937751 0.6133676001 0.1854725645
0.6669633556 0.6193266211 0.1799556251
0.7013102112 0.6266826317 0.1735546660
0.7374236582 0.6353891037 0.1642123455
0.7665564336 0.6444310611 0.1588934742
0.7940674132 0.6514253809 0.1520405164
0.8188667353 0.6578648445 0.1461386404
0.8415630409 0.6646832884 0.1418146813
0.8627989698 0.6686516673 0.1350852502
0.8824340168 0.6720814036 0.1271083518
0.9007893860 0.6768503244 0.1200789518
0.9174147925 0.6811247456 0.1137633892
0.9324830646 0.6829119460 0.1116715144
0.9449996827 0.6845641530 0.1163164968
0.9547971156 0.6842622936 0.1270456373
0.9621768611 0.6802539098 0.1406601136
0.2173954116 0.5812522520 0.4041892910
0.2188883308 0.5826338835 0.3949755537
0.2207514850 0.5843499004 0.3838102438
0.2232107526 0.5863138482 0.3707121222
0.2268681470 0.5887263857 0.3531724408
0.2320653673 0.5912553268 0.3324728216
0.2406176594 0.5941728051 0.3075864522
0.2520484775 0.5969723344 0.2853594223
0.2735810093 0.6006559814 0.2665651551
0.3073424762 0.6036107130 0.2507909920
0.3459807708 0.6083951126 0.2427785734
0.3904815586 0.6117954897 0.2361186662
0.4311159680 0.6159628254 0.2317033720
0.4742621113 0.6197396746 0.2267059707
0.5151835352 0.6229471972 0.2204604896
0.5526491468 0.6254514642 0.2137746890
0.5861203488 0.6284081464 0.2078908148
