presets/标2 柯达5207 -1.cube
TITLE "YINGZEJUN Copyright"
# YINGZEJUN Copyright
# SP3000 & GOLD200 
# 20241106
# Created by: Adobe Photoshop Export Color Lookup Plugin
LUT_3D_SIZE 5
0.0672000000 0.0481260000 0.0930180000
0.2468480465 0.0780374142 0.0959118360
0.5378105500 0.0734846769 0.0537998071
0.7252406623 0.0674933837 0.0272306339
0.8279484353 0.0855379791 0.0449423424
0.0805573852 0.2294471379 0.1505699816
0.2083420839 0.2597581630 0.1228419051
0.5490035512 0.2764938197 0.0793723260
0.7746996269 0.2467115844 0.0359342956
0.8680469694 0.2284555170 0.0350500644
0.0904099042 0.3765287223 0.2370265742
0.1257035681 0.4568078264 0.2165404173
0.5055470186 0.5490487771 0.1542167069
0.7772200236 0.5707117741 0.0855187072
0.8721922079 0.5223153991 0.0931733971
0.1052541416 0.4561819133 0.3098649379
0.1323666036 0.5115181447 0.2921711435
0.3583934946 0.7181189164 0.2786143560
0.7566695331 0.7857774331 0.2003225528
0.8989988872 0.8016845386 0.2133092768
0.1201397960 0.4865032761 0.3581229260
0.1512511454 0.5339756812 0.3474489520
0.2758907023 0.6788527319 0.3748983179
0.6131509596 0.8143367227 0.3371928927
0.8389167530 0.8576223302 0.3510468835
0.0797401323 0.0528572846 0.1949242761
0.2334286002 0.0808982673 0.1958124867
0.5168651197 0.0977538509 0.1567016152
0.7397047610 0.0995228700 0.1494243830
0.8343379442 0.1353458556 0.1725356974
0.0784106104 0.2047325466 0.2850446185
0.2091926677 0.2479310850 0.2549387086
0.5490932001 0.2618590000 0.1966072234
0.7658882980 0.2335318041 0.1658915590
0.8840182447 0.2308807984 0.1511027900
0.0871626801 0.3729659366 0.3607608248
0.1162318193 0.4558762643 0.3441547660
0.4950855735 0.5402686637 0.3122133820
0.7755707973 0.5683948218 0.2542141364
0.9039225096 0.5243037987 0.2283997659
0.1135298920 0.4640602873 0.4152332563
0.1402648802 0.5145471538 0.4062000088
0.3351347032 0.6835097844 0.4269891096
0.7416275967 0.7697209956 0.3628720695
0.9229602802 0.8165672396 0.3208836009
0.1268208073 0.4900546842 0.4370342620
0.1537882515 0.5333751367 0.4296857347
0.2590167852 0.6592142200 0.4605576573
0.5932422746 0.8177305743 0.4252487772
0.8519152236 0.8691347417 0.4230236469
0.1027528586 0.0622418930 0.3124416170
0.2285522653 0.0793594577 0.3221066962
0.4842243660 0.0887571120 0.2943730988
0.6873689310 0.1026511478 0.2932197204
0.8042925962 0.1563151975 0.3054919389
0.0868979672 0.1623389139 0.4363762195
0.2066161400 0.2058030112 0.4157453195
0.5348450901 0.2320887139 0.3757801645
0.7496836804 0.2486829993 0.3518332539
0.8675188801 0.2681597436 0.3237083711
0.0919578263 0.3870397160 0.5267610125
0.1379885981 0.4797763336 0.6309886930
0.5193021558 0.5394823388 0.5228495656
0.7734124513 0.5472893818 0.4706178904
0.8933156166 0.5070769538 0.4128718891
0.1208226558 0.4861044461 0.5520148732
0.1551167081 0.5427931721 0.5830263952
0.3698690292 0.6646588013 0.6244811302
0.7504555869 0.7608437126 0.5837305585
0.8973533220 0.7770622998 0.5419199055
0.1193461297 0.4831464387 0.5309454076
0.1510275262 0.5328808787 0.5478592891
0.2577911169 0.6443945916 0.5916764487
0.5642919521 0.8004147323 0.6355335415
0.8691443209 0.8864754250 0.6251185980
0.1352059496 0.0699834063 0.4070562494
0.2532166285 0.0850613819 0.4073040416
0.4856713659 0.0989837518 0.4066675540
0.7052954531 0.1278903603 0.4403906531
0.7938969681 0.1780683119 0.4304082289
0.1101469779 0.1437337490 0.5758203195
0.2522204827 0.1848122706 0.5577526435
0.5583707401 0.2234154678 0.5389057352
0.7595549697 0.2407578303 0.5208056713
0.8388032912 0.2641650846 0.4771434476
0.1394582365 0.4103661493 0.7325578884
0.2401888426 0.4655705710 0.7462442459
0.5478621313 0.5269791896 0.6945313708
0.7779682605 0.5375918536 0.6544288829
0.8869920548 0.5171114904 0.5947175158
0.1326439370 0.5071202340 0.6762702556
0.1765772078 0.5706950878 0.7522525150
0.4238867612 0.6704857662 0.7858472175
0.7666423520 0.7619543080 0.7629946696
0.9019344061 0.7581268395 0.7139528435
0.1335447803 0.5138717654 0.6243205487
0.1502616489 0.5321884070 0.6401662162
0.2487849354 0.6285556223 0.7048859693
0.5605050012 0.7947071668 0.7940623747
0.9085836505 0.9167639590 0.8404802740
0.1719261062 0.0773764124 0.4737723533
0.2814527228 0.0918330979 0.4716337736
0.4991852325 0.1134584536 0.4891752058
0.6796481218 0.1522063876 0.5228075635
0.7741362279 0.2029178942 0.5352801023
0.0999920202 0.0993933063 0.6590902947
0.2417130309 0.1297071130 0.6307797074
0.5516219692 0.1806553493 0.6054939896
0.7394909705 0.2284465882 0.5988897449
0.8087715589 0.2566539128 0.5757847571
0.1767858111 0.3886333762 0.8145277764
0.2521220818 0.4582359187 0.8809965316
0.5994472006 0.5055315748 0.8440149798
0.8579932694 0.4932508131 0.8101326386
0.8879620541 0.4785381843 0.7178562522
0.1318229751 0.4858514688 0.7344882565
0.1684366456 0.5339400529 0.8073731811
0.3986080601 0.6473167441 0.9144339925
0.7881295807 0.7407356394 0.9024088169
0.9241988497 0.7435641468 0.8613509474
0.1622072608 0.5607071448 0.7460651728
0.1622072608 0.5607071448 0.7460651728
0.2562249817 0.6240779762 0.8020324268
0.5858786618 0.8052535962 0.9267466523
0.9767760000 0.9682920000 0.9932560000
