presets/标2 柯达5207 -S.cube
TITLE "YINGZEJUN Copyright"
# YINGZEJUN Copyright
# SP3000 & GOLD200 
# 20241106
# Created by: Adobe Photoshop Export Color Lookup Plugin
LUT_3D_SIZE 5
0.0343630000 0.0108340000 0.0351260000
0.2494416659 0.0518764843 0.0466755129
0.5191462382 0.0590115323 0.0257510512
0.7014387097 0.0616435846 0.0026556580
0.8155750070 0.0617747305 0.0036002250
0.0508366163 0.2105304917 0.1170104324
0.2194272539 0.2677926477 0.1048706003
0.5645154994 0.2858363121 0.0549249012
0.7510442040 0.2624663312 0.0226697473
0.8511003876 0.2320302412 0.0297545445
0.0358721565 0.4214453262 0.1995118302
0.1674493508 0.4949085116 0.1871562828
0.5172028444 0.5572767823 0.1340938083
0.7525558726 0.5647477034 0.0941275581
0.8557511837 0.5311520357 0.1293919934
0.0712579322 0.4897495871 0.2910037588
0.1289328524 0.5689198867 0.2406705553
0.4748881039 0.6953113608 0.2260654435
0.7273365645 0.7650327262 0.2131543534
0.8758391955 0.7821992575 0.2378593226
0.1018700878 0.5212300372 0.3650056521
0.1672875730 0.5868711095 0.3495026637
0.3991764283 0.7218748632 0.3183165755
0.6434669403 0.8141084264 0.3427107681
0.8143884430 0.8666422580 0.4014473137
0.0563810921 0.0301649236 0.1741694788
0.2282721834 0.0630506192 0.1696228584
0.4986165241 0.0960261419 0.1630179028
0.6994185592 0.1097728680 0.1504351895
0.8577216934 0.1177234544 0.1474469544
0.0600582834 0.2009041790 0.2869278283
0.2314763049 0.2667073174 0.2796045204
0.5394866702 0.2736144338 0.2287704088
0.7445262425 0.2404581780 0.1838492869
0.9081347162 0.2041964124 0.1472020206
0.0648731230 0.3900779164 0.3820115615
0.1725750344 0.4547642294 0.3570463574
0.4994853130 0.5380611860 0.3196219040
0.7509305954 0.5697251310 0.2918335186
0.9097734724 0.5345685193 0.2466175182
0.0942598963 0.4805636197 0.4252254107
0.1247936574 0.5350021544 0.4090039354
0.4453514572 0.6662463230 0.3914015900
0.7286586668 0.7581897137 0.3823863299
0.9245233623 0.8152324843 0.3454987672
0.1167619857 0.5137371877 0.4562911322
0.1709986263 0.5747872818 0.4611159190
0.3347855532 0.7020627951 0.4121820288
0.6395992789 0.8287090033 0.4132307963
0.8402366746 0.8886192525 0.4600278795
0.0730940543 0.0286103345 0.2948679418
0.1987513358 0.0429963870 0.2914014545
0.4456800267 0.0625921001 0.2777838734
0.6858034120 0.0934320318 0.2792668571
0.8796350482 0.1315879560 0.2889968173
0.0789099940 0.1837324554 0.4530437425
0.2137533146 0.2257815714 0.4316255732
0.5303940434 0.2540025664 0.3940535697
0.7439524359 0.2676071511 0.3651469633
0.8983345411 0.3084843895 0.3695107563
0.0773447784 0.3928029362 0.5681937266
0.1957245484 0.4500724312 0.5630538408
0.5304126967 0.5414444262 0.5332635710
0.7482031495 0.5398841095 0.4873391662
0.8983495966 0.5326489773 0.4484931328
0.1126065013 0.4938415883 0.5773725465
0.1509856474 0.5497800856 0.5987911577
0.4587735428 0.6616772395 0.5998376124
0.7275486099 0.7436729596 0.5899034384
0.9031550659 0.7766510011 0.5722856492
0.1228421861 0.5060343621 0.5551648498
0.1539698042 0.5602299191 0.5717658974
0.3312470514 0.6850376574 0.5950083852
0.6300997820 0.8233138710 0.6110726856
0.8605725638 0.8936450148 0.6277080819
0.0812639918 0.0275019238 0.3992209365
0.1906281320 0.0414997896 0.3914495013
0.4002834684 0.0380829155 0.3803371831
0.7002951877 0.0796095681 0.4261101477
0.8860065486 0.1826182105 0.4572607054
0.0952402398 0.1507223914 0.5878204496
0.2410255695 0.2110380292 0.5790739746
0.5298430241 0.2602518783 0.5585240066
0.7405166496 0.2933354000 0.5294260847
0.9022751248 0.3288773225 0.5232931627
0.1458859691 0.4171982139 0.7486576406
0.2612443650 0.4590330681 0.7280454594
0.5325467399 0.5085854201 0.6849541098
0.7494124316 0.5291143252 0.6468548049
0.8982346167 0.5511088015 0.6296250635
0.1364708807 0.5209201615 0.7324720859
0.1936326034 0.5718173985 0.7877516192
0.4748768084 0.6581999796 0.7722692172
0.7407598704 0.7370642688 0.7590503464
0.9068685960 0.7673574672 0.7340847196
0.1349557967 0.5293278265 0.6551434098
0.1526083649 0.5475317187 0.6722277080
0.3243204091 0.6675835203 0.7516158992
0.6310577057 0.8196454568 0.7983570157
0.9043313915 0.9137075937 0.8373265711
0.0891526037 0.0296093044 0.5022757350
0.1896228288 0.0395439277 0.4902754434
0.4147706563 0.0421594827 0.4873534286
0.6350693140 0.0422092517 0.4873900989
0.8501667920 0.1983684470 0.5379939146
0.0723814631 0.0727838403 0.6811729534
0.1468010800 0.0858287534 0.6667868541
0.4617547901 0.0901899658 0.5988494228
0.7411500537 0.1403910460 0.5862471716
0.8971279195 0.3294965767 0.6274593979
0.1699452538 0.4227526204 0.8732111098
0.2665668431 0.4814539354 0.8727640393
0.5547700518 0.5233158839 0.8689374330
0.8114604237 0.5410330485 0.8389036215
0.9300155469 0.5528796080 0.8001224842
0.1648251567 0.5158405276 0.8488838282
0.1951532405 0.5427626110 0.8808172788
0.4589808954 0.6490288262 0.9123350170
0.7514205008 0.7262292338 0.9094629499
0.9284198322 0.7659597653 0.8896454972
0.1824057446 0.5702124646 0.7962301738
0.1824057446 0.5702124646 0.7962301738
0.3087624245 0.6492321934 0.8569783689
0.6692620768 0.8306473296 0.9691802410
0.9734190000 0.9681090000 1.0000000000
