presets/标2 柯达5207 -2.cube
TITLE "YINGZEJUN Copyright"
# YINGZEJUN Copyright
# SP3000 & GOLD200 
# 20241106
# Created by: Adobe Photoshop Export Color Lookup Plugin
LUT_3D_SIZE 33
0.0880740000 0.0733030000 0.1077580000
0.0902237101 0.0730236368 0.1028337571
0.0989048425 0.0745853651 0.1018921175
0.1079318427 0.0756065757 0.1017206989
0.1208760125 0.0775374539 0.1061869029
0.1358682294 0.0808592802 0.1080994470
0.1550898838 0.0861972683 0.1080859138
0.1816766715 0.0904399964 0.1072084303
0.2155044357 0.0934813884 0.1057074854
0.2451578460 0.0962355032 0.1045242437
0.2756874666 0.0981492590 0.1034843960
0.3094881407 0.1003037579 0.1023413716
0.3446764790 0.1021719951 0.1002889372
0.3870524505 0.1037675445 0.0961955450
0.4251448350 0.1063433748 0.0918846202
0.4621497608 0.1077091464 0.0879252807
0.4965614100 0.1066967796 0.0821266962
0.5276912724 0.1058110163 0.0768792430
0.5537622624 0.1046967703 0.0730224141
0.5806308398 0.1037149707 0.0698478880
0.6101332523 0.1033531927 0.0664028455
0.6350053987 0.1039112037 0.0628859181
0.6588590784 0.1046568915 0.0592119889
0.6788040172 0.1054416757 0.0563260651
0.6981616920 0.1066413747 0.0540081990
0.7179701869 0.1090778969 0.0516736215
0.7370646551 0.1082255433 0.0481934928
0.7565019647 0.1064729455 0.0437801528
0.7738596417 0.1052656604 0.0401842761
0.7946536812 0.1043887672 0.0363890920
0.8100187357 0.1049920398 0.0343423078
0.8219869086 0.1054685484 0.0325360199
0.8330176992 0.1057143330 0.0312249934
0.0922779225 0.0745272716 0.1060022555
0.0919724827 0.0740951755 0.1055375358
0.0982590655 0.0756193587 0.1052688037
0.1078153837 0.0761307658 0.1036100727
0.1180404043 0.0782964511 0.1061703613
0.1298487878 0.0815440825 0.1075784475
0.1475361116 0.0871152434 0.1084210276
0.1725735004 0.0925342816 0.1092061272
0.2045963453 0.0958384650 0.1086438310
0.2374496221 0.1001402408 0.1088833596
0.2712238482 0.1027583881 0.1075447283
0.3079307917 0.1053608763 0.1060734302
0.3452639820 0.1081550068 0.1037642965
0.3888526606 0.1095655363 0.0988624341
0.4280693164 0.1122288909 0.0950446562
0.4640513732 0.1137037772 0.0911685743
0.4976949649 0.1124446574 0.0845505308
0.5245351724 0.1113062197 0.0794184394
0.5535624207 0.1105830901 0.0750997225
0.5818985661 0.1099653256 0.0715990449
0.6114602879 0.1111426093 0.0692805363
0.6365874878 0.1114556011 0.0654891190
0.6606982448 0.1111048420 0.0612595406
0.6820889236 0.1103782472 0.0575585896
0.7020115338 0.1109217739 0.0552194652
0.7212071998 0.1143050106 0.0530157274
0.7417223485 0.1143003855 0.0492130532
0.7612133754 0.1116065138 0.0444033264
0.7783098745 0.1088929825 0.0396898603
0.7988579153 0.1079028229 0.0353763238
0.8133732520 0.1082886608 0.0337364124
0.8252890414 0.1092803204 0.0318237921
0.8365585971 0.1096056981 0.0296577610
0.0951406837 0.0786747257 0.1104370484
0.0951409286 0.0771799717 0.1088530937
0.1005211132 0.0793010477 0.1092890845
0.1086763567 0.0807870627 0.1078702791
0.1198059608 0.0842644761 0.1105924338
0.1333983083 0.0883619284 0.1116257849
0.1489315334 0.0936963642 0.1119604649
0.1756817140 0.0991066983 0.1137151129
0.2066452363 0.1031687931 0.1144888325
0.2422862630 0.1079101097 0.1143781600
0.2808741764 0.1113128881 0.1127976801
0.3225631750 0.1146548895 0.1101643140
0.3622569609 0.1181819897 0.1071023921
0.4023677206 0.1200899884 0.1018633566
0.4402195249 0.1212301531 0.0980394544
0.4771095864 0.1228043854 0.0928227826
0.5087275798 0.1218149170 0.0873887330
0.5356315362 0.1198867603 0.0819439233
0.5631756384 0.1190294037 0.0773488706
0.5908575346 0.1184124720 0.0732994784
0.6195101509 0.1213642703 0.0709229681
0.6451948608 0.1237677979 0.0682022276
0.6664676809 0.1238564062 0.0644351203
0.6877205608 0.1219569642 0.0600979504
0.7083976568 0.1225046301 0.0575118328
0.7290134785 0.1248483826 0.0541267667
0.7495923086 0.1239455619 0.0501554632
0.7690909429 0.1217082402 0.0454856796
0.7854480267 0.1181113690 0.0406060188
0.8038443345 0.1161732602 0.0362073205
0.8168852231 0.1155537326 0.0336160672
0.8285550422 0.1151407465 0.0321129363
0.8400659523 0.1150902502 0.0297800594
0.0974768418 0.0864530366 0.1149164607
0.0977055852 0.0842353709 0.1138302694
0.1034294980 0.0865788508 0.1136697352
0.1107830270 0.0907640933 0.1148948247
0.1221826901 0.0949923033 0.1163798167
0.1380920372 0.1008519152 0.1180886116
0.1576606644 0.1062072787 0.1192640750
0.1881047689 0.1111310582 0.1208886151
0.2188210321 0.1152254106 0.1202081800
0.2541039622 0.1199720157 0.1184530959
0.2926112355 0.1231805675 0.1153275378
0.3373621902 0.1263248233 0.1115651743
0.3788886623 0.1307474741 0.1081453694
0.4199631389 0.1341955520 0.1044001153
0.4579694533 0.1351764466 0.1005858800
0.4936624335 0.1342800651 0.0940948941
0.5230771822 0.1339509880 0.0904183983
0.5512014043 0.1325249211 0.0843016063
0.5778912485 0.1320046450 0.0799258105
0.6052727659 0.1334179864 0.0767966173
0.6296081477 0.1358050745 0.0744253848
0.6536562673 0.1387062928 0.0718079777
0.6755708297 0.1388402688 0.0676878253
0.6949419730 0.1379644777 0.0636815353
0.7163058506 0.1385125733 0.0606204943
0.7376446565 0.1386700276 0.0560592690
0.7585153678 0.1364306500 0.0515122770
0.7779671748 0.1338979276 0.0468464473
0.7942680224 0.1301600165 0.0417173788
0.8088087125 0.1274435333 0.0372947502
0.8221593328 0.1264827603 0.0341473203
0.8329617550 0.1251054116 0.0318357254
0.8444948184 0.1228658866 0.0298525696
0.1003185893 0.0955870265 0.1173117040
0.1010362171 0.0951791044 0.1184152528
0.1053683041 0.0970103934 0.1187613428
0.1117902337 0.1004532971 0.1201377828
0.1217768692 0.1071029592 0.1223530344
0.1384379979 0.1127717184 0.1225369777
0.1610122337 0.1200726617 0.1239753163
0.1933934849 0.1259496734 0.1249996736
0.2261834750 0.1312362594 0.1241681213
0.2635187187 0.1375869054 0.1221074847
0.3009992204 0.1408398843 0.1185423267
0.3399265016 0.1439455117 0.1139924682
0.3833625333 0.1468356476 0.1093757067
0.4254801194 0.1511546267 0.1055167268
0.4650441858 0.1538898257 0.1003961468
0.4996564541 0.1540111301 0.0964732120
0.5295620956 0.1517719732 0.0925561098
0.5575397171 0.1528103499 0.0878219341
0.5830444327 0.1523386228 0.0842288429
0.6074640714 0.1527315839 0.0815821803
0.6333342059 0.1561358481 0.0796105023
0.6552945389 0.1587317243 0.0775166348
0.6784803983 0.1596138776 0.0737933067
0.7014770612 0.1585069594 0.0687891083
0.7242547807 0.1602219557 0.0647370391
0.7445998359 0.1560490565 0.0596621478
0.7628273949 0.1540389507 0.0544300429
0.7817245724 0.1517692338 0.0495330427
0.8002183519 0.1506926724 0.0442848692
0.8143100614 0.1477863297 0.0394815864
0.8286521366 0.1448122000 0.0361908502
0.8411724471 0.1408665642 0.0323399222
0.8516157276 0.1379256900 0.0300801788
0.1029474351 0.1063524320 0.1227314467
0.1032901707 0.1053302191 0.1224438064
0.1064313917 0.1082825302 0.1241236772
0.1114101329 0.1106947754 0.1248747181
0.1190036833 0.1165542930 0.1249212126
0.1337668188 0.1246809659 0.1252437805
0.1571881261 0.1340924838 0.1265252083
0.1897164827 0.1433150454 0.1275931094
0.2213780597 0.1491099199 0.1265887195
0.2561718297 0.1563357058 0.1251287483
0.2941199354 0.1586197556 0.1227875200
0.3345848250 0.1617351356 0.1182870101
0.3762299842 0.1679598698 0.1122986927
0.4159291461 0.1716659962 0.1076161502
0.4578141605 0.1762956987 0.1028485247
0.4924317718 0.1796128893 0.0999163612
0.5219790314 0.1817906453 0.0973994893
0.5490093241 0.1809297671 0.0939208308
0.5772979562 0.1813429196 0.0912134926
0.6037281024 0.1808873290 0.0886256645
0.6292518566 0.1831496291 0.0865622489
0.6524464420 0.1863481747 0.0840585936
0.6747154875 0.1877012267 0.0814720071
0.6998043353 0.1863944423 0.0765807518
0.7266067734 0.1835652121 0.0700877064
0.7480175504 0.1808042604 0.0637299029
0.7677662641 0.1763077141 0.0571966912
0.7848387963 0.1733378395 0.0516878448
0.8026838700 0.1721703235 0.0465337855
0.8177485845 0.1696755658 0.0416663257
0.8334735252 0.1672846337 0.0382257431
0.8466776456 0.1634046671 0.0349837456
0.8563437902 0.1592406968 0.0322055893
0.1045867880 0.1202957676 0.1285302569
0.1052630282 0.1195275596 0.1280380870
0.1083050677 0.1230868634 0.1292213040
0.1129308062 0.1252499760 0.1296474258
0.1193992253 0.1301075846 0.1292465923
0.1307439446 0.1388417076 0.1285036659
0.1490425457 0.1495069612 0.1284459969
0.1805874087 0.1597532498 0.1296406084
0.2140256018 0.1680420106 0.1303871675
0.2466717753 0.1776689574 0.1288282351
0.2838626789 0.1844172360 0.1246927369
0.3212316352 0.1873687754 0.1206597766
0.3650954268 0.1921307046 0.1159687501
0.4070849123 0.1958220311 0.1111174941
0.4485773827 0.2012887626 0.1083016479
0.4822727823 0.2050256865 0.1056583653
0.5123330344 0.2093460938 0.1043488052
0.5411428470 0.2111010044 0.1014895304
0.5682260200 0.2136101503 0.0992053513
0.5955503055 0.2142807557 0.0967285485
0.6218121109 0.2151286038 0.0942265307
0.6471820017 0.2178007547 0.0915164546
0.6710414175 0.2158016379 0.0869111070
0.6941709923 0.2137852021 0.0830576807
0.7225476771 0.2098724654 0.0761648662
0.7467906405 0.2034569243 0.0677433469
0.7656305227 0.2000242562 0.0609005696
0.7836833405 0.1953277811 0.0544037398
0.8004970155 0.1923497394 0.0487442733
0.8171687584 0.1905246941 0.0442788427
0.8323972713 0.1892852529 0.0408441160
0.8461223338 0.1864080399 0.0383326142
0.8563783232 0.1832247012 0.0366762332
0.1030160945 0.1381863647 0.1338697988
0.1044850322 0.1385971386 0.1339994342
0.1079498985 0.1424541884 0.1343112566
0.1129569589 0.1470811806 0.1348549905
0.1198388368 0.1508279645 0.1337666549
0.1307723532 0.1589701557 0.1332127735
0.1455482290 0.1691955113 0.1324873055
0.1706831510 0.1822405160 0.1328412627
0.2051141163 0.1902843028 0.1332050986
0.2395180420 0.2005437481 0.1339494099
0.2798316712 0.2087612251 0.1307267369
0.3202531675 0.2157012941 0.1257193879
0.3572953698 0.2162269557 0.1210331972
0.4004161200 0.2210037884 0.1178139670
0.4415173222 0.2262917821 0.1159490886
0.4748734990 0.2310299001 0.1138763558
0.5054671645 0.2342991990 0.1112625039
0.5360876264 0.2374875736 0.1083672825
0.5657187850 0.2402576624 0.1055054272
0.5943732527 0.2423386208 0.1027227287
0.6213180641 0.2418141358 0.0990756729
0.6472826603 0.2438332562 0.0952175342
0.6714885842 0.2421040230 0.0912194826
0.6961807027 0.2377081410 0.0871614641
0.7211589712 0.2349501432 0.0803014126
0.7454876999 0.2279305853 0.0724155117
0.7664224925 0.2236640894 0.0657312329
0.7835234451 0.2213131567 0.0600205074
0.8000223980 0.2169393381 0.0550752658
0.8157681851 0.2128744157 0.0491803540
0.8289935722 0.2105097285 0.0453963053
0.8421455278 0.2071494079 0.0426680016
0.8512004226 0.2047385762 0.0412793065
0.0982791761 0.1595223836 0.1387671770
0.0997422980 0.1610895912 0.1392633332
0.1035616569 0.1649268679 0.1389171868
0.1089826349 0.1717791341 0.1396481296
0.1163952848 0.1772418101 0.1390624437
0.1266245177 0.1856521149 0.1385131158
0.1440467614 0.1955306971 0.1385612452
0.1676494961 0.2049680794 0.1387262488
0.1977507834 0.2151160932 0.1390028520
0.2302573566 0.2215896274 0.1380482055
0.2737495307 0.2292920234 0.1369004507
0.3173393388 0.2375868009 0.1322771510
0.3598052284 0.2444362116 0.1286122057
0.4000537983 0.2505078180 0.1257875417
0.4345808390 0.2550288494 0.1225682988
0.4659409122 0.2590489666 0.1199618402
0.5013709767 0.2638765586 0.1180837053
0.5370276363 0.2666129535 0.1152616166
0.5684877068 0.2677495777 0.1114395006
0.5978634801 0.2682226247 0.1072642227
0.6267240290 0.2686783691 0.1029054942
0.6518475652 0.2680350815 0.0984436172
0.6757658506 0.2662009283 0.0937896927
0.6995017446 0.2631298247 0.0884951686
0.7221448762 0.2600424983 0.0827386634
0.7435106559 0.2546429925 0.0770305034
0.7643500083 0.2507440247 0.0714705993
0.7823821136 0.2483274713 0.0667199226
0.7984396873 0.2457185013 0.0629855236
0.8140608428 0.2415191405 0.0587466033
0.8262501339 0.2368010619 0.0543991562
0.8377525788 0.2325648012 0.0511202542
0.8500602208 0.2262955278 0.0476620409
0.0926752772 0.1870197759 0.1455584873
0.0940560594 0.1887406391 0.1454368986
0.0976581714 0.1926160671 0.1449944856
0.1032610845 0.2000321181 0.1450655187
0.1118371957 0.2072649077 0.1446215384
0.1242664275 0.2131180835 0.1444009691
0.1415691286 0.2219505269 0.1455533442
0.1652733175 0.2311115000 0.1465238936
0.1934565374 0.2394180141 0.1472861741
0.2241004899 0.2426270042 0.1444252251
0.2644431425 0.2511344057 0.1415708033
0.3101264613 0.2619810525 0.1399641913
0.3542734562 0.2710765025 0.1371862505
0.3987263153 0.2768721084 0.1334847694
0.4344478348 0.2828964800 0.1304163429
0.4665132161 0.2870606681 0.1266313066
0.5020825026 0.2907090590 0.1225986100
0.5379001463 0.2937916659 0.1184184259
0.5688888622 0.2952597354 0.1142191519
0.5989513357 0.2956018532 0.1094715276
0.6305438265 0.2945196979 0.1040087617
0.6611779384 0.2937759174 0.0982682945
0.6862415573 0.2915405782 0.0930760750
0.7097907656 0.2897600511 0.0876190725
0.7312075199 0.2868848221 0.0828324646
0.7501053982 0.2813720142 0.0776593371
0.7687876593 0.2781113268 0.0724489873
0.7860926320 0.2756490708 0.0680747481
0.8016308802 0.2724096836 0.0644601364
0.8162973393 0.2677346856 0.0615617567
0.8291309168 0.2612737823 0.0583761382
0.8404423774 0.2562634445 0.0556239434
0.8509227071 0.2526397060 0.0531058003
0.0858418546 0.2145890560 0.1521030313
0.0879084872 0.2166431740 0.1519497777
0.0913815146 0.2199134388 0.1518187964
0.0973621663 0.2260999171 0.1516533507
0.1082924293 0.2334274360 0.1514021089
0.1220224269 0.2398629125 0.1509662443
0.1366803781 0.2448938500 0.1514277126
0.1582435092 0.2542575081 0.1530495795
0.1859945713 0.2618660938 0.1534764065
0.2181542352 0.2670068407 0.1523001354
0.2529656811 0.2741567636 0.1486299859
0.2956202933 0.2833627503 0.1455822033
0.3443613330 0.2935104189 0.1435789140
0.3920134034 0.3013430448 0.1406633860
0.4317833679 0.3063100784 0.1368140263
0.4660010219 0.3127752076 0.1326839528
0.4990678215 0.3167337377 0.1274764016
0.5331792640 0.3196748182 0.1222438372
0.5665768153 0.3207519168 0.1169171754
0.5981925081 0.3217324905 0.1115328607
0.6326149309 0.3215337488 0.1051438403
0.6639987957 0.3219627466 0.0991396589
0.6903619317 0.3194350766 0.0937460917
0.7157670518 0.3172131524 0.0877095350
0.7403155323 0.3150333752 0.0809742427
0.7631471321 0.3110923153 0.0746562435
0.7804526366 0.3055090081 0.0702533457
0.7979151881 0.3031257648 0.0652281177
0.8130918226 0.2993135217 0.0612339523
0.8253102141 0.2920399107 0.0588262064
0.8361878108 0.2879776671 0.0571352968
0.8467826452 0.2820724360 0.0558332188
0.8574506407 0.2791493933 0.0547046083
0.0799781290 0.2406212660 0.1601697859
0.0820096947 0.2429288887 0.1596135489
0.0850803368 0.2457805986 0.1592107668
0.0925676530 0.2510750044 0.1595383076
0.1033902803 0.2579750842 0.1592401149
0.1173739255 0.2644826468 0.1585241019
0.1328789312 0.2699314263 0.1589520577
0.1512853925 0.2761144410 0.1590724757
0.1767927013 0.2841548149 0.1598211150
0.2085073426 0.2924048933 0.1606555948
0.2438826859 0.2999230735 0.1590441036
0.2856244376 0.3067741119 0.1547104050
0.3317560542 0.3146633846 0.1504690252
0.3814001083 0.3240659806 0.1470632676
0.4252630954 0.3316442067 0.1428658594
0.4630116350 0.3367612596 0.1378834343
0.4973535327 0.3432028826 0.1324497253
0.5292904867 0.3475580794 0.1268701671
0.5602492275 0.3494434571 0.1217539966
0.5942436451 0.3484101024 0.1157602994
0.6300269079 0.3483957095 0.1087445219
0.6632937369 0.3494166236 0.1015259904
0.6893957843 0.3488766709 0.0951976005
0.7143248642 0.3453370427 0.0889405871
0.7408032692 0.3432969200 0.0820253068
0.7666222683 0.3401217360 0.0751356819
0.7894610315 0.3352628636 0.0684184298
0.8076681528 0.3308823019 0.0633020985
0.8243617655 0.3270742750 0.0588665744
0.8376067701 0.3187370925 0.0560362884
0.8484520960 0.3134540173 0.0551056524
0.8580589206 0.3104797353 0.0551133740
0.8673857539 0.3071565811 0.0547595804
0.0745406660 0.2632434647 0.1678010117
0.0759097430 0.2660289773 0.1666979451
0.0797144543 0.2691113516 0.1666841672
0.0870158321 0.2735642581 0.1667523532
0.0983211884 0.2795511445 0.1664855737
0.1114980227 0.2852709127 0.1649742137
0.1271432631 0.2909826368 0.1656229271
0.1447179076 0.2985152899 0.1664248142
0.1672731546 0.3077320697 0.1677772403
0.1969926725 0.3175397330 0.1692142134
0.2345021135 0.3268665479 0.1693470402
0.2781916810 0.3337807134 0.1663159332
0.3235205509 0.3390992072 0.1597974025
0.3720957031 0.3463536655 0.1533276080
0.4171454652 0.3553642724 0.1480791698
0.4580474119 0.3644222038 0.1425142542
0.4967561832 0.3720607922 0.1370832272
0.5301830021 0.3782936457 0.1315259236
0.5590861820 0.3824163808 0.1261343104
0.5897605474 0.3835744786 0.1200693180
0.6252983322 0.3799698002 0.1126682540
0.6615838939 0.3806459958 0.1050381874
0.6898802080 0.3788974842 0.0974775963
0.7149434137 0.3757909363 0.0896289974
0.7418942916 0.3704089594 0.0823480109
0.7676264902 0.3677540055 0.0756484271
0.7914917343 0.3626091532 0.0693218627
0.8107579106 0.3583410724 0.0638750556
0.8271892967 0.3551726053 0.0596782254
0.8428859028 0.3481185250 0.0560847919
0.8555850876 0.3434989628 0.0553324393
0.8668197012 0.3413490323 0.0563373036
0.8759943819 0.3394797851 0.0582550850
0.0694519438 0.2885100334 0.1764852411
0.0704863816 0.2909149744 0.1759778240
0.0744736385 0.2942284022 0.1755858382
0.0810794648 0.2979292466 0.1749951223
0.0909834787 0.3031776792 0.1753343147
0.1029087357 0.3101079184 0.1740968615
0.1185612518 0.3164598467 0.1743284373
0.1370996910 0.3241445717 0.1763064257
0.1602239826 0.3341385984 0.1775038397
0.1881545054 0.3419134947 0.1782211322
0.2252380545 0.3524386994 0.1788724830
0.2698474711 0.3616926500 0.1768920696
0.3159954339 0.3690326501 0.1707857812
0.3628123514 0.3761971983 0.1628123677
0.4048691242 0.3807684081 0.1547825188
0.4475908411 0.3891844823 0.1476658741
0.4894623974 0.3989835475 0.1414207618
0.5271199090 0.4080106173 0.1363762318
0.5611604977 0.4125119932 0.1304153167
0.5919186020 0.4154427763 0.1236347651
0.6251464333 0.4169668859 0.1157466309
0.6591591116 0.4196096188 0.1090337366
0.6895531201 0.4156130566 0.1016116350
0.7171096728 0.4113828454 0.0928846398
0.7437417548 0.4066619634 0.0849245915
0.7699105188 0.3987233374 0.0770980017
0.7947952786 0.3947363804 0.0708016883
0.8147826833 0.3882258167 0.0655114667
0.8311587273 0.3826524390 0.0614770869
0.8447505926 0.3801217678 0.0592817170
0.8584295870 0.3737967318 0.0580054107
0.8697808393 0.3700775470 0.0589502382
0.8791724811 0.3680481456 0.0610927265
0.0639473407 0.3141267861 0.1853846078
0.0653041183 0.3156428651 0.1848224213
0.0689044880 0.3189482434 0.1833750006
0.0750895808 0.3227377184 0.1826004506
0.0836981918 0.3281968081 0.1828952545
0.0950539820 0.3359417100 0.1824159680
0.1089349917 0.3427668012 0.1825792003
0.1289758147 0.3510745299 0.1855530865
0.1546025406 0.3615169846 0.1880297256
0.1800993471 0.3710548893 0.1887041239
0.2169172451 0.3802656571 0.1884058704
0.2605140071 0.3896764582 0.1869964914
0.3070953054 0.3983456067 0.1815383979
0.3533262396 0.4064850443 0.1732250496
0.3978436815 0.4093556424 0.1627273945
0.4385112355 0.4138667331 0.1539731821
0.4829611866 0.4230176345 0.1457285519
0.5213576334 0.4331328591 0.1401253134
0.5589870864 0.4432401953 0.1346453524
0.5959112654 0.4472880237 0.1279481003
0.6290324902 0.4507253944 0.1204403919
0.6597144098 0.4544729588 0.1142987774
0.6901949111 0.4526445004 0.1070654030
0.7187257704 0.4487252562 0.0985335031
0.7471897394 0.4465116104 0.0904957695
0.7731715865 0.4382601281 0.0815913391
0.7976390274 0.4322050658 0.0757166630
0.8177958131 0.4236576324 0.0704552271
0.8333857291 0.4134353631 0.0656220043
0.8457271737 0.4071754164 0.0638716918
0.8572251412 0.4040437322 0.0634477984
0.8681058328 0.3992819369 0.0648352235
0.8773226563 0.3974026823 0.0678476322
0.0592496095 0.3394182526 0.1938045056
0.0592139988 0.3416221588 0.1932885618
0.0615665641 0.3447294315 0.1914488479
0.0669033478 0.3494626776 0.1901307512
0.0747669166 0.3554558262 0.1901450776
0.0861756680 0.3630908782 0.1897244503
0.1002302136 0.3710283833 0.1904972335
0.1190611388 0.3790909765 0.1929050213
0.1472859443 0.3893204702 0.1973869722
0.1750626765 0.3987354864 0.1982511628
0.2103873241 0.4083059583 0.1972979965
0.2560021320 0.4178888308 0.1959539509
0.2999378635 0.4266671225 0.1915032462
0.3466528115 0.4355462525 0.1831155318
0.3892838344 0.4407146162 0.1732407141
0.4327812344 0.4433106991 0.1623352708
0.4773034115 0.4494292144 0.1527815038
0.5164366801 0.4579674709 0.1448732888
0.5553642436 0.4699690362 0.1386306948
0.5971575684 0.4804128848 0.1323356870
0.6331845279 0.4855952050 0.1257283485
0.6626082447 0.4894869958 0.1202568595
0.6922653957 0.4900994601 0.1140186590
0.7205512535 0.4894794760 0.1076837530
0.7491351279 0.4900912169 0.1004561185
0.7741473045 0.4844311147 0.0925584039
0.7964432627 0.4796925877 0.0865954950
0.8155557694 0.4716963831 0.0818768401
0.8309054907 0.4585598716 0.0774717363
0.8441460936 0.4457580956 0.0747091565
0.8551067401 0.4388502496 0.0744225184
0.8647301812 0.4335909770 0.0757941698
0.8736432350 0.4304535308 0.0791065101
0.0541112636 0.3635151202 0.2008696898
0.0526320062 0.3679325054 0.2003569103
0.0534437043 0.3724142389 0.1990358349
0.0564992500 0.3781578782 0.1980845391
0.0639124880 0.3846679588 0.1977427724
0.0754521806 0.3918989633 0.1971519925
0.0906187786 0.4001675095 0.1979263077
0.1100409667 0.4085768810 0.1991151198
0.1384821678 0.4168771162 0.2033440398
0.1716813942 0.4246360782 0.2050191457
0.2075827098 0.4338997210 0.2036828382
0.2504232836 0.4428972940 0.2022089208
0.2980965418 0.4527398496 0.1979678799
0.3441827839 0.4622059677 0.1903191069
0.3858181723 0.4700531681 0.1824983114
0.4275701894 0.4769437753 0.1734961144
0.4712012516 0.4833509367 0.1632660246
0.5138512217 0.4873901436 0.1524525968
0.5571384541 0.4971895468 0.1441627784
0.6013968206 0.5079221777 0.1374272997
0.6387770965 0.5185962940 0.1321785240
0.6675491055 0.5222421749 0.1268189054
0.6955203528 0.5234949917 0.1222834566
0.7227465358 0.5240305103 0.1175658659
0.7502797875 0.5259512193 0.1118502486
0.7748461739 0.5223482144 0.1041978742
0.7967671523 0.5179948127 0.0969199700
0.8164854484 0.5111439088 0.0914317878
0.8331657123 0.5013441690 0.0888816711
0.8444559515 0.4908971979 0.0877963244
0.8537660425 0.4824481344 0.0874941898
0.8623924448 0.4749227255 0.0895992938
0.8708987555 0.4656980319 0.0915783914
0.0504068954 0.3857810980 0.2096947723
0.0484698095 0.3897720800 0.2078935921
0.0483367781 0.3947544899 0.2067267391
0.0494120070 0.4008865866 0.2055076587
0.0566632387 0.4074971856 0.2049302855
0.0678742809 0.4148997611 0.2041725861
0.0831826309 0.4230378430 0.2040335450
0.1035113137 0.4318330762 0.2042900079
0.1332892462 0.4405404222 0.2068731118
0.1657044556 0.4506865496 0.2077781793
0.2059734512 0.4609494433 0.2070914858
0.2497532303 0.4695196648 0.2053866116
0.2948027998 0.4780023800 0.2023973955
0.3412454093 0.4876936570 0.1964268400
0.3874434172 0.4971953651 0.1888582794
0.4292481521 0.5053910585 0.1817989712
0.4690924238 0.5125762016 0.1740510000
0.5121959444 0.5170921699 0.1635419583
0.5556849958 0.5241729295 0.1547572955
0.5984388101 0.5334016612 0.1468746026
0.6381398497 0.5432479689 0.1412129537
0.6693400540 0.5511835522 0.1375673515
0.6969665900 0.5534796312 0.1325369387
0.7234700538 0.5545266235 0.1279309739
0.7501788448 0.5574501286 0.1234858985
0.7746013878 0.5561517720 0.1163790864
0.7967342379 0.5503353229 0.1087904862
0.8176175427 0.5436452531 0.1018732226
0.8346745084 0.5371638243 0.0979319320
0.8476288837 0.5276270187 0.0979050736
0.8575202152 0.5213019360 0.1007061327
0.8644201687 0.5156813944 0.1037007318
0.8703479303 0.5065334194 0.1055640431
0.0498925516 0.4028997733 0.2168812269
0.0482698081 0.4064383668 0.2146455626
0.0467285991 0.4113444095 0.2126080396
0.0468558757 0.4170051023 0.2107789659
0.0514318540 0.4239936181 0.2093044631
0.0594004565 0.4314270662 0.2076962928
0.0741969134 0.4408651556 0.2065948219
0.0941486529 0.4506929200 0.2067642470
0.1209578704 0.4605505095 0.2068140039
0.1587259602 0.4705078138 0.2078983767
0.1979103582 0.4821347616 0.2078745312
0.2451616897 0.4912885750 0.2070717304
0.2890088397 0.4997887302 0.2053878910
0.3347177804 0.5092290891 0.2016688099
0.3817076796 0.5192414398 0.1959555836
0.4274442625 0.5285939018 0.1900123620
0.4671813272 0.5370238624 0.1853441064
