presets/标2 柯达5207 -2.cube
TITLE "YINGZEJUN Copyright"
# YINGZEJUN Copyright
# SP3000 & GOLD200 
# 20241106
# Created by: Adobe Photoshop Export Color Lookup Plugin
LUT_3D_SIZE 5
0.0880740000 0.0733030000 0.1077580000
0.2155044357 0.0934813884 0.1057074854
0.4965614100 0.1066967796 0.0821266962
0.6981616920 0.1066413747 0.0540081990
0.8330176992 0.1057143330 0.0312249934
0.0982791761 0.1595223836 0.1387671770
0.1977507834 0.2151160932 0.1390028520
0.5013709767 0.2638765586 0.1180837053
0.7221448762 0.2600424983 0.0827386634
0.8500602208 0.2262955278 0.0476620409
0.0541112636 0.3635151202 0.2008696898
0.1384821678 0.4168771162 0.2033440398
0.4712012516 0.4833509367 0.1632660246
0.7502797875 0.5259512193 0.1118502486
0.8708987555 0.4656980319 0.0915783914
0.0510626783 0.4604462220 0.2616011285
0.0664260644 0.5316941195 0.2260843288
0.3705405904 0.6353467330 0.2159925475
0.7146063508 0.7189734735 0.2083267112
0.8747037374 0.7461389945 0.2219981043
0.0626221424 0.5032454769 0.3354669827
0.0529285276 0.5633377814 0.3116326659
0.1623891023 0.6752282890 0.3123872225
0.6165512061 0.7799919535 0.3205685023
0.8275674873 0.8420406961 0.3888424167
0.0865881070 0.0686980904 0.1822599042
0.1801182199 0.0939474326 0.1732481329
0.4663270601 0.1178010193 0.1515512016
0.7108516255 0.1260956327 0.1333782081
0.8817304636 0.1249426680 0.1229183765
0.0922928728 0.1557568241 0.2445156399
0.1904943209 0.2094171745 0.2362740906
0.5051539320 0.2326481497 0.1965441359
0.7353493609 0.2221087871 0.1501042146
0.9203943181 0.1838716704 0.0960352259
0.0745080382 0.3589401624 0.3463857517
0.1418422163 0.4015341043 0.3205928326
0.4494981470 0.4727376290 0.2707690019
0.7461459500 0.5207531428 0.2300971560
0.9191480225 0.4444265970 0.1580771825
0.0755162127 0.4572267832 0.3926013742
0.0669184380 0.5103498808 0.3666015948
0.3175838061 0.6239024964 0.3509276671
0.7137147308 0.7285091376 0.3388449105
0.9167493594 0.7797895694 0.3136890653
0.0772147517 0.4942809507 0.4304898023
0.0543611263 0.5451139990 0.4225575272
0.0676331152 0.6659426399 0.4297068206
0.6230654644 0.7972307425 0.3947820488
0.8451710406 0.8594147246 0.4442205958
0.0854418175 0.0633793046 0.3073480684
0.1497210238 0.0787997154 0.3163309848
0.4412310699 0.0962335052 0.2985864463
0.7145409750 0.1068676091 0.2809709331
0.8967199565 0.1231408613 0.2760120042
0.0870070519 0.1409712775 0.4196318362
0.1704410606 0.1774830126 0.3998220636
0.4820279412 0.2209086639 0.3669686350
0.7269908138 0.2339131916 0.3404449525
0.9236607268 0.2421071828 0.3185534283
0.0758906599 0.3609545999 0.5409715124
0.1504353540 0.3942946754 0.5232108182
0.4741862268 0.4812034946 0.5004530518
0.7316420661 0.4931998878 0.4443374855
0.9121009072 0.4590120725 0.3668155459
0.0848259268 0.4640381467 0.5461884450
0.0882008271 0.5127180029 0.5693734764
0.3430056508 0.6183774469 0.5746667404
0.7170101918 0.7221034307 0.5558799572
0.8942792579 0.7453087560 0.5235108146
0.0881929842 0.4803618471 0.5273465214
0.0919764337 0.5295229348 0.5493697181
0.1187547449 0.6434070634 0.6139041663
0.6363705512 0.8114205906 0.6207539619
0.8629660669 0.8797572025 0.6207317013
0.0802538322 0.0617893417 0.4217392428
0.1351549621 0.0708454816 0.4220229219
0.3960592177 0.0783511013 0.4201368709
0.7174182616 0.0964235528 0.4522131513
0.9054375039 0.1225987185 0.4539832710
0.0837216342 0.1108583953 0.5647311856
0.1803659488 0.1677243036 0.5620311731
0.5047534561 0.2309514529 0.5479547927
0.7369955129 0.2278668254 0.5204686588
0.9180875451 0.2252052260 0.4875738893
0.1187212208 0.3678147658 0.7178213370
0.2097696996 0.3992903689 0.6938100868
0.4909174852 0.4621836908 0.6602690816
0.7397213320 0.4785275105 0.6227297178
0.9118373720 0.4879180486 0.5799742984
0.1031013054 0.4918363156 0.7058751539
0.1341235836 0.5419817587 0.7567370541
0.3979793839 0.6279050481 0.7467533891
0.7347860096 0.7206774496 0.7359365448
0.8991611807 0.7423105199 0.6962392233
0.0980822377 0.5057378187 0.6363574228
0.1041255032 0.5212887217 0.6531640246
0.1302186978 0.6219553970 0.7369271606
0.6154239823 0.8062681028 0.7957918315
0.9007084232 0.9114897545 0.8151629208
0.0838261614 0.0569009806 0.5263000974
0.1403038225 0.0652209711 0.5184589015
0.4069593214 0.0779859186 0.5262177811
0.6746108742 0.0781724234 0.5428149179
0.8820818417 0.1190837807 0.5709713074
0.0756429070 0.0651861393 0.6919159213
0.1273864548 0.0756211318 0.6880631037
0.4557012026 0.1109716927 0.6428386816
0.7631115775 0.1194892988 0.6219365457
0.8958676535 0.1934944971 0.6178480254
0.1495940682 0.3759616883 0.8610924256
0.2235370424 0.4280167855 0.8592202815
0.5186707531 0.4525039161 0.8299696415
0.7885093838 0.4365431240 0.7865555673
0.9217654237 0.4521303098 0.7540977667
0.1260477246 0.4927430558 0.8310672359
0.1496790355 0.5145786521 0.8605518893
0.3790342812 0.6120019578 0.8920026863
0.7497463768 0.6979911510 0.8778003269
0.9176318304 0.7302634252 0.8602286203
0.1156370330 0.5561082215 0.7684617879
0.1156370330 0.5561082215 0.7684617879
0.1522950963 0.6158276808 0.8241602520
0.6233973279 0.8067314196 0.9240510952
0.9367070000 0.9359440000 0.9582520000
