presets/标2 柯达5207 -S.cube
TITLE "YINGZEJUN Copyright"
# YINGZEJUN Copyright
# SP3000 & GOLD200 
# 20241106
# Created by: Adobe Photoshop Export Color Lookup Plugin
LUT_3D_SIZE 33
0.0343630000 0.0108340000 0.0351260000
0.0520730433 0.0150713331 0.0332665914
0.0694309595 0.0200763881 0.0400073428
0.0871116750 0.0275944547 0.0461443630
0.1105731872 0.0386697963 0.0513993653
0.1405722054 0.0469116498 0.0547152698
0.1753679233 0.0542408122 0.0557967734
0.2155305824 0.0546600982 0.0534754790
0.2494416659 0.0518764843 0.0466755129
0.2798200916 0.0508779770 0.0449268065
0.3126687925 0.0517247789 0.0429494106
0.3496691365 0.0535627055 0.0402349814
0.3852146059 0.0558418913 0.0381798913
0.4193069805 0.0585861393 0.0376342427
0.4526869066 0.0600247411 0.0370443148
0.4858254988 0.0616047466 0.0321099621
0.5191462382 0.0590115323 0.0257510512
0.5540123360 0.0579436435 0.0204852413
0.5813723159 0.0566428203 0.0162020917
0.6081582716 0.0558567757 0.0119414068
0.6339057863 0.0566932360 0.0091929246
0.6532289337 0.0564752226 0.0068543605
0.6702365892 0.0562900589 0.0048501862
0.6855039529 0.0576542617 0.0034002311
0.7014387097 0.0616435846 0.0026556580
0.7169148505 0.0616368293 0.0008010836
0.7335792982 0.0585244247 0.0006760695
0.7493335883 0.0567926938 0.0010996391
0.7641803527 0.0575319983 0.0012207822
0.7807124768 0.0569006994 0.0015456923
0.7942880336 0.0585290155 0.0018173067
0.8055579433 0.0604860765 0.0022693388
0.8155750070 0.0617747305 0.0036002250
0.0547628572 0.0286240882 0.0482758690
0.0514530778 0.0212799677 0.0416889899
0.0698481809 0.0293867090 0.0482998175
0.0877919500 0.0413080657 0.0536693940
0.1090727212 0.0506231230 0.0569000633
0.1361974254 0.0568834157 0.0586057877
0.1728544430 0.0634175368 0.0605599466
0.2148158823 0.0649981048 0.0590945321
0.2499705748 0.0635647107 0.0545092090
0.2853482498 0.0652254469 0.0528845265
0.3226601715 0.0664182284 0.0507497128
0.3617436684 0.0713318478 0.0490762027
0.3980598863 0.0758259343 0.0473455632
0.4306489961 0.0757838573 0.0440921050
0.4649978349 0.0774714782 0.0406451718
0.4968690266 0.0773499678 0.0332874730
0.5282330123 0.0748206512 0.0274653631
0.5565663636 0.0724406001 0.0232375595
0.5861525425 0.0714039696 0.0188654832
0.6129395175 0.0707126860 0.0149992005
0.6373351851 0.0725995929 0.0118469958
0.6569530273 0.0725391769 0.0094397307
0.6739039670 0.0705880385 0.0069633776
0.6897760116 0.0692408198 0.0044583790
0.7056462055 0.0702793976 0.0026226180
0.7205759406 0.0713012872 0.0004991952
0.7387050102 0.0695788665 0.0000000000
0.7555698548 0.0668286187 0.0000574904
0.7701428447 0.0655899942 0.0000000000
0.7865811038 0.0651519165 0.0000120013
0.7993510812 0.0659720411 0.0000395988
0.8104124271 0.0682478102 0.0005924298
0.8209304346 0.0703363568 0.0011796445
0.0628033206 0.0539478834 0.0671562446
0.0631529180 0.0480272928 0.0609618102
0.0749691073 0.0544828553 0.0668719940
0.0942715606 0.0666889453 0.0713787962
0.1186950356 0.0744995426 0.0729149832
0.1512300452 0.0798301825 0.0742971086
0.1857259007 0.0848194158 0.0737089725
0.2317403628 0.0885796268 0.0719559683
0.2646798885 0.0876272834 0.0666764510
0.3040192788 0.0909472557 0.0637326913
0.3439915960 0.0936677708 0.0607516455
0.3809621920 0.0964037893 0.0575786528
0.4143478682 0.1003342108 0.0547629861
0.4462876333 0.0983286540 0.0487165613
0.4782332850 0.0957964570 0.0422856434
0.5096684932 0.0960045206 0.0349562651
0.5410163482 0.0944711750 0.0294094141
0.5691265473 0.0910876803 0.0252949096
0.5970136693 0.0892329913 0.0211547403
0.6228060128 0.0878830174 0.0176252024
0.6449813269 0.0907691682 0.0142907531
0.6643139476 0.0910090381 0.0113632712
0.6811325560 0.0904709746 0.0087760478
0.6972508973 0.0873942150 0.0054059553
0.7141348755 0.0866853814 0.0027409150
0.7292811044 0.0858646263 0.0004723712
0.7465291133 0.0857538127 0.0000000000
0.7640690611 0.0839260688 0.0000000000
0.7784215133 0.0816732743 0.0000000000
0.7945295957 0.0810756926 0.0000120013
0.8061870390 0.0807428751 0.0000395988
0.8157315992 0.0796889628 0.0006642495
0.8261553373 0.0810632749 0.0011679350
0.0735136799 0.0732014874 0.0821824612
0.0728442031 0.0699010387 0.0780765935
0.0811006216 0.0755070058 0.0794815058
0.0969774852 0.0864483288 0.0830521828
0.1236110170 0.0980546199 0.0852429535
0.1573254443 0.1072400505 0.0870277350
0.1961143770 0.1140010137 0.0851071869
0.2364205093 0.1163444877 0.0802091707
0.2725214016 0.1174423137 0.0764573178
0.3134302819 0.1220365070 0.0730822383
0.3526178346 0.1244976666 0.0695189102
0.3900010164 0.1236843577 0.0639269666
0.4232669468 0.1246457693 0.0589262571
0.4587786362 0.1212486408 0.0505856583
0.4899953734 0.1180224551 0.0435825860
0.5210101923 0.1155267087 0.0366429930
0.5509398794 0.1160691034 0.0319692814
0.5808811778 0.1140343286 0.0272614292
0.6073124448 0.1122516905 0.0231376060
0.6315519688 0.1124889062 0.0196504874
0.6513179471 0.1128939217 0.0164321583
0.6704481951 0.1125996970 0.0133486776
0.6893496676 0.1108459066 0.0100551118
0.7067099639 0.1097326092 0.0062970830
0.7251074560 0.1081798321 0.0029466319
0.7399170668 0.1048924378 0.0006151898
0.7564258028 0.1034441279 0.0000000000
0.7736204328 0.1030473134 0.0000000000
0.7881534127 0.1007120029 0.0000000000
0.8022018535 0.0991455096 0.0000000000
0.8137596866 0.0977082161 0.0000125986
0.8229795895 0.0962146653 0.0001884854
0.8326617058 0.0938931144 0.0006409463
0.0756267072 0.0950912277 0.0899436579
0.0746279336 0.0916396581 0.0874733224
0.0814397198 0.0984516527 0.0869352846
0.0955946652 0.1085675903 0.0901027253
0.1193476009 0.1257134253 0.0926449563
0.1517707761 0.1379518685 0.0920989568
0.1904571926 0.1460896810 0.0889988986
0.2278304657 0.1482755581 0.0841705487
0.2652082613 0.1479562774 0.0801209386
0.3063742629 0.1515136439 0.0755451468
0.3445902988 0.1533596828 0.0719626291
0.3813272796 0.1528973521 0.0672172004
0.4199476742 0.1488057792 0.0585155902
0.4577097208 0.1459544201 0.0514099515
0.4911319339 0.1434652933 0.0462276731
0.5224064540 0.1412563232 0.0414638288
0.5543517496 0.1385449642 0.0364296793
0.5827293537 0.1395776056 0.0322523017
0.6069453233 0.1385223116 0.0285563115
0.6300995060 0.1373312138 0.0243517809
0.6533936667 0.1383997390 0.0203643317
0.6724390847 0.1376001753 0.0161259552
0.6937782851 0.1350820969 0.0116590044
0.7151473781 0.1328957408 0.0070772407
0.7341281198 0.1342829639 0.0042906075
0.7495688541 0.1289100620 0.0019299122
0.7645259900 0.1254201597 0.0002278848
0.7806082561 0.1238563489 0.0000000000
0.7966310041 0.1232450494 0.0000000000
0.8079363721 0.1211647693 0.0000000000
0.8194179002 0.1188947489 0.0000000000
0.8306978940 0.1157983735 0.0000000000
0.8403143338 0.1136492246 0.0000000000
0.0711221155 0.1206939144 0.0969313805
0.0711286360 0.1162133904 0.0951118917
0.0784322444 0.1253585477 0.0958660017
0.0893978573 0.1351716074 0.0965170251
0.1098694777 0.1482082029 0.0972124605
0.1388583896 0.1609894590 0.0957091452
0.1767229895 0.1725544247 0.0930831112
0.2168995463 0.1771130291 0.0868082569
0.2528264839 0.1761483286 0.0814047881
0.2913971811 0.1787933432 0.0776384461
0.3298770657 0.1782488216 0.0729457396
0.3682747983 0.1779139270 0.0705627559
0.4114999812 0.1757574308 0.0623134171
0.4533113114 0.1747185557 0.0553776707
0.4878488117 0.1728624926 0.0492703744
0.5198583154 0.1729071130 0.0448265163
0.5524683080 0.1739141193 0.0409693265
0.5778919785 0.1714609500 0.0366958317
0.6035501677 0.1703079984 0.0330358301
0.6274972965 0.1684001071 0.0289692377
0.6522567750 0.1682378319 0.0241712975
0.6754881666 0.1692970112 0.0191694210
0.6967047718 0.1679558460 0.0133553699
0.7195854841 0.1647210115 0.0080208109
0.7398826802 0.1623039015 0.0044729843
0.7567268247 0.1597186695 0.0023984795
0.7725553404 0.1547176129 0.0009602104
0.7872018294 0.1516060364 0.0000000000
0.8011804107 0.1502382158 0.0000000000
0.8120803812 0.1482809596 0.0000000000
0.8237044468 0.1454052836 0.0000000000
0.8351196881 0.1422033701 0.0000000000
0.8449361838 0.1395719751 0.0003635667
0.0648922192 0.1496880330 0.1033713739
0.0659012753 0.1485663511 0.1024330514
0.0727090496 0.1563696435 0.1026046663
0.0835889847 0.1659458350 0.1027898974
0.1009585322 0.1764147707 0.1020795581
0.1289669935 0.1853877738 0.1003533735
0.1598305128 0.1964091166 0.0982234581
0.2022043914 0.2051622005 0.0931248614
0.2436586612 0.2068278965 0.0853848042
0.2814890161 0.2106738295 0.0797870658
0.3225659613 0.2131562161 0.0762580427
0.3593059697 0.2123817675 0.0738991336
0.4066973671 0.2106218412 0.0678401188
0.4519839395 0.2092102060 0.0621581430
0.4892949828 0.2086935765 0.0548870755
0.5228603514 0.2080932055 0.0504158589
0.5561195474 0.2101755112 0.0472806329
0.5821956320 0.2079389077 0.0422871034
0.6050782704 0.2069790614 0.0376257161
0.6288884866 0.2044227392 0.0324568053
0.6535586824 0.2023595184 0.0265268655
0.6788711242 0.2031910267 0.0204098457
0.7024310046 0.2007117781 0.0145986843
0.7227810532 0.1986231095 0.0088830281
0.7425265487 0.1950166450 0.0045516435
0.7608709263 0.1887926081 0.0019082630
0.7760298891 0.1864625957 0.0008027266
0.7904261323 0.1822486633 0.0004153959
0.8032559392 0.1795092857 0.0005834814
0.8142755279 0.1774327555 0.0005834814
0.8243173231 0.1751325934 0.0008681101
0.8350706279 0.1717604183 0.0014281911
0.8444811732 0.1693245649 0.0023845687
0.0574455256 0.1794811857 0.1097924079
0.0601428778 0.1817368614 0.1086719204
0.0672987721 0.1891128042 0.1085288414
0.0777342174 0.1985617697 0.1085735404
0.0946972656 0.2091550111 0.1087354453
0.1187387474 0.2177907684 0.1070337079
0.1504712900 0.2256409538 0.1053180880
0.1859455405 0.2347040802 0.1015768045
0.2319097072 0.2374358425 0.0957306602
0.2788589092 0.2413569589 0.0868703569
0.3206916865 0.2454672308 0.0803352593
0.3647572680 0.2474880081 0.0755642720
0.4102273845 0.2455685022 0.0719186568
0.4570043317 0.2469657366 0.0677287870
0.4944986694 0.2463641287 0.0623555493
0.5294840733 0.2468709736 0.0581446098
0.5614134124 0.2451492518 0.0535386386
0.5888891408 0.2427859218 0.0459923334
0.6143430856 0.2412379012 0.0391046401
0.6395071292 0.2403091642 0.0335222005
0.6623077848 0.2365281924 0.0276002325
0.6846555824 0.2357287948 0.0212096592
0.7070826446 0.2326780106 0.0165127151
0.7295963041 0.2298788992 0.0130589682
0.7477029702 0.2276526628 0.0100885496
0.7650425862 0.2198672712 0.0060735063
0.7804090309 0.2153720926 0.0043837749
0.7934936571 0.2132653293 0.0045578870
0.8060307427 0.2096688238 0.0048389205
0.8172509910 0.2073474172 0.0056680023
0.8271496472 0.2053009546 0.0068524570
0.8375503210 0.2015288135 0.0084492585
0.8460685458 0.1998158299 0.0105808846
0.0508366163 0.2105304917 0.1170104324
0.0533234262 0.2151475510 0.1162397854
0.0612836148 0.2226453730 0.1161082068
0.0720118510 0.2310049641 0.1159761305
0.0871461476 0.2402105436 0.1158959702
0.1101671748 0.2495948630 0.1154099903
0.1410276540 0.2557483067 0.1131795196
0.1762319187 0.2608051911 0.1105781421
0.2194272539 0.2677926477 0.1048706003
0.2651373732 0.2749481681 0.0972530409
0.3143231523 0.2783357410 0.0889157185
0.3690688040 0.2792195174 0.0800965753
0.4181488401 0.2832414800 0.0744322750
0.4598924451 0.2854342646 0.0702306272
0.4975468064 0.2866841963 0.0655428655
0.5323147249 0.2860583998 0.0599944088
0.5645154994 0.2858363121 0.0549249012
0.5930040522 0.2830159337 0.0495325306
0.6199886194 0.2792779551 0.0446126326
0.6476645064 0.2763059239 0.0394582996
0.6740198964 0.2745867673 0.0336893469
0.6946503575 0.2724512637 0.0293295681
0.7140470974 0.2686203564 0.0266265589
0.7339824912 0.2647175719 0.0251323717
0.7510442040 0.2624663312 0.0226697473
0.7654144497 0.2564763122 0.0200127367
0.7802044110 0.2522271316 0.0192998728
0.7945070839 0.2493159839 0.0204195383
0.8076222850 0.2473995402 0.0231216606
0.8204293526 0.2451016286 0.0253888316
0.8311336864 0.2426217004 0.0270946510
0.8407725774 0.2387126330 0.0285480776
0.8511003876 0.2320302412 0.0297545445
0.0451784803 0.2429535838 0.1259582919
0.0481493721 0.2473254514 0.1251975179
0.0570169590 0.2539181654 0.1250498168
0.0676330037 0.2602820834 0.1245739866
0.0834633254 0.2681426690 0.1240298995
0.1040391952 0.2765371481 0.1230700714
0.1334378730 0.2851711083 0.1212916147
0.1671426840 0.2917228084 0.1181655000
0.2077149466 0.2984023009 0.1138892206
0.2510561152 0.3041723601 0.1076580994
0.3032648884 0.3131761584 0.0991677214
0.3659302317 0.3132969654 0.0873557269
0.4184189551 0.3169845204 0.0782941240
0.4579669319 0.3184412354 0.0719156800
0.4960478693 0.3206473400 0.0665840365
0.5312072662 0.3219601759 0.0625898281
0.5635021948 0.3226233211 0.0587477084
0.5931387302 0.3220397687 0.0545570672
0.6206159951 0.3186197696 0.0512288220
0.6492587751 0.3140098613 0.0476084477
0.6776811331 0.3112398683 0.0431802421
0.7015506049 0.3098745923 0.0403887340
0.7209350044 0.3061572184 0.0385593497
0.7401911920 0.3043684285 0.0377693997
0.7564424794 0.3037820985 0.0371575205
0.7711972247 0.2977543969 0.0362449983
0.7849975432 0.2940419220 0.0371781219
0.7985226839 0.2907529440 0.0394162448
0.8116871543 0.2874215222 0.0428636538
0.8243791362 0.2849756238 0.0466391691
0.8349219599 0.2800608086 0.0487556986
0.8440822486 0.2770115067 0.0511226106
0.8526281923 0.2738458125 0.0541754858
0.0420956868 0.2720236852 0.1366350233
0.0458978406 0.2758748679 0.1357220337
0.0528027884 0.2805850232 0.1350820483
0.0633140332 0.2870773456 0.1344678336
0.0784264285 0.2949337641 0.1326962920
0.0983101588 0.3033506860 0.1299372070
0.1237155912 0.3096159219 0.1279976102
0.1560005842 0.3195541248 0.1254848532
0.1963859234 0.3261139672 0.1223044279
0.2386761918 0.3321472411 0.1174483451
0.2898055772 0.3416036330 0.1096517297
0.3522961643 0.3458239476 0.0972126887
0.4090199765 0.3479063122 0.0866437463
0.4521397731 0.3505392563 0.0783512097
0.4892637320 0.3497676172 0.0728475157
0.5236243887 0.3520937010 0.0679341520
0.5548133063 0.3545666335 0.0642998996
0.5849701700 0.3561453480 0.0602826286
0.6157149193 0.3555464401 0.0572654740
0.6442064908 0.3539207908 0.0545120374
0.6738452770 0.3512385138 0.0504516960
0.6985346341 0.3497861076 0.0477184625
0.7207288397 0.3437680881 0.0454383122
0.7409083502 0.3430084256 0.0447941766
0.7597001870 0.3435334573 0.0449822246
0.7778663129 0.3416106040 0.0467307664
0.7929325379 0.3367599754 0.0487324698
0.8068306398 0.3344242835 0.0525191884
0.8199355821 0.3306816440 0.0566417360
0.8310408332 0.3253505215 0.0610963608
0.8401279562 0.3249094862 0.0665781369
0.8489353740 0.3208346266 0.0707047143
0.8568802974 0.3198669374 0.0747229212
0.0398686048 0.2961176974 0.1488098452
0.0433654376 0.3009387357 0.1469925952
0.0487803760 0.3063767167 0.1457849284
0.0593730306 0.3133221625 0.1442163992
0.0739270691 0.3208137834 0.1426403725
0.0932599089 0.3293015572 0.1398237114
0.1170820107 0.3375041135 0.1374638295
0.1475642573 0.3459293301 0.1347107418
0.1886325043 0.3548583404 0.1326112077
0.2300764274 0.3636263893 0.1287019338
0.2800777347 0.3712078988 0.1215122244
0.3387657078 0.3773494292 0.1103558540
0.3959590622 0.3805632289 0.0981365629
0.4428184234 0.3845239748 0.0891852024
0.4810160596 0.3860483805 0.0817096945
0.5153129089 0.3841828263 0.0760456110
0.5452012526 0.3863748367 0.0713643265
0.5745958725 0.3889039881 0.0667527099
0.6049463827 0.3896484796 0.0631832752
0.6364082808 0.3884766626 0.0603136828
0.6652129819 0.3882183435 0.0566143682
0.6900677211 0.3864949798 0.0531691948
0.7127967961 0.3821574294 0.0512702394
0.7346151785 0.3771522760 0.0496244582
0.7548074547 0.3766221119 0.0497418900
0.7750773143 0.3759220322 0.0507228920
0.7938964820 0.3736247443 0.0534061920
0.8095024177 0.3700626404 0.0573081206
0.8237141597 0.3683794335 0.0618664440
0.8358223234 0.3642907416 0.0679476843
0.8454653887 0.3640378556 0.0752807561
0.8533894818 0.3653176791 0.0822781002
0.8606924377 0.3665826090 0.0892488997
0.0390690773 0.3188793061 0.1583716794
0.0407571195 0.3242672853 0.1552698655
0.0456900320 0.3303465390 0.1534798346
0.0546737434 0.3366314245 0.1520322387
0.0702233882 0.3442654645 0.1504219552
0.0883283967 0.3525810271 0.1486067052
0.1111799622 0.3626469432 0.1474086989
0.1407478862 0.3742604631 0.1463042387
0.1815831994 0.3859521182 0.1449014570
0.2221655493 0.3950889411 0.1415284827
0.2720063938 0.4037132307 0.1349202128
0.3314613000 0.4097110200 0.1240124938
0.3859559193 0.4110903481 0.1111113001
0.4327570061 0.4141561895 0.1002157677
0.4741010404 0.4185741533 0.0925420347
0.5081703000 0.4218544636 0.0860996092
0.5391216855 0.4234374767 0.0804688219
0.5695613485 0.4251461933 0.0749257537
0.5992929223 0.4254086480 0.0708487580
0.6287993257 0.4248280536 0.0679187536
0.6574447046 0.4209422222 0.0633523410
0.6832185933 0.4191124978 0.0595797365
0.7067360734 0.4165890259 0.0578813451
0.7279619499 0.4137366193 0.0559361615
0.7493095848 0.4086504578 0.0548088259
0.7701821189 0.4073138156 0.0553048846
0.7906394945 0.4036490292 0.0576364954
0.8078529770 0.3993215430 0.0608343816
0.8207337728 0.3988146241 0.0655255719
0.8329204086 0.3960742089 0.0719074732
0.8438460026 0.3971820859 0.0803327263
0.8531011509 0.4001860698 0.0890874263
0.8611990142 0.4028930456 0.0981899824
0.0372386791 0.3454526792 0.1674781731
0.0382098886 0.3496308238 0.1661527374
0.0427211127 0.3559979124 0.1640785481
0.0504152972 0.3623992730 0.1626347392
0.0641670132 0.3710655318 0.1612902931
0.0820951452 0.3806168722 0.1601397514
0.1048924084 0.3920916630 0.1591402829
0.1348250688 0.4051531448 0.1589818377
0.1763257864 0.4169190639 0.1577909335
0.2178501186 0.4232562854 0.1530678117
0.2693980621 0.4325967035 0.1471177693
0.3264692734 0.4405818187 0.1372921974
0.3779207836 0.4451859475 0.1258102855
0.4234236454 0.4493652942 0.1146773929
0.4623495338 0.4516570226 0.1052871859
0.4988257457 0.4558099246 0.0984482975
0.5320659815 0.4603842428 0.0927316658
0.5653843831 0.4628434532 0.0862055651
0.5981245748 0.4605191704 0.0794450084
0.6273976213 0.4596344878 0.0755218836
0.6533803550 0.4596151235 0.0722926023
0.6802907556 0.4591808904 0.0689796387
0.7033522903 0.4551537490 0.0660256135
0.7245431114 0.4527403492 0.0638356681
0.7447525671 0.4496884175 0.0623983357
0.7648833600 0.4433322867 0.0612595015
0.7851307056 0.4412872915 0.0630312404
0.8046165561 0.4360673873 0.0671998381
0.8206165272 0.4312951533 0.0710729804
0.8309599717 0.4309927046 0.0776407098
0.8421004584 0.4279440129 0.0848225852
0.8510020505 0.4286924425 0.0941267784
0.8589896714 0.4307907725 0.1035274048
0.0351623650 0.3728412864 0.1770337297
0.0355968630 0.3753827103 0.1751950713
0.0399188604 0.3810260772 0.1735427544
0.0471831847 0.3886387782 0.1723740918
0.0601041072 0.3979833605 0.1717258841
0.0785495516 0.4081262309 0.1705327824
0.1003101936 0.4189619577 0.1702901407
0.1314085914 0.4322750745 0.1701986985
0.1736833711 0.4442056182 0.1688890578
0.2164291309 0.4530552649 0.1657649829
0.2687929583 0.4615022878 0.1607328117
0.3219917675 0.4701126129 0.1529827568
0.3702624795 0.4776149658 0.1432183232
0.4146106440 0.4830037502 0.1317593956
0.4558044047 0.4848153205 0.1188399921
0.4904794049 0.4884097747 0.1107031126
0.5261133772 0.4924861402 0.1041685418
0.5615877178 0.4961195784 0.0978251422
0.5977458122 0.4990726115 0.0912082867
0.6276193932 0.4969044231 0.0851057914
0.6545146688 0.4971281728 0.0811142711
0.6803549428 0.4977881943 0.0777695531
0.7035342787 0.4954005618 0.0749560119
0.7251607655 0.4927980004 0.0730743589
0.7467495949 0.4926475685 0.0721282344
0.7669468326 0.4860519109 0.0698347058
0.7874858287 0.4813886414 0.0701689771
0.8055866988 0.4752255273 0.0726730239
0.8196964689 0.4682943013 0.0776451222
0.8308567213 0.4640488592 0.0843351103
0.8404077592 0.4635318819 0.0916401713
0.8488947547 0.4615444140 0.1005035128
0.8561657355 0.4624631041 0.1096871681
0.0348489109 0.3991782604 0.1884582241
0.0332101164 0.4019770597 0.1858490719
0.0360793356 0.4067215340 0.1834466838
0.0429248056 0.4146712133 0.1820111398
0.0549303479 0.4244737151 0.1814380017
0.0738523563 0.4360613038 0.1802037185
0.0984958515 0.4461452515 0.1798436607
0.1279432058 0.4572299075 0.1798989332
0.1718105097 0.4702170384 0.1790250308
0.2177874141 0.4799719654 0.1763935251
0.2687908669 0.4893937669 0.1729205895
0.3224497275 0.4991750266 0.1674230724
0.3652765649 0.5071470618 0.1600605816
0.4087246383 0.5138102472 0.1501755211
0.4476414560 0.5179242296 0.1379732444
0.4860864560 0.5202385542 0.1252577780
0.5230287888 0.5241887502 0.1168456780
0.5586865264 0.5261012971 0.1099127613
0.5967706157 0.5326343522 0.1027635925
0.6283309702 0.5370501656 0.0965656841
0.6573559603 0.5352158240 0.0904263067
0.6814357955 0.5351734739 0.0866470055
0.7044347902 0.5340033000 0.0841977562
0.7276001938 0.5321324586 0.0824192582
0.7513191387 0.5329469100 0.0830020089
0.7733661568 0.5287506296 0.0825294633
0.7934318867 0.5262466832 0.0823767978
0.8092604990 0.5218343652 0.0834282837
0.8197811757 0.5140544559 0.0879874745
0.8302913860 0.5059074310 0.0944385194
0.8397845610 0.5013274611 0.1020011453
0.8475834987 0.4981070526 0.1100305865
0.8543626215 0.4967045482 0.1193118022
0.0358721565 0.4214453262 0.1995118302
0.0332699029 0.4261945194 0.1967632705
0.0339974488 0.4315324503 0.1941939176
0.0378267370 0.4390907226 0.1923502407
0.0481102114 0.4489520897 0.1908084748
0.0667227209 0.4611869698 0.1892191833
0.0925117250 0.4723330727 0.1877984509
0.1255506458 0.4822345838 0.1876928315
0.1674493508 0.4949085116 0.1871562828
0.2193090460 0.5043461131 0.1850314119
0.2706256271 0.5135250411 0.1824612682
0.3204800930 0.5237303768 0.1793641835
0.3666216409 0.5327282190 0.1732701490
0.4091905024 0.5400985213 0.1646206554
0.4454311191 0.5463520223 0.1551289523
0.4792691201 0.5523537887 0.1449476087
0.5172028444 0.5572767823 0.1340938083
0.5597619624 0.5586127689 0.1231217736
0.5976412387 0.5602207109 0.1145849174
0.6295017463 0.5636443421 0.1067494166
0.6588053179 0.5657237723 0.1009167090
0.6818619988 0.5647114399 0.0967808432
0.7039898008 0.5639959803 0.0940478459
0.7275920029 0.5633999490 0.0928600769
0.7525558726 0.5647477034 0.0941275581
0.7770971178 0.5622225129 0.0953551356
0.7984111704 0.5611230813 0.0967785196
0.8153013507 0.5603795735 0.0978411560
0.8274081287 0.5549342980 0.1000325973
0.8354740825 0.5478060072 0.1056040205
0.8425214931 0.5433287201 0.1134340765
0.8494413907 0.5386565074 0.1216348709
0.8557511837 0.5311520357 0.1293919934
0.0401381027 0.4381898549 0.2143134284
0.0373446792 0.4425595254 0.2100052634
0.0360907040 0.4478179040 0.2065601915
0.0360697035 0.4551933868 0.2025960717
0.0446661552 0.4650310394 0.1994768516
0.0616517964 0.4774592672 0.1967595750
0.0872495537 0.4896242251 0.1950394290
0.1212522389 0.5008618182 0.1937965330
0.1654062778 0.5143033163 0.1927628527
0.2158975284 0.5273682507 0.1904879631
0.2728068090 0.5379383992 0.1889605433
0.3225374479 0.5478887385 0.1865261960
0.3652877573 0.5558895936 0.1823520778
0.4081030618 0.5632179956 0.1751986922
0.4468573629 0.5698103906 0.1661024185
0.4789551167 0.5760285284 0.1574841500
0.5129518210 0.5823658387 0.1485120286
0.5575207314 0.5846087424 0.1366578292
0.5953094905 0.5850139772 0.1273778066
0.6276741591 0.5875298691 0.1201601456
0.6578650345 0.5907832822 0.1131397135
0.6822729730 0.5949670630 0.1097384699
0.7049159662 0.5957868981 0.1070156331
0.7281346500 0.5968653494 0.1058887302
0.7530611686 0.5993607618 0.1067953198
0.7782139912 0.5963510028 0.1083780968
0.7996362536 0.5922667424 0.1093330214
0.8178148832 0.5914915358 0.1101480661
0.8320741683 0.5896674268 0.1124683799
0.8415074821 0.5840860938 0.1177616049
0.8489156779 0.5802045803 0.1256762817
0.8557176086 0.5757924382 0.1340967596
0.8615552539 0.5684465420 0.1403146589
0.0440631025 0.4530232692 0.2269524524
0.0417165237 0.4572248637 0.2227245861
0.0391563336 0.4619965063 0.2181268730
0.0384783071 0.4684198621 0.2131261421
0.0438203994 0.4776107204 0.2081285188
0.0564930501 0.4893150950 0.2038188256
0.0812611053 0.5037652072 0.2000331152
0.1136851168 0.5169724733 0.1974081607
0.1568244081 0.5298415829 0.1954415369
0.2135905059 0.5438353890 0.1940627250
0.2669098281 0.5565635143 0.1931009333
0.3200376223 0.5661538106 0.1914065889
0.3633436102 0.5745480400 0.1887668689
0.4061582859 0.5828132631 0.1838816241
0.4451893968 0.5905304344 0.1763433025
0.4788205423 0.5972799304 0.1677101744
0.5101495636 0.6041157632 0.1593514336
