presets/标2 柯达5207 +1.cube
TITLE "YINGZEJUN Copyright"
# YINGZEJUN Copyright
# SP3000 & GOLD200 
# 20241106
# Created by: Adobe Photoshop Export Color Lookup Plugin
LUT_3D_SIZE 33
0.0545350000 0.0297240000 0.0468440000
0.0875363245 0.0364502298 0.0594764763
0.1115249709 0.0436038994 0.0685698895
0.1307688801 0.0506198802 0.0706027297
0.1683601798 0.0579836423 0.0692440885
0.2082179640 0.0607844566 0.0655756065
0.2516695046 0.0567350431 0.0575326152
0.2942301440 0.0503639273 0.0443323934
0.3342921736 0.0452635600 0.0326663371
0.3736819430 0.0449662946 0.0266029886
0.4166824211 0.0445461822 0.0215772028
0.4581418477 0.0438953279 0.0179453660
0.4927110220 0.0435942984 0.0152193394
0.5288469044 0.0425939016 0.0126805690
0.5665646744 0.0410642589 0.0087719332
0.6005800516 0.0422849547 0.0057550861
0.6299025770 0.0407269359 0.0027212954
0.6568206617 0.0419796255 0.0003410847
0.6780710825 0.0407687425 0.0000000000
0.6968389623 0.0407112217 0.0000000000
0.7151140358 0.0412578537 0.0000000000
0.7286786780 0.0413319047 0.0000000000
0.7413837048 0.0417983671 0.0000000000
0.7542354123 0.0432696816 0.0000000000
0.7678692820 0.0460314339 0.0000000000
0.7792282169 0.0490622294 0.0001014376
0.7891584376 0.0522236298 0.0006414968
0.7985504302 0.0557414265 0.0030121002
0.8088786861 0.0590939403 0.0045010037
0.8190785110 0.0625997474 0.0063820488
0.8275948879 0.0665007433 0.0086101393
0.8342548653 0.0704894082 0.0130541876
0.8389851879 0.0746024366 0.0205685662
0.0727667568 0.0491442716 0.0639068328
0.0748468497 0.0424743427 0.0590421830
0.0947208955 0.0504769730 0.0648016875
0.1164250631 0.0592683466 0.0645533801
0.1513452503 0.0654614115 0.0618428146
0.1903166662 0.0667169737 0.0567838050
0.2372303262 0.0645126896 0.0495355440
0.2831305200 0.0596989602 0.0390425199
0.3255942192 0.0571570740 0.0314373046
0.3715545847 0.0590522003 0.0270232172
0.4208452733 0.0598568154 0.0234334915
0.4647611403 0.0609328747 0.0206776497
0.5008443254 0.0618197614 0.0184918321
0.5377490354 0.0578111708 0.0144203077
0.5756828337 0.0569639009 0.0108488517
0.6116466576 0.0556040874 0.0065531056
0.6406548095 0.0521797369 0.0016624572
0.6631601659 0.0503974667 0.0002390770
0.6861794186 0.0482445002 0.0000000000
0.7054610059 0.0466683991 0.0000000000
0.7238340714 0.0465998778 0.0000000000
0.7376248193 0.0468606607 0.0000000000
0.7495692728 0.0467835947 0.0000000000
0.7617002177 0.0473004693 0.0000000000
0.7750458408 0.0491535185 0.0000000000
0.7871712984 0.0519619563 0.0000000000
0.7989818594 0.0553601106 0.0000000000
0.8088244793 0.0583617415 0.0002106020
0.8175498850 0.0612481993 0.0000000000
0.8274410405 0.0647952764 0.0004715813
0.8347611421 0.0685357758 0.0032661553
0.8413935201 0.0729821934 0.0085895874
0.8472478999 0.0776343433 0.0147618481
0.0736955605 0.0787675657 0.0815806053
0.0708914783 0.0642992192 0.0628796782
0.0805698001 0.0687453300 0.0642864027
0.1047250304 0.0797429085 0.0641308103
0.1407525479 0.0874896948 0.0616820290
0.1814397151 0.0938176660 0.0610795256
0.2277716302 0.0953115071 0.0544668786
0.2791268926 0.0938892607 0.0473137332
0.3240754334 0.0908067578 0.0417615574
0.3787618686 0.0922612089 0.0368633906
0.4320857515 0.0916685366 0.0317094888
0.4763666803 0.0906085733 0.0271690672
0.5144002571 0.0901785585 0.0234281047
0.5539997263 0.0847609886 0.0177260616
0.5902149176 0.0791963058 0.0121399894
0.6229758834 0.0784797601 0.0073719746
0.6496044647 0.0742816379 0.0024560332
0.6715520770 0.0673279384 0.0002474416
0.6933696415 0.0631812014 0.0000000000
0.7119712696 0.0600877985 0.0000000000
0.7287258777 0.0608665820 0.0000000000
0.7448387440 0.0604875250 0.0000000000
0.7585567362 0.0597530736 0.0000000000
0.7713654784 0.0584640743 0.0000000000
0.7852412536 0.0599505694 0.0000000000
0.7967506285 0.0613323368 0.0000000000
0.8080274861 0.0639712048 0.0000000000
0.8191196940 0.0663290371 0.0000000000
0.8277526365 0.0682706665 0.0000000000
0.8383788366 0.0708806141 0.0004715813
0.8457793147 0.0734418185 0.0020060446
0.8506854238 0.0766321885 0.0056438732
0.8563796018 0.0812541653 0.0116700843
0.0796342248 0.1229958261 0.1108137728
0.0706725695 0.0970504910 0.0750957874
0.0776961094 0.0954128550 0.0692060546
0.0981677417 0.1065111167 0.0682591714
0.1351626929 0.1170037132 0.0657312971
0.1782143207 0.1265673717 0.0640047034
0.2280898656 0.1318924557 0.0608861127
0.2819395284 0.1332237308 0.0560317957
0.3339762926 0.1325513946 0.0507569500
0.3931435679 0.1300730739 0.0436245893
0.4440290025 0.1266103000 0.0372130405
0.4902191967 0.1216880601 0.0313242296
0.5314548142 0.1203188169 0.0253723557
0.5741475674 0.1162184657 0.0194831012
0.6089804637 0.1115452210 0.0132072840
0.6368945672 0.1051450408 0.0078831340
0.6595957448 0.1032654732 0.0039159668
0.6804044678 0.0950415676 0.0005341698
0.6987672553 0.0877344189 0.0000000000
0.7176320839 0.0839165115 0.0000000000
0.7341947967 0.0815500670 0.0000000000
0.7516969605 0.0792518328 0.0000000000
0.7684787372 0.0763025233 0.0000000000
0.7830621993 0.0749448690 0.0000000000
0.7976594649 0.0752004453 0.0000000000
0.8085336740 0.0740805338 0.0000000000
0.8191832067 0.0749520109 0.0000000000
0.8305117012 0.0769280713 0.0000000000
0.8399131185 0.0775348238 0.0000000000
0.8503337712 0.0789247295 0.0000344508
0.8576150574 0.0813897029 0.0006471969
0.8623703359 0.0835456143 0.0031381133
0.8659013980 0.0866602644 0.0086645574
0.0774473305 0.1586525872 0.1258022333
0.0716852312 0.1350381477 0.0905727590
0.0733702006 0.1255164291 0.0768148436
0.0940380614 0.1340112331 0.0759076689
0.1272554016 0.1482011892 0.0742401263
0.1714777466 0.1591803810 0.0690876050
0.2226071706 0.1667085478 0.0638164188
0.2748305378 0.1695610484 0.0594921420
0.3311366634 0.1675150972 0.0541822562
0.3955960256 0.1675044239 0.0466478743
0.4506784943 0.1645906556 0.0386789776
0.5003221768 0.1592445612 0.0322587782
0.5512793446 0.1519212588 0.0254795036
0.5960934398 0.1479933395 0.0184993941
0.6240748888 0.1447629355 0.0141120480
0.6476074843 0.1399827670 0.0099960578
0.6708661919 0.1325538066 0.0052462866
0.6936955647 0.1278775650 0.0011907495
0.7133899235 0.1212648792 0.0000000000
0.7315079488 0.1152188423 0.0000000000
0.7511466840 0.1121440857 0.0000000000
0.7666553792 0.1082004639 0.0000000000
0.7823533048 0.1024954505 0.0000000000
0.7978896459 0.0984696900 0.0000000000
0.8128525582 0.0994514835 0.0000000000
0.8235394908 0.0945277049 0.0000000000
0.8339520725 0.0923695686 0.0000000000
0.8441760995 0.0926308193 0.0000000000
0.8550918208 0.0941797802 0.0000000000
0.8618684400 0.0940312985 0.0000000000
0.8676838731 0.0951576862 0.0002353878
0.8727809087 0.0962919028 0.0032840144
0.8766056322 0.0977319553 0.0066384457
0.0766219509 0.1916040097 0.1395538024
0.0739769846 0.1702735429 0.1064661910
0.0723932120 0.1556021921 0.0848364791
0.0881807248 0.1613279840 0.0825746050
0.1171698412 0.1735237649 0.0818432521
0.1571732025 0.1845877531 0.0782161407
0.2070068121 0.1968420728 0.0706090473
0.2603038897 0.2026850112 0.0612765498
0.3146461676 0.2023242827 0.0541153028
0.3766344651 0.2036090974 0.0475148443
0.4380861216 0.1987743637 0.0426799026
0.4926234246 0.1951070106 0.0352603273
0.5481870410 0.1895747837 0.0296079415
0.5906001925 0.1839190374 0.0232236732
0.6223074669 0.1793551249 0.0174037335
0.6485358046 0.1760711897 0.0128345797
0.6745607079 0.1726054764 0.0077355635
0.6975917496 0.1646658929 0.0030484763
0.7222788457 0.1577615143 0.0004859264
0.7439706267 0.1507157954 0.0000000000
0.7640451662 0.1465909321 0.0000000000
0.7811163818 0.1448348090 0.0000000000
0.7958638283 0.1401977245 0.0000000000
0.8105706176 0.1333986800 0.0000000000
0.8245144287 0.1287198603 0.0000000000
0.8372845032 0.1248918593 0.0000000000
0.8483916638 0.1199260518 0.0000000000
0.8574573855 0.1180085834 0.0000000000
0.8656349757 0.1179578116 0.0000000000
0.8713329907 0.1174776620 0.0000000000
0.8768490141 0.1179324117 0.0012463976
0.8821201865 0.1185223987 0.0046613021
0.8859802820 0.1196365513 0.0078671183
0.0767366437 0.2195976921 0.1496451636
0.0752150847 0.2028600396 0.1185352939
0.0732307478 0.1890408867 0.0946624342
0.0826498152 0.1903375869 0.0886772060
0.1089676649 0.2038131729 0.0894477738
0.1451084283 0.2138294658 0.0866499038
0.1869124658 0.2253364382 0.0803306828
0.2411042871 0.2375634976 0.0694766494
0.2963857131 0.2386461804 0.0580702213
0.3578881308 0.2440610392 0.0503115447
0.4227685345 0.2472144908 0.0440684620
0.4749797299 0.2410644294 0.0402066865
0.5317249117 0.2382354503 0.0342057269
0.5772096886 0.2328716969 0.0267346704
0.6137830499 0.2268906283 0.0187147895
0.6429665057 0.2203580714 0.0129833007
0.6704954148 0.2177345224 0.0075728078
0.6975776695 0.2091185668 0.0030861144
0.7233147744 0.2011659603 0.0005729600
0.7465891279 0.1923067492 0.0000000000
0.7667819484 0.1860517760 0.0000000000
0.7846954376 0.1855170060 0.0000000000
0.8011235864 0.1802136124 0.0000000000
0.8164734648 0.1741910442 0.0000000000
0.8314297183 0.1675333564 0.0000000000
0.8448425885 0.1584212830 0.0000000000
0.8559843204 0.1558890033 0.0000000000
0.8649869830 0.1526590161 0.0000000000
0.8715667845 0.1515463098 0.0003874072
0.8767746466 0.1509710588 0.0003874072
0.8813609775 0.1523764359 0.0027353074
0.8859424433 0.1530200085 0.0071622103
0.8894168454 0.1543462309 0.0121354185
0.0770327310 0.2446806068 0.1590655337
0.0759125067 0.2329092076 0.1305411536
0.0748864863 0.2227784898 0.1071376282
0.0788007644 0.2212784264 0.0952108530
0.1009344487 0.2349559099 0.0958734946
0.1359198550 0.2488946426 0.0956517198
0.1747639428 0.2603021181 0.0916935145
0.2213714951 0.2730384755 0.0819888132
0.2797202360 0.2801192923 0.0717295434
0.3401598198 0.2857526047 0.0610400798
0.4064475504 0.2909915286 0.0526853707
0.4680327155 0.2938981594 0.0453493728
0.5192913004 0.2902286546 0.0384622063
0.5645187845 0.2876096509 0.0315958371
0.6019530431 0.2824262895 0.0230978277
0.6337552367 0.2782012659 0.0148008727
0.6636445571 0.2701870302 0.0076460300
0.6927365149 0.2607567078 0.0018983344
0.7187226542 0.2511683341 0.0000000000
0.7411852638 0.2438168014 0.0000000000
0.7602883233 0.2354023625 0.0000000000
0.7793804775 0.2321630942 0.0000000000
0.7977193905 0.2259137620 0.0000000000
0.8149601670 0.2183974452 0.0000000000
0.8306653688 0.2127546818 0.0000000000
0.8443511266 0.2010943189 0.0000000000
0.8558103137 0.1950271658 0.0000000000
0.8647527465 0.1933912607 0.0000000000
0.8720327047 0.1905001004 0.0002682143
0.8773493260 0.1912495077 0.0009734826
0.8817896832 0.1948299930 0.0068611971
0.8863050656 0.1954879329 0.0137619511
0.8897456178 0.1971808720 0.0206096602
0.0771956700 0.2700144837 0.1705766660
0.0769197604 0.2618716532 0.1449787618
0.0759549807 0.2551146317 0.1213309826
0.0787073442 0.2543817333 0.1063788489
0.0931441081 0.2653021445 0.1017501713
0.1254943876 0.2839918452 0.1021920802
0.1635393264 0.2980401673 0.1012700805
0.2104710930 0.3096995441 0.0958218397
0.2648101419 0.3207144246 0.0861774333
0.3234580628 0.3288774100 0.0782323371
0.3882690175 0.3297639078 0.0676861595
0.4530473730 0.3318853692 0.0565749842
0.5122292541 0.3369488299 0.0458611278
0.5562509518 0.3385915453 0.0362469372
0.5899939984 0.3381041841 0.0280687703
0.6215894741 0.3354945321 0.0199418247
0.6539773067 0.3313382666 0.0112582831
0.6850074744 0.3220915946 0.0040385990
0.7120389819 0.3123055654 0.0015610121
0.7351386853 0.3036339337 0.0013754434
0.7555591289 0.2967186938 0.0003377604
0.7728294035 0.2902556529 0.0000000000
0.7900065590 0.2820623941 0.0000000000
0.8095042510 0.2716730113 0.0000000000
0.8264683864 0.2638083963 0.0000000000
0.8418873787 0.2515834497 0.0000000000
0.8545988685 0.2439391264 0.0000000000
0.8647850713 0.2397751923 0.0000000000
0.8712911887 0.2384609367 0.0008175612
0.8762442640 0.2385644544 0.0029673347
0.8811169686 0.2394617447 0.0096857409
0.8862725019 0.2382300050 0.0163464547
0.8917060340 0.2335666402 0.0250957828
0.0786958480 0.2956934331 0.1783585834
0.0778982507 0.2914481371 0.1596761369
0.0769085154 0.2875934148 0.1355380520
0.0784233399 0.2894487432 0.1184508493
0.0900192040 0.2994937024 0.1092418147
0.1162313368 0.3168942327 0.1080940729
0.1554358979 0.3347230748 0.1082458035
0.2024522518 0.3471528904 0.1073626461
0.2544267760 0.3600426176 0.1018070671
0.3094984703 0.3658508380 0.0936002895
0.3726052672 0.3742217576 0.0847811509
0.4338333311 0.3754053943 0.0717862383
0.4937568493 0.3804012772 0.0564689755
0.5389797665 0.3835212132 0.0446497476
0.5769954051 0.3860158381 0.0319142954
0.6098197222 0.3851242504 0.0220239767
0.6426675102 0.3827730500 0.0143161681
0.6750120164 0.3789012310 0.0061693878
0.7012928310 0.3723467189 0.0040756262
0.7258027296 0.3635190733 0.0031303668
0.7490521212 0.3530835206 0.0008329146
0.7704928236 0.3460700490 0.0001867034
0.7892272036 0.3378534466 0.0000000000
0.8081676930 0.3280194879 0.0000000000
0.8254755805 0.3193306543 0.0000000000
0.8403803869 0.3045854028 0.0000000000
0.8524028528 0.2966093442 0.0000000000
0.8626089875 0.2908811290 0.0000000000
0.8693008932 0.2874553494 0.0000807442
0.8749087620 0.2867793629 0.0032848592
0.8797621070 0.2831485107 0.0103824206
0.8839968002 0.2821495814 0.0193022671
0.8886111390 0.2800102379 0.0285605544
0.0803834956 0.3212244142 0.1894142043
0.0802624165 0.3197558564 0.1725475869
0.0804469157 0.3199561623 0.1508022243
0.0804142908 0.3226039857 0.1319144431
0.0886741883 0.3322041262 0.1190987145
0.1110893517 0.3483662130 0.1141296518
0.1464841012 0.3627761056 0.1144196719
0.1936883362 0.3790750735 0.1149990680
0.2447562176 0.3934549970 0.1133381907
0.2966637023 0.4034886477 0.1074431739
0.3553266591 0.4098967179 0.0978493380
0.4145918029 0.4126465813 0.0864497542
0.4724232296 0.4158837645 0.0708601545
0.5205108670 0.4221417895 0.0551040708
0.5595847058 0.4225346526 0.0430758763
0.5942013911 0.4251643937 0.0301088026
0.6268619424 0.4241599826 0.0218237701
0.6600116374 0.4210308514 0.0114511336
0.6897680136 0.4159293689 0.0060504568
0.7143502968 0.4115422142 0.0051356522
0.7394774834 0.4054998977 0.0027104846
0.7620545104 0.4004946206 0.0012044123
0.7852949052 0.3900492212 0.0000000000
0.8059360302 0.3825798294 0.0000000000
0.8241802010 0.3758893223 0.0000000000
0.8384596566 0.3654391072 0.0000000000
0.8506730448 0.3516890271 0.0000000000
0.8592913541 0.3455593252 0.0004547095
0.8660290276 0.3404447270 0.0011094838
0.8722496682 0.3350983226 0.0065704444
0.8771330488 0.3350195933 0.0151510324
0.8821290145 0.3297162779 0.0236191649
0.8865200670 0.3278787555 0.0314513055
0.0827286724 0.3422620914 0.2008683579
0.0829495009 0.3429439694 0.1847712163
0.0834635977 0.3446181936 0.1658649301
0.0846337263 0.3495577284 0.1450589315
0.0882609436 0.3590862997 0.1299706348
0.1052712784 0.3755076662 0.1224395903
0.1381760706 0.3930446533 0.1213899988
0.1840188849 0.4087008422 0.1228826012
0.2356391370 0.4234145517 0.1228984209
0.2859167848 0.4354990429 0.1195409182
0.3441954976 0.4453252040 0.1106901255
0.4011058443 0.4493187466 0.0978961672
0.4566908228 0.4487536693 0.0841040082
0.5045859431 0.4523799274 0.0685304932
0.5437267531 0.4574684104 0.0534504436
0.5783522441 0.4587425302 0.0407923275
0.6115887769 0.4610789039 0.0286882895
0.6449064359 0.4605990314 0.0183575857
0.6745179764 0.4569174057 0.0114708388
0.7026969722 0.4515920831 0.0088768299
0.7285067480 0.4498448339 0.0052549035
0.7529582807 0.4461721199 0.0025877958
0.7774397666 0.4392117918 0.0002282127
0.8000833332 0.4297406647 0.0000000000
0.8192387921 0.4246249068 0.0000000000
0.8353825241 0.4191864006 0.0000000000
0.8478186230 0.4100358579 0.0000000000
0.8570694858 0.4002887569 0.0009396634
0.8638750983 0.3946713488 0.0034270984
0.8697854189 0.3866090174 0.0108245878
0.8747862098 0.3843150366 0.0210888299
0.8791214639 0.3838836224 0.0312996617
0.8839599475 0.3831750400 0.0424304166
0.0842932084 0.3588423990 0.2116445684
0.0851957612 0.3610954978 0.1947928098
0.0862552197 0.3645756621 0.1760847528
0.0881529971 0.3712437969 0.1574837053
0.0902887363 0.3822155102 0.1391986530
0.1008827328 0.3972273246 0.1306858756
0.1275171452 0.4160014659 0.1287258228
0.1716347650 0.4356109429 0.1309487170
0.2245461030 0.4519058030 0.1323416436
0.2751408703 0.4639856855 0.1311057654
0.3338010298 0.4755974207 0.1240635413
0.3919253110 0.4832290843 0.1106586849
0.4477482387 0.4825882762 0.0952948219
0.4945901831 0.4812050599 0.0811782320
0.5322666639 0.4851516857 0.0664530907
0.5660030391 0.4908538896 0.0517537252
0.5997032535 0.4943842357 0.0386268327
0.6340658447 0.4962862929 0.0278135057
0.6634410760 0.4955278228 0.0217472081
0.6899412594 0.4923710274 0.0179833633
0.7172120148 0.4864284524 0.0132887550
0.7447112652 0.4823552489 0.0090796239
0.7712763899 0.4768156291 0.0055014539
0.7948206834 0.4713072701 0.0037579926
0.8149831515 0.4634765195 0.0023468300
0.8319281847 0.4594488202 0.0020556371
0.8448812161 0.4529514123 0.0021470760
0.8549872493 0.4469265805 0.0026416793
0.8616071354 0.4435799352 0.0064885596
0.8679126501 0.4371497392 0.0163001321
0.8735003061 0.4344989876 0.0292394670
0.8788969317 0.4338258409 0.0421424951
0.8840077211 0.4330005827 0.0539429639
0.0847961438 0.3767244427 0.2208252995
0.0854435143 0.3787530069 0.2097047949
0.0874764644 0.3833862980 0.1921393398
0.0899855315 0.3906541781 0.1746515727
0.0942373590 0.4028311403 0.1563097366
0.0991846704 0.4178041274 0.1432548623
0.1178889420 0.4375329144 0.1378965648
0.1576550444 0.4588104373 0.1394142307
0.2118759370 0.4770514654 0.1419662299
0.2655459180 0.4883948424 0.1399032792
0.3242910659 0.5008132827 0.1353011471
0.3834556417 0.5106289407 0.1237787431
0.4385171670 0.5142428791 0.1072764716
0.4869868637 0.5158018579 0.0922407776
0.5215894135 0.5146806351 0.0802401222
0.5531029154 0.5179364213 0.0676705856
0.5872101905 0.5219217901 0.0538673423
0.6222056356 0.5250139503 0.0427081463
0.6558614573 0.5247256795 0.0337464475
0.6832486706 0.5240407546 0.0291941604
0.7086912426 0.5219270905 0.0256091820
0.7371414814 0.5198976076 0.0190876362
0.7651267796 0.5137298942 0.0132694867
0.7899124243 0.5087403768 0.0109645665
0.8102233193 0.5032176329 0.0100315983
0.8282446707 0.4946500370 0.0074912727
0.8429165914 0.4909804882 0.0077550398
0.8550238506 0.4839698454 0.0076750200
0.8626491585 0.4791449516 0.0136864617
0.8691471546 0.4784726193 0.0252573881
0.8751273882 0.4739401712 0.0380841087
0.8810670231 0.4725763838 0.0519258894
0.8864165553 0.4724387587 0.0635690575
0.0857431001 0.3937496077 0.2314437065
0.0864477134 0.3949850619 0.2201802936
0.0882430557 0.3994495521 0.2059722125
0.0914548173 0.4075639794 0.1889294635
0.0965359642 0.4205730205 0.1716674834
0.1015324855 0.4370879049 0.1570280472
0.1122396448 0.4558669820 0.1486248098
0.1448945388 0.4785167547 0.1475403081
0.1983037814 0.4989373652 0.1500774434
0.2531939801 0.5132284638 0.1512291386
0.3148059061 0.5252416704 0.1484428266
0.3731728007 0.5356766732 0.1393269576
0.4274125604 0.5408769499 0.1239929857
0.4753981043 0.5434524788 0.1070846554
0.5169807103 0.5437539391 0.0928543059
0.5472219776 0.5438541055 0.0825175157
0.5794487452 0.5453318400 0.0714905171
0.6128140721 0.5481889481 0.0618244188
0.6474398293 0.5518925295 0.0518988234
0.6780312144 0.5525496780 0.0438577987
0.7048064966 0.5523168022 0.0402316199
0.7327474244 0.5526996975 0.0342830786
0.7615800092 0.5500947588 0.0279738846
0.7876811055 0.5460241558 0.0245955808
0.8090413248 0.5436193328 0.0245618160
0.8264030766 0.5350926911 0.0218602181
0.8414716231 0.5285955604 0.0208808382
0.8546955620 0.5230059128 0.0233539196
0.8645926266 0.5168725894 0.0302474400
0.8717897244 0.5119766815 0.0393846483
0.8776036852 0.5103198533 0.0505591284
0.8837187345 0.5065626665 0.0619881239
0.8894816620 0.5058347186 0.0723609572
0.0876600792 0.4086234915 0.2421079846
0.0880663150 0.4102830740 0.2316548530
0.0890821702 0.4148084195 0.2195402386
0.0926096407 0.4234584553 0.2039262203
0.0977567836 0.4372770840 0.1878946072
0.1052970704 0.4549010632 0.1731867245
0.1125572126 0.4741325325 0.1611755691
0.1337489602 0.4953642784 0.1568459341
0.1818783632 0.5181839308 0.1580993639
0.2405074620 0.5344334667 0.1611359265
0.3024870712 0.5465782176 0.1624176807
0.3653675766 0.5576287298 0.1559836313
0.4178912170 0.5634548195 0.1434601780
0.4676894395 0.5660022404 0.1263263623
0.5067567234 0.5684048613 0.1108841283
0.5430585631 0.5698927864 0.0978620844
0.5749949079 0.5703496815 0.0874317159
0.6063498935 0.5708696097 0.0786470594
0.6404646984 0.5746862432 0.0700867999
0.6732968281 0.5797393693 0.0627855486
0.7036863255 0.5800170889 0.0558886754
0.7315331977 0.5813357849 0.0501423507
0.7593391435 0.5816772746 0.0445609569
0.7861011251 0.5808739407 0.0417743895
0.8091401316 0.5810408168 0.0427063820
0.8268748602 0.5747861489 0.0416666679
0.8424166138 0.5693776566 0.0412661831
0.8546250789 0.5644579148 0.0447539994
0.8644531133 0.5562028986 0.0499259243
0.8726810501 0.5479408828 0.0569616988
0.8790967705 0.5432557272 0.0660799695
0.8849077476 0.5393430314 0.0749326724
0.8911202816 0.5374938213 0.0836981789
0.0900787219 0.4220811624 0.2515046299
0.0905267170 0.4256884611 0.2433086133
0.0911514137 0.4308350326 0.2336738053
0.0942385196 0.4394662585 0.2220179694
0.0997067967 0.4533657645 0.2079062454
0.1084895044 0.4708717648 0.1939647476
0.1176768827 0.4900763442 0.1799546121
0.1302654265 0.5124299065 0.1705453983
0.1638764116 0.5343998566 0.1691490131
0.2239530519 0.5520049173 0.1715030528
0.2880861820 0.5639023109 0.1754528026
0.3497962017 0.5741811686 0.1731979747
0.4105525454 0.5823976200 0.1624598092
0.4640022575 0.5863360275 0.1465369778
0.5030571218 0.5894818201 0.1313655086
0.5352652529 0.5943843832 0.1182243764
0.5702179421 0.5994656076 0.1068195616
0.6030209002 0.5964386866 0.0956274062
0.6367075184 0.5985834120 0.0876561818
0.6687143516 0.6042258010 0.0808034483
0.7012456854 0.6108070803 0.0730200460
0.7301313367 0.6121818717 0.0677642343
0.7582018103 0.6125299916 0.0625599972
0.7841962141 0.6133001155 0.0592844794
0.8073845688 0.6153805120 0.0590301919
0.8252337280 0.6120277714 0.0579880367
0.8417536461 0.6091863631 0.0580021132
0.8545234798 0.6057557858 0.0611841796
0.8647504908 0.5981891297 0.0671662780
0.8730379939 0.5892194387 0.0752042173
0.8795728298 0.5822921765 0.0836903847
0.8852211109 0.5753767506 0.0908877556
0.8911406653 0.5670608193 0.0963714933
0.0938960414 0.4356102740 0.2675318084
0.0944593607 0.4392796508 0.2604577714
0.0949336711 0.4446803860 0.2518257068
0.0973345824 0.4529623032 0.2418309238
0.1045379721 0.4659621189 0.2289417129
0.1132590307 0.4826964748 0.2161772534
0.1235602409 0.5011139738 0.2032315816
0.1332386691 0.5233051124 0.1909526992
0.1579553746 0.5470763585 0.1854344549
0.2032988576 0.5661312576 0.1840592935
0.2712586342 0.5802438585 0.1873799944
0.3358894599 0.5909511697 0.1880807802
0.3959004790 0.5999920278 0.1820231146
0.4532714536 0.6060528953 0.1683462910
0.4989824560 0.6104402600 0.1522786088
0.5320464522 0.6156401068 0.1381122234
0.5628481740 0.6222081892 0.1252806312
0.6004711063 0.6253862582 0.1123062040
0.6323544796 0.6251089408 0.1038672946
0.6635715200 0.6291831521 0.0969575785
0.6969954060 0.6354755423 0.0867230803
0.7268009121 0.6408680048 0.0826557372
0.7562142471 0.6418242122 0.0780283525
0.7823813069 0.6431744314 0.0753594974
0.8053665873 0.6456575747 0.0744540708
0.8233715377 0.6441268242 0.0726885925
0.8403720400 0.6411699478 0.0711715256
0.8541020879 0.6390858706 0.0732501488
0.8642875801 0.6362733000 0.0776345567
0.8724152901 0.6297826297 0.0868519326
0.8795299450 0.6234546574 0.0967770411
0.8857208257 0.6153436798 0.1044440236
0.8912428823 0.6044124743 0.1107310070
0.0984516076 0.4489429622 0.2819345098
0.0995041668 0.4529896463 0.2756096076
0.1018096116 0.4580832342 0.2684117358
0.1058784306 0.4656715064 0.2605127014
0.1123122824 0.4774474505 0.2507088264
0.1185521834 0.4925165105 0.2398700890
0.1285993904 0.5119983049 0.2268607740
0.1424268862 0.5311862482 0.2147421160
0.1587063873 0.5528680509 0.2052833980
0.1939657836 0.5733221627 0.1996170342
0.2457662898 0.5896329214 0.2001459094
0.3124542956 0.6031402046 0.2017014702
0.3737825805 0.6138052136 0.1999579212
0.4359264194 0.6222824449 0.1909599962
0.4872492155 0.6292444796 0.1763339048
0.5249466287 0.6356215644 0.1608872827
0.5560063444 0.6417944452 0.1462781116
