presets/标2 柯达5207 +1.cube
TITLE "YINGZEJUN Copyright"
# YINGZEJUN Copyright
# SP3000 & GOLD200 
# 20241106
# Created by: Adobe Photoshop Export Color Lookup Plugin
LUT_3D_SIZE 5
0.0545350000 0.0297240000 0.0468440000
0.3342921736 0.0452635600 0.0326663371
0.6299025770 0.0407269359 0.0027212954
0.7678692820 0.0460314339 0.0000000000
0.8389851879 0.0746024366 0.0205685662
0.0771956700 0.2700144837 0.1705766660
0.2648101419 0.3207144246 0.0861774333
0.6539773067 0.3313382666 0.0112582831
0.8264683864 0.2638083963 0.0000000000
0.8917060340 0.2335666402 0.0250957828
0.0900787219 0.4220811624 0.2515046299
0.1638764116 0.5343998566 0.1691490131
0.5702179421 0.5994656076 0.1068195616
0.8073845688 0.6153805120 0.0590301919
0.8911406653 0.5670608193 0.0963714933
0.1396754224 0.5055796178 0.3604013482
0.1944413048 0.5622296754 0.3154820804
0.4631162809 0.7322680056 0.3003592497
0.7938947373 0.8124758409 0.2223268747
0.9107640719 0.8161435137 0.2145399768
0.1806353020 0.5416318621 0.4285312398
0.2265515772 0.5796708736 0.4039517506
0.3884890700 0.7000032389 0.4310466158
0.6720621889 0.8528502217 0.4216530653
0.8865873086 0.8920580063 0.4266311053
0.0954322845 0.0488369197 0.2339052180
0.3238353221 0.0746241945 0.2254038194
0.5973102594 0.0740204982 0.1845386548
0.7511619389 0.0959917668 0.1701613878
0.8333794900 0.1392651523 0.1968811170
0.0745551948 0.2331962303 0.3492556101
0.2530318061 0.2888080703 0.2805942960
0.5970144302 0.2718685851 0.2159417761
0.7753086395 0.2334460598 0.1859703612
0.8836033012 0.2254451971 0.1785293236
0.1113545693 0.4157950107 0.4176337048
0.1373207363 0.4808265144 0.3628905131
0.5590973524 0.5792690707 0.3257828618
0.7875081314 0.6014160969 0.2915404104
0.9078389708 0.5666975091 0.2676286674
0.1509394707 0.5122415363 0.4796748037
0.1997945256 0.5550487058 0.4546421557
0.4369177405 0.6950511190 0.4553783025
0.7657145464 0.7854254695 0.3918332101
0.9269695634 0.8228681871 0.3450016447
0.1803023178 0.5412984002 0.4986183723
0.2324508751 0.5776124156 0.4900733075
0.3750169121 0.6896801617 0.5234184900
0.6446621485 0.8564186185 0.4995564007
0.8947359868 0.9023351485 0.4870107211
0.1611046411 0.0649280431 0.3486209344
0.3173220515 0.0753572300 0.3490993684
0.5977494315 0.0798270152 0.3150992635
0.7241808652 0.1040590709 0.3048323692
0.8093670126 0.1639858300 0.3247335527
0.0880264670 0.1862218134 0.4997847261
0.2684514097 0.2330712627 0.4555203168
0.5908267528 0.2449235032 0.4070493345
0.7588082484 0.2623778999 0.3788890779
0.8731366104 0.3058196188 0.3802517782
0.1117975945 0.4213517320 0.5902681089
0.1629349868 0.4909051594 0.6471861924
0.5756461748 0.5832296230 0.5726150191
0.7835582052 0.5858325758 0.5309992458
0.8904042357 0.5559601962 0.4852501630
0.1598963668 0.5244036606 0.6063492925
0.2111609794 0.5660904872 0.6081193512
0.4591717489 0.6938822911 0.6394451651
0.7626522344 0.7824410481 0.6119897091
0.9076660308 0.8010363378 0.5866052601
0.1649715940 0.5336381480 0.5921808113
0.2187150148 0.5705599943 0.5866276457
0.3657148334 0.6780816987 0.6212466771
0.6074299112 0.8422563727 0.6586915695
0.8996038210 0.9110050651 0.6475655982
0.2019386966 0.0834551233 0.4403693185
0.3266839572 0.0886830087 0.4381005689
0.5551314441 0.1012610546 0.4329193996
0.7171533759 0.1260639123 0.4597613340
0.7990129847 0.1884243314 0.4487847321
0.1311656553 0.1557082020 0.5999672482
0.2935670704 0.1908231992 0.5882832195
0.5985228517 0.2262764735 0.5692531885
0.7583184412 0.2533015091 0.5482800603
0.8580727206 0.3031768411 0.5209568264
0.1554497275 0.4463717369 0.8033355102
0.2831086948 0.4946555867 0.7685701336
0.5821788153 0.5573193147 0.7157093603
0.7846104442 0.5767149058 0.6851906166
0.8861358355 0.5698877299 0.6554634014
0.1597136467 0.5329732185 0.7176353132
0.2191548308 0.5828216829 0.7597062876
0.4968902924 0.6926924860 0.8082084864
0.7778065400 0.7802988896 0.7908075152
0.9016278175 0.7850980564 0.7557983588
0.1796902755 0.5534196039 0.6666005964
0.1995394306 0.5662682684 0.6656018219
0.3253120116 0.6528063424 0.7202786572
0.5977604902 0.8358455899 0.8162351050
0.9116869748 0.9209088650 0.8616323743
0.2371231453 0.0946579404 0.5154031156
0.3393738595 0.1012585504 0.5103612961
0.5580324618 0.1170687833 0.5239778565
0.7047601037 0.1595853783 0.5480892881
0.7989916544 0.2326856590 0.5698717799
0.1357962896 0.1264327774 0.6809579533
0.2863741234 0.1364928057 0.6549742623
0.5947708177 0.1568969276 0.6248246276
0.7659224935 0.2320052407 0.6224814225
0.8487103457 0.3146100045 0.6143681185
0.2137697154 0.4134296820 0.8779007207
0.2933875781 0.4910459925 0.9049530272
0.6121204295 0.5245795480 0.9056999703
0.8600965315 0.5163127098 0.8652549382
0.8975100138 0.5298408493 0.7797291606
0.1687741184 0.5331514820 0.8190684678
0.2068460936 0.5704295204 0.8772324612
0.4561771324 0.6813658398 0.9463427236
0.7970972506 0.7616959501 0.9376574068
0.9184331298 0.7661625753 0.8969935524
0.2190958608 0.5825242031 0.7625675184
0.2190958608 0.5825242031 0.7625675184
0.3289140988 0.6484285380 0.8278896170
0.6195611121 0.8367076905 0.9338419352
0.9647830000 0.9659730000 0.9873660000
