presets/标2 柯达5207 +2.cube
TITLE "YINGZEJUN Copyright"
# YINGZEJUN Copyright
# SP3000 & GOLD200 
# 20241106
# Created by: Adobe Photoshop Export Color Lookup Plugin
LUT_3D_SIZE 5
0.0411070000 0.0238650000 0.0438840000
0.3681156309 0.0476148186 0.0266956756
0.6265218484 0.1133612796 0.0046220995
0.7648688862 0.1537129236 0.0000000000
0.8251352774 0.1859538694 0.0333164966
0.0671611849 0.2527167716 0.1218077578
0.3341639480 0.3501701120 0.0704958849
0.6237111153 0.4028467248 0.0000000000
0.7845125802 0.4018556160 0.0000000000
0.8755254825 0.3617685908 0.0005960909
0.1100390484 0.4468459481 0.2045121154
0.2978951338 0.5297457825 0.1834860065
0.5842724939 0.6111688462 0.0864871239
0.7753101121 0.6456526342 0.0000000000
0.8694395596 0.6223638086 0.0507650850
0.1905787149 0.5616214675 0.3714900173
0.2240055149 0.6143595724 0.3114147472
0.5141762149 0.7227468225 0.2555383363
0.7512053142 0.7746956560 0.1968806270
0.8722620186 0.8031464565 0.1933579644
0.2587130473 0.6183808475 0.5040363693
0.3047899748 0.6621783084 0.4919848650
0.4278078666 0.7709157251 0.4446424145
0.7001093978 0.8444230396 0.4539448045
0.8493041189 0.8778944470 0.4978471996
0.0785815606 0.0629117813 0.2515614475
0.3268681572 0.1080049002 0.2304717262
0.5748906616 0.1522782566 0.2195807949
0.7360014594 0.1751278078 0.1981658141
0.8474727096 0.2108667702 0.2032378972
0.0906700304 0.2580048023 0.3533364908
0.3334988730 0.3498227686 0.3454022313
0.6048693005 0.3630499797 0.2938377794
0.7635409350 0.3478990847 0.2437930986
0.8896945930 0.2833776658 0.1666032568
0.1250052649 0.4274056188 0.4307087760
0.2784883598 0.5014229206 0.4062367863
0.5615259206 0.5922649506 0.3738332019
0.7657168593 0.6299013970 0.3342184358
0.8992856278 0.6116296632 0.2314091694
0.2033471980 0.5505185293 0.5050605901
0.2336071142 0.5918306603 0.4682951412
0.4837173944 0.6912006836 0.4481653065
0.7394688099 0.7657484423 0.4155588968
0.8911570445 0.8127749939 0.3031592636
0.2612465114 0.6108972259 0.5773038406
0.3103206460 0.6519708854 0.5743094804
0.3877876011 0.7425229714 0.5331486980
0.6985936937 0.8494291609 0.5244163074
0.8600528000 0.8861871028 0.5582401998
0.1541208941 0.0789553243 0.3956748253
0.3376957075 0.0912228768 0.3828928743
0.5871164854 0.0993946807 0.3512498716
0.7431193296 0.1673583772 0.3388362303
0.8737264262 0.2621624284 0.3766020448
0.1564830568 0.2682778260 0.5258325963
0.3394898939 0.3123284266 0.5067384386
0.5915848324 0.3340446004 0.4611093938
0.7504805758 0.3692976143 0.4406387196
0.8876664989 0.3945038134 0.4474315466
0.1270617268 0.4175232591 0.6100085748
0.2746014093 0.4793280075 0.6084702332
0.5721633879 0.5806041366 0.5947989645
0.7566180646 0.6079050440 0.5646755704
0.8910598211 0.6052821326 0.5315845658
0.2129771147 0.5458259301 0.6336551196
0.2439430207 0.5809560415 0.6389372739
0.4912927846 0.6783303256 0.6467129547
0.7317471027 0.7556537021 0.6405496225
0.8865711335 0.8014852383 0.6161525117
0.2579097175 0.5958473154 0.6402514748
0.2946021415 0.6306595402 0.6595105273
0.3890239480 0.7168900243 0.6743182036
0.6348631411 0.8376147624 0.6745662934
0.8641468831 0.8881754466 0.6692529410
0.2056013824 0.1194855359 0.5224873900
0.3460798665 0.1217136695 0.5108199813
0.5513454179 0.1117728524 0.4807356838
0.7277727228 0.1660600114 0.4891662056
0.8771482334 0.2941864402 0.5450375110
0.1299160179 0.1935971042 0.6318204478
0.3182899351 0.2470736139 0.6254069681
0.5771152195 0.3146239690 0.6130340433
0.7528024894 0.3522553505 0.5881817140
0.8882755163 0.3904670836 0.5954485295
0.2181907388 0.4452388726 0.7536794884
0.3450630888 0.4847262443 0.7433946055
0.5680748837 0.5466840670 0.7272847333
0.7532608278 0.5860983402 0.7046144029
0.8875465170 0.5937753387 0.6917404429
0.2225673788 0.5499613467 0.7521066030
0.2720800997 0.5903853738 0.7842155086
0.5081733945 0.6708087545 0.7906294338
0.7379410248 0.7444696040 0.7856495648
0.8876283329 0.7764109920 0.7654595297
0.2744562220 0.6050417403 0.7203812375
0.2865930073 0.6177653461 0.7286209527
0.3855440928 0.6969671941 0.7808972981
0.6003511429 0.8187569364 0.8354173634
0.8747963707 0.8840974976 0.8463394307
0.2708148450 0.1760141224 0.6557211473
0.3887409437 0.1735900091 0.6404832642
0.5776219288 0.1549363415 0.6135017615
0.7431160996 0.1631485059 0.6054674417
0.8913189774 0.3469239723 0.6832491546
0.1615082365 0.2059965797 0.7586488481
0.3098688390 0.2351529638 0.7610574103
0.5837056322 0.2011391788 0.7013090476
0.7831160014 0.2384367924 0.6761633430
0.9180901565 0.4130639441 0.7345659859
0.1817635360 0.4534363386 0.9127565986
0.3403269450 0.5107934130 0.9117730792
0.6144127765 0.5287564380 0.8926759908
0.8413735070 0.5325616589 0.8550521172
0.9260976166 0.5604397859 0.8244515677
0.2601137570 0.5784640195 0.8906876857
0.2874250264 0.5983317793 0.9033575867
0.4950866012 0.6764535169 0.9259138050
0.7776688880 0.7404648808 0.9138074046
0.9114649465 0.7701937717 0.8999006765
0.3598634621 0.6543348637 0.8511377353
0.3598634621 0.6543348637 0.8511377353
0.4238964586 0.7055094050 0.8832377924
0.6624215824 0.8199238644 0.9378151049
0.9181520000 0.8885800000 0.9567870000
