presets/标2 柯达5207 +2.cube
TITLE "YINGZEJUN Copyright"
# YINGZEJUN Copyright
# SP3000 & GOLD200 
# 20241106
# Created by: Adobe Photoshop Export Color Lookup Plugin
LUT_3D_SIZE 33
0.0411070000 0.0238650000 0.0438840000
0.0574865538 0.0228487215 0.0382819488
0.0876485625 0.0309645847 0.0424500618
0.1238244311 0.0388905296 0.0452403768
0.1706871452 0.0405586183 0.0395651885
0.2223752946 0.0457608020 0.0379767517
0.2716288749 0.0492337626 0.0361405467
0.3216704750 0.0504692394 0.0332346728
0.3681156309 0.0476148186 0.0266956756
0.4083970329 0.0491301646 0.0233025160
0.4461627565 0.0533594440 0.0198742311
0.4771715482 0.0580294699 0.0173177801
0.5025952675 0.0662754613 0.0159414227
0.5310366979 0.0778438623 0.0139985710
0.5635010271 0.0902717500 0.0115725191
0.6005500434 0.1069116849 0.0084391981
0.6265218484 0.1133612796 0.0046220995
0.6474562820 0.1230835489 0.0006870566
0.6654621320 0.1295332576 0.0000511922
0.6833965020 0.1333350603 0.0000000000
0.7029650662 0.1376698214 0.0000000000
0.7211401297 0.1398332714 0.0000000000
0.7380374222 0.1419121672 0.0000000000
0.7525380493 0.1458603615 0.0000000000
0.7648688862 0.1537129236 0.0000000000
0.7740305443 0.1583258606 0.0000000000
0.7830654502 0.1589042097 0.0000000000
0.7901842290 0.1614408866 0.0000000000
0.7972511907 0.1652808918 0.0018189455
0.8040598994 0.1693839585 0.0062894531
0.8108443326 0.1745941344 0.0097142279
0.8180902417 0.1800327251 0.0198811892
0.8251352774 0.1859538694 0.0333164966
0.0580557101 0.0486600624 0.0611171981
0.0521087344 0.0291055943 0.0419303042
0.0828327165 0.0391240925 0.0475410289
0.1245726418 0.0513392817 0.0479377124
0.1709281845 0.0595178630 0.0415878667
0.2129586017 0.0641279921 0.0379566682
0.2599895471 0.0735050017 0.0361487347
0.3120007714 0.0790047266 0.0361277003
0.3599129134 0.0817074524 0.0332348978
0.4044539539 0.0886257086 0.0283740163
0.4421249215 0.0884980466 0.0220820669
0.4747209070 0.0944598709 0.0183318429
0.5028451840 0.1050760909 0.0154365793
0.5348088003 0.1102711522 0.0113131448
0.5711281785 0.1238520596 0.0075660111
0.6042984728 0.1346803268 0.0040448439
0.6291793451 0.1384444927 0.0009980634
0.6475802104 0.1416699799 0.0000000000
0.6668764764 0.1476353655 0.0000000000
0.6858696784 0.1517531648 0.0000000000
0.7064978044 0.1579875835 0.0000000000
0.7246434345 0.1598576696 0.0000000000
0.7410906547 0.1592817691 0.0000000000
0.7550291533 0.1593619389 0.0000000000
0.7665668952 0.1636303375 0.0000000000
0.7761411479 0.1688388236 0.0000000000
0.7862614972 0.1702559412 0.0000000000
0.7944464733 0.1703709629 0.0000000000
0.8012517485 0.1716237945 0.0000000000
0.8085348181 0.1753927797 0.0000311407
0.8146732489 0.1796002172 0.0016674600
0.8216925029 0.1846809916 0.0111929184
0.8288291620 0.1903127258 0.0235043834
0.0693190011 0.0871412242 0.0781713304
0.0659525924 0.0693907020 0.0620834090
0.0881063824 0.0769851775 0.0618070074
0.1332763836 0.0904125097 0.0585046938
0.1828884629 0.1076043984 0.0522748437
0.2256404438 0.1190650074 0.0493586533
0.2713450896 0.1284180990 0.0468920600
0.3263905730 0.1365891244 0.0472293453
0.3673551816 0.1370386486 0.0421108439
0.4102976474 0.1385331373 0.0337507081
0.4463906762 0.1369447932 0.0259284615
0.4788059471 0.1395979800 0.0189885862
0.5088452852 0.1474584160 0.0137628281
0.5427189399 0.1518395799 0.0083823740
0.5789123618 0.1581107162 0.0047541295
0.6067558546 0.1667013876 0.0019493774
0.6295452208 0.1706392493 0.0003265316
0.6495735562 0.1703205921 0.0000000000
0.6688559239 0.1737376675 0.0000000000
0.6890545960 0.1762804516 0.0000000000
0.7110355010 0.1820906813 0.0000000000
0.7294795407 0.1842763257 0.0000000000
0.7442610233 0.1850031199 0.0000000000
0.7577291097 0.1825640317 0.0000000000
0.7694048354 0.1850680035 0.0000000000
0.7796830545 0.1869723634 0.0000000000
0.7892314659 0.1880702429 0.0000000000
0.7980452715 0.1879966088 0.0000000000
0.8048982077 0.1875019036 0.0000000000
0.8127034172 0.1896409467 0.0000311407
0.8194317150 0.1905911583 0.0005145180
0.8257471102 0.1925982075 0.0053593991
0.8328770356 0.1973496602 0.0172722063
0.0745659743 0.1211058138 0.0875039129
0.0765562805 0.1166504180 0.0737743969
0.1009183025 0.1260552102 0.0694950606
0.1380468799 0.1410367508 0.0666875295
0.1892153917 0.1557918428 0.0613099533
0.2379167031 0.1692696203 0.0568236105
0.2919822389 0.1810740592 0.0570425311
0.3397050472 0.1867594877 0.0534658366
0.3782637058 0.1858621563 0.0466004408
0.4174590717 0.1864971608 0.0379060912
0.4515443324 0.1840836181 0.0283835678
0.4851229150 0.1820412852 0.0191275209
0.5164482651 0.1874037357 0.0122066896
0.5524955739 0.1917118710 0.0071276788
0.5848278855 0.1969254982 0.0042934384
0.6099642737 0.1988557056 0.0015850499
0.6307049281 0.2036459287 0.0002305843
0.6524783904 0.2047504188 0.0000000000
0.6748433815 0.2049745930 0.0000000000
0.6979731956 0.2075864072 0.0000000000
0.7167753170 0.2100532329 0.0000000000
0.7338991920 0.2115987103 0.0000000000
0.7485318335 0.2105828430 0.0000000000
0.7605121698 0.2114687551 0.0000000000
0.7728388162 0.2136575918 0.0000000000
0.7834805124 0.2112672659 0.0000000000
0.7933684700 0.2096035780 0.0000000000
0.8022801772 0.2094970125 0.0000000000
0.8097765314 0.2072534319 0.0000000000
0.8179662683 0.2070598299 0.0000000000
0.8253625405 0.2063063776 0.0000326906
0.8317941316 0.2068403292 0.0013016940
0.8383459980 0.2074033339 0.0091618283
0.0710865770 0.1517318491 0.0898953973
0.0753143548 0.1534654995 0.0774453707
0.1006776757 0.1648411756 0.0741373420
0.1366817020 0.1811190097 0.0707173728
0.1879273764 0.1994619958 0.0673084427
0.2387148642 0.2109524406 0.0643531000
0.2948989639 0.2228814569 0.0621603280
0.3414787348 0.2279330104 0.0574637410
0.3807046775 0.2262315509 0.0485650122
0.4212680086 0.2277567401 0.0379908591
0.4554978290 0.2285219300 0.0290034028
0.4884660027 0.2281576758 0.0208706613
0.5224802716 0.2275309100 0.0142169280
0.5598649278 0.2301627565 0.0088786866
0.5874111837 0.2329014822 0.0068468047
0.6111556274 0.2322230173 0.0021445296
0.6356196547 0.2323471379 0.0001236787
0.6610935935 0.2372035861 0.0000000000
0.6841218535 0.2385828611 0.0000000000
0.7046317566 0.2396476292 0.0000000000
0.7243760439 0.2434858665 0.0000000000
0.7393909179 0.2450301077 0.0000000000
0.7537796935 0.2434348671 0.0000000000
0.7671790251 0.2430338631 0.0000000000
0.7800059674 0.2482051885 0.0000000000
0.7901891157 0.2431450925 0.0000000000
0.7998399793 0.2404326218 0.0000000000
0.8095841891 0.2389886145 0.0000000000
0.8191971087 0.2391187439 0.0000000000
0.8267595483 0.2362856474 0.0000000000
0.8333910532 0.2320248848 0.0000000000
0.8398383524 0.2294934002 0.0000000000
0.8462159764 0.2282378984 0.0036475753
0.0680909442 0.1819085985 0.0969746761
0.0721326128 0.1811208171 0.0842010750
0.0964709737 0.1925171733 0.0812495680
0.1287832756 0.2050072770 0.0779041359
0.1740106221 0.2218812696 0.0742822019
0.2248322886 0.2377420334 0.0695748048
0.2809130349 0.2519849835 0.0651923178
0.3320918974 0.2607405278 0.0580356627
0.3756275516 0.2622736947 0.0505293827
0.4147211648 0.2635465597 0.0406944205
0.4488113663 0.2611807504 0.0318060805
0.4799559507 0.2636425627 0.0250744404
0.5156299572 0.2677204295 0.0160484913
0.5508290344 0.2692958211 0.0111989261
0.5819190763 0.2702176528 0.0061065142
0.6093046329 0.2708574009 0.0015408622
0.6356799326 0.2747152646 0.0000000000
0.6607690544 0.2749129027 0.0000000000
0.6873877783 0.2763789478 0.0000000000
0.7096217622 0.2769590868 0.0000000000
0.7284002253 0.2802867874 0.0000000000
0.7431931824 0.2843229520 0.0000000000
0.7567659299 0.2855180735 0.0000000000
0.7709874944 0.2843944284 0.0000000000
0.7843786052 0.2835522753 0.0000000000
0.7966510281 0.2822172188 0.0000000000
0.8078705221 0.2777099192 0.0000000000
0.8182306846 0.2749656532 0.0000000000
0.8282076601 0.2730546531 0.0000000000
0.8364655522 0.2694886236 0.0000000000
0.8435469194 0.2650522364 0.0000000000
0.8500473857 0.2619437173 0.0000000000
0.8556430082 0.2589308185 0.0008945862
0.0673974185 0.2064647708 0.1038486954
0.0729807168 0.2075858717 0.0931622709
0.0933360422 0.2172017652 0.0892849672
0.1218050986 0.2272859438 0.0855178568
0.1606403649 0.2423401055 0.0814123213
0.2091761424 0.2585178325 0.0752129401
0.2591106377 0.2751353530 0.0699248393
0.3129951710 0.2874766514 0.0612743701
0.3614231321 0.2928993932 0.0521742301
0.4037767953 0.2991682507 0.0428905684
0.4404795523 0.3018342635 0.0331988256
0.4698754358 0.3015078250 0.0288557483
0.5058651024 0.3058350198 0.0194325777
0.5409957128 0.3088449263 0.0105606069
0.5727431117 0.3120017967 0.0042522531
0.6028972751 0.3117036977 0.0004889526
0.6306006877 0.3158724602 0.0000000000
0.6586332010 0.3155041908 0.0000000000
0.6848487691 0.3164597930 0.0000000000
0.7078902398 0.3162649726 0.0000000000
0.7268606889 0.3179849734 0.0000000000
0.7428115652 0.3240771712 0.0000000000
0.7573657045 0.3244708400 0.0000000000
0.7711011308 0.3253327693 0.0000000000
0.7860912677 0.3231928507 0.0000000000
0.7995940028 0.3169960426 0.0000000000
0.8119866406 0.3153414692 0.0000000000
0.8233190316 0.3107648960 0.0000000000
0.8340894820 0.3071950567 0.0000000000
0.8442365349 0.3031530276 0.0000000000
0.8527945081 0.2995785560 0.0000000000
0.8602661697 0.2962389107 0.0000000000
0.8664174340 0.2934556939 0.0005224470
0.0679426848 0.2297879892 0.1122793013
0.0738830688 0.2323928142 0.1030075625
0.0924383030 0.2424291578 0.0989745629
0.1167698298 0.2531441183 0.0949993983
0.1499090721 0.2656651485 0.0921435251
0.1939294844 0.2825110804 0.0861828108
0.2426310468 0.2978078233 0.0791168706
0.2940959984 0.3140525050 0.0703295308
0.3454597071 0.3214123923 0.0624882016
0.3911776408 0.3306559184 0.0503580515
0.4316850514 0.3361695669 0.0384347961
0.4668210084 0.3428633964 0.0282775926
0.5002406379 0.3420424643 0.0203490370
0.5366432042 0.3465166548 0.0108216053
0.5669567399 0.3515167711 0.0026933180
0.5967825078 0.3557427425 0.0000000000
0.6252240284 0.3569074967 0.0000000000
0.6551279681 0.3554020769 0.0000000000
0.6819560939 0.3550064202 0.0000000000
0.7040199033 0.3578722328 0.0000000000
0.7217933876 0.3581228704 0.0000000000
0.7387730775 0.3633785254 0.0000000000
0.7558770687 0.3641122132 0.0000000000
0.7725250572 0.3627025427 0.0000000000
0.7879413188 0.3624546177 0.0000000000
0.8018943931 0.3548863994 0.0000000000
0.8148628059 0.3504348570 0.0000000000
0.8264715627 0.3482368581 0.0000000000
0.8371019260 0.3435827525 0.0000000000
0.8469500946 0.3397303057 0.0000000000
0.8569076897 0.3360930981 0.0000000000
0.8664480468 0.3304351298 0.0000000000
0.8734681703 0.3267155279 0.0000000000
0.0671611849 0.2527167716 0.1218077578
0.0723160923 0.2566940762 0.1141631019
0.0895975155 0.2673330568 0.1100039566
0.1130159929 0.2794545141 0.1066207372
0.1410182421 0.2915500246 0.1031922170
0.1791164841 0.3072187283 0.0990494772
0.2276967563 0.3227515551 0.0924646089
0.2792761363 0.3365846734 0.0835130485
0.3341639480 0.3501701120 0.0704958849
0.3790792849 0.3590393751 0.0608269022
0.4221556211 0.3655471816 0.0477925839
0.4611590958 0.3719952727 0.0310801106
0.5022428943 0.3805498632 0.0157666094
0.5378499587 0.3870143856 0.0073724803
0.5674871694 0.3930567568 0.0007985841
0.5938550401 0.3977975996 0.0000000000
0.6237111153 0.4028467248 0.0000000000
0.6533904021 0.4031936611 0.0000000000
0.6797599285 0.4026144691 0.0000000000
0.7016232331 0.4037938997 0.0000000000
0.7202285034 0.4065505229 0.0000000000
0.7357417473 0.4070563898 0.0000000000
0.7518159405 0.4055943710 0.0000000000
0.7686347922 0.4031024908 0.0000000000
0.7845125802 0.4018556160 0.0000000000
0.7996188348 0.3959089699 0.0000000000
0.8140580727 0.3911560402 0.0000000000
0.8274999650 0.3872933927 0.0000000000
0.8394956090 0.3837452145 0.0000000000
0.8496047788 0.3810802189 0.0000000000
0.8584683152 0.3797287028 0.0000000000
0.8669350945 0.3734514193 0.0000000000
0.8755254825 0.3617685908 0.0005960909
0.0694033541 0.2787514451 0.1300597217
0.0726259087 0.2816929925 0.1238549701
0.0882546163 0.2924986385 0.1195164232
0.1103788275 0.3051311883 0.1158685540
0.1384752032 0.3193571143 0.1125573533
0.1720086931 0.3339034479 0.1095379491
0.2198340376 0.3511120623 0.1052517308
0.2709555697 0.3670049617 0.0976974171
0.3236618469 0.3803305820 0.0855613080
0.3705361458 0.3876107080 0.0720199919
0.4121855706 0.3966224529 0.0594279041
0.4533007370 0.4065615508 0.0366162774
0.4975730280 0.4180112301 0.0168548829
0.5339677971 0.4260135848 0.0057540002
0.5662855768 0.4335535449 0.0013442525
0.5951370055 0.4383131095 0.0001458551
0.6251593746 0.4431398504 0.0001809478
0.6549225028 0.4471902036 0.0000000000
0.6787626047 0.4474981728 0.0000000000
0.6998953498 0.4467975002 0.0000000000
0.7191638085 0.4460100893 0.0000000000
0.7364679723 0.4459021960 0.0000000000
0.7530990279 0.4444415988 0.0000000000
0.7696135522 0.4418382088 0.0000000000
0.7844656352 0.4395530176 0.0000000000
0.7996903358 0.4336776033 0.0000000000
0.8141019516 0.4303696495 0.0000000000
0.8277623735 0.4269148233 0.0000000000
0.8397651480 0.4225424045 0.0000000000
0.8505198148 0.4205608977 0.0000000000
0.8594753139 0.4153152582 0.0000000000
0.8675546417 0.4110117750 0.0000000000
0.8752554625 0.4041822248 0.0043650662
0.0683271414 0.3062995512 0.1384547801
0.0747748784 0.3115405684 0.1337417166
0.0876456956 0.3210743242 0.1294541210
0.1080659796 0.3336475523 0.1265810526
0.1380355370 0.3487433174 0.1239205664
0.1751015895 0.3645752049 0.1195414181
0.2163071557 0.3780404976 0.1155611740
0.2659607259 0.3961688279 0.1099446015
0.3172367122 0.4099560739 0.0992876448
0.3613892024 0.4196352280 0.0879634220
0.4017911556 0.4283330621 0.0707564477
0.4437946419 0.4374416059 0.0543499411
0.4890070662 0.4479927775 0.0275652785
0.5294963062 0.4579360943 0.0099757966
0.5628927377 0.4633540723 0.0066087665
0.5940781694 0.4709074987 0.0026040292
0.6235928788 0.4762021783 0.0007719670
0.6528947167 0.4813617440 0.0000000000
0.6780066146 0.4835127142 0.0000000000
0.6978749024 0.4844188127 0.0000000000
0.7176245105 0.4836741290 0.0000000000
0.7349401192 0.4830773254 0.0000000000
0.7539037525 0.4797555008 0.0000000000
0.7705314383 0.4774005487 0.0000000000
0.7855694113 0.4756652607 0.0000000000
0.8005812666 0.4713807013 0.0000000000
0.8145036663 0.4655864373 0.0000000000
0.8281669994 0.4634117808 0.0000000000
0.8397985783 0.4600292007 0.0000000000
0.8494807529 0.4547373936 0.0000000000
0.8584952836 0.4519851734 0.0000000000
0.8672918368 0.4460411073 0.0037805647
0.8745252602 0.4427238998 0.0088867531
0.0703687252 0.3354649357 0.1497205393
0.0777168650 0.3420321690 0.1457551883
0.0890881574 0.3504544061 0.1421808587
0.1105176470 0.3630085785 0.1395191977
0.1416739433 0.3771884294 0.1371256604
0.1802660860 0.3932272796 0.1333005263
0.2211259430 0.4085363593 0.1295483733
0.2651772172 0.4224292652 0.1242458624
0.3139187385 0.4356440027 0.1148760180
0.3570197915 0.4464986930 0.1031867094
0.3967485276 0.4568866587 0.0887184515
0.4384443723 0.4652256465 0.0717956493
0.4815167227 0.4743380881 0.0520459673
0.5227342689 0.4846816711 0.0272935429
0.5588275469 0.4935333984 0.0122571530
0.5912748696 0.5000132963 0.0063232837
0.6222056065 0.5077248906 0.0011955910
0.6499416119 0.5136874009 0.0000000000
0.6728115056 0.5164874429 0.0000000000
0.6934454492 0.5170491625 0.0000000000
0.7135595316 0.5186737039 0.0000000000
0.7328112626 0.5177391872 0.0000000000
0.7533923232 0.5156091680 0.0000000000
0.7707265233 0.5118550293 0.0000000000
0.7862577102 0.5108230122 0.0000000000
0.8018373557 0.5085870228 0.0000000000
0.8164240760 0.5035524079 0.0000000000
0.8293513721 0.4986051804 0.0000000000
0.8403051956 0.4964827378 0.0000000000
0.8483667618 0.4899383922 0.0000000000
0.8568766862 0.4855484085 0.0002257910
0.8647459727 0.4818116642 0.0053839633
0.8723751368 0.4778077702 0.0134598918
0.0745399382 0.3610561831 0.1605492454
0.0813312156 0.3676325586 0.1546973891
0.0937511111 0.3759317901 0.1511696487
0.1140252890 0.3870010905 0.1491610994
0.1479043003 0.4003634150 0.1475962333
0.1851937637 0.4143411130 0.1463898093
0.2253280795 0.4296313301 0.1442218980
0.2674034675 0.4446059192 0.1384888377
0.3129663097 0.4577817189 0.1296973124
0.3540372672 0.4693639858 0.1180448732
0.3938895167 0.4808247490 0.1038995234
0.4360069230 0.4913888795 0.0894590225
0.4773586198 0.4984799827 0.0710563169
0.5160292150 0.5081187536 0.0503703603
0.5528973049 0.5180974157 0.0264067335
0.5878024131 0.5285355942 0.0098785967
0.6208151346 0.5379648306 0.0017359734
0.6487969344 0.5447047180 0.0000177789
0.6686817838 0.5475996356 0.0000000000
0.6868119165 0.5485503411 0.0000000000
0.7073304475 0.5469895199 0.0000000000
0.7296761960 0.5463604074 0.0000000000
0.7518455804 0.5454829427 0.0000000000
0.7705241165 0.5446253382 0.0000000000
0.7874028419 0.5406860991 0.0000000000
0.8028768360 0.5394947981 0.0000000000
0.8173892209 0.5363652277 0.0000000000
0.8309450877 0.5330734995 0.0000000000
0.8394786805 0.5320126598 0.0000000000
0.8478139437 0.5269587931 0.0000000000
0.8562104327 0.5233103029 0.0005224109
0.8646183903 0.5195885148 0.0067978572
0.8724357789 0.5154957130 0.0180042968
0.0791688409 0.3860488571 0.1692185474
0.0848321008 0.3904317386 0.1667813291
0.0995821081 0.3984268161 0.1644716367
0.1195041386 0.4082838540 0.1629956657
0.1494651204 0.4196178390 0.1618458027
0.1860889156 0.4329871467 0.1602873774
0.2265188824 0.4480494158 0.1581972178
0.2678781939 0.4636642541 0.1522965205
0.3118271650 0.4783451896 0.1438792321
0.3513240051 0.4893019316 0.1289176742
0.3889489257 0.5008817670 0.1152354763
0.4319530398 0.5139158919 0.1016633967
0.4735986245 0.5250919826 0.0859465789
0.5094252440 0.5341322027 0.0675647142
0.5427158820 0.5419697116 0.0475297532
0.5774611011 0.5506264185 0.0263120796
0.6125828232 0.5605705008 0.0125828881
0.6428800777 0.5687181799 0.0032543429
0.6659110248 0.5724452905 0.0000000000
0.6836053049 0.5738010561 0.0000000000
0.7018194445 0.5735408861 0.0000000000
0.7246813699 0.5737548228 0.0000000000
0.7473458469 0.5723608372 0.0000000000
0.7663755988 0.5714397255 0.0000000000
0.7846676790 0.5699472009 0.0000000000
0.8018420481 0.5658405304 0.0000000000
0.8164560573 0.5644776718 0.0000000000
0.8293249512 0.5632994687 0.0000000000
0.8387866020 0.5616601375 0.0000000000
0.8475248807 0.5608554246 0.0000000000
0.8565023308 0.5559809488 0.0000000000
0.8648048183 0.5522188173 0.0060263580
0.8713570098 0.5492412351 0.0197924774
0.0863531441 0.4072892023 0.1803564978
0.0914482508 0.4100781177 0.1776815764
0.1068163920 0.4171361655 0.1770820020
0.1275926434 0.4264995800 0.1754220245
0.1547720269 0.4374922584 0.1741401133
0.1882139055 0.4504855078 0.1721869766
0.2240547699 0.4644282391 0.1698726008
0.2652199294 0.4809538323 0.1646170684
0.3087235957 0.4969453034 0.1566074723
0.3464376740 0.5096714288 0.1442368925
0.3840625561 0.5212186762 0.1298223928
0.4258237864 0.5340469496 0.1150107846
0.4662634099 0.5460667821 0.1021339473
0.5012890148 0.5560690409 0.0867592082
0.5352392278 0.5618932450 0.0692158495
0.5682700456 0.5683843067 0.0510640060
0.6042287409 0.5773878852 0.0298661960
0.6343265806 0.5862168166 0.0159349752
0.6590721484 0.5936516405 0.0045668601
0.6803668992 0.5961221127 0.0000000000
0.6992086113 0.5972302126 0.0000000000
0.7207548481 0.5980065699 0.0000000000
0.7426712575 0.5974059224 0.0000000000
0.7614932645 0.5956947234 0.0000000000
0.7794810316 0.5952726473 0.0000000000
0.7976531568 0.5919473839 0.0000000000
0.8141819539 0.5900096101 0.0000000000
0.8278454363 0.5893001556 0.0000000000
0.8389763633 0.5865086400 0.0000000000
0.8486048329 0.5835845226 0.0000000000
0.8559675805 0.5826315146 0.0000000000
0.8635957134 0.5798906152 0.0109095216
0.8697173935 0.5792836089 0.0391817996
0.0979160427 0.4272643492 0.1927093632
0.1012887060 0.4297939447 0.1895039708
0.1135347311 0.4354440215 0.1880230583
0.1334625945 0.4445011750 0.1865541113
0.1584971482 0.4554526023 0.1849650693
0.1894546158 0.4683644600 0.1827149896
0.2234488388 0.4822056402 0.1805513551
0.2601745231 0.4973545104 0.1767354576
0.3042487478 0.5137502283 0.1693682724
0.3413229489 0.5263482727 0.1582344282
0.3775420480 0.5384864729 0.1469426949
0.4212673366 0.5521318067 0.1319028227
0.4581663775 0.5627359711 0.1186010434
0.4947232824 0.5735423337 0.1048751980
0.5252360637 0.5811617039 0.0906506632
0.5594248487 0.5861280076 0.0753771995
0.5952264336 0.5931711879 0.0580006678
0.6265406900 0.6010624272 0.0355636556
0.6516760321 0.6094365736 0.0191384773
0.6747177412 0.6163125205 0.0060821958
0.6963215466 0.6190000332 0.0010573985
0.7178507223 0.6205292255 0.0000000000
0.7389147796 0.6207609042 0.0000000000
0.7579201700 0.6191045121 0.0000000000
0.7762054122 0.6188088509 0.0000000000
0.7943389723 0.6158472511 0.0000000000
0.8127501908 0.6154261088 0.0000000000
0.8261996096 0.6141891000 0.0000000000
0.8385536860 0.6105082533 0.0000000000
0.8483478575 0.6059730697 0.0000000000
0.8565711676 0.6038449285 0.0000000000
0.8633414620 0.6024104529 0.0093877935
0.8692044224 0.6033441987 0.0466252040
0.1100390484 0.4468459481 0.2045121154
0.1118702355 0.4507463395 0.2013541643
0.1205495815 0.4562064366 0.1996539183
0.1352545216 0.4639794805 0.1978755126
0.1580587134 0.4744466342 0.1960902511
0.1879255080 0.4870869495 0.1939338711
0.2206465540 0.5001824780 0.1921031338
0.2572724892 0.5148088963 0.1890064284
0.2978951338 0.5297457825 0.1834860065
0.3361055382 0.5415041615 0.1729350846
0.3717681627 0.5530562628 0.1633999002
0.4124272562 0.5658937686 0.1513786058
0.4533112476 0.5781220543 0.1371425297
0.4893712701 0.5888414532 0.1231970590
0.5196769391 0.5979379434 0.1112892137
0.5490569431 0.6051205912 0.0994269995
0.5842724939 0.6111688462 0.0864871239
0.6184605438 0.6162882442 0.0675113496
0.6454646194 0.6241642308 0.0462171009
0.6697642156 0.6326960243 0.0252320783
0.6931365455 0.6405532852 0.0078870369
0.7144052828 0.6430777806 0.0000000000
0.7359913271 0.6441904544 0.0000000000
0.7563789333 0.6445599110 0.0000000000
0.7753101121 0.6456526342 0.0000000000
0.7930237266 0.6426641135 0.0000000000
0.8109948573 0.6430527569 0.0000000000
0.8248755226 0.6409618902 0.0000000000
0.8381264648 0.6361417252 0.0000000000
0.8482344492 0.6308350569 0.0000000000
0.8570449767 0.6271693666 0.0005913272
0.8639613544 0.6244260864 0.0106186786
0.8694395596 0.6223638086 0.0507650850
0.1219198461 0.4655401146 0.2227559241
0.1204884694 0.4687409605 0.2175225224
0.1258601782 0.4737594203 0.2151296545
0.1351261113 0.4806175509 0.2127880659
0.1572534814 0.4905959072 0.2110762011
0.1862285274 0.5028371646 0.2092362359
0.2179711168 0.5153966650 0.2069738555
0.2534934253 0.5292041899 0.2046591075
0.2935528626 0.5443440057 0.2000096430
0.3283574120 0.5575975571 0.1896043313
0.3668848855 0.5693510950 0.1770978848
0.4070989484 0.5812210517 0.1665960983
0.4456941580 0.5927510157 0.1554071463
0.4822714067 0.6035384274 0.1414765344
0.5147961096 0.6134069238 0.1288087058
0.5443720435 0.6221090388 0.1181417538
0.5766181890 0.6289976251 0.1065039126
0.6102392820 0.6336933440 0.0908980657
0.6372457520 0.6396463655 0.0777475767
0.6640526408 0.6476241480 0.0605489002
0.6898104629 0.6561724351 0.0332058393
0.7122099041 0.6636626486 0.0173563159
0.7332566909 0.6666356181 0.0108655602
0.7538946541 0.6686436333 0.0089656398
0.7737655721 0.6714858730 0.0079610199
0.7932442413 0.6701485848 0.0047909487
0.8102342506 0.6685692206 0.0009477723
0.8250968145 0.6674168490 0.0000000000
0.8369403918 0.6653649483 0.0000000000
0.8472146589 0.6589392659 0.0000000000
0.8563764469 0.6542280953 0.0050967765
0.8639617026 0.6494605709 0.0096954835
0.8694244451 0.6447284909 0.0535047459
0.1334982629 0.4839828938 0.2427675584
0.1332616569 0.4871971434 0.2370107220
0.1345485598 0.4914729111 0.2330296682
0.1399734122 0.4972318638 0.2294471952
0.1572068990 0.5063085266 0.2272837545
0.1813362226 0.5172887657 0.2253302331
0.2134326834 0.5305187834 0.2224035044
0.2460107663 0.5430748091 0.2189756269
0.2822795175 0.5565418180 0.2137478825
0.3212099963 0.5700069141 0.2045602409
0.3585766315 0.5831733805 0.1947572189
0.4005660748 0.5952405113 0.1824958873
0.4384023217 0.6065733408 0.1721924869
0.4754201911 0.6176664659 0.1612035446
0.5079484866 0.6276804564 0.1504166006
0.5391608274 0.6364012426 0.1392987236
0.5707041596 0.6445565900 0.1279106348
