presets/标2 柯达5207 -1.cube
TITLE "YINGZEJUN Copyright"
# YINGZEJUN Copyright
# SP3000 & GOLD200 
# 20241106
# Created by: Adobe Photoshop Export Color Lookup Plugin
LUT_3D_SIZE 33
0.0672000000 0.0481260000 0.0930180000
0.0721122035 0.0493631074 0.0918272623
0.0816466960 0.0512707932 0.0938533997
0.0958487960 0.0541425248 0.0978702207
0.1146484203 0.0596285353 0.0981160001
0.1384635135 0.0655863624 0.0994800929
0.1707277851 0.0697152036 0.1001117109
0.2074064310 0.0744562501 0.0988325861
0.2468480465 0.0780374142 0.0959118360
0.2890451186 0.0809935768 0.0926512246
0.3314007869 0.0826327354 0.0877725667
0.3704661503 0.0821567825 0.0818344508
0.4028293016 0.0806655555 0.0755131225
0.4367051660 0.0790252596 0.0700394964
0.4733952421 0.0766682231 0.0638405195
0.5084501485 0.0757580065 0.0586078388
0.5378105500 0.0734846769 0.0537998071
0.5674049908 0.0711667808 0.0486103259
0.5901846976 0.0696027539 0.0450678244
0.6111118362 0.0685569939 0.0426439950
0.6343735639 0.0678577761 0.0393175245
0.6550285202 0.0667413909 0.0364371500
0.6758411345 0.0662003871 0.0339769805
0.6981036723 0.0667115310 0.0309388750
0.7252406623 0.0674933837 0.0272306339
0.7474485274 0.0687016723 0.0267866365
0.7628634324 0.0699676605 0.0285590195
0.7752948426 0.0714001298 0.0307593479
0.7888277424 0.0728930813 0.0318549556
0.8018640850 0.0763935686 0.0350136922
0.8125481596 0.0794097787 0.0380910247
0.8214941409 0.0822717794 0.0411240439
0.8279484353 0.0855379791 0.0449423424
0.0739745440 0.0541855871 0.0990181971
0.0729987928 0.0520637116 0.0966309400
0.0816355596 0.0542995343 0.0973345206
0.0949991292 0.0576855986 0.1013297808
0.1133551123 0.0631694099 0.1001563099
0.1346101909 0.0686388046 0.1011753806
0.1697040512 0.0734790538 0.1017434344
0.2097442593 0.0788062913 0.0999052506
0.2513174508 0.0829040072 0.0978758408
0.2984431066 0.0873578787 0.0940004611
0.3419123582 0.0895346666 0.0888243791
0.3812395264 0.0903233586 0.0827139508
0.4147693697 0.0898185832 0.0767962429
0.4495878831 0.0866726062 0.0698014020
0.4878463494 0.0848674958 0.0634104485
0.5234778599 0.0830788452 0.0575536341
0.5552755656 0.0786142764 0.0520267799
0.5783759741 0.0755082183 0.0472732600
0.6027274341 0.0734558507 0.0427948539
0.6265659052 0.0714985607 0.0391626329
0.6531751172 0.0698567999 0.0341302270
0.6749888102 0.0687012694 0.0299151580
0.6946686694 0.0678228448 0.0272417625
0.7160218796 0.0677308473 0.0250610660
0.7407742036 0.0682476817 0.0230785893
0.7627604746 0.0691780088 0.0220933493
0.7797755710 0.0710630321 0.0235314366
0.7914732644 0.0728274859 0.0259607842
0.8008095485 0.0747415262 0.0281033966
0.8124883664 0.0789298159 0.0317052444
0.8207759774 0.0820332758 0.0359456136
0.8292384493 0.0855019801 0.0390821394
0.8371642552 0.0888292043 0.0422254956
0.0799897822 0.0681244693 0.1101194551
0.0762901774 0.0592915856 0.1005631498
0.0821641808 0.0603650421 0.1015637655
0.0960639736 0.0673859298 0.1062515633
0.1154177890 0.0761806833 0.1076401041
0.1391819261 0.0839347269 0.1081213648
0.1737411738 0.0895887443 0.1079172583
0.2155525619 0.0958918509 0.1065378709
0.2570677621 0.0995034044 0.1032819136
0.3061514508 0.1052336926 0.0996291350
0.3505972250 0.1077526038 0.0940919806
0.3910051124 0.1075767725 0.0869002514
0.4265185472 0.1065095180 0.0798366113
0.4640109455 0.1026215851 0.0717331085
0.5001361772 0.0984897270 0.0647778147
0.5329610377 0.0984183203 0.0601467028
0.5633704220 0.0938305016 0.0542204944
0.5882383674 0.0879219932 0.0487366811
0.6123429174 0.0839574214 0.0434946688
0.6375264010 0.0805636911 0.0391026188
0.6644384518 0.0801814765 0.0335984225
0.6912946568 0.0787358836 0.0283960518
0.7126698765 0.0773761943 0.0243818393
0.7343078406 0.0760460476 0.0220298740
0.7564667278 0.0771435554 0.0213655198
0.7739925940 0.0783082399 0.0216965223
0.7895735666 0.0806968394 0.0226946419
0.8033813992 0.0825720715 0.0250838665
0.8124910998 0.0837417139 0.0276047258
0.8243507122 0.0868651314 0.0311957538
0.8328930684 0.0888828493 0.0345783342
0.8395609082 0.0905566002 0.0379015042
0.8473440455 0.0935878188 0.0410986225
0.0892970221 0.0967100003 0.1215743813
0.0822030459 0.0750828687 0.1085781804
0.0848019853 0.0733074695 0.1079191635
0.0943787243 0.0798079311 0.1098890749
0.1148553131 0.0923958419 0.1123991716
0.1422772695 0.1030478858 0.1130662318
0.1798482739 0.1122921112 0.1131716746
0.2183621983 0.1185363939 0.1110722119
0.2615811043 0.1224942832 0.1081989760
0.3087563055 0.1267039676 0.1035979155
0.3518464186 0.1281304009 0.0966465301
0.3961091726 0.1264400211 0.0890851041
0.4360111505 0.1254473646 0.0818299893
0.4759319199 0.1226365320 0.0740750875
0.5091012884 0.1197785631 0.0677839895
0.5398592031 0.1164224083 0.0625488643
0.5663445943 0.1143065190 0.0576724161
0.5929850281 0.1079124081 0.0521585796
0.6192712023 0.1021288798 0.0454210233
0.6495802139 0.0981806963 0.0385324789
0.6773176098 0.0956491084 0.0330308033
0.7066372815 0.0930803076 0.0277133627
0.7324508455 0.0903909655 0.0233843457
0.7531896133 0.0895983406 0.0212114671
0.7735371308 0.0905203857 0.0207229174
0.7882630363 0.0902808585 0.0212206925
0.8019727609 0.0917628185 0.0222496676
0.8156021753 0.0946363725 0.0243944441
0.8262936506 0.0954821880 0.0269760676
0.8368113001 0.0972079701 0.0299164625
0.8452414556 0.0991255202 0.0331307162
0.8514934535 0.1000844474 0.0357870663
0.8571901172 0.1014524068 0.0395457958
0.0886771637 0.1257986383 0.1272476645
0.0876837119 0.1016932006 0.1155057837
0.0881738688 0.0919614540 0.1135539137
0.0949432108 0.0980003391 0.1141038595
0.1103888373 0.1104128377 0.1143310552
0.1396560663 0.1250230575 0.1152675776
0.1766174109 0.1385278082 0.1152835670
0.2146540584 0.1462091134 0.1132282788
0.2577269483 0.1496926294 0.1099627660
0.3060266203 0.1549092226 0.1047842334
0.3503408802 0.1559980466 0.0987169517
0.3934996111 0.1537663110 0.0919877256
0.4392223162 0.1485960052 0.0833512655
0.4799253709 0.1460935859 0.0759478605
0.5110394616 0.1434975203 0.0705825508
0.5396863484 0.1394567509 0.0649531563
0.5688074902 0.1337708630 0.0595324439
0.5968758182 0.1292646295 0.0538602893
0.6244088772 0.1240596705 0.0477412886
0.6532331305 0.1199879617 0.0418348043
0.6859707257 0.1183550385 0.0360980100
0.7130502282 0.1157910348 0.0313834032
0.7400969456 0.1124195273 0.0270574930
0.7632230858 0.1108633561 0.0243762507
0.7826688969 0.1139850233 0.0243804765
0.7976737135 0.1124943390 0.0251038938
0.8113947750 0.1127268678 0.0258783675
0.8244865324 0.1145925655 0.0271901146
0.8376602132 0.1173509969 0.0295724189
0.8468621434 0.1176940779 0.0304287326
0.8552559176 0.1178619156 0.0318538986
0.8615902398 0.1177787183 0.0348068352
0.8669726093 0.1181646946 0.0373622850
0.0843775255 0.1556903431 0.1323175500
0.0870885899 0.1328556073 0.1201600327
0.0888591561 0.1161288957 0.1157012628
0.0948165562 0.1196983156 0.1159389424
0.1072043843 0.1309479400 0.1167885364
0.1302954891 0.1433092982 0.1173961340
0.1650142212 0.1611176518 0.1170537011
0.2045192242 0.1748374544 0.1150901289
0.2458466264 0.1806863692 0.1113055062
0.2913745846 0.1862133732 0.1065295488
0.3372712935 0.1855521133 0.1007430480
0.3823903708 0.1834376711 0.0952584882
0.4277089694 0.1807486662 0.0891474997
0.4667094293 0.1761545706 0.0821378554
0.5026519801 0.1709739888 0.0761672320
0.5341454211 0.1664201701 0.0699521405
0.5647698754 0.1619902865 0.0641010352
0.5927266026 0.1553148372 0.0581508652
0.6254430164 0.1509560073 0.0526458470
0.6578973939 0.1472708303 0.0471531995
0.6901296572 0.1462907838 0.0424363926
0.7191713278 0.1476218552 0.0386739681
0.7445750093 0.1464115992 0.0349653845
0.7679661865 0.1435940713 0.0313797460
0.7876748644 0.1429366707 0.0292666000
0.8053248724 0.1428940859 0.0285561514
0.8213606289 0.1418419772 0.0288073000
0.8341734348 0.1424344923 0.0290272978
0.8454411825 0.1438844922 0.0299941129
0.8545185440 0.1442574727 0.0300761631
0.8627066313 0.1442413222 0.0313440538
0.8696197242 0.1438199259 0.0331777014
0.8748418271 0.1436552292 0.0352123031
0.0813515176 0.1824137783 0.1366948529
0.0841175495 0.1642547464 0.1241206557
0.0860777854 0.1483382212 0.1177760084
0.0910428448 0.1477868899 0.1175107247
0.1025058208 0.1576245562 0.1185230256
0.1232969607 0.1677072371 0.1196122390
0.1509968906 0.1803057220 0.1191493386
0.1887936396 0.1970321449 0.1170223680
0.2342021516 0.2077073709 0.1130682821
0.2816597102 0.2162816175 0.1084571525
0.3282994924 0.2197851781 0.1037615925
0.3712494408 0.2157519359 0.0986970694
0.4156618490 0.2127387191 0.0930456520
0.4566883492 0.2081691848 0.0876593685
0.4946740847 0.2044606583 0.0828271499
0.5280904483 0.1983559501 0.0775467259
0.5598176614 0.1948677449 0.0717556745
0.5908796469 0.1892300656 0.0660419335
0.6234520738 0.1857027941 0.0607693754
0.6583181241 0.1819461419 0.0557648633
0.6913660985 0.1803406151 0.0512435433
0.7199556350 0.1832360826 0.0471258400
0.7465783854 0.1827499519 0.0430554133
0.7688094368 0.1818457321 0.0396155827
0.7886514555 0.1789865359 0.0349467269
0.8083407954 0.1741273814 0.0316486428
0.8245889331 0.1737860789 0.0304376683
0.8388579821 0.1726429548 0.0301987665
0.8500680958 0.1727042916 0.0301266462
0.8582549992 0.1733575106 0.0300612433
0.8648020707 0.1742696492 0.0312506522
0.8712623514 0.1741639325 0.0328348502
0.8765295390 0.1743588048 0.0344132742
0.0800277798 0.2057711926 0.1423971137
0.0817489664 0.1925031929 0.1304105905
0.0830825668 0.1814386866 0.1222710703
0.0862032697 0.1785668871 0.1200448472
0.0967701229 0.1865239252 0.1213556524
0.1164428822 0.1977612687 0.1227932821
0.1431231698 0.2085710055 0.1228951206
0.1760828720 0.2207257042 0.1206708690
0.2197395507 0.2312038834 0.1168631263
0.2693376831 0.2425164862 0.1118915700
0.3172493889 0.2494278742 0.1075249919
0.3642966216 0.2519238427 0.1017126383
0.4043562686 0.2475048603 0.0961229300
0.4462990835 0.2454400633 0.0907686119
0.4834964011 0.2426834551 0.0860679043
0.5200283333 0.2396781565 0.0822703306
0.5533687957 0.2358251195 0.0783092136
0.5876268824 0.2326003650 0.0734812786
0.6241610915 0.2289706698 0.0682512092
0.6587283524 0.2250975272 0.0626579129
0.6871777772 0.2206975928 0.0574015988
0.7134139707 0.2217370645 0.0519051180
0.7387806540 0.2195899719 0.0464161698
0.7623893901 0.2159376111 0.0413167242
0.7844185750 0.2135244357 0.0372379886
0.8049573558 0.2065239530 0.0328718135
0.8210454726 0.2029344182 0.0301278807
0.8327077447 0.2021004193 0.0289566124
0.8436346570 0.2005690454 0.0290889091
0.8525455791 0.2012204681 0.0307758551
0.8600810671 0.2021173917 0.0322788780
0.8680740977 0.2014753391 0.0335058411
0.8738293707 0.2018058354 0.0345544149
0.0805573852 0.2294471379 0.1505699816
0.0812914635 0.2189679325 0.1388769426
0.0816158961 0.2105235603 0.1299186834
0.0833356268 0.2078217698 0.1253244760
0.0917246741 0.2144112526 0.1260561601
0.1093876153 0.2255828569 0.1272003592
0.1351978480 0.2370621168 0.1281959851
0.1675974002 0.2479143432 0.1266589541
0.2083420839 0.2597581630 0.1228419051
0.2534311760 0.2691946076 0.1179841127
0.3034538403 0.2758787840 0.1128975773
0.3544750510 0.2795036066 0.1063311752
0.3985070055 0.2824636416 0.1006474166
0.4395757391 0.2830476454 0.0945288357
0.4768385643 0.2810792910 0.0886003078
0.5120675554 0.2786732385 0.0840712532
0.5490035512 0.2764938197 0.0793723260
0.5851283459 0.2732235231 0.0745070218
0.6206558561 0.2702692315 0.0693911340
0.6548852069 0.2664688867 0.0637237835
0.6841784324 0.2624199897 0.0578259893
0.7077860330 0.2591850465 0.0524241119
0.7298668686 0.2556361070 0.0474482431
0.7533070094 0.2508004856 0.0416394914
0.7746996269 0.2467115844 0.0359342956
0.7942594972 0.2393684052 0.0319891009
0.8113319613 0.2349353645 0.0286944264
0.8251484878 0.2324755568 0.0274149552
0.8360738081 0.2315133662 0.0268033757
0.8455447071 0.2315079629 0.0276219134
0.8525039820 0.2319279912 0.0295373868
0.8595868266 0.2313709195 0.0322685304
0.8680469694 0.2284555170 0.0350500644
0.0831758030 0.2512720653 0.1595233516
0.0833835062 0.2461375557 0.1502351661
0.0829417833 0.2396083394 0.1398091257
0.0828257593 0.2381706130 0.1334700326
0.0889631574 0.2427209716 0.1317065274
0.1039735944 0.2528355612 0.1331262152
0.1289263965 0.2648638078 0.1339681425
0.1578098542 0.2774083744 0.1342075690
0.1945603386 0.2886390779 0.1321324777
0.2399431514 0.2936593919 0.1262849158
0.2878901121 0.3009102889 0.1207198379
0.3393071186 0.3082524897 0.1136080799
0.3883562322 0.3130458231 0.1068535847
0.4308106739 0.3155427910 0.0996867969
0.4714967054 0.3168843183 0.0931284229
0.5095289836 0.3157014681 0.0862642423
0.5474177408 0.3144672313 0.0803062653
0.5855779746 0.3128919637 0.0737445497
0.6195952172 0.3094368332 0.0683534536
0.6520195187 0.3042533075 0.0628093996
0.6801253601 0.2973324939 0.0573479947
0.7058467844 0.2929471205 0.0509686401
0.7278165488 0.2890252545 0.0455250663
0.7507206278 0.2838203751 0.0384153332
0.7706310726 0.2794330271 0.0327475650
0.7885041357 0.2717899764 0.0291565123
0.8041965793 0.2674870135 0.0271746798
0.8176420721 0.2647508728 0.0268328452
0.8293734511 0.2632319242 0.0271646579
0.8390136836 0.2635163647 0.0296319807
0.8479827147 0.2615710366 0.0322726210
0.8561101449 0.2599602597 0.0344070051
0.8633985543 0.2582547295 0.0358590211
0.0860380423 0.2759305174 0.1721071796
0.0862264816 0.2722167192 0.1636356771
0.0857526704 0.2679799911 0.1534521755
0.0837819608 0.2661816676 0.1445439574
0.0870591688 0.2710311289 0.1404587947
0.0996381805 0.2811380481 0.1408953081
0.1212987090 0.2891187112 0.1416677301
0.1494751207 0.3008822304 0.1420425154
0.1833464704 0.3125049318 0.1418440593
0.2235691400 0.3208099842 0.1379888340
0.2724865959 0.3274727194 0.1310445926
0.3210579755 0.3355399947 0.1235832736
0.3723936859 0.3428757041 0.1153732709
0.4191109845 0.3471605971 0.1072826460
0.4618051487 0.3487895432 0.0998610484
0.5015534968 0.3514419018 0.0921373472
0.5404319744 0.3517055242 0.0843292738
0.5798129513 0.3517941062 0.0762392674
0.6174617053 0.3495208052 0.0692759441
0.6490148016 0.3459716547 0.0632847237
0.6777031413 0.3382029501 0.0570652940
0.7025129415 0.3338987083 0.0513006875
0.7265840550 0.3270089088 0.0441465015
0.7502059570 0.3214768922 0.0364625986
0.7704541298 0.3159682522 0.0295126904
0.7892318802 0.3097457865 0.0255208739
0.8032477046 0.3026861560 0.0246747752
0.8155949828 0.3002171029 0.0246703475
0.8267215092 0.2985310772 0.0267228156
0.8364423508 0.2956432027 0.0307057591
0.8445143423 0.2957883289 0.0343432087
0.8525784707 0.2930757844 0.0373309884
0.8606452201 0.2925019271 0.0398771663
0.0872865072 0.2967057998 0.1848365594
0.0882950176 0.2953502090 0.1774461040
0.0885182600 0.2933785212 0.1692262997
0.0864032026 0.2925069606 0.1577968157
0.0863399120 0.2962855178 0.1513529206
0.0956884137 0.3056332176 0.1507815713
0.1155286033 0.3161162548 0.1531288572
0.1414390777 0.3242767353 0.1527962327
0.1746537790 0.3355944158 0.1524832740
0.2129665427 0.3466000281 0.1503360473
0.2579105607 0.3573488657 0.1453026924
0.3074395115 0.3645908523 0.1367622710
0.3582543281 0.3726488510 0.1275507452
0.4070085219 0.3792088352 0.1177292583
0.4524891118 0.3832140785 0.1082975594
0.4936474184 0.3854693163 0.1000636279
0.5327066304 0.3885494491 0.0916281846
0.5724762361 0.3896524894 0.0824070112
0.6102296639 0.3888369629 0.0743613070
0.6448534032 0.3850512901 0.0676089235
0.6743055877 0.3814008246 0.0606308397
0.7001271654 0.3773764857 0.0545370425
0.7262232187 0.3722560643 0.0465822473
0.7504766777 0.3630428562 0.0381522733
0.7724987411 0.3572537697 0.0307155586
0.7917510204 0.3513695902 0.0251082327
0.8071763830 0.3441086547 0.0230833835
0.8189762154 0.3385607347 0.0235071275
0.8293008911 0.3371037149 0.0267075982
0.8380017779 0.3320318538 0.0317286888
0.8460847292 0.3303147978 0.0363166659
0.8535516780 0.3304097626 0.0401440442
0.8610447703 0.3304823903 0.0431590720
0.0882042660 0.3144827263 0.1965908196
0.0898290388 0.3144629144 0.1895175082
0.0908971080 0.3141832476 0.1821455686
0.0897809517 0.3147367462 0.1725157980
0.0874229343 0.3183188677 0.1628628892
0.0926593379 0.3265718631 0.1614735605
0.1087876958 0.3387401267 0.1647154872
0.1341379954 0.3495312099 0.1663981995
0.1663353057 0.3603198185 0.1657562503
0.2045190717 0.3740605290 0.1639250513
0.2481379066 0.3870639543 0.1595825492
0.2983149749 0.3968654707 0.1513163963
0.3499094054 0.4010191604 0.1396863281
0.3978744436 0.4080492164 0.1293002476
0.4447787326 0.4139079762 0.1184865275
0.4885091696 0.4200968281 0.1091751462
0.5287898229 0.4250641403 0.1006675825
0.5683548406 0.4288547324 0.0920484229
0.6050911786 0.4294074484 0.0839979348
0.6389291607 0.4269601869 0.0766393355
0.6699704340 0.4216813958 0.0682492640
0.6988251700 0.4190585281 0.0609821105
0.7280180414 0.4161279503 0.0523239461
0.7535916672 0.4113068080 0.0444561390
0.7760878108 0.4012068273 0.0362545447
0.7954383880 0.3950022540 0.0304523590
0.8120469843 0.3861858433 0.0268384011
0.8239333546 0.3798054670 0.0265191128
0.8334396453 0.3784519769 0.0297915575
0.8423380112 0.3722989618 0.0343298393
0.8505549777 0.3699674316 0.0395477926
0.8578222427 0.3697725013 0.0448862166
0.8644506164 0.3695297881 0.0494476519
0.0892446766 0.3324980779 0.2075271258
0.0903770040 0.3330586759 0.2030812765
0.0922907525 0.3344491577 0.1973081468
0.0925207723 0.3361988440 0.1896562026
0.0914628117 0.3400479936 0.1809722253
0.0916389448 0.3479414701 0.1753838317
0.1026573675 0.3615105569 0.1774022286
0.1269351685 0.3757551320 0.1811240241
0.1584992805 0.3876683422 0.1814004087
0.1974459838 0.3991184847 0.1777100082
0.2421905246 0.4134267908 0.1729621969
0.2919469708 0.4254545429 0.1649647724
0.3432956188 0.4334050574 0.1533132162
0.3920702610 0.4411584588 0.1419055697
0.4336720634 0.4472502091 0.1314857751
0.4774580063 0.4529204898 0.1216310914
0.5208438871 0.4589175004 0.1119080484
0.5629945956 0.4648685884 0.1029763532
0.6031191999 0.4661714817 0.0934391283
0.6372588309 0.4660858303 0.0860597744
0.6667588806 0.4653548740 0.0797085693
0.6971321670 0.4645580484 0.0715236383
0.7274234011 0.4598242754 0.0621124329
0.7539083179 0.4562285286 0.0552461192
0.7769744917 0.4512516326 0.0481917672
0.7964581504 0.4419747467 0.0412087146
0.8128673518 0.4370993221 0.0383241301
0.8271356233 0.4295558428 0.0369627322
0.8373701032 0.4237851654 0.0403462703
0.8459728374 0.4215498446 0.0445051518
0.8545590897 0.4144778266 0.0482080403
0.8627871816 0.4113979156 0.0523126681
0.8704292142 0.4100989451 0.0563505492
0.0893657406 0.3485664747 0.2183886942
0.0906848285 0.3484929222 0.2138975035
0.0929126663 0.3523377450 0.2101097131
0.0940869927 0.3552220601 0.2038007010
0.0950102982 0.3605839285 0.1967678809
0.0944694748 0.3682208954 0.1893747267
0.0997579603 0.3816269045 0.1892045710
0.1190223900 0.3992294143 0.1930969707
0.1496997081 0.4141790003 0.1954054363
0.1890668194 0.4272471355 0.1934748121
0.2360685189 0.4410214867 0.1884601399
0.2843960215 0.4537213299 0.1805538205
0.3362365289 0.4636255216 0.1685155046
0.3850462976 0.4729293560 0.1556936975
0.4313115923 0.4785185095 0.1437890928
0.4711162029 0.4839410256 0.1345143144
0.5140921058 0.4894866883 0.1245014548
0.5563664684 0.4949300186 0.1146927020
0.6006957119 0.4998750053 0.1050772196
0.6374535509 0.5004521173 0.0955460599
0.6661940656 0.5020445479 0.0896041012
0.6955934137 0.5025480740 0.0816495436
0.7260526866 0.4994607486 0.0723339472
0.7529080247 0.4953818357 0.0657690602
0.7767908604 0.4930550151 0.0603271689
0.7974919172 0.4857396822 0.0550586208
0.8140563734 0.4813864777 0.0523187563
0.8269749251 0.4769156705 0.0536249050
0.8372043505 0.4688258538 0.0558308592
0.8467169203 0.4626715058 0.0592612243
0.8544995013 0.4597883577 0.0632840925
0.8632059591 0.4541248560 0.0658689025
0.8716765072 0.4519863619 0.0690253018
0.0895932366 0.3630480079 0.2285409059
0.0910782975 0.3643907155 0.2247813856
0.0934631193 0.3686178990 0.2213725842
0.0953506715 0.3736717894 0.2166510188
0.0973712771 0.3801232111 0.2107264900
0.0978478308 0.3890818767 0.2042189200
0.1001908710 0.4025863358 0.2015778480
0.1110444146 0.4200911866 0.2040464745
0.1380166043 0.4377658972 0.2070584472
0.1786318153 0.4517638564 0.2071758166
0.2254040850 0.4668752112 0.2039499504
0.2763939038 0.4812733409 0.1964724632
0.3267257976 0.4915158764 0.1853368113
0.3787526283 0.5011437716 0.1716108766
0.4239517643 0.5085934940 0.1595728691
0.4687558914 0.5139883887 0.1478546748
0.5101564241 0.5194152362 0.1382143915
0.5510536717 0.5237020569 0.1276615500
0.5959217080 0.5281649303 0.1164996569
0.6360978787 0.5341110217 0.1069441003
0.6676565117 0.5360636111 0.0998605246
0.6967615635 0.5369448648 0.0924304639
0.7270079684 0.5357427562 0.0835519634
0.7540390857 0.5328283611 0.0763813910
0.7779151242 0.5316129820 0.0713424393
0.7984451305 0.5255430608 0.0654171381
0.8163468566 0.5223330876 0.0623332006
0.8289934729 0.5186802488 0.0644478797
0.8395226600 0.5109087415 0.0682110091
0.8485211735 0.5023753365 0.0718165284
0.8560939126 0.4967098591 0.0754072010
0.8637325720 0.4920161833 0.0786720753
0.8719255634 0.4893888830 0.0823692960
0.0904099042 0.3765287223 0.2370265742
0.0920700185 0.3802038380 0.2351353159
0.0942157016 0.3851603378 0.2326158865
0.0964554929 0.3911560792 0.2291103474
0.0987557110 0.3987987260 0.2246238022
0.1004554969 0.4091068153 0.2191047569
0.1018124275 0.4213612815 0.2150607529
0.1076639083 0.4394021432 0.2150570358
0.1257035681 0.4568078264 0.2165404173
0.1641623324 0.4726310091 0.2180696710
0.2115520054 0.4884307022 0.2169881601
0.2615520815 0.5033726947 0.2121490386
0.3179367433 0.5159538895 0.2013700934
0.3724021795 0.5262951946 0.1876177049
0.4181861534 0.5343915032 0.1761262164
0.4616854076 0.5420613974 0.1653538787
0.5055470186 0.5490487771 0.1542167069
0.5483792989 0.5529385940 0.1424496146
0.5928292900 0.5582787440 0.1303413552
0.6305200465 0.5647459184 0.1201557021
0.6645631689 0.5711249648 0.1123466441
0.6946355613 0.5713186165 0.1057329220
0.7249178570 0.5708645345 0.0979634450
0.7525591553 0.5701277142 0.0907013955
0.7772200236 0.5707117741 0.0855187072
0.7982872032 0.5660333056 0.0793407465
0.8166201218 0.5635317614 0.0758869623
0.8318130184 0.5599683341 0.0761114999
0.8428972331 0.5518208766 0.0776081608
0.8516036279 0.5432068557 0.0816579077
0.8584495260 0.5369304140 0.0863655158
0.8648510935 0.5305421479 0.0905016819
0.8721922079 0.5223153991 0.0931733971
0.0913656083 0.3883147822 0.2478100482
0.0927925655 0.3930499283 0.2461998673
0.0946121560 0.3983165359 0.2439125314
0.0969591625 0.4050433609 0.2410667034
0.0992739541 0.4142578732 0.2379131015
0.1018387899 0.4255793064 0.2330251449
0.1045384978 0.4378318988 0.2285234152
0.1084820115 0.4530278664 0.2257554773
0.1213380940 0.4712489586 0.2257619969
0.1464402170 0.4893277397 0.2268979380
0.1936185451 0.5075810302 0.2283798630
0.2450453349 0.5230656031 0.2251027981
0.2992796201 0.5361877287 0.2172625627
0.3570399830 0.5486652534 0.2053447159
0.4097125291 0.5594693033 0.1932306626
0.4558209378 0.5685784578 0.1815955515
0.4982317368 0.5761722249 0.1694413847
0.5426502897 0.5815178896 0.1559104510
0.5870897206 0.5892360709 0.1452345462
0.6245288207 0.5956060873 0.1349776860
0.6610115821 0.5997612674 0.1242254689
0.6927597948 0.6047999568 0.1181133210
0.7239929690 0.6059817769 0.1106407477
0.7517010507 0.6071433856 0.1043983591
0.7763014423 0.6093667319 0.1000224669
0.7979286023 0.6064227161 0.0947355884
0.8166955525 0.6022700689 0.0911968025
0.8325916087 0.5985614770 0.0900388270
0.8440539642 0.5923631830 0.0900520710
0.8538149325 0.5832734596 0.0918416649
0.8622830130 0.5768043760 0.0961645816
0.8685430627 0.5695540646 0.1003984063
0.8743135692 0.5599926435 0.1035967396
0.0924619481 0.4009180474 0.2580738298
0.0936748699 0.4060572669 0.2566772209
0.0951357023 0.4127324716 0.2553503493
0.0971829868 0.4203969686 0.2534021103
0.1009169299 0.4304882148 0.2504336538
0.1041721114 0.4408618031 0.2462925422
0.1073596344 0.4526929963 0.2410442863
0.1104674961 0.4640201558 0.2372339087
0.1201505284 0.4819424525 0.2355666424
0.1388823754 0.5019656511 0.2347436786
0.1733275094 0.5210362696 0.2380070284
0.2228322327 0.5394235122 0.2378038874
0.2760144883 0.5552810331 0.2328062079
0.3379151726 0.5702689601 0.2228245379
0.3940638338 0.5831652976 0.2112197772
0.4454561085 0.5938698732 0.1982114954
0.4896417780 0.6025174424 0.1851806924
